ncols        20
nrows        20
xllcorner    0
yllcorner    -3.59929275513
cellsize     0.179964631796
NODATA_value -9999
-9999.0 -9999 -9999 -9999 -9999 -9999 -9999 -9999 -9999 -9999 -9999 -9999 -9999 -9999 -9999 -9999 -9999 -9999 -9999 -9999
-9999 -9999 -9999 -9999 0.12326 0.122578 0.123147 0.124286 0.125298 0.126353 0.127267 0.13099325 0.13177 0.13197 0.13197 0.13207075 0.1322 -9999 -9999 -9999
-9999 -9999 -9999 -9999 0.121403 0.121976 0.122907 0.124006 0.125457 0.127173 0.128537 0.131381 0.132285 0.132403 0.131758 0.13207 0.132255 0.133227 -9999 -9999
-9999 -9999 -9999 0.12270975 0.121164 0.120441 0.122423 0.123995 0.125584 0.127355 0.130332 0.132622 0.133881 0.133568 0.132564 0.132495 0.133375 0.13521 -9999 -9999
-9999 -9999 -9999 0.12583 0.122442 0.121275 0.122287 0.123847 0.125289 0.127644 0.13106 0.135149 0.135892 0.134668 0.133533 0.133576 0.135249 0.129298 -9999 -9999
-9999 -9999 0.1300005 0.127504 0.126011 0.124574 0.121915 0.123314 0.124925 0.12764 0.13121 0.134722 0.137082 0.135489 0.134229 0.13518 0.13282 0.11683 0.12676 -9999
-9999 -9999 0.134995 0.131673 0.130849 0.128642 0.125917 0.121946 0.124088 0.126769 0.130079 0.132065 0.134358 0.136332 0.135683 0.135102 0.126631 0.128319 0.125859 -9999
-9999 -9999 0.13871 0.137478 0.134911 0.134031 0.129951 0.125224 0.122703 0.125448 0.127192 0.129151 0.131442 0.133742 0.135003 0.134024 0.129154 0.126551 0.125468 -9999
-9999 0.13821 0.139998 0.14246 0.140208 0.137832 0.13598 0.130507 0.124159 0.12251 0.124282 0.126317 0.129315 0.133917 0.136567 0.135471 0.128643 0.125703 0.123004 -9999
-9999 0.138511 0.139415 0.14273 0.141442 0.13952 0.139867 0.136981 0.128941 0.12147 0.121447 0.124128 0.131784 0.136664 0.138987 0.133219 0.126467 0.125321 0.122513 -9999
-9999 0.138808 0.138803 0.141764 0.142494 0.139886 0.139791 0.140493 0.133028 0.125651 0.11826 0.127852 0.134825 0.140297 0.141005 0.131073 0.124783 0.123757 0.121054 -9999
-9999 0.139005 0.138503 0.140865 0.142844 0.140334 0.13967 0.140893 0.13567 0.129361 0.124467 0.130121 0.139249 0.144669 0.139119 0.12939 0.12386 0.122599 0.117865 -9999
-9999 0.13916 0.138627 0.14002 0.142488 0.140853 0.139706 0.140623 0.140442 0.134106 0.129817 0.133112 0.144144 0.149597 0.139215 0.129095 0.123038 0.119585 0.113391 -9999
-9999 0.139362 0.138816 0.139177 0.142069 0.14146 0.140003 0.139591 0.139968 0.138507 0.13445 0.136166 0.148093 0.152837 0.141639 0.132 0.125067 0.114579 0.11032 -9999
-9999 0.13934 0.138901 0.138788 0.14171 0.141397 0.141005 0.139642 0.138725 0.138805 0.138526 0.139194 0.148657 0.156345 0.14583 0.134958 0.126599 0.110482 -9999 -9999
-9999 0.13919 0.13899 0.138702 0.13962 0.141147 0.140745 0.138607 0.13763 0.138145 0.1399 0.140808 0.147992 0.15212 0.151371 0.138953 0.126935 0.111284 -9999 -9999
-9999 0.13904 0.139054 0.138759 0.138726 0.13991 0.139666 0.137013 0.136546 0.137572 0.139104 0.140789 0.145813 0.148437 0.14896 0.143206 0.130009 0.11264 0.114215 0.11509
-9999 -9999 0.138848 0.138862 0.138576 0.139054 0.138566 0.136008 0.135451 0.136494 0.138013 0.1396 0.14213 0.144957 0.145303 0.143279 0.140077 0.129313 0.12482 0.12513
-9999 -9999 0.1387115 0.138646 0.138405 0.138196 0.13717 0.134821 0.134158 0.13472 0.136027 0.137195 0.13913 0.140283 0.141016 0.140626 0.139103 0.135864 0.13554 0.13577
-9999 -9999 -9999 0.13849 0.137566 0.136624 0.135674 0.133614 0.132182 0.13208 0.133515 0.13473 0.136335 0.13709 0.13805 0.137881 0.138001 0.136357 0.13525 0.13551
