ncols        20
nrows        20
xllcorner    0
yllcorner    -3.59929275513
cellsize     0.179964631796
NODATA_value -9999
-9999.0 -9999 -9999 -9999 -9999 -9999 -9999 -9999 -9999 -9999 -9999 -9999 -9999 -9999 -9999 -9999 -9999 -9999 -9999 -9999
-9999 -9999 -9999 -9999 0.12886 0.12848 0.128974 0.130051 0.131355 0.132607 0.133826 0.139677 0.14087 0.14101 0.14101 0.1418015 0.14217 -9999 -9999 -9999
-9999 -9999 -9999 -9999 0.127485 0.12816 0.128947 0.129999 0.131582 0.133744 0.135834 0.140289 0.141715 0.14179 0.141031 0.1417 0.142305 0.145597 -9999 -9999
-9999 -9999 -9999 0.12927675 0.127537 0.127078 0.128766 0.130035 0.13178 0.134365 0.138772 0.142431 0.144431 0.143754 0.142158 0.142125 0.144954 0.14635 -9999 -9999
-9999 -9999 -9999 0.132879 0.129206 0.127306 0.128379 0.129849 0.131784 0.135095 0.140201 0.146798 0.147751 0.145162 0.143226 0.14403 0.146073 0.13822 -9999 -9999
-9999 -9999 0.13474075 0.134227 0.131694 0.12944 0.128023 0.129594 0.131231 0.134916 0.14043 0.14627 0.149418 0.146212 0.144016 0.145655 0.141619 0.12164 0.12909 -9999
-9999 -9999 0.137034 0.134823 0.134251 0.132124 0.13024 0.128044 0.129844 0.133229 0.138917 0.141965 0.144913 0.147183 0.145947 0.144038 0.131017 0.131045 0.128084 -9999
-9999 -9999 0.140094 0.138775 0.136578 0.135192 0.132463 0.129588 0.128416 0.131792 0.134171 0.13724 0.140529 0.142799 0.14432 0.138751 0.132298 0.128856 0.127287 -9999
-9999 0.14024 0.141016 0.143425 0.140921 0.137888 0.136228 0.132686 0.128187 0.127491 0.12955 0.132551 0.136269 0.141228 0.142078 0.138699 0.131327 0.127872 0.124599 -9999
-9999 0.140159 0.140453 0.143494 0.141902 0.138894 0.138724 0.136815 0.13033 0.124497 0.125431 0.128762 0.137026 0.14209 0.142794 0.135976 0.129033 0.127071 0.124113 -9999
-9999 0.140144 0.140052 0.142418 0.143027 0.139495 0.138505 0.139302 0.13293 0.126591 0.12123 0.131537 0.139346 0.144117 0.143666 0.133629 0.1273 0.125425 0.122733 -9999
-9999 0.140135 0.139867 0.141482 0.143394 0.140138 0.138383 0.139529 0.135123 0.129599 0.125694 0.132905 0.1423 0.147306 0.14116 0.131911 0.126129 0.124324 0.119557 -9999
-9999 0.140023 0.139879 0.140695 0.142978 0.140812 0.13842 0.1392 0.139087 0.133192 0.129733 0.134604 0.145851 0.151322 0.141002 0.13142 0.125022 0.121441 0.115056 -9999
-9999 0.139913 0.139866 0.139951 0.142477 0.141574 0.138914 0.138316 0.138584 0.136813 0.133392 0.136576 0.148641 0.153783 0.143188 0.13389 0.126878 0.116634 0.11216 -9999
-9999 0.139804 0.139735 0.139647 0.142067 0.141615 0.140565 0.13836 0.137588 0.137077 0.136792 0.138533 0.148497 0.156582 0.147273 0.13655 0.128207 0.112728 -9999 -9999
-9999 0.139697 0.13959 0.139641 0.140142 0.14135 0.14081 0.137453 0.136773 0.136686 0.13807 0.139381 0.147387 0.152103 0.152528 0.140325 0.128359 0.113386 -9999 -9999
-9999 0.13959 0.139477 0.13942 0.139555 0.140255 0.139209 0.136219 0.136075 0.136638 0.13787 0.139054 0.144906 0.148089 0.149564 0.144158 0.131326 0.11467 0.115365 0.11618
-9999 -9999 0.139391 0.139269 0.13922 0.139366 0.137685 0.135734 0.135595 0.136432 0.13765 0.138658 0.140587 0.144001 0.145092 0.143363 0.140583 0.13051 0.12566 0.12623
-9999 -9999 0.13925625 0.139195 0.138903 0.138531 0.13661 0.135172 0.135129 0.135927 0.137066 0.13757 0.138614 0.139367 0.139696 0.139811 0.138795 0.136241 0.136432 0.13725
-9999 -9999 -9999 0.13917 0.138268 0.137413 0.135825 0.134404 0.134218 0.134775 0.13584 0.136407 0.137077 0.137195 0.137708 0.137152 0.136966 0.136206 0.135831 0.13645
