ncols        20
nrows        20
xllcorner    0
yllcorner    -3.59929275513
cellsize     0.179964631796
NODATA_value -9999
-9999.0 -9999 -9999 -9999 -9999 -9999 -9999 -9999 -9999 -9999 -9999 -9999 -9999 -9999 -9999 -9999 -9999 -9999 -9999 -9999
-9999 -9999 -9999 -9999 0.12308 0.122302 0.122614 0.123439 0.124383 0.125279 0.126011 0.1298395 0.13066 0.13147 0.13147 0.1315895 0.13173 -9999 -9999 -9999
-9999 -9999 -9999 -9999 0.121623 0.121701 0.122329 0.123168 0.124379 0.125904 0.127152 0.130207 0.131339 0.131841 0.131313 0.131507 0.131808 0.133296 -9999 -9999
-9999 -9999 -9999 0.12385325 0.121795 0.120245 0.121975 0.123066 0.124299 0.125973 0.128995 0.131624 0.133187 0.13294 0.131899 0.131641 0.133088 0.134537 -9999 -9999
-9999 -9999 -9999 0.128164 0.123831 0.121192 0.121722 0.122765 0.123963 0.126241 0.129908 0.134684 0.135587 0.134091 0.132748 0.132737 0.134591 0.127596 -9999 -9999
-9999 -9999 0.1306225 0.129571 0.127096 0.124447 0.121751 0.12235 0.123533 0.126219 0.130086 0.134316 0.137056 0.135003 0.133304 0.134173 0.130974 0.114106 0.12348 -9999
-9999 -9999 0.133613 0.131142 0.129844 0.127627 0.125086 0.12118 0.122617 0.125247 0.128976 0.131162 0.133692 0.135558 0.134389 0.133307 0.123735 0.125012 0.122754 -9999
-9999 -9999 0.136767 0.135189 0.132567 0.131159 0.127997 0.123834 0.121206 0.124029 0.125838 0.127854 0.130198 0.132101 0.133658 0.131283 0.125704 0.123311 0.12244 -9999
-9999 0.13784 0.138692 0.140269 0.137209 0.13447 0.132847 0.128201 0.122507 0.120825 0.122579 0.124635 0.127379 0.132012 0.134145 0.131659 0.125202 0.122628 0.120175 -9999
-9999 0.138255 0.138406 0.141082 0.138879 0.136241 0.136161 0.133572 0.126576 0.119317 0.119374 0.122096 0.129571 0.13428 0.135788 0.129434 0.123116 0.12231 0.119683 -9999
-9999 0.138674 0.13806 0.140431 0.140312 0.136859 0.13613 0.13667 0.129739 0.122966 0.11598 0.125465 0.132231 0.137334 0.137124 0.127474 0.121546 0.120854 0.11811 -9999
-9999 0.138836 0.137999 0.139757 0.141013 0.13757 0.136237 0.137127 0.132249 0.126268 0.121792 0.127412 0.136361 0.141075 0.135257 0.125863 0.120911 0.119667 0.114807 -9999
-9999 0.138645 0.138293 0.139064 0.140998 0.138411 0.136592 0.137017 0.136696 0.130431 0.126857 0.130214 0.140795 0.145686 0.135444 0.125717 0.120086 0.116497 0.110329 -9999
-9999 0.138441 0.138635 0.138403 0.140938 0.139387 0.137256 0.136476 0.136595 0.134884 0.13116 0.132984 0.144527 0.148933 0.137944 0.12861 0.121831 0.111303 0.10738 -9999
-9999 0.138211 0.138638 0.13819 0.140733 0.139869 0.138818 0.137041 0.135867 0.135281 0.134775 0.135512 0.145108 0.152546 0.142139 0.131364 0.123069 0.106998 -9999 -9999
-9999 0.138011 0.138505 0.138383 0.138888 0.140123 0.139247 0.136453 0.13513 0.134744 0.13609 0.137048 0.14426 0.148361 0.147408 0.135116 0.123323 0.107906 -9999 -9999
-9999 0.13786 0.138091 0.138396 0.138392 0.13917 0.138327 0.13548 0.134605 0.13457 0.13559 0.137256 0.142107 0.144575 0.144937 0.139208 0.12661 0.10959 0.11198 0.11423
-9999 -9999 0.13768 0.137946 0.138265 0.138454 0.137299 0.135067 0.134105 0.134272 0.135177 0.136617 0.138448 0.140943 0.141265 0.139191 0.136465 0.126816 0.123245 0.12498
-9999 -9999 0.137633 0.137476 0.137661 0.137868 0.136089 0.134433 0.133531 0.133665 0.134426 0.135244 0.136401 0.136887 0.137172 0.136773 0.13544 0.133687 0.134389 0.13601
-9999 -9999 -9999 0.13743 0.136477 0.136317 0.13514 0.133645 0.132653 0.132574 0.133433 0.13394 0.134814 0.135103 0.135347 0.134659 0.134149 0.133678 0.134131 0.13558
