ncols        20
nrows        20
xllcorner    0
yllcorner    -3.59929275513
cellsize     0.179964631796
NODATA_value -9999
-9999.0 -9999 -9999 -9999 -9999 -9999 -9999 -9999 -9999 -9999 -9999 -9999 -9999 -9999 -9999 -9999 -9999 -9999 -9999 -9999
-9999 -9999 -9999 -9999 0.12378 0.123082 0.123292 0.124015 0.125085 0.126182 0.127187 0.13203975 0.13305 0.13333 0.13333 0.1338815 0.13426 -9999 -9999 -9999
-9999 -9999 -9999 -9999 0.122712 0.122547 0.122999 0.123723 0.125171 0.127095 0.128853 0.132519 0.133737 0.133903 0.133166 0.133719 0.134381 0.137099 -9999 -9999
-9999 -9999 -9999 0.12466625 0.122969 0.121682 0.12247 0.123688 0.125277 0.127521 0.131101 0.134084 0.135823 0.135379 0.134032 0.134012 0.136549 0.138095 -9999 -9999
-9999 -9999 -9999 0.128312 0.124672 0.122123 0.122337 0.123477 0.12514 0.127867 0.13207 0.137393 0.138504 0.136698 0.135092 0.135626 0.137613 0.130836 -9999 -9999
-9999 -9999 0.1309265 0.129717 0.127375 0.124732 0.122398 0.123211 0.124562 0.127744 0.132304 0.137177 0.140091 0.137656 0.135586 0.136705 0.133778 0.116564 0.12512 -9999
-9999 -9999 0.134238 0.131439 0.130204 0.127769 0.125485 0.122058 0.123484 0.126582 0.131196 0.133631 0.13633 0.138432 0.137311 0.13592 0.125885 0.126847 0.124385 -9999
-9999 -9999 0.137821 0.136091 0.133035 0.131569 0.128102 0.124075 0.121828 0.125236 0.127394 0.129728 0.132415 0.134793 0.136462 0.133495 0.127813 0.124949 0.1241 -9999
-9999 0.13883 0.139352 0.14174 0.138483 0.134922 0.13307 0.128281 0.122555 0.12132 0.123495 0.125921 0.129103 0.134152 0.135884 0.134234 0.127029 0.124261 0.121959 -9999
-9999 0.139541 0.139046 0.142196 0.140089 0.136797 0.136609 0.133847 0.126453 0.119289 0.119772 0.122819 0.130781 0.135832 0.137404 0.131546 0.124897 0.123993 0.121633 -9999
-9999 0.140322 0.138778 0.141201 0.141591 0.137515 0.136608 0.137095 0.129856 0.123163 0.11609 0.126057 0.13345 0.138631 0.138757 0.129206 0.123553 0.122743 0.120406 -9999
-9999 0.140884 0.138874 0.140327 0.142169 0.138342 0.136667 0.137599 0.13238 0.126426 0.121977 0.127936 0.137412 0.142422 0.136811 0.127815 0.122873 0.121897 0.117323 -9999
-9999 0.141232 0.139422 0.139616 0.141879 0.139299 0.136933 0.137493 0.136972 0.130578 0.126808 0.130614 0.141987 0.14713 0.137014 0.127793 0.122317 0.119045 0.1131 -9999
-9999 0.141609 0.140036 0.138968 0.141534 0.140407 0.137606 0.136844 0.136871 0.134757 0.13077 0.133299 0.145667 0.150424 0.139568 0.13066 0.124373 0.114192 0.11037 -9999
-9999 0.141951 0.140415 0.138926 0.141237 0.140537 0.139524 0.13727 0.136095 0.135353 0.134498 0.13549 0.145847 0.153895 0.143879 0.133615 0.125855 0.110218 -9999 -9999
-9999 0.142288 0.140714 0.139446 0.139405 0.140529 0.139747 0.136678 0.13552 0.135166 0.136 0.136892 0.144676 0.149377 0.149523 0.13764 0.126307 0.111125 -9999 -9999
-9999 0.14265 0.141397 0.140319 0.139399 0.139663 0.138373 0.135629 0.135214 0.135112 0.13584 0.137103 0.14232 0.145492 0.146924 0.142142 0.129596 0.11265 0.115045 0.11769
-9999 -9999 0.142289 0.141121 0.140099 0.139283 0.137146 0.13529 0.134812 0.135001 0.135941 0.136818 0.13859 0.141901 0.142919 0.141738 0.139553 0.129601 0.12609 0.12808
-9999 -9999 0.14194275 0.141941 0.140585 0.139017 0.136601 0.135044 0.134324 0.134655 0.1356 0.136254 0.137515 0.138173 0.138582 0.138766 0.138048 0.136503 0.137612 0.13961
-9999 -9999 -9999 0.14242 0.140388 0.13872 0.136598 0.135289 0.134428 0.134174 0.134778 0.13588 0.137103 0.137188 0.137631 0.136998 0.136522 0.136318 0.136694 0.13846
