ncols        20
nrows        20
xllcorner    0
yllcorner    -3.59929275513
cellsize     0.179964631796
NODATA_value -9999
-9999.0 -9999 -9999 -9999 -9999 -9999 -9999 -9999 -9999 -9999 -9999 -9999 -9999 -9999 -9999 -9999 -9999 -9999 -9999 -9999
-9999 -9999 -9999 -9999 0.11039 0.109478 0.110311 0.112063 0.113473 0.114492 0.115186 0.11757125 0.11804 0.1183 0.1183 0.11699975 0.11659 -9999 -9999 -9999
-9999 -9999 -9999 -9999 0.107403 0.108637 0.110094 0.112101 0.113602 0.115082 0.116008 0.117824 0.118413 0.118572 0.117739 0.117161 0.116509 0.114757 -9999 -9999
-9999 -9999 -9999 0.1084685 0.106963 0.106143 0.110119 0.112095 0.113743 0.115239 0.117243 0.118614 0.119443 0.119102 0.118093 0.117393 0.115925 0.118155 -9999 -9999
-9999 -9999 -9999 0.111284 0.108224 0.107372 0.109959 0.112059 0.113543 0.115433 0.117623 0.119927 0.120404 0.119966 0.119035 0.11793 0.119129 0.115499 -9999 -9999
-9999 -9999 0.11635675 0.113175 0.112537 0.111633 0.109362 0.11141 0.113284 0.115404 0.117695 0.119487 0.12101 0.120375 0.119798 0.119821 0.118588 0.106307 0.11927 -9999
-9999 -9999 0.122226 0.118742 0.117697 0.115861 0.113596 0.110046 0.11264 0.114729 0.116476 0.117969 0.119428 0.120645 0.120337 0.120602 0.116054 0.119881 0.118771 -9999
-9999 -9999 0.125847 0.124207 0.121538 0.120542 0.117568 0.113969 0.111213 0.113143 0.114536 0.116075 0.117617 0.119207 0.120682 0.122941 0.119821 0.119154 0.11876 -9999
-9999 0.12634 0.127269 0.128468 0.126267 0.12444 0.123009 0.119272 0.113401 0.111001 0.112446 0.113991 0.116272 0.12123 0.125176 0.124852 0.120438 0.118706 0.116767 -9999
-9999 0.126315 0.127042 0.128932 0.127791 0.125879 0.126123 0.124334 0.118357 0.110706 0.1102 0.112507 0.120088 0.125235 0.128471 0.124104 0.118959 0.118697 0.11635 -9999
-9999 0.126256 0.126744 0.128421 0.128746 0.126268 0.12607 0.126853 0.121715 0.115203 0.10755 0.116821 0.123066 0.129771 0.131124 0.123167 0.11757 0.117498 0.114911 -9999
-9999 0.12628 0.126558 0.12793 0.129099 0.126839 0.12594 0.127098 0.123773 0.118572 0.114019 0.119344 0.128583 0.134699 0.13059 0.12197 0.117267 0.116382 0.11172 -9999
-9999 0.126497 0.126498 0.12747 0.128911 0.127562 0.125925 0.126917 0.127176 0.122707 0.119522 0.122758 0.133983 0.1402 0.131619 0.122128 0.116686 0.113378 0.107041 -9999
-9999 0.126715 0.126439 0.127034 0.128714 0.128398 0.126245 0.126076 0.126857 0.12642 0.12409 0.12606 0.138337 0.143833 0.13429 0.12543 0.118551 0.108217 0.1039 -9999
-9999 0.126901 0.126569 0.126806 0.1285 0.12833 0.127712 0.126037 0.126203 0.126601 0.127117 0.12899 0.13924 0.147463 0.138254 0.127928 0.119768 0.103789 -9999 -9999
-9999 0.127102 0.126787 0.126664 0.127271 0.128113 0.127967 0.125678 0.125411 0.126121 0.128253 0.130341 0.138498 0.143609 0.142922 0.131269 0.119901 0.104474 -9999 -9999
-9999 0.12734 0.127035 0.126843 0.126732 0.127409 0.126883 0.124786 0.124752 0.126095 0.1281 0.130357 0.136303 0.139933 0.140409 0.134473 0.122901 0.10601 0.10808 0.10982
-9999 -9999 0.127359 0.12712 0.126954 0.126802 0.125798 0.12449 0.124544 0.126164 0.128067 0.130081 0.132336 0.13603 0.136766 0.134573 0.131915 0.122689 0.11883 0.11997
-9999 -9999 0.12738675 0.127358 0.127154 0.126616 0.12513 0.124326 0.124666 0.12606 0.127539 0.129033 0.130646 0.131633 0.131907 0.132015 0.131113 0.129155 0.129496 0.13033
-9999 -9999 -9999 0.12771 0.127121 0.126449 0.124927 0.124161 0.124381 0.125706 0.126943 0.127822 0.129148 0.129932 0.13031 0.129971 0.130024 0.129441 0.129618 0.13036
