ncols        20
nrows        20
xllcorner    0
yllcorner    -3.59929275513
cellsize     0.179964631796
NODATA_value -9999
-9999.0 -9999 -9999 -9999 -9999 -9999 -9999 -9999 -9999 -9999 -9999 -9999 -9999 -9999 -9999 -9999 -9999 -9999 -9999 -9999
-9999 -9999 -9999 -9999 0.10933 0.108503 0.109206 0.110795 0.112296 0.113399 0.114172 0.11701375 0.11759 0.11808 0.11808 0.1168845 0.11652 -9999 -9999 -9999
-9999 -9999 -9999 -9999 0.107021 0.107752 0.10898 0.1108 0.112405 0.114053 0.115168 0.117286 0.118011 0.118314 0.117533 0.116996 0.116489 0.115672 -9999 -9999
-9999 -9999 -9999 0.108089 0.106763 0.105701 0.108709 0.110716 0.11248 0.114173 0.11646 0.118099 0.119101 0.118843 0.117843 0.117193 0.116465 0.118646 -9999 -9999
-9999 -9999 -9999 0.11072 0.107852 0.1066 0.108584 0.110587 0.112199 0.114462 0.116894 0.119674 0.120345 0.119715 0.118708 0.117851 0.119312 0.114931 -9999 -9999
-9999 -9999 0.11585675 0.112579 0.111687 0.110556 0.107988 0.109921 0.111976 0.114321 0.116864 0.119287 0.121087 0.120168 0.119357 0.119681 0.117854 0.104496 0.11663 -9999
-9999 -9999 0.122034 0.118094 0.116974 0.114829 0.112124 0.108385 0.111202 0.11358 0.115774 0.117346 0.119052 0.120438 0.119968 0.11981 0.11412 0.117403 0.115965 -9999
-9999 -9999 0.126358 0.124261 0.12116 0.119961 0.116458 0.112155 0.10972 0.112119 0.11362 0.115154 0.11682 0.118455 0.120005 0.120935 0.117339 0.116476 0.11596 -9999
-9999 0.12708 0.128028 0.1294 0.126553 0.123937 0.122088 0.117537 0.11156 0.109638 0.11124 0.112823 0.115089 0.119989 0.123563 0.12232 0.117746 0.115879 0.114074 -9999
-9999 0.127229 0.127795 0.130047 0.128421 0.125962 0.125793 0.123366 0.116433 0.108938 0.108634 0.110996 0.118558 0.123661 0.126298 0.121223 0.116215 0.11591 0.11363 -9999
-9999 0.127316 0.127474 0.129479 0.129682 0.12655 0.125945 0.126375 0.12009 0.113271 0.10574 0.1151 0.121494 0.127811 0.128445 0.120179 0.11488 0.114766 0.112099 -9999
-9999 0.127392 0.12734 0.128916 0.130201 0.12729 0.12604 0.126814 0.122465 0.116709 0.112084 0.117449 0.126685 0.132283 0.127443 0.119078 0.114568 0.113652 0.108908 -9999
-9999 0.127627 0.127426 0.128369 0.130058 0.128203 0.126284 0.12675 0.126561 0.121018 0.117416 0.12066 0.131758 0.137435 0.12833 0.119269 0.114035 0.110632 0.104366 -9999
-9999 0.127924 0.127533 0.127844 0.129895 0.129275 0.126842 0.126238 0.126463 0.124973 0.121834 0.12394 0.135871 0.140905 0.131146 0.12242 0.115824 0.105508 0.1014 -9999
-9999 0.128297 0.127666 0.127629 0.12968 0.129359 0.128545 0.126629 0.125952 0.125465 0.125306 0.126804 0.136679 0.144495 0.135388 0.124971 0.116899 0.101079 -9999 -9999
-9999 0.1287 0.127827 0.127618 0.128219 0.129271 0.128943 0.126181 0.125562 0.125376 0.12684 0.128222 0.135897 0.140764 0.140266 0.128351 0.116906 0.101733 -9999 -9999
-9999 0.12912 0.128301 0.127811 0.127694 0.128444 0.128003 0.125239 0.125231 0.125597 0.126832 0.128361 0.133809 0.13718 0.137743 0.131707 0.119852 0.10321 0.105355 0.10746
-9999 -9999 0.129112 0.128366 0.127843 0.127867 0.12702 0.125029 0.124967 0.125522 0.126653 0.128148 0.129967 0.133391 0.134146 0.131943 0.129141 0.119676 0.115915 0.11761
-9999 -9999 0.129052 0.12909 0.128294 0.12762 0.126056 0.124767 0.124728 0.125365 0.126187 0.127015 0.128469 0.129307 0.129383 0.129512 0.128546 0.126209 0.126556 0.12765
-9999 -9999 -9999 0.12964 0.128594 0.12733 0.125774 0.124526 0.124375 0.125036 0.125886 0.12644 0.127415 0.127879 0.128113 0.127688 0.127612 0.127118 0.127252 0.12789
