ncols        20
nrows        20
xllcorner    0
yllcorner    -3.59929275513
cellsize     0.179964631796
NODATA_value -9999
-9999.0 -9999 -9999 -9999 -9999 -9999 -9999 -9999 -9999 -9999 -9999 -9999 -9999 -9999 -9999 -9999 -9999 -9999 -9999 -9999
-9999 -9999 -9999 -9999 0.11794 0.117085 0.117578 0.118806 0.120008 0.121014 0.121822 0.1249875 0.12558 0.12626 0.12626 0.12574875 0.12567 -9999 -9999 -9999
-9999 -9999 -9999 -9999 0.11583 0.11635 0.117291 0.118745 0.120111 0.121719 0.122971 0.125269 0.12613 0.126552 0.12587 0.125793 0.125662 0.125645 -9999 -9999
-9999 -9999 -9999 0.1175425 0.11588 0.114583 0.11704 0.118617 0.120153 0.121917 0.124422 0.126385 0.127589 0.12731 0.126402 0.12609 0.126121 0.128234 -9999 -9999
-9999 -9999 -9999 0.120983 0.117477 0.115648 0.116822 0.118405 0.119903 0.122158 0.12508 0.128631 0.129268 0.128322 0.127307 0.126938 0.128566 0.123544 -9999 -9999
-9999 -9999 0.12490175 0.122661 0.121447 0.119607 0.116431 0.117782 0.119545 0.122101 0.125213 0.128186 0.130313 0.128977 0.1278 0.128453 0.126593 0.111955 0.12282 -9999
-9999 -9999 0.129441 0.126522 0.125781 0.123865 0.120709 0.116512 0.118826 0.121303 0.124056 0.125831 0.127803 0.129344 0.128804 0.128569 0.121555 0.124056 0.122242 -9999
-9999 -9999 0.132586 0.131483 0.129301 0.128425 0.125101 0.120311 0.117546 0.119981 0.121523 0.123189 0.125056 0.127074 0.128717 0.12879 0.124441 0.122686 0.122198 -9999
-9999 0.13264 0.133862 0.135886 0.133957 0.132146 0.130581 0.125682 0.119358 0.117277 0.118837 0.120544 0.123197 0.128001 0.131165 0.130134 0.12432 0.122164 0.120028 -9999
-9999 0.132686 0.133433 0.136221 0.135122 0.133503 0.133882 0.131425 0.124278 0.116492 0.116167 0.11865 0.126347 0.131165 0.133739 0.128389 0.122446 0.122124 0.119657 -9999
-9999 0.132724 0.132991 0.135414 0.136073 0.133771 0.133777 0.134515 0.127996 0.120833 0.11327 0.122658 0.129243 0.135067 0.135811 0.126694 0.121056 0.120851 0.118369 -9999
-9999 0.132721 0.132759 0.13465 0.136364 0.134162 0.133639 0.134836 0.130422 0.124475 0.119571 0.124935 0.134069 0.139513 0.134414 0.125346 0.120641 0.119906 0.115235 -9999
-9999 0.132672 0.132767 0.133936 0.136043 0.134673 0.133642 0.13458 0.13465 0.129002 0.124977 0.128069 0.139073 0.144584 0.134941 0.12545 0.120314 0.117071 0.110706 -9999
-9999 0.132636 0.132783 0.133251 0.135713 0.135287 0.133864 0.133638 0.134265 0.133143 0.129548 0.13127 0.143164 0.148033 0.137608 0.12863 0.122369 0.112158 0.10767 -9999
-9999 0.132531 0.132713 0.132941 0.135397 0.135044 0.13481 0.133591 0.133328 0.133442 0.133353 0.134246 0.143934 0.151645 0.141838 0.131513 0.123845 0.108034 -9999 -9999
-9999 0.132392 0.132638 0.132845 0.133577 0.13483 0.134417 0.132723 0.132274 0.132796 0.13469 0.135915 0.143278 0.147699 0.147166 0.135458 0.124244 0.108733 -9999 -9999
-9999 0.13226 0.132467 0.132611 0.132883 0.133778 0.133276 0.131369 0.131283 0.132201 0.134234 0.136192 0.141366 0.144229 0.144919 0.139573 0.127376 0.11011 0.11192 0.11354
-9999 -9999 0.132202 0.132399 0.132548 0.132989 0.132128 0.130624 0.130464 0.131639 0.133546 0.135534 0.137964 0.140794 0.14149 0.139843 0.137228 0.126796 0.122865 0.1239
-9999 -9999 0.13219875 0.132134 0.132231 0.132332 0.131159 0.129868 0.129583 0.130602 0.132138 0.133741 0.135446 0.136533 0.137368 0.137351 0.136217 0.133347 0.133714 0.13466
-9999 -9999 -9999 0.13206 0.131599 0.131166 0.13013 0.128685 0.128193 0.128798 0.130277 0.131447 0.132885 0.133897 0.134874 0.134905 0.135291 0.133905 0.133453 0.13436
