ncols        20
nrows        20
xllcorner    0
yllcorner    -3.59929275513
cellsize     0.179964631796
NODATA_value -9999
-9999.0 -9999 -9999 -9999 -9999 -9999 -9999 -9999 -9999 -9999 -9999 -9999 -9999 -9999 -9999 -9999 -9999 -9999 -9999 -9999
-9999 -9999 -9999 -9999 0.12072 0.119813 0.12028 0.121424 0.122537 0.123543 0.124362 0.12746775 0.12807 0.12832 0.12832 0.12741625 0.1272 -9999 -9999 -9999
-9999 -9999 -9999 -9999 0.118729 0.119068 0.119972 0.121261 0.122598 0.12425 0.125511 0.127783 0.128507 0.128658 0.127828 0.127421 0.127216 0.127298 -9999 -9999
-9999 -9999 -9999 0.12028325 0.118774 0.117475 0.119692 0.1212 0.122633 0.124488 0.127006 0.128766 0.129781 0.129435 0.128168 0.127498 0.127696 0.129746 -9999 -9999
-9999 -9999 -9999 0.123403 0.120227 0.118453 0.119638 0.121091 0.122487 0.124786 0.12755 0.130623 0.131332 0.130422 0.129098 0.128403 0.130005 0.124892 -9999 -9999
-9999 -9999 0.1278865 0.125211 0.12413 0.122374 0.119509 0.120541 0.122104 0.124759 0.12772 0.130367 0.132208 0.130935 0.129713 0.130142 0.128201 0.114076 0.12516 -9999
-9999 -9999 0.133197 0.129735 0.128913 0.126781 0.1238 0.119592 0.121608 0.124107 0.126607 0.128203 0.129939 0.131355 0.131016 0.130473 0.123794 0.126289 0.124547 -9999
-9999 -9999 0.137137 0.135548 0.13289 0.131997 0.128229 0.123347 0.120288 0.122715 0.124108 0.125705 0.127506 0.129565 0.130749 0.130938 0.126663 0.125018 0.124632 -9999
-9999 0.13797 0.138813 0.140775 0.138298 0.135897 0.134158 0.128958 0.122331 0.119942 0.121449 0.123125 0.125741 0.130333 0.133184 0.132361 0.126539 0.124478 0.122677 -9999
-9999 0.138321 0.138565 0.141402 0.139822 0.137777 0.137848 0.135065 0.127543 0.119365 0.118863 0.121252 0.128715 0.13334 0.135871 0.13061 0.124661 0.12459 0.122333 -9999
-9999 0.13864 0.138245 0.140679 0.140989 0.138234 0.13786 0.138363 0.131424 0.124274 0.11602 0.125276 0.131495 0.137349 0.137994 0.128875 0.123317 0.123372 0.121065 -9999
-9999 0.138748 0.138172 0.139975 0.141508 0.138792 0.137931 0.138758 0.133972 0.127857 0.122853 0.127787 0.136652 0.141961 0.136647 0.127544 0.123023 0.122465 0.117968 -9999
-9999 0.138647 0.138391 0.139314 0.141395 0.139456 0.138165 0.138567 0.138457 0.132346 0.12843 0.131261 0.142137 0.147348 0.137315 0.127746 0.122632 0.119547 0.113564 -9999
-9999 0.138588 0.138669 0.138679 0.141234 0.140223 0.138624 0.138036 0.138068 0.136488 0.132904 0.134597 0.146522 0.151084 0.14013 0.13104 0.124773 0.114509 0.11051 -9999
-9999 0.138429 0.138673 0.138386 0.14101 0.140473 0.13983 0.138449 0.137311 0.136856 0.136548 0.137419 0.147158 0.154961 0.144497 0.134141 0.126336 0.110329 -9999 -9999
-9999 0.138215 0.138563 0.138442 0.139179 0.140543 0.139953 0.137898 0.136767 0.136405 0.137897 0.138944 0.146381 0.150783 0.149983 0.138199 0.126827 0.111229 -9999 -9999
-9999 0.13801 0.138282 0.138448 0.138441 0.139464 0.139249 0.136847 0.136158 0.136246 0.13763 0.139187 0.144299 0.147266 0.147793 0.142105 0.13 0.11287 0.11471 0.11603
-9999 -9999 0.137858 0.13815 0.138319 0.138596 0.138512 0.136336 0.135619 0.136114 0.137375 0.138635 0.140626 0.143891 0.144373 0.142273 0.139369 0.129583 0.12541 0.12645
-9999 -9999 0.13773725 0.137701 0.137916 0.138049 0.137403 0.135712 0.135047 0.135587 0.136679 0.137517 0.13885 0.13976 0.140219 0.139998 0.138727 0.136142 0.136224 0.13713
-9999 -9999 -9999 0.13724 0.137079 0.136937 0.136323 0.135075 0.13434 0.134463 0.135483 0.136262 0.137494 0.137816 0.138149 0.137806 0.137663 0.136563 0.136178 0.13674
