ncols        20
nrows        20
xllcorner    0
yllcorner    -3.59929275513
cellsize     0.179964631796
NODATA_value -9999
-9999.0 -9999 -9999 -9999 -9999 -9999 -9999 -9999 -9999 -9999 -9999 -9999 -9999 -9999 -9999 -9999 -9999 -9999 -9999 -9999
-9999 -9999 -9999 -9999 0.12137 0.120738 0.120981 0.121789 0.122873 0.123938 0.124897 0.12932875 0.13024 0.13091 0.13091 0.1312745 0.13163 -9999 -9999 -9999
-9999 -9999 -9999 -9999 0.120174 0.120206 0.12071 0.121609 0.122962 0.124791 0.126365 0.129768 0.130942 0.131355 0.130602 0.131115 0.131751 0.134384 -9999 -9999
-9999 -9999 -9999 0.12224025 0.12056 0.119201 0.120256 0.121536 0.122995 0.125119 0.12852 0.131235 0.132869 0.132514 0.131388 0.131446 0.133752 0.135509 -9999 -9999
-9999 -9999 -9999 0.125928 0.122299 0.11978 0.120142 0.121371 0.122886 0.125591 0.129459 0.134157 0.135189 0.13377 0.132497 0.132882 0.135055 0.128124 -9999 -9999
-9999 -9999 0.12860675 0.127354 0.125122 0.122638 0.120103 0.120998 0.122264 0.125411 0.129724 0.133937 0.13656 0.134691 0.133226 0.134471 0.131539 0.114399 0.12359 -9999
-9999 -9999 0.131825 0.12932 0.128211 0.126207 0.123603 0.119746 0.121163 0.124171 0.128465 0.130757 0.133294 0.135592 0.134724 0.133791 0.124151 0.125263 0.122732 -9999
-9999 -9999 0.135402 0.13384 0.131323 0.130104 0.126709 0.122078 0.119542 0.122792 0.124825 0.127133 0.129766 0.132128 0.133691 0.131584 0.126225 0.123391 0.122273 -9999
-9999 0.13666 0.137247 0.139219 0.136315 0.133458 0.131638 0.126531 0.120583 0.119217 0.121245 0.123635 0.126836 0.131722 0.134064 0.132586 0.125601 0.122575 0.119774 -9999
-9999 0.136925 0.136992 0.139899 0.1379 0.135291 0.135338 0.132505 0.124841 0.117617 0.117953 0.120972 0.128843 0.133993 0.13589 0.130174 0.123435 0.122121 0.119273 -9999
-9999 0.137222 0.136717 0.139106 0.139296 0.135849 0.135335 0.135896 0.128318 0.121433 0.11448 0.124299 0.131573 0.137077 0.137496 0.127963 0.121826 0.120545 0.117821 -9999
-9999 0.137329 0.136686 0.138371 0.139924 0.136537 0.135362 0.136407 0.130969 0.124797 0.120287 0.126179 0.135786 0.141046 0.135596 0.126334 0.120904 0.119427 0.114692 -9999
-9999 0.13711 0.136904 0.137708 0.139801 0.137369 0.13558 0.136273 0.135797 0.129128 0.125274 0.128855 0.140246 0.145806 0.135685 0.126049 0.12004 0.116415 0.110395 -9999
-9999 0.136867 0.137136 0.137068 0.139623 0.138338 0.136118 0.135542 0.135694 0.133618 0.129462 0.131616 0.143805 0.148813 0.138047 0.12882 0.122021 0.11146 0.10756 -9999
-9999 0.136317 0.137056 0.136832 0.139453 0.138683 0.137691 0.135875 0.134917 0.134167 0.133166 0.134092 0.143953 0.151984 0.14218 0.131673 0.123469 0.107482 -9999 -9999
-9999 0.135623 0.13687 0.13697 0.137638 0.138883 0.138053 0.135206 0.134276 0.133784 0.134687 0.135429 0.142959 0.147683 0.147481 0.135532 0.123755 0.108468 -9999 -9999
-9999 0.13493 0.136139 0.136797 0.137021 0.137981 0.137073 0.13415 0.133705 0.133583 0.134696 0.135536 0.140674 0.143847 0.144855 0.13954 0.12699 0.11007 0.11199 0.11393
-9999 -9999 0.134782 0.135908 0.136669 0.137338 0.135936 0.13376 0.133224 0.133453 0.134271 0.135185 0.136861 0.139959 0.140803 0.139272 0.136716 0.127094 0.123245 0.12453
-9999 -9999 0.1347875 0.13464 0.135748 0.136608 0.134715 0.133262 0.132705 0.133036 0.13376 0.134244 0.135301 0.1359 0.13604 0.136064 0.134953 0.133129 0.134018 0.13557
-9999 -9999 -9999 0.13382 0.13453 0.135016 0.13381 0.132664 0.132087 0.132293 0.13294 0.133505 0.134486 0.134657 0.134859 0.134027 0.133496 0.132985 0.133276 0.13459
