ncols        20
nrows        20
xllcorner    0
yllcorner    -3.59929275513
cellsize     0.179964631796
NODATA_value -9999
-9999.0 -9999 -9999 -9999 -9999 -9999 -9999 -9999 -9999 -9999 -9999 -9999 -9999 -9999 -9999 -9999 -9999 -9999 -9999 -9999
-9999 -9999 -9999 -9999 0.12599 0.125466 0.126072 0.12732 0.128508 0.129676 0.130753 0.13493725 0.13572 0.13573 0.13573 0.1353745 0.13537 -9999 -9999 -9999
-9999 -9999 -9999 -9999 0.124472 0.124954 0.125923 0.127195 0.12882 0.130696 0.132351 0.135395 0.136283 0.13628 0.135361 0.135342 0.135425 0.136454 -9999 -9999
-9999 -9999 -9999 0.12681225 0.124684 0.123671 0.125576 0.127307 0.129189 0.131193 0.134541 0.137013 0.138195 0.137559 0.136008 0.135553 0.136543 0.137768 -9999 -9999
-9999 -9999 -9999 0.131294 0.126799 0.124402 0.125544 0.127219 0.129006 0.13171 0.135543 0.140135 0.140559 0.138614 0.136796 0.136535 0.137724 0.130515 -9999 -9999
-9999 -9999 0.1340135 0.132936 0.130249 0.127467 0.125309 0.126864 0.128513 0.131672 0.135738 0.139455 0.141698 0.139181 0.137004 0.137378 0.133993 0.115859 0.12474 -9999
-9999 -9999 0.137045 0.134779 0.133428 0.131048 0.128376 0.125354 0.127607 0.130511 0.134127 0.135907 0.138011 0.139463 0.137895 0.136437 0.125513 0.126393 0.123926 -9999
-9999 -9999 0.140156 0.138789 0.136197 0.135083 0.131556 0.128005 0.126083 0.128764 0.13042 0.132204 0.134346 0.13579 0.136652 0.133167 0.127126 0.124551 0.123555 -9999
-9999 0.14065 0.141662 0.143821 0.141087 0.138516 0.136868 0.13245 0.126594 0.124939 0.126738 0.128694 0.131101 0.13481 0.136254 0.133166 0.126434 0.123783 0.121142 -9999
-9999 0.140859 0.141174 0.144416 0.142387 0.140083 0.140073 0.137481 0.130254 0.122985 0.123117 0.125583 0.132512 0.136502 0.137505 0.130588 0.124334 0.123416 0.1206 -9999
-9999 0.141104 0.140703 0.14358 0.143702 0.14051 0.140066 0.140296 0.133556 0.126579 0.11934 0.128422 0.134746 0.139236 0.138544 0.128543 0.122818 0.121821 0.119056 -9999
-9999 0.141147 0.140572 0.142706 0.144319 0.141035 0.140089 0.140759 0.135877 0.129978 0.124977 0.13006 0.13848 0.14272 0.136279 0.127075 0.122044 0.120656 0.115823 -9999
-9999 0.140818 0.140785 0.141803 0.144223 0.141694 0.140309 0.140697 0.14007 0.134039 0.129711 0.132506 0.142739 0.147102 0.136369 0.12692 0.121203 0.11764 0.111276 -9999
-9999 0.140474 0.140994 0.140926 0.144059 0.142484 0.140763 0.14006 0.1399 0.137645 0.133674 0.135016 0.146187 0.149957 0.138812 0.12966 0.122944 0.112581 0.10838 -9999
-9999 0.139897 0.140794 0.140644 0.14371 0.142946 0.141941 0.14041 0.138856 0.137878 0.137073 0.137343 0.146301 0.153157 0.142981 0.132304 0.12405 0.108299 -9999 -9999
-9999 0.139208 0.140478 0.140818 0.141431 0.143013 0.142238 0.139455 0.137986 0.137477 0.138323 0.138551 0.145277 0.148956 0.148151 0.135966 0.124136 0.108985 -9999 -9999
-9999 0.13852 0.13966 0.140363 0.140836 0.141732 0.14104 0.138204 0.137129 0.137468 0.137814 0.138463 0.142974 0.145119 0.145716 0.13975 0.127264 0.1104 0.112185 0.11336
-9999 -9999 0.138336 0.139396 0.140146 0.140844 0.139754 0.137519 0.13644 0.13686 0.137154 0.137737 0.139116 0.141285 0.14203 0.139838 0.136753 0.127138 0.12276 0.1237
-9999 -9999 0.1383275 0.138138 0.139131 0.139877 0.138425 0.136596 0.135806 0.13589 0.135934 0.136247 0.13709 0.137133 0.137246 0.136849 0.135394 0.13312 0.133391 0.13437
-9999 -9999 -9999 0.13744 0.137739 0.13816 0.137243 0.135436 0.134716 0.134591 0.135114 0.135145 0.135623 0.135424 0.135295 0.134521 0.133946 0.133158 0.133235 0.13402
