ncols        20
nrows        20
xllcorner    0
yllcorner    -3.59929275513
cellsize     0.179964631796
NODATA_value -9999
-9999.0 -9999 -9999 -9999 -9999 -9999 -9999 -9999 -9999 -9999 -9999 -9999 -9999 -9999 -9999 -9999 -9999 -9999 -9999 -9999
-9999 -9999 -9999 -9999 0.1226 0.12219 0.122817 0.124102 0.125387 0.126643 0.127738 0.13192925 0.13276 0.13301 0.13301 0.1334395 0.13377 -9999 -9999 -9999
-9999 -9999 -9999 -9999 0.120998 0.12174 0.122702 0.123947 0.125653 0.127648 0.129214 0.132353 0.13339 0.133538 0.132825 0.13331 0.133853 0.135548 -9999 -9999
-9999 -9999 -9999 0.122735 0.120886 0.120228 0.122323 0.124055 0.125988 0.128126 0.131278 0.133921 0.135368 0.134853 0.133624 0.133594 0.135419 0.136662 -9999 -9999
-9999 -9999 -9999 0.126449 0.122607 0.120848 0.122318 0.123971 0.125859 0.128536 0.132314 0.13717 0.137865 0.13608 0.134613 0.135014 0.136525 0.129343 -9999 -9999
-9999 -9999 0.12934375 0.128003 0.126056 0.124002 0.122124 0.123546 0.125257 0.128422 0.132528 0.13669 0.139362 0.137028 0.135102 0.135829 0.132613 0.115311 0.12425 -9999
-9999 -9999 0.132642 0.130281 0.129419 0.12752 0.125216 0.12218 0.124367 0.127411 0.131222 0.133454 0.135965 0.137694 0.136578 0.13492 0.124958 0.125916 0.123366 -9999
-9999 -9999 0.135346 0.134621 0.132478 0.131534 0.128138 0.124643 0.12289 0.12599 0.127906 0.130102 0.132668 0.13453 0.135428 0.132649 0.12684 0.124045 0.123075 -9999
-9999 0.13474 0.136111 0.138768 0.137126 0.134894 0.133362 0.1291 0.123694 0.122366 0.124394 0.126698 0.129559 0.133726 0.135404 0.133299 0.12615 0.123223 0.120698 -9999
-9999 0.134743 0.135456 0.138717 0.137877 0.136103 0.136477 0.134226 0.1274 0.120511 0.120887 0.123635 0.13106 0.135574 0.137021 0.130632 0.123969 0.122956 0.120157 -9999
-9999 0.134776 0.134905 0.13762 0.138647 0.136469 0.136251 0.137165 0.130566 0.124031 0.11715 0.126702 0.133655 0.138482 0.138423 0.128408 0.122365 0.121394 0.118593 -9999
-9999 0.134792 0.134606 0.136631 0.138779 0.136756 0.136038 0.137462 0.132845 0.127305 0.122773 0.128453 0.137529 0.142272 0.136112 0.126817 0.121516 0.1202 0.11538 -9999
-9999 0.134747 0.134595 0.135756 0.138259 0.137014 0.136003 0.137143 0.137025 0.131308 0.12743 0.130904 0.141906 0.146821 0.136223 0.126609 0.120698 0.117148 0.110923 -9999
-9999 0.134719 0.134602 0.134919 0.137691 0.137353 0.136193 0.135963 0.136579 0.134921 0.131328 0.133501 0.145455 0.149855 0.138761 0.12946 0.122616 0.112132 0.10807 -9999
-9999 0.134473 0.134543 0.134533 0.1372 0.136986 0.136765 0.135723 0.135371 0.135196 0.134791 0.135901 0.145792 0.153191 0.143018 0.132244 0.12398 0.108045 -9999 -9999
-9999 0.13409 0.134483 0.134406 0.135095 0.136505 0.136189 0.13441 0.134142 0.134649 0.136013 0.137184 0.144702 0.148897 0.148322 0.136093 0.124234 0.108846 -9999 -9999
-9999 0.13368 0.13424 0.134294 0.134322 0.135211 0.134702 0.132914 0.132921 0.134079 0.13548 0.13709 0.142266 0.145066 0.145855 0.140385 0.127396 0.11028 0.112145 0.11348
-9999 -9999 0.133594 0.134058 0.134109 0.134232 0.133317 0.132009 0.131962 0.133405 0.13488 0.136265 0.138454 0.141457 0.142133 0.140433 0.137622 0.127195 0.12305 0.12364
-9999 -9999 0.1336165 0.133494 0.133749 0.133507 0.132035 0.130883 0.131013 0.132251 0.133669 0.13475 0.136221 0.137023 0.137718 0.137626 0.136356 0.133711 0.133984 0.13457
-9999 -9999 -9999 0.13332 0.132953 0.132479 0.130932 0.129806 0.129363 0.130189 0.132009 0.133068 0.134258 0.134787 0.135482 0.135188 0.135432 0.13417 0.13362 0.13449
