ncols        20
nrows        20
xllcorner    0
yllcorner    -3.59929275513
cellsize     0.179964631796
NODATA_value -9999
-9999.0 -9999 -9999 -9999 -9999 -9999 -9999 -9999 -9999 -9999 -9999 -9999 -9999 -9999 -9999 -9999 -9999 -9999 -9999 -9999
-9999 -9999 -9999 -9999 0.11925 0.118159 0.11832 0.119029 0.119836 0.120508 0.120957 0.123435 0.12401 0.1248 0.1248 0.12356575 0.12313 -9999 -9999 -9999
-9999 -9999 -9999 -9999 0.117649 0.117332 0.117858 0.118768 0.119686 0.120829 0.121634 0.123675 0.124421 0.124915 0.124315 0.123704 0.123114 0.122417 -9999 -9999
-9999 -9999 -9999 0.1194665 0.117984 0.115783 0.117469 0.11848 0.119359 0.120581 0.122748 0.12438 0.125367 0.125307 0.12453 0.123851 0.122976 0.124926 -9999 -9999
-9999 -9999 -9999 0.122713 0.11952 0.116912 0.117086 0.118097 0.118888 0.12063 0.12307 0.125895 0.126622 0.12609 0.125215 0.124061 0.125533 0.121708 -9999 -9999
-9999 -9999 0.1269995 0.124241 0.12302 0.120983 0.116784 0.117383 0.11881 0.120725 0.122992 0.125392 0.127311 0.126469 0.125699 0.126032 0.124858 0.112314 0.12377 -9999
-9999 -9999 0.132283 0.128761 0.127932 0.125559 0.12167 0.11634 0.118338 0.120173 0.121872 0.123261 0.125055 0.126562 0.125806 0.12677 0.121578 0.124657 0.123122 -9999
-9999 -9999 0.136264 0.134628 0.131979 0.130874 0.126983 0.120951 0.117174 0.118838 0.119951 0.121088 0.1225 0.124347 0.126418 0.128254 0.124731 0.12362 0.122985 -9999
-9999 0.13766 0.13811 0.139677 0.137091 0.134741 0.132808 0.126913 0.119712 0.11676 0.11783 0.118976 0.121345 0.126413 0.130577 0.129584 0.12497 0.123025 0.120924 -9999
-9999 0.138124 0.138049 0.140429 0.138662 0.136629 0.136632 0.133439 0.125275 0.116526 0.115521 0.117604 0.125239 0.130489 0.133611 0.128637 0.12329 0.122885 0.120533 -9999
-9999 0.13859 0.137891 0.139855 0.139868 0.137065 0.136726 0.137004 0.129519 0.121451 0.11299 0.122186 0.12841 0.135014 0.135929 0.127443 0.121812 0.12161 0.119121 -9999
-9999 0.138901 0.137972 0.139315 0.140473 0.13765 0.136801 0.137484 0.132329 0.125464 0.119906 0.124973 0.133816 0.139854 0.135108 0.126139 0.121309 0.120538 0.11579 -9999
-9999 0.139123 0.13833 0.138843 0.140488 0.138374 0.137014 0.137357 0.137183 0.130431 0.125805 0.128654 0.139394 0.145367 0.135906 0.126196 0.120792 0.117476 0.11099 -9999
-9999 0.139384 0.138706 0.138396 0.140461 0.139208 0.137469 0.136867 0.136929 0.134931 0.13073 0.132241 0.143908 0.148995 0.138692 0.12947 0.1226 0.112222 0.10784 -9999
-9999 0.139605 0.138859 0.138348 0.140403 0.139647 0.138789 0.137276 0.13615 0.135358 0.134718 0.135514 0.14504 0.15278 0.143038 0.132255 0.123896 0.107727 -9999 -9999
-9999 0.139783 0.138967 0.138692 0.138998 0.140006 0.139193 0.136683 0.135383 0.134948 0.13637 0.137395 0.144745 0.149345 0.148307 0.13599 0.12423 0.108435 -9999 -9999
-9999 0.13995 0.139373 0.138894 0.138819 0.139334 0.138683 0.13556 0.134665 0.134667 0.13615 0.137819 0.143026 0.146038 0.146231 0.139782 0.127378 0.10996 0.11175 0.11292
-9999 -9999 0.139878 0.139282 0.138854 0.138904 0.137965 0.135119 0.1341 0.13427 0.135691 0.13742 0.13964 0.142539 0.142964 0.140337 0.13685 0.126765 0.122455 0.12336
-9999 -9999 0.1398415 0.139786 0.13904 0.138523 0.13698 0.134617 0.133608 0.13378 0.134729 0.135792 0.137284 0.138197 0.138652 0.138185 0.136651 0.133672 0.13322 0.13389
-9999 -9999 -9999 0.14042 0.138901 0.13787 0.136493 0.134398 0.133123 0.132809 0.133722 0.134352 0.135091 0.135752 0.136432 0.136093 0.136006 0.134728 0.133843 0.13394
