ncols        20
nrows        20
xllcorner    0
yllcorner    -3.59929275513
cellsize     0.179964631796
NODATA_value -9999
-9999.0 -9999 -9999 -9999 -9999 -9999 -9999 -9999 -9999 -9999 -9999 -9999 -9999 -9999 -9999 -9999 -9999 -9999 -9999 -9999
-9999 -9999 -9999 -9999 0.11079 0.109987 0.110503 0.111731 0.112893 0.113708 0.114242 0.11633825 0.11679 0.11694 0.11694 0.115422 0.11485 -9999 -9999 -9999
-9999 -9999 -9999 -9999 0.108478 0.109299 0.110261 0.111695 0.112886 0.114137 0.114995 0.116561 0.117007 0.117098 0.116434 0.115664 0.11474 0.112058 -9999 -9999
-9999 -9999 -9999 0.1097395 0.108369 0.107062 0.110085 0.111556 0.112813 0.114128 0.11593 0.117015 0.117609 0.117457 0.116661 0.115872 0.113589 0.115835 -9999 -9999
-9999 -9999 -9999 0.112528 0.109583 0.108288 0.109759 0.111334 0.112474 0.114352 0.116135 0.117838 0.118328 0.118126 0.117368 0.115998 0.116978 0.113518 -9999 -9999
-9999 -9999 0.11790025 0.114378 0.113851 0.112689 0.109271 0.110604 0.112312 0.114308 0.116053 0.117341 0.118741 0.118359 0.117859 0.117835 0.116788 0.104807 0.11805 -9999
-9999 -9999 0.124433 0.120262 0.119741 0.117923 0.114253 0.109278 0.111874 0.113792 0.114823 0.115985 0.117329 0.118483 0.118089 0.118796 0.114462 0.118547 0.117691 -9999
-9999 -9999 0.128904 0.127185 0.124519 0.124057 0.119806 0.114117 0.110574 0.112261 0.113341 0.11441 0.115616 0.117174 0.11845 0.121198 0.118233 0.117967 0.11776 -9999
-9999 0.1291 0.130388 0.132437 0.130344 0.128371 0.126367 0.120375 0.113038 0.110267 0.111523 0.112634 0.114766 0.119136 0.123528 0.122866 0.118937 0.117652 0.115881 -9999
-9999 0.129025 0.130087 0.132785 0.131827 0.130201 0.130365 0.127103 0.118841 0.110354 0.109488 0.111435 0.118677 0.123591 0.127013 0.122307 0.117561 0.117704 0.115577 -9999
-9999 0.128892 0.129701 0.131957 0.132832 0.130569 0.130458 0.130764 0.123319 0.115502 0.10706 0.116025 0.121827 0.128558 0.12965 0.121516 0.116282 0.116652 0.114299 -9999
-9999 0.128784 0.129425 0.131251 0.133101 0.131031 0.130472 0.131307 0.12611 0.119447 0.114101 0.118896 0.1277 0.133655 0.129151 0.120402 0.116164 0.115671 0.111125 -9999
-9999 0.128772 0.129275 0.130676 0.132697 0.131609 0.130624 0.13124 0.130958 0.124514 0.120087 0.122722 0.133432 0.139349 0.130149 0.120705 0.115775 0.11273 0.106465 -9999
-9999 0.128769 0.129143 0.130129 0.132269 0.132305 0.130955 0.130604 0.130852 0.129191 0.125152 0.126444 0.138013 0.143067 0.132953 0.12411 0.117709 0.107568 0.10335 -9999
-9999 0.128621 0.129098 0.129771 0.131993 0.131925 0.131925 0.13079 0.1301 0.129748 0.129072 0.129847 0.139275 0.146851 0.13721 0.126924 0.119011 0.103089 -9999 -9999
-9999 0.128415 0.129085 0.129436 0.130457 0.131557 0.131423 0.130055 0.129386 0.129405 0.13063 0.131602 0.138745 0.143116 0.142387 0.130652 0.119264 0.103838 -9999 -9999
-9999 0.12823 0.12879 0.129223 0.129543 0.130682 0.130364 0.128734 0.128681 0.129263 0.13041 0.131785 0.136789 0.139675 0.140116 0.134048 0.122366 0.10542 0.107715 0.10947
-9999 -9999 0.128231 0.128832 0.129326 0.130078 0.129409 0.128213 0.128188 0.128874 0.129837 0.131257 0.133144 0.136224 0.136756 0.134459 0.131369 0.122404 0.11866 0.11977
-9999 -9999 0.12822575 0.12823 0.128984 0.129686 0.128542 0.12777 0.127811 0.128342 0.128844 0.129642 0.131158 0.132137 0.132398 0.132153 0.130861 0.12888 0.129231 0.13005
-9999 -9999 -9999 0.12761 0.128498 0.128725 0.127871 0.126936 0.126875 0.127559 0.128041 0.128577 0.129702 0.130103 0.130429 0.13019 0.129684 0.128947 0.129023 0.13009
