ncols        20
nrows        20
xllcorner    0
yllcorner    -3.59929275513
cellsize     0.179964631796
NODATA_value -9999
-9999.0 -9999 -9999 -9999 -9999 -9999 -9999 -9999 -9999 -9999 -9999 -9999 -9999 -9999 -9999 -9999 -9999 -9999 -9999 -9999
-9999 -9999 -9999 -9999 0.11693 0.116103 0.116618 0.117843 0.119093 0.120135 0.120875 0.123878 0.12454 0.12519 0.12519 0.12499075 0.12493 -9999 -9999 -9999
-9999 -9999 -9999 -9999 0.114686 0.115404 0.116357 0.11769 0.119141 0.120741 0.121743 0.124198 0.125031 0.125434 0.125033 0.125043 0.124957 0.12498 -9999 -9999
-9999 -9999 -9999 0.11598475 0.114645 0.113515 0.116143 0.117592 0.119127 0.120751 0.123286 0.125268 0.126355 0.126249 0.125559 0.125347 0.125589 0.127356 -9999 -9999
-9999 -9999 -9999 0.118731 0.115877 0.114347 0.115717 0.117255 0.118745 0.12106 0.123938 0.127455 0.128111 0.127185 0.126349 0.126305 0.12802 0.122571 -9999 -9999
-9999 -9999 0.12275025 0.120298 0.119393 0.118053 0.11511 0.116525 0.11852 0.120967 0.123987 0.127015 0.129099 0.127778 0.126815 0.127929 0.125769 0.111503 0.1227 -9999
-9999 -9999 0.127658 0.124314 0.123701 0.121898 0.11904 0.11512 0.117675 0.120063 0.122796 0.124605 0.126504 0.127901 0.127638 0.127708 0.121056 0.123815 0.121974 -9999
-9999 -9999 0.131175 0.129677 0.127391 0.126333 0.123089 0.118903 0.116302 0.118636 0.120201 0.121925 0.123753 0.125594 0.127553 0.128073 0.124112 0.122531 0.121705 -9999
-9999 0.13232 0.132755 0.134428 0.132128 0.130045 0.128459 0.124038 0.11807 0.115941 0.117479 0.11919 0.121647 0.127069 0.130632 0.129288 0.12431 0.121853 0.119376 -9999
-9999 0.132565 0.132607 0.13489 0.133657 0.131631 0.131859 0.129501 0.122546 0.114893 0.114567 0.116883 0.124882 0.130506 0.133173 0.128221 0.122513 0.121588 0.118897 -9999
-9999 0.132804 0.132428 0.134196 0.134724 0.132062 0.131821 0.132517 0.126082 0.119038 0.11143 0.120989 0.127879 0.134422 0.135195 0.126933 0.120876 0.120137 0.117406 -9999
-9999 0.133022 0.132441 0.133606 0.135095 0.132636 0.131735 0.132892 0.128507 0.122595 0.117741 0.123356 0.132807 0.138784 0.134214 0.125478 0.1202 0.118962 0.114128 -9999
-9999 0.133345 0.132653 0.13314 0.134826 0.133355 0.131777 0.13272 0.132695 0.127023 0.123129 0.126369 0.137658 0.143816 0.134886 0.125345 0.119436 0.115914 0.10942 -9999
-9999 0.133727 0.132869 0.13271 0.134543 0.134205 0.132114 0.131903 0.132511 0.131228 0.127604 0.129413 0.141614 0.147095 0.137333 0.12843 0.121254 0.110764 0.10634 -9999
-9999 0.134173 0.133053 0.132625 0.13437 0.134057 0.133507 0.131914 0.131907 0.131714 0.13122 0.132299 0.142222 0.150439 0.14122 0.130792 0.122468 0.106406 -9999 -9999
-9999 0.134654 0.133252 0.132835 0.133081 0.133921 0.133575 0.131483 0.131224 0.131397 0.13269 0.133775 0.141394 0.146331 0.145925 0.134083 0.122522 0.10709 -9999 -9999
-9999 0.13516 0.133912 0.133174 0.132891 0.133284 0.13245 0.130601 0.130718 0.131313 0.132726 0.133931 0.139136 0.142585 0.143394 0.137443 0.125502 0.10853 0.110375 0.11179
-9999 -9999 0.135036 0.13383 0.133169 0.132813 0.131353 0.130338 0.130427 0.131297 0.132591 0.133702 0.13514 0.13855 0.139424 0.137212 0.134403 0.125225 0.12117 0.12204
-9999 -9999 0.134947 0.134912 0.133637 0.132598 0.130705 0.130154 0.130371 0.131315 0.132235 0.13288 0.133717 0.134137 0.134161 0.134144 0.133123 0.131031 0.131581 0.1324
-9999 -9999 -9999 0.13601 0.133945 0.132532 0.130678 0.130073 0.130333 0.131174 0.131827 0.132155 0.132725 0.132907 0.132789 0.132058 0.131693 0.131184 0.131472 0.13229
