ncols        20
nrows        20
xllcorner    0
yllcorner    -3.59929275513
cellsize     0.179964631796
NODATA_value -9999
-9999.0 -9999 -9999 -9999 -9999 -9999 -9999 -9999 -9999 -9999 -9999 -9999 -9999 -9999 -9999 -9999 -9999 -9999 -9999 -9999
-9999 -9999 -9999 -9999 0.1319 0.131809 0.132039 0.1326 0.133499 0.134729 0.136038 0.1414105 0.14249 0.1428 0.1428 0.14358625 0.14415 -9999 -9999 -9999
-9999 -9999 -9999 -9999 0.131286 0.131674 0.131965 0.132358 0.133791 0.13596 0.137955 0.141942 0.143255 0.143439 0.142568 0.143305 0.144322 0.148174 -9999 -9999
-9999 -9999 -9999 0.13297675 0.131439 0.131206 0.131419 0.132524 0.134112 0.136686 0.14051 0.143784 0.145625 0.145032 0.143487 0.143569 0.14722 0.148554 -9999 -9999
-9999 -9999 -9999 0.136229 0.132953 0.131443 0.131691 0.132474 0.13419 0.137335 0.141809 0.147642 0.148599 0.146522 0.144707 0.145656 0.147587 0.138399 -9999 -9999
-9999 -9999 0.1388935 0.137807 0.13559 0.133723 0.132432 0.132429 0.133281 0.137109 0.142024 0.147162 0.150435 0.147737 0.145344 0.146117 0.141884 0.120901 0.12784 -9999
-9999 -9999 0.142087 0.139451 0.138448 0.136937 0.135036 0.131778 0.132549 0.136056 0.140783 0.143284 0.146486 0.149028 0.147415 0.144426 0.130769 0.130158 0.126886 -9999
-9999 -9999 0.146445 0.144906 0.141856 0.14163 0.13707 0.133138 0.131031 0.134837 0.136878 0.139368 0.142594 0.14507 0.145089 0.139273 0.131579 0.127619 0.12639 -9999
-9999 0.14614 0.148166 0.151923 0.148814 0.145121 0.143035 0.137514 0.131765 0.130697 0.13292 0.135598 0.139047 0.142027 0.142005 0.139051 0.130094 0.126713 0.123797 -9999
-9999 0.146373 0.14732 0.152309 0.150318 0.147055 0.147085 0.143717 0.135856 0.128884 0.129425 0.132359 0.139345 0.142356 0.142725 0.134961 0.127537 0.126225 0.12331 -9999
-9999 0.146632 0.146517 0.150837 0.152033 0.147665 0.147086 0.147443 0.139249 0.132673 0.12562 0.135011 0.141519 0.144406 0.143249 0.132073 0.125886 0.124546 0.121879 -9999
-9999 0.146646 0.146177 0.149439 0.152572 0.148439 0.147164 0.148166 0.141923 0.135897 0.131527 0.136795 0.144472 0.147601 0.140006 0.130249 0.124883 0.123449 0.118758 -9999
-9999 0.146245 0.146353 0.148118 0.152017 0.149419 0.147521 0.14819 0.147072 0.140148 0.136319 0.13935 0.149013 0.151881 0.139829 0.129804 0.123989 0.120377 0.114781 -9999
-9999 0.145861 0.146549 0.146833 0.151363 0.150566 0.148213 0.14743 0.147237 0.144636 0.140198 0.141761 0.152805 0.155103 0.142307 0.13225 0.125914 0.115483 0.1122 -9999
-9999 0.144953 0.146274 0.146357 0.15068 0.150437 0.149956 0.147992 0.14638 0.145572 0.144203 0.143683 0.15286 0.158823 0.146919 0.135724 0.127472 0.11168 -9999 -9999
-9999 0.14374 0.145825 0.146387 0.14745 0.149829 0.149489 0.147306 0.146047 0.145675 0.14597 0.145165 0.15151 0.154308 0.153436 0.140538 0.128182 0.112908 -9999 -9999
-9999 0.14248 0.144599 0.145797 0.146431 0.147864 0.147796 0.14609 0.145851 0.145915 0.145622 0.145243 0.148854 0.150439 0.151395 0.146349 0.132167 0.11469 0.11703 0.11762
-9999 -9999 0.142253 0.144208 0.145618 0.146812 0.146333 0.145414 0.145248 0.145772 0.14491 0.14426 0.145291 0.147234 0.147857 0.146673 0.143703 0.13286 0.128495 0.12845
-9999 -9999 0.14221625 0.142014 0.144053 0.145975 0.144918 0.144386 0.144402 0.14491 0.143959 0.143069 0.143395 0.143337 0.144188 0.143673 0.142268 0.139775 0.139895 0.14031
-9999 -9999 -9999 0.14039 0.142041 0.14379 0.143485 0.14324 0.1433 0.143617 0.14313 0.142387 0.142365 0.141484 0.141863 0.141154 0.140894 0.139501 0.13866 0.13969
