ncols        20
nrows        20
xllcorner    0
yllcorner    -3.59929275513
cellsize     0.179964631796
NODATA_value -9999
-9999.0 -9999 -9999 -9999 -9999 -9999 -9999 -9999 -9999 -9999 -9999 -9999 -9999 -9999 -9999 -9999 -9999 -9999 -9999 -9999
-9999 -9999 -9999 -9999 0.12073 0.120222 0.121037 0.122657 0.12409 0.125348 0.12646 0.13036675 0.13109 0.13103 0.13103 0.13035325 0.13014 -9999 -9999 -9999
-9999 -9999 -9999 -9999 0.118759 0.11968 0.120969 0.122689 0.124442 0.126396 0.128042 0.130802 0.131533 0.131487 0.130688 0.130416 0.130169 0.130342 -9999 -9999
-9999 -9999 -9999 0.12011425 0.118601 0.11784 0.120831 0.122842 0.124868 0.126976 0.130048 0.132141 0.133072 0.132541 0.131235 0.130623 0.130765 0.131747 -9999 -9999
-9999 -9999 -9999 0.12313 0.119967 0.118761 0.120794 0.122887 0.124838 0.127552 0.130891 0.134631 0.134967 0.133585 0.132083 0.131342 0.132123 0.124946 -9999 -9999
-9999 -9999 0.12657 0.1248 0.123556 0.122315 0.120419 0.122514 0.124519 0.127447 0.131072 0.134024 0.135962 0.134124 0.132367 0.132411 0.128543 0.111893 0.12282 -9999
-9999 -9999 0.130417 0.127933 0.127438 0.125988 0.123855 0.120834 0.1235 0.126233 0.12952 0.131331 0.133103 0.134381 0.132554 0.130933 0.121712 0.124009 0.122085 -9999
-9999 -9999 0.133491 0.132652 0.130931 0.130633 0.127348 0.123993 0.122031 0.124626 0.126263 0.12813 0.129998 0.130722 0.131087 0.129082 0.124252 0.122649 0.121913 -9999
-9999 0.13259 0.134206 0.136854 0.135499 0.134257 0.132906 0.128544 0.122565 0.120987 0.122912 0.124878 0.126821 0.130357 0.132307 0.129882 0.12421 0.121973 0.119573 -9999
-9999 0.132208 0.13365 0.136771 0.136317 0.135261 0.135941 0.133807 0.126369 0.119265 0.119512 0.12189 0.128556 0.132852 0.134322 0.12815 0.122383 0.121813 0.119037 -9999
-9999 0.131814 0.133129 0.1357 0.136943 0.135474 0.135585 0.136876 0.129939 0.123084 0.11596 0.124983 0.131096 0.136259 0.136007 0.126537 0.120932 0.12032 0.117446 -9999
-9999 0.131566 0.132701 0.134822 0.137 0.135642 0.13532 0.137052 0.132438 0.126495 0.121876 0.126849 0.135481 0.140279 0.134553 0.125157 0.120281 0.11898 0.11421 -9999
-9999 0.131463 0.132355 0.134128 0.136449 0.135777 0.135254 0.136587 0.136886 0.13088 0.126908 0.129802 0.140293 0.145219 0.134783 0.125105 0.1195 0.115809 0.109646 -9999
-9999 0.131356 0.131978 0.133436 0.135839 0.135938 0.135382 0.13527 0.136092 0.135179 0.131188 0.133077 0.144252 0.148494 0.137396 0.12808 0.121111 0.110617 0.10668 -9999
-9999 0.131249 0.131725 0.132938 0.135527 0.135457 0.135698 0.135027 0.134736 0.135218 0.135116 0.135859 0.144957 0.151974 0.14174 0.130883 0.122312 0.106282 -9999 -9999
-9999 0.131178 0.131576 0.132426 0.13375 0.135026 0.134822 0.133713 0.133347 0.134214 0.13628 0.137319 0.144126 0.14802 0.147104 0.134664 0.122469 0.10716 -9999 -9999
-9999 0.13115 0.131294 0.131706 0.132528 0.133963 0.133693 0.131753 0.131979 0.133125 0.135236 0.137135 0.14183 0.144454 0.144669 0.138082 0.125439 0.10873 0.11032 0.11144
-9999 -9999 0.131055 0.131272 0.13173 0.133 0.13264 0.130552 0.1307 0.131924 0.13372 0.135662 0.13809 0.140959 0.141069 0.138394 0.13464 0.125238 0.121005 0.12113
-9999 -9999 0.1310085 0.130937 0.131237 0.132146 0.131282 0.129307 0.129226 0.130168 0.131677 0.132833 0.134985 0.13643 0.136742 0.135877 0.133923 0.13134 0.130963 0.131
-9999 -9999 -9999 0.13077 0.130436 0.130417 0.129423 0.127779 0.126983 0.127342 0.128906 0.130362 0.132157 0.133109 0.133408 0.133134 0.132807 0.131598 0.130704 0.1308
