ncols        20
nrows        20
xllcorner    0
yllcorner    -3.59929275513
cellsize     0.179964631796
NODATA_value -9999
-9999.0 -9999 -9999 -9999 -9999 -9999 -9999 -9999 -9999 -9999 -9999 -9999 -9999 -9999 -9999 -9999 -9999 -9999 -9999 -9999
-9999 -9999 -9999 -9999 0.11938 0.118722 0.119305 0.120608 0.121902 0.122929 0.123757 0.12730475 0.12801 0.12825 0.12825 0.1281345 0.12816 -9999 -9999 -9999
-9999 -9999 -9999 -9999 0.117724 0.118139 0.119144 0.120591 0.121979 0.123656 0.125027 0.127675 0.128507 0.128651 0.128024 0.128202 0.128152 0.127908 -9999 -9999
-9999 -9999 -9999 0.11895875 0.11763 0.11646 0.118939 0.120509 0.122042 0.123989 0.126784 0.128823 0.129979 0.129633 0.128782 0.128618 0.128506 0.130489 -9999 -9999
-9999 -9999 -9999 0.121666 0.118815 0.117351 0.11873 0.120377 0.12193 0.124389 0.127468 0.13097 0.131648 0.130728 0.129815 0.129467 0.131073 0.125507 -9999 -9999
-9999 -9999 0.125413 0.123235 0.122272 0.120892 0.11826 0.119791 0.121635 0.12434 0.127651 0.130636 0.132676 0.131466 0.13054 0.131185 0.128906 0.113893 0.12485 -9999
-9999 -9999 0.129873 0.126878 0.126593 0.125053 0.122112 0.118508 0.120839 0.123427 0.126452 0.128391 0.130375 0.132118 0.131642 0.13117 0.1237 0.126039 0.124115 -9999
-9999 -9999 0.133363 0.132488 0.130609 0.130177 0.126518 0.122 0.119471 0.122023 0.123861 0.125807 0.127885 0.129903 0.131238 0.131015 0.126554 0.124679 0.123673 -9999
-9999 0.1333 0.134469 0.13693 0.135744 0.133976 0.132242 0.127152 0.121079 0.119361 0.12118 0.123138 0.125825 0.130698 0.13364 0.132349 0.126476 0.123975 0.12123 -9999
-9999 0.133015 0.134073 0.136979 0.136597 0.135322 0.135766 0.133158 0.125711 0.118357 0.118372 0.120971 0.128799 0.133704 0.13623 0.130724 0.124539 0.123504 0.120677 -9999
-9999 0.132682 0.133687 0.136012 0.137202 0.135634 0.135596 0.136626 0.129423 0.12242 0.11532 0.124938 0.131615 0.137594 0.138268 0.129017 0.122848 0.121922 0.119094 -9999
-9999 0.132435 0.133403 0.135212 0.137257 0.135877 0.135435 0.136907 0.132125 0.12587 0.121447 0.127241 0.136382 0.141995 0.136852 0.127379 0.122005 0.120665 0.115817 -9999
-9999 0.13232 0.133191 0.134592 0.136767 0.136086 0.135418 0.136543 0.136837 0.130368 0.126723 0.130322 0.141335 0.146948 0.137159 0.127105 0.121119 0.117585 0.111087 -9999
-9999 0.132233 0.132937 0.133995 0.136249 0.136351 0.135569 0.135503 0.136181 0.135062 0.131242 0.133466 0.145351 0.150209 0.13955 0.13004 0.123007 0.11242 0.10806 -9999
-9999 0.132037 0.132696 0.133649 0.13597 0.13585 0.135995 0.135306 0.135172 0.135416 0.135238 0.136253 0.146089 0.153725 0.14355 0.132719 0.124339 0.108112 -9999 -9999
-9999 0.131794 0.132506 0.133349 0.134343 0.135487 0.135251 0.134346 0.134324 0.134831 0.1367 0.137886 0.145322 0.1498 0.14869 0.136369 0.124496 0.108858 -9999 -9999
-9999 0.13157 0.132093 0.132677 0.133483 0.134575 0.134139 0.13291 0.133309 0.134413 0.136112 0.138027 0.143229 0.146232 0.146469 0.140295 0.127549 0.11033 0.112055 0.11293
-9999 -9999 0.131527 0.132064 0.132727 0.133914 0.133123 0.131993 0.132238 0.133529 0.135204 0.137175 0.139574 0.142544 0.142984 0.140765 0.137293 0.12702 0.122745 0.12331
-9999 -9999 0.13154725 0.131458 0.132066 0.133145 0.132163 0.130967 0.13112 0.132186 0.133491 0.135035 0.136778 0.137867 0.13852 0.138183 0.136562 0.133268 0.133084 0.13353
-9999 -9999 -9999 0.13114 0.131109 0.131472 0.130707 0.129586 0.129511 0.130204 0.131386 0.132762 0.134133 0.135138 0.135765 0.135643 0.135696 0.134162 0.133062 0.1333
