ncols        20
nrows        20
xllcorner    0
yllcorner    -3.59929275513
cellsize     0.179964631796
NODATA_value -9999
-9999.0 -9999 -9999 -9999 -9999 -9999 -9999 -9999 -9999 -9999 -9999 -9999 -9999 -9999 -9999 -9999 -9999 -9999 -9999 -9999
-9999 -9999 -9999 -9999 0.12548 0.124925 0.12562 0.127106 0.128607 0.129926 0.131132 0.136314 0.13733 0.13761 0.13761 0.1382855 0.13868 -9999 -9999 -9999
-9999 -9999 -9999 -9999 0.123983 0.124397 0.125529 0.12713 0.128867 0.131045 0.133018 0.136834 0.138074 0.138239 0.137507 0.138127 0.138828 0.142041 -9999 -9999
-9999 -9999 -9999 0.1256645 0.124027 0.123398 0.125313 0.127144 0.129134 0.131678 0.135537 0.138681 0.1404 0.139814 0.13845 0.138471 0.141289 0.1429 -9999 -9999
-9999 -9999 -9999 0.129005 0.125643 0.123708 0.125273 0.127046 0.129109 0.132369 0.136808 0.14248 0.143317 0.141207 0.139548 0.140161 0.142446 0.135136 -9999 -9999
-9999 -9999 0.1316945 0.130448 0.128477 0.126534 0.124988 0.126665 0.128589 0.132203 0.137076 0.142083 0.145008 0.142292 0.140146 0.141608 0.138234 0.120147 0.12854 -9999
-9999 -9999 0.134835 0.13249 0.131449 0.129649 0.127585 0.125087 0.127407 0.130864 0.135731 0.138451 0.141148 0.143159 0.142006 0.140443 0.129635 0.130415 0.127639 -9999
-9999 -9999 0.137977 0.136786 0.134378 0.133534 0.130417 0.127151 0.125813 0.129398 0.131771 0.134407 0.137226 0.139317 0.140975 0.137347 0.13151 0.128331 0.12706 -9999
-9999 0.13846 0.139401 0.141781 0.139374 0.136739 0.135259 0.131213 0.126163 0.125416 0.127676 0.130308 0.133451 0.138587 0.140169 0.138017 0.130752 0.127463 0.124496 -9999
-9999 0.138596 0.138903 0.142123 0.140496 0.138106 0.138245 0.136069 0.129456 0.122963 0.123686 0.126717 0.134757 0.140133 0.141436 0.135374 0.128542 0.126887 0.124127 -9999
-9999 0.138754 0.138467 0.141149 0.141677 0.138529 0.138078 0.138816 0.132329 0.125999 0.11968 0.129658 0.137336 0.14263 0.14262 0.133114 0.126898 0.125411 0.122901 -9999
-9999 0.138748 0.138311 0.140252 0.142129 0.139059 0.138015 0.139082 0.134538 0.129038 0.124864 0.131266 0.140912 0.146096 0.140487 0.131552 0.125836 0.124528 0.119743 -9999
-9999 0.13844 0.138448 0.139429 0.141844 0.139694 0.138125 0.138767 0.138579 0.132676 0.129223 0.133359 0.144933 0.150345 0.140548 0.13126 0.125132 0.121739 0.115376 -9999
-9999 0.13813 0.138597 0.138624 0.141478 0.140436 0.13852 0.137948 0.138009 0.136054 0.1328 0.135529 0.148006 0.153086 0.142796 0.13408 0.127328 0.116996 0.11269 -9999
-9999 0.137883 0.138435 0.138291 0.141137 0.14062 0.139798 0.138141 0.136891 0.13604 0.13576 0.137381 0.147733 0.156059 0.146718 0.136658 0.128865 0.113166 -9999 -9999
-9999 0.137688 0.138155 0.138328 0.139069 0.140513 0.139916 0.13724 0.135989 0.135439 0.136717 0.138206 0.14625 0.15136 0.151896 0.140261 0.129066 0.113892 -9999 -9999
-9999 0.13752 0.137696 0.138044 0.13831 0.139354 0.138714 0.135803 0.1353 0.135195 0.13621 0.137936 0.143596 0.147107 0.148889 0.144591 0.131999 0.11507 0.116535 0.11817
-9999 -9999 0.13732 0.137531 0.13786 0.138584 0.137524 0.135135 0.134565 0.134817 0.135919 0.137451 0.139576 0.142981 0.144185 0.143315 0.141246 0.131075 0.1271 0.12844
-9999 -9999 0.13718925 0.137116 0.137248 0.137722 0.13642 0.134545 0.133745 0.134128 0.135219 0.136266 0.137518 0.138227 0.138795 0.139183 0.138701 0.136657 0.137732 0.13936
-9999 -9999 -9999 0.13679 0.136268 0.136125 0.135466 0.13385 0.133143 0.132981 0.134057 0.134942 0.135864 0.136288 0.136896 0.136456 0.136321 0.135995 0.136376 0.13777
