ncols        20
nrows        20
xllcorner    0
yllcorner    -3.59929275513
cellsize     0.179964631796
NODATA_value -9999
-9999.0 -9999 -9999 -9999 -9999 -9999 -9999 -9999 -9999 -9999 -9999 -9999 -9999 -9999 -9999 -9999 -9999 -9999 -9999 -9999
-9999 -9999 -9999 -9999 0.10484 0.103741 0.104658 0.106532 0.107955 0.108847 0.109362 0.11071025 0.11092 0.11085 0.11085 0.10897475 0.10822 -9999 -9999 -9999
-9999 -9999 -9999 -9999 0.101609 0.1028 0.104428 0.106621 0.108038 0.109266 0.109962 0.110887 0.111072 0.111025 0.110324 0.109288 0.108067 0.104315 -9999 -9999
-9999 -9999 -9999 0.10260525 0.101066 0.099836 0.104502 0.106539 0.10814 0.109317 0.110786 0.11133 0.111559 0.111257 0.110462 0.109449 0.106349 0.108806 -9999 -9999
-9999 -9999 -9999 0.105498 0.102248 0.101286 0.104141 0.106399 0.107785 0.109546 0.110869 0.111759 0.111956 0.111931 0.111248 0.109548 0.110372 0.107671 -9999 -9999
-9999 -9999 0.111608 0.10756 0.107257 0.106277 0.103058 0.105407 0.107777 0.109533 0.110856 0.111375 0.11226 0.112133 0.111904 0.11194 0.110902 0.100794 0.1153 -9999
-9999 -9999 0.118841 0.114533 0.113909 0.111731 0.108143 0.103815 0.107229 0.109044 0.109642 0.110652 0.111461 0.112074 0.112352 0.11303 0.110662 0.115636 0.114897 -9999
-9999 -9999 0.123044 0.121194 0.118835 0.117811 0.114364 0.109065 0.105864 0.107464 0.108522 0.109543 0.110428 0.111854 0.113145 0.117214 0.115176 0.115207 0.115132 -9999
-9999 0.12401 0.124618 0.125506 0.123614 0.122543 0.120709 0.115574 0.108682 0.105861 0.10705 0.108059 0.110021 0.114866 0.119558 0.119624 0.11615 0.11487 0.113446 -9999
-9999 0.124173 0.124538 0.126117 0.125068 0.123916 0.124206 0.121692 0.114479 0.106124 0.105175 0.10699 0.114477 0.119762 0.123542 0.119553 0.114819 0.115117 0.11312 -9999
-9999 0.124308 0.124357 0.125767 0.125859 0.124122 0.124191 0.124872 0.118679 0.111242 0.10306 0.111903 0.11766 0.125079 0.126555 0.11885 0.113565 0.114119 0.111786 -9999
-9999 0.124553 0.124287 0.125395 0.12624 0.12448 0.124065 0.125156 0.121176 0.115043 0.110007 0.114748 0.123936 0.130374 0.12644 0.117802 0.113496 0.113157 0.108645 -9999
-9999 0.12516 0.124359 0.125032 0.12622 0.124983 0.124023 0.124903 0.125302 0.119806 0.115896 0.118518 0.129738 0.136114 0.127584 0.118178 0.11321 0.110251 0.104032 -9999
-9999 0.125827 0.124455 0.124703 0.126189 0.125595 0.124175 0.124075 0.124854 0.12404 0.120804 0.12221 0.134342 0.139903 0.130374 0.12174 0.115182 0.105128 0.10083 -9999
-9999 0.126363 0.124806 0.124551 0.126043 0.125765 0.125096 0.12396 0.124071 0.124405 0.124516 0.125658 0.135552 0.14378 0.134429 0.12432 0.116431 0.100618 -9999 -9999
-9999 0.126834 0.125307 0.124546 0.124969 0.125738 0.125506 0.123316 0.123192 0.123906 0.125893 0.127529 0.135179 0.140122 0.139196 0.127685 0.116579 0.101193 -9999 -9999
-9999 0.12733 0.126206 0.125147 0.124589 0.125101 0.124726 0.122356 0.122554 0.123692 0.125656 0.127876 0.133316 0.136634 0.136869 0.130621 0.119391 0.10263 0.104545 0.10618
-9999 -9999 0.127274 0.126183 0.12516 0.124492 0.123824 0.122128 0.122275 0.123584 0.1253 0.127279 0.129378 0.132833 0.133459 0.130923 0.127951 0.118682 0.11486 0.11589
-9999 -9999 0.1272545 0.127211 0.125921 0.12451 0.123127 0.122052 0.122221 0.123437 0.124581 0.125863 0.127479 0.12847 0.128491 0.128481 0.127397 0.125036 0.125074 0.12559
-9999 -9999 -9999 0.12835 0.126341 0.124765 0.123242 0.121863 0.121815 0.123191 0.124233 0.12484 0.125981 0.126713 0.126891 0.12667 0.126466 0.125688 0.125288 0.1258
