ncols        20
nrows        20
xllcorner    0
yllcorner    -3.59929275513
cellsize     0.179964631796
NODATA_value -9999
-9999.0 -9999 -9999 -9999 -9999 -9999 -9999 -9999 -9999 -9999 -9999 -9999 -9999 -9999 -9999 -9999 -9999 -9999 -9999 -9999
-9999 -9999 -9999 -9999 0.11026 0.109219 0.109818 0.11129 0.11267 0.113614 0.114213 0.116086 0.11643 0.11673 0.11673 0.11469975 0.1139 -9999 -9999 -9999
-9999 -9999 -9999 -9999 0.107898 0.108337 0.109495 0.111278 0.11268 0.114098 0.115019 0.116263 0.116632 0.116819 0.116115 0.114982 0.113802 0.111136 -9999 -9999
-9999 -9999 -9999 0.10919725 0.107802 0.106063 0.109313 0.11112 0.112687 0.114191 0.115792 0.116605 0.117092 0.116954 0.116156 0.115101 0.112585 0.114862 -9999 -9999
-9999 -9999 -9999 0.112081 0.109008 0.107274 0.108994 0.110894 0.112357 0.114403 0.115902 0.117095 0.11752 0.117595 0.116874 0.115023 0.116019 0.113119 -9999 -9999
-9999 -9999 0.11749 0.113988 0.113388 0.111968 0.108214 0.110003 0.112285 0.114315 0.115889 0.116713 0.117749 0.117686 0.117363 0.11713 0.116153 0.105795 0.11964 -9999
-9999 -9999 0.123887 0.120004 0.119521 0.117339 0.113508 0.108612 0.111789 0.113809 0.11473 0.115771 0.116738 0.117607 0.11739 0.118079 0.115193 0.120023 0.11929 -9999
-9999 -9999 0.127781 0.126384 0.124076 0.123145 0.119454 0.11374 0.110434 0.112322 0.113412 0.114426 0.115386 0.116726 0.11822 0.121719 0.119554 0.119559 0.119427 -9999
-9999 0.12791 0.129149 0.1306 0.129004 0.127426 0.125626 0.12027 0.113162 0.110453 0.111717 0.112744 0.114689 0.119633 0.124049 0.124014 0.120497 0.11926 0.117458 -9999
-9999 0.127809 0.128877 0.130993 0.130253 0.12911 0.129492 0.126957 0.119218 0.110667 0.109716 0.111595 0.119152 0.124219 0.1279 0.123847 0.119191 0.119384 0.117073 -9999
-9999 0.127658 0.128508 0.130438 0.13095 0.12938 0.129507 0.130346 0.123621 0.116022 0.10746 0.116464 0.12226 0.129428 0.130838 0.123173 0.117928 0.118142 0.11571 -9999
-9999 0.127575 0.128236 0.129923 0.131208 0.129712 0.129391 0.130656 0.126238 0.119937 0.114637 0.119367 0.128364 0.134728 0.130789 0.122126 0.117733 0.117088 0.112443 -9999
-9999 0.127667 0.128079 0.12944 0.131023 0.130091 0.129366 0.130377 0.130684 0.124914 0.120726 0.123357 0.134423 0.140592 0.131925 0.122454 0.117287 0.114088 0.107574 -9999
-9999 0.127787 0.127927 0.128952 0.130803 0.130534 0.129535 0.129443 0.130171 0.129359 0.125772 0.127317 0.139272 0.144547 0.134849 0.12598 0.119124 0.108822 0.10431 -9999
-9999 0.127842 0.127882 0.128604 0.130633 0.130502 0.130244 0.129347 0.129297 0.129632 0.129744 0.130768 0.140579 0.148497 0.139136 0.128591 0.120324 0.104226 -9999 -9999
-9999 0.127865 0.127917 0.128286 0.129315 0.130367 0.13019 0.128603 0.128308 0.12896 0.131157 0.132689 0.140157 0.145012 0.14404 0.132035 0.120434 0.10481 -9999 -9999
-9999 0.1279 0.127942 0.128003 0.128405 0.129542 0.129563 0.127321 0.127379 0.128401 0.13063 0.133105 0.13844 0.141768 0.141887 0.135289 0.123274 0.10623 0.10817 0.10968
-9999 -9999 0.127909 0.127993 0.128061 0.128822 0.128785 0.126777 0.126654 0.127736 0.129983 0.132452 0.135087 0.138306 0.138747 0.135906 0.132426 0.122637 0.118685 0.1197
-9999 -9999 0.12789675 0.127905 0.127919 0.128405 0.127766 0.126409 0.125926 0.126849 0.128542 0.130422 0.132508 0.133867 0.134344 0.133962 0.132519 0.129585 0.129194 0.12971
-9999 -9999 -9999 0.12778 0.127541 0.1273 0.126618 0.125436 0.12497 0.125546 0.127061 0.128373 0.129955 0.131176 0.131864 0.131744 0.131781 0.130628 0.129892 0.13014
