ncols        20
nrows        20
xllcorner    0
yllcorner    -3.59929275513
cellsize     0.179964631796
NODATA_value -9999
-9999.0 -9999 -9999 -9999 -9999 -9999 -9999 -9999 -9999 -9999 -9999 -9999 -9999 -9999 -9999 -9999 -9999 -9999 -9999 -9999
-9999 -9999 -9999 -9999 0.11994 0.119483 0.120367 0.122108 0.123695 0.125019 0.126077 0.12930175 0.12984 0.13044 0.13044 0.12972975 0.12962 -9999 -9999 -9999
-9999 -9999 -9999 -9999 0.117848 0.118939 0.12031 0.122106 0.123996 0.125991 0.127446 0.129587 0.130334 0.130706 0.129961 0.129718 0.12962 0.129648 -9999 -9999
-9999 -9999 -9999 0.1186575 0.117376 0.117073 0.120203 0.122371 0.124459 0.126573 0.128918 0.130563 0.131604 0.13136 0.130337 0.129895 0.130312 0.132886 -9999 -9999
-9999 -9999 -9999 0.121141 0.118265 0.117588 0.120298 0.122554 0.124519 0.127049 0.129504 0.13228 0.132906 0.132407 0.131451 0.131415 0.133506 0.128351 -9999 -9999
-9999 -9999 0.12605625 0.123081 0.122108 0.121205 0.119795 0.122015 0.123943 0.126665 0.129607 0.131991 0.133988 0.133238 0.132524 0.133754 0.131777 0.117309 0.12868 -9999
-9999 -9999 0.131955 0.128048 0.126916 0.125094 0.123122 0.120367 0.122866 0.125672 0.12847 0.13053 0.132464 0.134075 0.134734 0.134036 0.127488 0.130084 0.127849 -9999
-9999 -9999 0.136454 0.134325 0.130997 0.130116 0.126271 0.122894 0.12099 0.124164 0.126158 0.128411 0.130709 0.133183 0.134277 0.135039 0.130777 0.128487 0.127738 -9999
-9999 0.13704 0.138316 0.13994 0.13709 0.134119 0.132082 0.127844 0.122563 0.121477 0.123628 0.125972 0.129139 0.13396 0.137312 0.137148 0.130559 0.127731 0.125542 -9999
-9999 0.137225 0.137988 0.140671 0.138879 0.135941 0.135711 0.133521 0.12739 0.120762 0.121122 0.124139 0.132163 0.137209 0.140376 0.135206 0.128415 0.127657 0.12531 -9999
-9999 0.13739 0.137556 0.140036 0.140216 0.136609 0.135782 0.136356 0.130715 0.124877 0.11814 0.128049 0.134958 0.14137 0.142674 0.13316 0.126761 0.12646 0.124329 -9999
-9999 0.137503 0.137338 0.139363 0.1408 0.137424 0.13586 0.136799 0.132783 0.127839 0.124175 0.130263 0.139821 0.146015 0.141166 0.131487 0.126203 0.125774 0.121335 -9999
-9999 0.13762 0.137389 0.138663 0.140704 0.13842 0.13612 0.136743 0.136438 0.131624 0.129141 0.132996 0.144743 0.150998 0.141344 0.131464 0.126024 0.123157 0.116916 -9999
-9999 0.137748 0.137483 0.13799 0.14057 0.139584 0.136761 0.136173 0.136486 0.135062 0.133152 0.135619 0.148379 0.154019 0.143588 0.13493 0.128661 0.118429 0.11381 -9999
-9999 0.137764 0.137585 0.137647 0.140273 0.139879 0.138695 0.136543 0.136149 0.135675 0.135883 0.137793 0.148731 0.157102 0.147365 0.137863 0.130587 0.114561 -9999 -9999
-9999 0.13774 0.137695 0.137514 0.13842 0.139779 0.139412 0.136163 0.135951 0.135875 0.137087 0.138668 0.147232 0.152341 0.152329 0.141495 0.131024 0.115382 -9999 -9999
-9999 0.13774 0.137726 0.137649 0.137573 0.138693 0.138308 0.135489 0.135969 0.136459 0.13716 0.138457 0.144406 0.147983 0.149477 0.145349 0.133903 0.11661 0.11801 0.11922
-9999 -9999 0.137606 0.13768 0.137642 0.137943 0.137187 0.135655 0.136073 0.136797 0.137336 0.138539 0.140274 0.14375 0.145126 0.144333 0.142448 0.132554 0.1287 0.12927
-9999 -9999 0.137451 0.137458 0.137596 0.137602 0.136111 0.135751 0.136196 0.137062 0.137204 0.137893 0.138984 0.139247 0.139803 0.140543 0.140092 0.137973 0.138821 0.1397
-9999 -9999 -9999 0.13706 0.137086 0.136894 0.135421 0.135503 0.136178 0.137494 0.137843 0.137827 0.138531 0.138215 0.138247 0.137809 0.137754 0.136986 0.136992 0.1379
