ncols        20
nrows        20
xllcorner    0
yllcorner    -3.59929275513
cellsize     0.179964631796
NODATA_value -9999
-9999.0 -9999 -9999 -9999 -9999 -9999 -9999 -9999 -9999 -9999 -9999 -9999 -9999 -9999 -9999 -9999 -9999 -9999 -9999 -9999
-9999 -9999 -9999 -9999 0.11083 0.11013 0.110785 0.112326 0.113959 0.11516 0.116012 0.11901275 0.1196 0.11973 0.11973 0.118593 0.11824 -9999 -9999 -9999
-9999 -9999 -9999 -9999 0.108807 0.10948 0.110603 0.112365 0.114075 0.115882 0.117107 0.119346 0.119998 0.120073 0.119224 0.118684 0.118224 0.11748 -9999 -9999
-9999 -9999 -9999 0.10980175 0.108677 0.107439 0.110273 0.112287 0.114167 0.116078 0.11866 0.120374 0.121238 0.120798 0.119559 0.118828 0.118171 0.120216 -9999 -9999
-9999 -9999 -9999 0.112081 0.109642 0.108245 0.110079 0.112138 0.11393 0.116401 0.119225 0.122257 0.122724 0.121665 0.120361 0.119362 0.120915 0.116481 -9999 -9999
-9999 -9999 0.11703425 0.113776 0.113163 0.111874 0.109104 0.111293 0.113766 0.116432 0.119393 0.121818 0.123426 0.122014 0.120814 0.121169 0.119675 0.10626 0.11823 -9999
-9999 -9999 0.123045 0.119235 0.118484 0.116366 0.113387 0.109655 0.113021 0.115601 0.117983 0.119563 0.121003 0.122064 0.121448 0.121869 0.115884 0.119083 0.117582 -9999
-9999 -9999 0.126898 0.125265 0.122707 0.121524 0.118066 0.113589 0.111537 0.113843 0.115378 0.116921 0.118385 0.120041 0.122063 0.122923 0.11915 0.11808 0.11743 -9999
-9999 0.12767 0.128421 0.129842 0.127551 0.125354 0.123636 0.119028 0.11301 0.111023 0.112667 0.114267 0.116609 0.121955 0.125447 0.124145 0.119519 0.117484 0.115152 -9999
-9999 0.127917 0.128143 0.130303 0.129003 0.126973 0.127075 0.124767 0.117768 0.110059 0.109787 0.112189 0.12005 0.125446 0.128177 0.123257 0.117853 0.117331 0.11464 -9999
-9999 0.128154 0.127842 0.129685 0.129997 0.127449 0.12703 0.127791 0.121428 0.114439 0.10668 0.116276 0.122905 0.129479 0.130387 0.122015 0.11635 0.115883 0.113054 -9999
-9999 0.128369 0.127771 0.129107 0.130387 0.127985 0.126983 0.128118 0.123806 0.117962 0.113075 0.118569 0.127989 0.133983 0.129466 0.120702 0.115798 0.114644 0.109732 -9999
-9999 0.128667 0.127971 0.128569 0.130191 0.128609 0.127072 0.127873 0.127928 0.122304 0.118479 0.121698 0.133055 0.139087 0.130061 0.120735 0.115052 0.111578 0.105008 -9999
-9999 0.128986 0.128188 0.128049 0.129962 0.129357 0.127425 0.127108 0.127633 0.126241 0.122932 0.124849 0.137111 0.142354 0.132593 0.12387 0.116792 0.106421 0.10191 -9999
-9999 0.129336 0.128433 0.127913 0.129743 0.129412 0.128652 0.127154 0.126996 0.126637 0.126351 0.127744 0.137638 0.14565 0.13643 0.126053 0.117905 0.101954 -9999 -9999
-9999 0.129722 0.128715 0.128086 0.128364 0.129296 0.128949 0.126461 0.126283 0.126343 0.127777 0.129171 0.136727 0.141617 0.140908 0.129152 0.117889 0.10253 -9999 -9999
-9999 0.13014 0.129258 0.128569 0.128101 0.128536 0.127887 0.125451 0.125683 0.126334 0.127678 0.12921 0.134374 0.137876 0.138325 0.132301 0.120723 0.10395 0.10589 0.10745
-9999 -9999 0.130072 0.129258 0.128536 0.127936 0.126791 0.125137 0.125295 0.126205 0.127554 0.128877 0.130424 0.133892 0.134429 0.131988 0.129225 0.120152 0.116245 0.11748
-9999 -9999 0.1300185 0.129984 0.129039 0.127743 0.126028 0.124825 0.124988 0.125951 0.127074 0.128076 0.129023 0.129503 0.129253 0.12909 0.12794 0.126204 0.12634 0.12713
-9999 -9999 -9999 0.13076 0.129248 0.127821 0.125941 0.124719 0.124543 0.125509 0.126658 0.127145 0.127747 0.128126 0.127903 0.127023 0.126424 0.126316 0.12637 0.12711
