ncols        20
nrows        20
xllcorner    0
yllcorner    -3.59929275513
cellsize     0.179964631796
NODATA_value -9999
-9999.0 -9999 -9999 -9999 -9999 -9999 -9999 -9999 -9999 -9999 -9999 -9999 -9999 -9999 -9999 -9999 -9999 -9999 -9999 -9999
-9999 -9999 -9999 -9999 0.10735 0.106359 0.107237 0.109123 0.110673 0.111676 0.112268 0.11363425 0.11387 0.11408 0.11408 0.11194 0.11113 -9999 -9999 -9999
-9999 -9999 -9999 -9999 0.104396 0.105463 0.107012 0.109248 0.110805 0.112165 0.112854 0.113777 0.114036 0.114167 0.11343 0.11222 0.11098 0.107294 -9999 -9999
-9999 -9999 -9999 0.10545125 0.104082 0.102674 0.106985 0.109195 0.111003 0.11231 0.113518 0.114109 0.114439 0.114229 0.113393 0.11228 0.109238 0.111234 -9999 -9999
-9999 -9999 -9999 0.108109 0.105218 0.104117 0.106796 0.109173 0.110804 0.112496 0.113669 0.1145 0.11467 0.114834 0.114099 0.112283 0.112765 0.109351 -9999 -9999
-9999 -9999 0.11392775 0.110109 0.109848 0.109062 0.105985 0.108386 0.110698 0.112402 0.113742 0.114067 0.114903 0.114864 0.114391 0.114001 0.11262 0.10138 0.11656 -9999
-9999 -9999 0.120754 0.116739 0.116115 0.114167 0.111139 0.106752 0.110044 0.111797 0.112505 0.113383 0.114071 0.11443 0.114239 0.114696 0.111302 0.116688 0.116271 -9999
-9999 -9999 0.124773 0.123172 0.120802 0.120011 0.116585 0.111851 0.108661 0.110234 0.111209 0.112167 0.112877 0.113745 0.114825 0.118076 0.115896 0.116493 0.11665 -9999
-9999 0.12559 0.126244 0.127368 0.125626 0.124337 0.122661 0.117852 0.111178 0.108388 0.109693 0.110706 0.112179 0.116702 0.120839 0.120168 0.117195 0.116274 0.114963 -9999
-9999 0.1256 0.126198 0.127858 0.12705 0.125871 0.126133 0.123611 0.116749 0.10861 0.107798 0.109558 0.116623 0.121324 0.124576 0.120349 0.116039 0.116662 0.11457 -9999
-9999 0.125548 0.126049 0.127423 0.127757 0.126187 0.126141 0.126774 0.120627 0.113686 0.10553 0.114146 0.119601 0.126437 0.127524 0.119939 0.114862 0.115639 0.113124 -9999
-9999 0.125586 0.125942 0.127052 0.128048 0.12656 0.126061 0.127114 0.123062 0.117302 0.11249 0.116819 0.125689 0.131601 0.127608 0.119009 0.114934 0.114551 0.109963 -9999
-9999 0.125895 0.125892 0.126772 0.127934 0.126992 0.126076 0.126933 0.127184 0.121916 0.118308 0.120625 0.131564 0.137386 0.128825 0.11948 0.114716 0.111578 0.105234 -9999
-9999 0.126219 0.125848 0.126509 0.127817 0.127501 0.126293 0.126202 0.126881 0.12612 0.123012 0.124469 0.136351 0.141243 0.131666 0.12309 0.116544 0.106381 0.1019 -9999
-9999 0.126342 0.126023 0.126314 0.127783 0.127468 0.127114 0.126144 0.126239 0.12641 0.126591 0.12791 0.137716 0.145102 0.135683 0.125513 0.11766 0.101791 -9999 -9999
-9999 0.126389 0.126313 0.126163 0.126857 0.127504 0.127181 0.125573 0.125375 0.125877 0.12794 0.129556 0.137039 0.141456 0.140193 0.128637 0.117664 0.102311 -9999 -9999
-9999 0.12647 0.126504 0.126367 0.126282 0.127047 0.126521 0.124561 0.124811 0.125659 0.127532 0.129582 0.134909 0.137981 0.137714 0.131065 0.120237 0.10371 0.10524 0.1064
-9999 -9999 0.126569 0.126578 0.12649 0.126491 0.125765 0.12413 0.124433 0.125457 0.127101 0.129006 0.130993 0.134294 0.134361 0.131356 0.128345 0.119262 0.115115 0.11571
-9999 -9999 0.12679125 0.126638 0.126607 0.126304 0.125039 0.123801 0.124084 0.125075 0.126244 0.127396 0.128965 0.12985 0.129581 0.129258 0.127905 0.12509 0.124676 0.1246
-9999 -9999 -9999 0.12738 0.126562 0.125915 0.124591 0.123319 0.123336 0.124458 0.125489 0.126182 0.127181 0.127849 0.127795 0.127339 0.126964 0.125975 0.125026 0.12495
