ncols        20
nrows        20
xllcorner    0
yllcorner    -3.59929275513
cellsize     0.179964631796
NODATA_value -9999
-9999.0 -9999 -9999 -9999 -9999 -9999 -9999 -9999 -9999 -9999 -9999 -9999 -9999 -9999 -9999 -9999 -9999 -9999 -9999 -9999
-9999 -9999 -9999 -9999 0.13619 0.135944 0.136656 0.137908 0.139013 0.140366 0.141895 0.1480915 0.14921 0.14963 0.14963 0.150673 0.15128 -9999 -9999 -9999
-9999 -9999 -9999 -9999 0.135006 0.135655 0.13669 0.137864 0.139392 0.141839 0.144345 0.148722 0.150089 0.15034 0.1495 0.150422 0.15149 0.156214 -9999 -9999
-9999 -9999 -9999 0.1365045 0.134785 0.134777 0.136516 0.137944 0.139814 0.142934 0.147474 0.150978 0.152817 0.152118 0.150638 0.15086 0.155081 0.156805 -9999 -9999
-9999 -9999 -9999 0.139902 0.136325 0.135099 0.136463 0.137938 0.14012 0.144003 0.149015 0.155359 0.156205 0.15381 0.152058 0.153356 0.156083 0.146796 -9999 -9999
-9999 -9999 0.14202225 0.141339 0.13891 0.137009 0.136345 0.137719 0.139282 0.143593 0.149301 0.154989 0.15822 0.155273 0.153191 0.154953 0.150511 0.129252 0.13647 -9999
-9999 -9999 0.14448 0.142368 0.141433 0.139702 0.138258 0.136389 0.13797 0.141932 0.147865 0.150935 0.154115 0.156762 0.156036 0.153074 0.139379 0.138916 0.135175 -9999
-9999 -9999 0.147844 0.146679 0.144145 0.143683 0.140127 0.137341 0.136274 0.14051 0.143161 0.146445 0.150186 0.152991 0.153479 0.147767 0.140557 0.136169 0.134458 -9999
-9999 0.14681 0.148497 0.152114 0.149629 0.146737 0.14502 0.140739 0.135878 0.135847 0.138504 0.141918 0.145936 0.150228 0.150791 0.14797 0.139163 0.134935 0.131679 -9999
-9999 0.146571 0.147592 0.152038 0.150489 0.147864 0.148001 0.145579 0.138562 0.132811 0.13423 0.137815 0.146 0.150815 0.151513 0.144452 0.13647 0.134273 0.13125 -9999
-9999 0.14638 0.146858 0.150586 0.151722 0.148286 0.147734 0.148407 0.141544 0.135169 0.12978 0.140202 0.148357 0.152749 0.152104 0.141406 0.134648 0.132553 0.13004 -9999
-9999 0.146156 0.146405 0.149254 0.152072 0.148764 0.147619 0.148735 0.143758 0.138175 0.134432 0.141462 0.15113 0.155703 0.149288 0.139468 0.133328 0.131697 0.127025 -9999
-9999 0.145703 0.146208 0.14805 0.151499 0.149317 0.147714 0.148437 0.147946 0.141771 0.138375 0.142916 0.154455 0.159441 0.148641 0.138928 0.132352 0.129027 0.122986 -9999
-9999 0.145246 0.146027 0.146872 0.150789 0.149972 0.14811 0.147488 0.147417 0.144844 0.141624 0.144586 0.156899 0.161719 0.150519 0.14158 0.134779 0.12454 0.12023 -9999
-9999 0.144618 0.145689 0.146157 0.150113 0.149955 0.149276 0.147597 0.146008 0.144853 0.144267 0.14588 0.156232 0.164322 0.15429 0.144234 0.136535 0.121003 -9999 -9999
-9999 0.143917 0.145277 0.145703 0.147192 0.149309 0.14905 0.146245 0.144968 0.144221 0.144997 0.146157 0.154169 0.158949 0.159452 0.14785 0.13678 0.121828 -9999 -9999
-9999 0.14323 0.144313 0.145117 0.145572 0.147435 0.147271 0.144433 0.14407 0.143804 0.144282 0.145257 0.150869 0.15411 0.156003 0.15203 0.139562 0.12296 0.123985 0.12522
-9999 -9999 0.142942 0.143996 0.144852 0.146072 0.145638 0.143485 0.143046 0.143286 0.143583 0.144369 0.146475 0.149554 0.150696 0.150209 0.148641 0.138868 0.13483 0.1353
-9999 -9999 0.14279925 0.142659 0.143733 0.145026 0.143945 0.142414 0.141968 0.142422 0.142773 0.143195 0.144297 0.144787 0.144813 0.145124 0.144705 0.143455 0.145078 0.14629
-9999 -9999 -9999 0.1416 0.142247 0.143036 0.142604 0.141556 0.141056 0.140979 0.141664 0.142382 0.143459 0.14342 0.143271 0.14222 0.14129 0.141241 0.141805 0.14341
