ncols        20
nrows        20
xllcorner    0
yllcorner    -3.59929275513
cellsize     0.179964631796
NODATA_value -9999
-9999.0 -9999 -9999 -9999 -9999 -9999 -9999 -9999 -9999 -9999 -9999 -9999 -9999 -9999 -9999 -9999 -9999 -9999 -9999 -9999
-9999 -9999 -9999 -9999 0.1305 0.129866 0.130288 0.131195 0.132123 0.13317 0.134264 0.13966675 0.14075 0.14093 0.14093 0.142161 0.14287 -9999 -9999 -9999
-9999 -9999 -9999 -9999 0.129317 0.129354 0.130074 0.130962 0.132216 0.134187 0.136211 0.140215 0.141491 0.141593 0.140862 0.141894 0.143018 0.146383 -9999 -9999
-9999 -9999 -9999 0.13149325 0.12976 0.128734 0.129622 0.130901 0.132311 0.134836 0.138805 0.14201 0.143812 0.143306 0.141947 0.14226 0.145549 0.146958 -9999 -9999
-9999 -9999 -9999 0.135298 0.131598 0.129173 0.129741 0.130923 0.132472 0.135378 0.139955 0.145608 0.146565 0.144733 0.143161 0.144168 0.146185 0.138115 -9999 -9999
-9999 -9999 0.13789325 0.136833 0.134331 0.13188 0.130044 0.130754 0.131639 0.135204 0.140247 0.145199 0.148239 0.145862 0.14385 0.145219 0.141659 0.122254 0.13032 -9999
-9999 -9999 0.141041 0.138401 0.137353 0.135112 0.132892 0.129868 0.130608 0.133907 0.138987 0.141602 0.144538 0.147097 0.145861 0.144058 0.132137 0.132349 0.12941 -9999
-9999 -9999 0.144805 0.143115 0.140256 0.139486 0.135314 0.13114 0.129012 0.132559 0.134712 0.137426 0.140539 0.14302 0.144162 0.140153 0.133774 0.130109 0.128995 -9999
-9999 0.14499 0.145995 0.149248 0.146207 0.142898 0.140744 0.135216 0.129478 0.128347 0.130579 0.133394 0.136837 0.141378 0.142636 0.140954 0.132697 0.12925 0.12639 -9999
-9999 0.145397 0.145485 0.149489 0.147576 0.144605 0.144497 0.141185 0.133305 0.126236 0.126882 0.130026 0.137916 0.142567 0.144054 0.137837 0.130261 0.128859 0.125967 -9999
-9999 0.145832 0.145054 0.148152 0.149101 0.145099 0.144521 0.144644 0.136815 0.129827 0.12299 0.132965 0.140589 0.145186 0.145441 0.135042 0.128635 0.127279 0.124711 -9999
-9999 0.146021 0.144967 0.147052 0.149604 0.145782 0.144568 0.14521 0.139414 0.133224 0.128678 0.134703 0.144133 0.148963 0.142985 0.133214 0.127683 0.126313 0.121682 -9999
-9999 0.145877 0.145279 0.146193 0.149108 0.146639 0.144767 0.145103 0.144306 0.137472 0.13339 0.137231 0.148452 0.153424 0.142694 0.132837 0.126922 0.123496 0.117569 -9999
-9999 0.145766 0.145641 0.145351 0.148495 0.147632 0.145284 0.144529 0.144175 0.141439 0.137262 0.13978 0.15181 0.156305 0.144894 0.13549 0.129128 0.11878 0.11497 -9999
-9999 0.145521 0.145621 0.145038 0.148173 0.147652 0.14694 0.144943 0.143281 0.142085 0.140907 0.141855 0.1518 0.159622 0.148997 0.138591 0.130829 0.115014 -9999 -9999
-9999 0.1452 0.145448 0.145207 0.145958 0.147483 0.146798 0.144244 0.142777 0.142023 0.14247 0.143184 0.150652 0.154994 0.15478 0.142821 0.131258 0.115979 -9999 -9999
-9999 0.14488 0.145118 0.145237 0.145199 0.146346 0.145426 0.14293 0.14242 0.142122 0.142386 0.143256 0.148207 0.151011 0.152199 0.147511 0.13445 0.11743 0.119135 0.12086
-9999 -9999 0.144615 0.144826 0.145011 0.145646 0.144165 0.142332 0.141944 0.14206 0.142006 0.142665 0.144518 0.147335 0.148025 0.146799 0.144476 0.134135 0.13014 0.13113
-9999 -9999 0.144462 0.144347 0.144493 0.144778 0.143069 0.141768 0.141231 0.141576 0.141689 0.141591 0.142621 0.1431 0.143403 0.143112 0.142084 0.140226 0.141047 0.14253
-9999 -9999 -9999 0.14406 0.143627 0.143412 0.14225 0.141433 0.140753 0.140714 0.14126 0.14135 0.142043 0.141799 0.141731 0.140703 0.139968 0.139444 0.139334 0.14055
