ncols        20
nrows        20
xllcorner    0
yllcorner    -3.59929275513
cellsize     0.179964631796
NODATA_value -9999
-9999.0 -9999 -9999 -9999 -9999 -9999 -9999 -9999 -9999 -9999 -9999 -9999 -9999 -9999 -9999 -9999 -9999 -9999 -9999 -9999
-9999 -9999 -9999 -9999 0.1195 0.118728 0.119333 0.120734 0.122136 0.123164 0.123882 0.126796 0.12736 0.12763 0.12763 0.127042 0.12689 -9999 -9999 -9999
-9999 -9999 -9999 -9999 0.117442 0.118038 0.119103 0.120674 0.122197 0.123778 0.124932 0.127126 0.127766 0.127931 0.127274 0.127127 0.126877 0.126369 -9999 -9999
-9999 -9999 -9999 0.11877025 0.117394 0.116151 0.118806 0.120579 0.122282 0.123964 0.1265 0.128166 0.12899 0.128702 0.127807 0.127441 0.127063 0.129185 -9999 -9999
-9999 -9999 -9999 0.121615 0.11863 0.116977 0.118549 0.120347 0.121952 0.124328 0.127055 0.130038 0.130534 0.129664 0.128674 0.128142 0.129762 0.124945 -9999 -9999
-9999 -9999 0.12631425 0.123304 0.122235 0.120689 0.117902 0.119624 0.121631 0.124231 0.12716 0.129636 0.13146 0.130251 0.129152 0.130111 0.128223 0.114411 0.1257 -9999
-9999 -9999 0.13209 0.128248 0.127386 0.125064 0.122094 0.118192 0.120848 0.123359 0.125856 0.127611 0.129322 0.130643 0.130529 0.130339 0.123994 0.126775 0.125 -9999
-9999 -9999 0.136418 0.134485 0.131611 0.130194 0.12652 0.122022 0.119357 0.121769 0.123422 0.125198 0.126996 0.128922 0.130397 0.131084 0.127091 0.125538 0.124742 -9999
-9999 0.13726 0.137913 0.139838 0.137022 0.134284 0.132353 0.127441 0.121217 0.119199 0.120878 0.122635 0.125171 0.130255 0.133629 0.13252 0.127219 0.124884 0.122399 -9999
-9999 0.137411 0.137801 0.140375 0.138813 0.136589 0.136349 0.13353 0.126295 0.118541 0.118256 0.120599 0.128465 0.133683 0.136428 0.131268 0.125403 0.124615 0.121917 -9999
-9999 0.137524 0.137619 0.139616 0.140042 0.137213 0.136562 0.136854 0.130166 0.123108 0.11544 0.124843 0.131425 0.137775 0.13867 0.129777 0.123799 0.123136 0.120392 -9999
-9999 0.137505 0.137559 0.138999 0.140547 0.137856 0.136764 0.137377 0.132662 0.126678 0.121876 0.127291 0.136457 0.142366 0.137467 0.128306 0.123036 0.12194 0.117055 -9999
-9999 0.137358 0.137633 0.138558 0.140354 0.138578 0.137138 0.13735 0.13702 0.131162 0.127328 0.130542 0.141568 0.147516 0.137938 0.128156 0.122339 0.118794 0.112336 -9999
-9999 0.137248 0.137722 0.138141 0.140108 0.139432 0.137727 0.137017 0.137001 0.13522 0.131792 0.13378 0.145617 0.150747 0.140388 0.13123 0.124221 0.113542 0.10923 -9999
-9999 0.137176 0.137579 0.137924 0.140023 0.139553 0.138979 0.137572 0.136499 0.135752 0.135243 0.136486 0.146258 0.154143 0.144329 0.133834 0.125541 0.109178 -9999 -9999
-9999 0.137147 0.13735 0.137875 0.138682 0.139667 0.139091 0.136966 0.135981 0.135472 0.136517 0.137701 0.14532 0.150078 0.149239 0.137255 0.125663 0.109958 -9999 -9999
-9999 0.13716 0.137062 0.137476 0.138015 0.139017 0.138416 0.135833 0.135209 0.135355 0.136202 0.137578 0.142941 0.146247 0.146755 0.140687 0.128593 0.11143 0.113125 0.1142
-9999 -9999 0.137026 0.136956 0.137497 0.138601 0.13763 0.135422 0.134618 0.134923 0.135865 0.137114 0.13894 0.142251 0.142945 0.140586 0.137622 0.127765 0.123665 0.12436
-9999 -9999 0.1369995 0.136886 0.136912 0.137856 0.136742 0.134945 0.134122 0.13426 0.134948 0.135826 0.136916 0.137553 0.13803 0.137917 0.136616 0.134051 0.133991 0.1347
-9999 -9999 -9999 0.13713 0.136277 0.136295 0.135671 0.134133 0.133285 0.133113 0.133808 0.1344 0.135052 0.135395 0.135836 0.135471 0.135338 0.134427 0.133781 0.13434
