ncols        20
nrows        20
xllcorner    0
yllcorner    -3.59929275513
cellsize     0.179964631796
NODATA_value -9999
-9999.0 -9999 -9999 -9999 -9999 -9999 -9999 -9999 -9999 -9999 -9999 -9999 -9999 -9999 -9999 -9999 -9999 -9999 -9999 -9999
-9999 -9999 -9999 -9999 0.11364 0.112756 0.113726 0.115653 0.117247 0.118393 0.119182 0.12168275 0.12214 0.12208 0.12208 0.12125575 0.12093 -9999 -9999 -9999
-9999 -9999 -9999 -9999 0.110714 0.111953 0.113575 0.115692 0.117413 0.119077 0.120178 0.121959 0.122454 0.122411 0.121793 0.121445 0.120855 0.118969 -9999 -9999
-9999 -9999 -9999 0.11181925 0.110387 0.109525 0.113546 0.115717 0.117624 0.119299 0.12147 0.122895 0.123554 0.123195 0.12231 0.121755 0.120258 0.12242 -9999 -9999
-9999 -9999 -9999 0.114605 0.111571 0.110574 0.113303 0.115661 0.117394 0.119631 0.122022 0.124638 0.124852 0.124101 0.123132 0.122192 0.123422 0.119367 -9999 -9999
-9999 -9999 0.11959825 0.11645 0.115964 0.114827 0.112337 0.11486 0.117249 0.119656 0.122159 0.124105 0.125663 0.12455 0.123474 0.124025 0.122729 0.110157 0.12266 -9999
-9999 -9999 0.125361 0.121977 0.121353 0.119407 0.1167 0.113283 0.116605 0.118961 0.120861 0.122376 0.123724 0.124475 0.124622 0.124899 0.119949 0.123486 0.122056 -9999
-9999 -9999 0.128406 0.127624 0.125414 0.124626 0.121431 0.117533 0.115183 0.11724 0.118744 0.120239 0.121612 0.123443 0.12479 0.126698 0.123583 0.12252 0.12191 -9999
-9999 0.12813 0.129234 0.131099 0.12998 0.128822 0.127478 0.123269 0.117197 0.11496 0.116498 0.117993 0.120288 0.125167 0.129264 0.128791 0.123957 0.121964 0.119743 -9999
-9999 0.128044 0.128878 0.131111 0.130711 0.129881 0.130588 0.12867 0.122197 0.114472 0.114029 0.116248 0.123942 0.12929 0.132563 0.127816 0.122252 0.121809 0.119317 -9999
-9999 0.127926 0.128534 0.130391 0.131168 0.129983 0.130341 0.131449 0.125797 0.119039 0.1113 0.120535 0.126964 0.133849 0.135127 0.126568 0.120701 0.120488 0.117899 -9999
-9999 0.127894 0.128261 0.12976 0.131241 0.130112 0.130044 0.131567 0.127984 0.122498 0.117697 0.122999 0.132413 0.13867 0.13424 0.125145 0.12028 0.11944 0.114673 -9999
-9999 0.12805 0.128098 0.129251 0.130919 0.130264 0.129838 0.131153 0.131682 0.126723 0.123101 0.126231 0.137607 0.143938 0.134874 0.125214 0.119796 0.116541 0.109984 -9999
-9999 0.128229 0.127973 0.128768 0.130572 0.130471 0.129775 0.129971 0.130909 0.130386 0.127586 0.129413 0.141709 0.147195 0.137329 0.12859 0.12185 0.111539 0.10672 -9999
-9999 0.128329 0.128064 0.128372 0.13031 0.130209 0.130098 0.12949 0.129777 0.130344 0.130754 0.13225 0.142365 0.150512 0.141191 0.131146 0.123265 0.107259 -9999 -9999
-9999 0.128384 0.12822 0.128009 0.128928 0.129895 0.129758 0.128455 0.128551 0.129423 0.131687 0.133587 0.141442 0.146493 0.145835 0.134486 0.12346 0.107817 -9999 -9999
-9999 0.12844 0.128382 0.128194 0.12797 0.129017 0.128751 0.126994 0.12723 0.128709 0.131068 0.133527 0.139136 0.142759 0.143411 0.137695 0.126271 0.10915 0.11065 0.11164
-9999 -9999 0.128491 0.128422 0.12823 0.128078 0.1278 0.126195 0.126323 0.127967 0.130425 0.132933 0.135162 0.138788 0.139716 0.137628 0.134904 0.125164 0.12098 0.12157
-9999 -9999 0.1285705 0.128519 0.128336 0.127784 0.126716 0.125564 0.125534 0.12694 0.128819 0.130979 0.132753 0.133893 0.134493 0.134744 0.133865 0.130935 0.130919 0.13148
-9999 -9999 -9999 0.12885 0.128046 0.127207 0.125706 0.124563 0.124441 0.125548 0.127257 0.12857 0.130144 0.131358 0.132084 0.132183 0.132426 0.131394 0.130774 0.13129
