ncols        20
nrows        20
xllcorner    0
yllcorner    -3.59929275513
cellsize     0.179964631796
NODATA_value -9999
-9999.0 -9999 -9999 -9999 -9999 -9999 -9999 -9999 -9999 -9999 -9999 -9999 -9999 -9999 -9999 -9999 -9999 -9999 -9999 -9999
-9999 -9999 -9999 -9999 0.12665 0.126333 0.126849 0.127903 0.129012 0.130057 0.130974 0.135212 0.13604 0.1364 0.1364 0.136646 0.13692 -9999 -9999 -9999
-9999 -9999 -9999 -9999 0.125352 0.12596 0.126734 0.127657 0.129139 0.130912 0.132526 0.135644 0.136638 0.136857 0.136126 0.136541 0.136997 0.138551 -9999 -9999
-9999 -9999 -9999 0.1267285 0.125172 0.124761 0.1264 0.127842 0.12941 0.131442 0.134595 0.137041 0.138416 0.138089 0.136948 0.136887 0.138594 0.140789 -9999 -9999
-9999 -9999 -9999 0.129925 0.126465 0.125268 0.126474 0.127861 0.12935 0.131818 0.135432 0.139762 0.140647 0.139469 0.138187 0.138544 0.140615 0.133771 -9999 -9999
-9999 -9999 0.13384075 0.131728 0.129983 0.128226 0.126577 0.127577 0.128601 0.131744 0.135692 0.139529 0.142282 0.140642 0.139055 0.139943 0.137313 0.11979 0.12963 -9999
-9999 -9999 0.13841 0.1353 0.1344 0.132518 0.130037 0.126658 0.128005 0.131013 0.134694 0.136938 0.139633 0.141859 0.141107 0.139632 0.130035 0.131343 0.128773 -9999
-9999 -9999 0.142413 0.141251 0.138446 0.138095 0.133494 0.129208 0.126601 0.129736 0.131662 0.134006 0.136798 0.139129 0.139674 0.137924 0.132298 0.129431 0.128282 -9999
-9999 0.14153 0.143429 0.146984 0.144997 0.142162 0.140099 0.134449 0.128182 0.126605 0.128654 0.131111 0.134198 0.138127 0.140341 0.138924 0.131708 0.128612 0.125751 -9999
-9999 0.1416 0.142694 0.146937 0.146056 0.144037 0.144138 0.140804 0.133017 0.125613 0.125847 0.128654 0.135974 0.140371 0.142507 0.136389 0.12947 0.128116 0.125347 -9999
-9999 0.141708 0.142028 0.145521 0.147122 0.144454 0.144187 0.144329 0.136776 0.129785 0.12254 0.131853 0.138748 0.143768 0.144096 0.134162 0.127733 0.12658 0.124075 -9999
-9999 0.14175 0.141634 0.144297 0.147263 0.144863 0.144234 0.144927 0.139336 0.133203 0.128521 0.13394 0.1429 0.147812 0.141984 0.132398 0.126816 0.125637 0.120987 -9999
-9999 0.141645 0.141586 0.143283 0.146544 0.145314 0.144447 0.144877 0.14408 0.137497 0.133523 0.136805 0.147574 0.152399 0.142031 0.132065 0.126126 0.122809 0.11679 -9999
-9999 0.141548 0.141582 0.142305 0.145767 0.145866 0.144806 0.144274 0.144016 0.141438 0.137752 0.139613 0.15123 0.155349 0.144336 0.13496 0.12829 0.118033 0.11392 -9999
-9999 0.141151 0.141457 0.141789 0.145217 0.145189 0.14554 0.14454 0.14304 0.142012 0.141167 0.142009 0.151505 0.158631 0.148358 0.13785 0.129883 0.11409 -9999 -9999
-9999 0.140577 0.141325 0.141497 0.142706 0.144513 0.144315 0.143456 0.142384 0.141732 0.142367 0.143259 0.150339 0.154298 0.153701 0.14187 0.130229 0.114939 -9999 -9999
-9999 0.13997 0.140887 0.141147 0.141507 0.143002 0.142824 0.141676 0.14158 0.141436 0.141804 0.143016 0.147839 0.150453 0.151207 0.146208 0.133465 0.11638 0.1182 0.11973
-9999 -9999 0.139749 0.140655 0.140933 0.142127 0.141546 0.140586 0.140471 0.140654 0.140937 0.142025 0.144164 0.14675 0.147321 0.146036 0.143537 0.133245 0.129195 0.12998
-9999 -9999 0.139517 0.139534 0.140376 0.141353 0.140338 0.139384 0.139106 0.139319 0.139584 0.140288 0.141476 0.142253 0.142906 0.142665 0.141498 0.139255 0.139717 0.14066
-9999 -9999 -9999 0.13813 0.139306 0.13979 0.139038 0.138144 0.137476 0.13734 0.137887 0.138727 0.13975 0.140053 0.140642 0.140199 0.139742 0.138828 0.138301 0.13925
