ncols        20
nrows        20
xllcorner    0
yllcorner    -3.59929275513
cellsize     0.179964631796
NODATA_value -9999
-9999.0 -9999 -9999 -9999 -9999 -9999 -9999 -9999 -9999 -9999 -9999 -9999 -9999 -9999 -9999 -9999 -9999 -9999 -9999 -9999
-9999 -9999 -9999 -9999 17.79628 16.976987 16.868389 16.780965 16.852413 17.015994 17.073119 17.0156975 17.14958 16.98658 16.98658 17.27905375 17.48948 -9999 -9999 -9999
-9999 -9999 -9999 -9999 16.840436 16.609239 16.65226 16.593084 16.744982 16.993898 16.889627 17.000425 17.023158 16.921963 17.009295 17.153729 17.463711 16.815668 -9999 -9999
-9999 -9999 -9999 16.39090325 16.393936 16.359666 16.494155 16.424749 16.490296 16.632763 16.555706 16.607769 16.643365 16.6564 16.763033 16.875344 16.71526 16.666982 -9999 -9999
-9999 -9999 -9999 16.24958 16.079661 15.95224 16.147629 16.160503 16.236741 16.217997 16.160481 16.157984 16.189785 16.255887 16.33628 16.341403 16.464621 16.892177 -9999 -9999
-9999 -9999 16.037882 16.008572 15.938182 15.881867 15.862679 15.953658 15.92252 15.917796 15.826407 15.905607 15.858077 15.963347 15.930439 16.144533 16.608668 16.931612 17.08219 -9999
-9999 -9999 15.925949 15.967427 15.863168 15.792896 15.766056 15.760349 15.836664 15.833864 15.811458 15.765989 15.780397 15.868947 15.971105 16.280803 16.593119 16.940794 17.047295 -9999
-9999 -9999 15.869303 15.752353 15.888298 15.841526 15.863893 15.806571 15.796631 15.743352 15.753316 15.742003 15.782095 15.875583 16.103303 16.332835 16.624541 17.074089 17.00313 -9999
-9999 15.5842 15.605802 15.62997 15.779208 15.753746 15.68837 15.800017 15.851931 15.810008 15.801173 15.800812 15.821731 15.978367 16.141589 16.281918 16.660596 17.038229 17.101362 -9999
-9999 15.709355 15.603355 15.619911 15.647381 15.623653 15.583656 15.698173 15.829682 15.884654 15.85998 15.859756 15.911297 16.033144 16.236865 16.27216 16.589141 16.950851 16.874203 -9999
-9999 15.874358 15.598965 15.619959 15.634613 15.604764 15.585408 15.613033 15.627535 15.936495 15.91654 15.901995 16.08499 16.126661 16.221191 16.247456 16.412358 16.670337 16.543596 -9999
-9999 16.025548 15.617373 15.61778 15.624009 15.598829 15.58323 15.600009 15.610309 15.78637 15.83078 15.941221 16.08383 16.161992 16.208937 16.139587 16.236312 16.422242 16.618032 -9999
-9999 16.137635 15.679416 15.612281 15.624222 15.607459 15.581154 15.598367 15.61018 15.617792 15.735937 15.882513 15.975602 16.128017 16.103306 16.037638 16.145838 16.362727 16.711111 -9999
-9999 16.228993 15.76183 15.607784 15.624388 15.61804 15.583835 15.587248 15.605711 15.620903 15.630002 15.785661 15.787635 15.958722 16.05459 15.96399 15.992812 16.340781 16.47872 -9999
-9999 16.277942 15.869329 15.61753 15.618627 15.621232 15.603052 15.580943 15.601555 15.611098 15.620587 15.667535 15.652807 15.792608 15.953724 15.95677 15.933221 16.197917 -9999 -9999
-9999 16.331545 15.999983 15.660249 15.609609 15.61452 15.619585 15.58046 15.586317 15.593268 15.603897 15.615251 15.633809 15.678117 15.831519 15.842829 15.948824 16.236565 -9999 -9999
-9999 16.40789 16.149142 15.874806 15.638463 15.610675 15.602106 15.577267 15.575257 15.572066 15.584894 15.590608 15.612964 15.617805 15.708936 15.702617 15.768554 16.30779 16.242995 16.19361
-9999 -9999 16.282821 16.066601 15.810471 15.624478 15.587017 15.569706 15.561151 15.556793 15.56553 15.571621 15.581646 15.586865 15.597529 15.632802 15.67449 15.734788 15.792795 15.84629
-9999 -9999 16.182284 16.159104 15.900897 15.63517 15.583193 15.561781 15.546071 15.545756 15.54482 15.541885 15.533605 15.528697 15.532116 15.548192 15.587852 15.672699 15.740036 15.80185
-9999 -9999 -9999 16.22061 15.790108 15.66707 15.598007 15.562646 15.543739 15.5388 15.541181 15.531973 15.514137 15.491358 15.467256 15.462149 15.490369 15.539317 15.625427 15.72068
