ncols        20
nrows        20
xllcorner    0
yllcorner    -3.59929275513
cellsize     0.179964631796
NODATA_value -9999
-9999.0 -9999 -9999 -9999 -9999 -9999 -9999 -9999 -9999 -9999 -9999 -9999 -9999 -9999 -9999 -9999 -9999 -9999 -9999 -9999
-9999 -9999 -9999 -9999 16.75679 15.942206 15.828551 15.735734 15.804833 15.958132 16.008445 15.95171125 16.07919 15.92673 15.92673 16.19944925 16.39533 -9999 -9999 -9999
-9999 -9999 -9999 -9999 15.814151 15.577857 15.615352 15.556556 15.696926 15.93223 15.831609 15.935893 15.960153 15.865515 15.950456 16.082012 16.369999 15.736867 -9999 -9999
-9999 -9999 -9999 15.3933555 15.394055 15.34954 15.475114 15.396347 15.448206 15.586246 15.508341 15.558685 15.598575 15.610038 15.711584 15.814735 15.646573 15.595331 -9999 -9999
-9999 -9999 -9999 15.26666 15.098556 14.967888 15.142911 15.144249 15.209722 15.182488 15.125234 15.123156 15.154111 15.217416 15.29296 15.294977 15.405486 15.811048 -9999 -9999
-9999 -9999 15.0623315 15.035122 14.961166 14.898284 14.873222 14.946168 14.904765 14.89362 14.799819 14.874222 14.826599 14.928331 14.893343 15.099581 15.537763 15.850286 15.98678 -9999
-9999 -9999 14.950412 14.997132 14.891064 14.819012 14.776678 14.76063 14.824818 14.814348 14.783588 14.734802 14.749115 14.837726 14.930926 15.226477 15.522153 15.852486 15.957704 -9999
-9999 -9999 14.893965 14.781575 14.918856 14.874584 14.888424 14.817459 14.788783 14.725193 14.727508 14.71214 14.749806 14.841025 15.059963 15.274588 15.546973 15.98003 15.924645 -9999
-9999 14.61146 14.633502 14.652325 14.802139 14.787145 14.715014 14.812379 14.852478 14.795468 14.778813 14.774197 14.795706 14.939078 15.095266 15.216297 15.579477 15.950539 16.02764 -9999
-9999 14.740669 14.632011 14.643949 14.667915 14.652943 14.612062 14.713405 14.833853 14.877815 14.844633 14.841049 14.888793 14.994749 15.182489 15.203785 15.512005 15.876367 15.80597 -9999
-9999 14.910172 14.628024 14.646864 14.656149 14.629381 14.614899 14.633472 14.633991 14.936052 14.90673 14.885708 15.054924 15.084483 15.16238 15.179919 15.347385 15.606239 15.484322 -9999
-9999 15.064429 14.647238 14.646654 14.646781 14.621841 14.614178 14.622378 14.620763 14.790373 14.827291 14.924202 15.051273 15.115937 15.147663 15.080535 15.18404 15.367865 15.559425 -9999
-9999 15.17798 14.711533 14.642334 14.649399 14.631355 14.612906 14.62213 14.629909 14.627392 14.738288 14.869301 14.946551 15.085268 15.048679 14.989112 15.101965 15.314654 15.64885 -9999
-9999 15.271002 14.796762 14.638746 14.652549 14.642861 14.614502 14.616897 14.626627 14.632215 14.633992 14.777784 14.765843 14.926691 15.010804 14.92444 14.958882 15.297258 15.42086 -9999
-9999 15.319001 14.905574 14.649191 14.649177 14.647187 14.632579 14.614049 14.623934 14.62476 14.625839 14.663644 14.638808 14.770016 14.919634 14.921133 14.90497 15.162243 -9999 -9999
-9999 15.370231 15.036897 14.693565 14.642408 14.645665 14.646066 14.615144 14.613406 14.612188 14.613703 14.617275 14.623795 14.659685 14.804479 14.81276 14.922561 15.202112 -9999 -9999
-9999 15.44414 15.186273 14.910691 14.672038 14.644559 14.633373 14.60976 14.604531 14.595199 14.598918 14.596726 14.60606 14.600849 14.685867 14.677755 14.747114 15.27173 15.208235 15.16217
-9999 -9999 15.316012 15.101089 14.845766 14.660043 14.617625 14.601706 14.593886 14.58723 14.581089 14.579918 14.577777 14.570993 14.578573 14.611016 14.65197 14.714163 14.768835 14.82271
-9999 -9999 15.2122495 15.189427 14.933675 14.670726 14.611879 14.59485 14.582613 14.578703 14.566527 14.559927 14.541532 14.52356 14.517195 14.525175 14.55953 14.648623 14.717458 14.77656
-9999 -9999 -9999 15.24247 14.817366 14.702024 14.627938 14.601149 14.589451 14.582152 14.57279 14.55503 14.5272 14.500058 14.462443 14.444397 14.45514 14.510931 14.601878 14.69639
