ncols        20
nrows        20
xllcorner    0
yllcorner    -3.59929275513
cellsize     0.179964631796
NODATA_value -9999
-9999.0 -9999 -9999 -9999 -9999 -9999 -9999 -9999 -9999 -9999 -9999 -9999 -9999 -9999 -9999 -9999 -9999 -9999 -9999 -9999
-9999 -9999 -9999 -9999 16.83881 16.022121 15.899175 15.791787 15.848644 15.996047 16.05225 15.9994295 16.1189 15.96894 15.96894 16.24573025 16.43833 -9999 -9999 -9999
-9999 -9999 -9999 -9999 15.915617 15.661655 15.689763 15.625511 15.757655 15.981737 15.888984 15.983606 16.006228 15.913067 15.996995 16.133692 16.413904 15.807078 -9999 -9999
-9999 -9999 -9999 15.52018425 15.518835 15.459269 15.571398 15.488679 15.533631 15.661387 15.580074 15.625841 15.665128 15.670836 15.776421 15.883103 15.724086 15.676052 -9999 -9999
-9999 -9999 -9999 15.404897 15.241388 15.103139 15.26022 15.257037 15.312219 15.280173 15.22001 15.213875 15.242419 15.30591 15.386848 15.393703 15.498272 15.896948 -9999 -9999
-9999 -9999 15.224566 15.192799 15.122925 15.052584 15.011537 15.071855 15.026898 15.010576 14.91782 14.988086 14.945914 15.046558 15.011142 15.217819 15.640865 15.954608 16.10099 -9999
-9999 -9999 15.129338 15.17123 15.064168 14.985521 14.937676 14.907421 14.956378 14.943227 14.914784 14.87045 14.887074 14.974318 15.070591 15.351541 15.648258 15.968006 16.072045 -9999
-9999 -9999 15.100033 14.979183 15.097492 15.044348 15.054396 14.969094 14.929754 14.872333 14.875452 14.862 14.899787 14.994502 15.201637 15.420854 15.682398 16.094271 16.03323 -9999
-9999 14.85261 14.871989 14.880655 15.008553 14.974738 14.899412 14.978962 15.007202 14.949873 14.93486 14.93102 14.956809 15.104831 15.254446 15.383082 15.719695 16.064298 16.133676 -9999
-9999 14.986172 14.877203 14.887418 14.898384 14.870906 14.821258 14.906948 15.01117 15.041662 15.006794 15.006067 15.059707 15.166503 15.348789 15.37424 15.66001 15.986706 15.923943 -9999
-9999 15.157928 14.875652 14.895998 14.893383 14.856293 14.831598 14.841188 14.835755 15.111446 15.07288 15.060679 15.227443 15.259411 15.339824 15.356629 15.504659 15.729753 15.62511 -9999
-9999 15.311146 14.897606 14.899507 14.891591 14.855607 14.836654 14.835842 14.828185 14.978977 15.012243 15.107653 15.232085 15.299957 15.33535 15.265936 15.351671 15.516997 15.699875 -9999
-9999 15.421673 14.965074 14.897277 14.901671 14.870246 14.841697 14.840913 14.842514 14.835662 14.940888 15.070204 15.147877 15.286721 15.250966 15.183639 15.283034 15.477311 15.784411 -9999
-9999 15.511914 15.05353 14.895798 14.912121 14.887038 14.851142 14.844718 14.850879 14.856653 14.855276 14.997237 14.994184 15.151188 15.224022 15.13467 15.158763 15.470172 15.5726 -9999
-9999 15.562854 15.16137 14.90874 14.912217 14.904058 14.878264 14.853539 14.862207 14.8617 14.863587 14.901793 14.886694 15.019221 15.14766 15.141055 15.120081 15.353784 -9999 -9999
-9999 15.620022 15.289896 14.956433 14.906602 14.911777 14.907062 14.866447 14.863277 14.858431 14.86447 14.874102 14.88719 14.92571 15.051888 15.050186 15.146182 15.397278 -9999 -9999
-9999 15.70013 15.438436 15.169078 14.938992 14.913049 14.906264 14.871473 14.863204 14.849063 14.858522 14.868999 14.885839 14.881741 14.950254 14.932412 14.98737 15.47251 15.40706 15.36222
-9999 -9999 15.576268 15.358908 15.107668 14.934845 14.898566 14.872934 14.859357 14.845234 14.847057 14.860083 14.876371 14.86928 14.863631 14.887708 14.917285 14.962916 15.01096 15.06168
-9999 -9999 15.47456225 15.453723 15.197232 14.95126 14.897338 14.874846 14.855125 14.845548 14.836505 14.83898 14.841449 14.83842 14.835334 14.830693 14.858882 14.927696 14.978303 15.0334
-9999 -9999 -9999 15.50935 15.089781 14.982823 14.919657 14.893627 14.871007 14.858255 14.851174 14.837663 14.826173 14.810181 14.777387 14.764644 14.783877 14.818115 14.882287 14.96397
