ncols        20
nrows        20
xllcorner    0
yllcorner    -3.59929275513
cellsize     0.179964631796
NODATA_value -9999
-9999.0 -9999 -9999 -9999 -9999 -9999 -9999 -9999 -9999 -9999 -9999 -9999 -9999 -9999 -9999 -9999 -9999 -9999 -9999 -9999
-9999 -9999 -9999 -9999 17.71516 16.906524 16.811087 16.750258 16.852218 17.018108 17.051272 16.9974965 17.14482 17.02131 17.02131 17.28767475 17.48633 -9999 -9999 -9999
-9999 -9999 -9999 -9999 16.761144 16.533091 16.589452 16.541081 16.709234 16.964682 16.844107 16.981202 17.019857 16.943668 17.040469 17.162745 17.461155 16.841669 -9999 -9999
-9999 -9999 -9999 16.29396575 16.30124 16.269435 16.414477 16.346499 16.419069 16.569831 16.495092 16.562058 16.617476 16.640818 16.763282 16.872091 16.71586 16.675202 -9999 -9999
-9999 -9999 -9999 16.142003 15.971476 15.847365 16.046449 16.057995 16.145958 16.12368 16.067604 16.070775 16.112528 16.193766 16.289846 16.302441 16.451022 16.91731 -9999 -9999
-9999 -9999 15.893606 15.877759 15.799937 15.749861 15.742614 15.838753 15.803396 15.794767 15.697268 15.783501 15.735454 15.861098 15.840185 16.079087 16.596628 16.965728 17.13531 -9999
-9999 -9999 15.751414 15.803248 15.699616 15.637538 15.611988 15.612563 15.698117 15.691453 15.66454 15.615623 15.636689 15.744689 15.86252 16.22268 16.598229 16.986671 17.104353 -9999
-9999 -9999 15.652812 15.547276 15.709188 15.675463 15.709102 15.650578 15.643297 15.580237 15.589319 15.577492 15.623088 15.735304 16.008364 16.293657 16.640619 17.128123 17.059093 -9999
-9999 15.29924 15.3309 15.366953 15.552179 15.553851 15.491683 15.618022 15.687244 15.647815 15.636453 15.637751 15.664258 15.846915 16.063923 16.250004 16.680203 17.095676 17.170273 -9999
-9999 15.421852 15.319753 15.335862 15.375726 15.379 15.349382 15.482041 15.639303 15.721346 15.698245 15.703297 15.76367 15.918738 16.175682 16.24925 16.60046 17.000494 16.927723 -9999
-9999 15.587416 15.311504 15.331683 15.352329 15.345083 15.340677 15.37986 15.393668 15.764596 15.75493 15.744262 15.951573 16.027261 16.164025 16.219191 16.398655 16.703647 16.567342 -9999
-9999 15.737878 15.324739 15.326746 15.333625 15.326757 15.333712 15.358903 15.37052 15.581176 15.648241 15.779033 15.954957 16.06552 16.151337 16.087357 16.183586 16.416194 16.646997 -9999
-9999 15.840615 15.381609 15.319819 15.329247 15.325613 15.327925 15.349017 15.369241 15.371882 15.524393 15.696994 15.817629 16.010436 16.01943 15.951973 16.070558 16.338278 16.748127 -9999
-9999 15.920973 15.460547 15.313061 15.324619 15.325461 15.322093 15.329787 15.347561 15.357734 15.379628 15.570871 15.581019 15.797082 15.941237 15.84398 15.878238 16.298592 16.49387 -9999
-9999 15.954844 15.562404 15.314885 15.318143 15.321209 15.31949 15.317279 15.323562 15.329553 15.347032 15.414533 15.399186 15.58166 15.800781 15.813512 15.789627 16.115442 -9999 -9999
-9999 15.993191 15.687012 15.347235 15.308195 15.312131 15.315941 15.298164 15.291587 15.297185 15.312383 15.335232 15.361903 15.43019 15.630249 15.660882 15.786305 16.138754 -9999 -9999
-9999 16.05585 15.815395 15.551769 15.318946 15.305316 15.295715 15.275333 15.268086 15.262525 15.279194 15.288131 15.318049 15.33736 15.461754 15.469057 15.550786 16.19287 16.088955 16.00171
-9999 -9999 15.918749 15.722635 15.476836 15.304263 15.275307 15.254733 15.244455 15.236651 15.242323 15.250687 15.25647 15.275144 15.304613 15.354865 15.414753 15.484759 15.5426 15.58655
-9999 -9999 15.8101865 15.783252 15.541173 15.300339 15.255349 15.235528 15.221081 15.210183 15.20013 15.205462 15.195971 15.187723 15.197795 15.227248 15.28072 15.381322 15.458728 15.52017
-9999 -9999 -9999 15.81611 15.386085 15.298518 15.247759 15.215273 15.194841 15.180977 15.183453 15.180483 15.171339 15.149218 15.119532 15.112364 15.141316 15.209102 15.312605 15.40991
