ncols        20
nrows        20
xllcorner    0
yllcorner    -3.59929275513
cellsize     0.179964631796
NODATA_value -9999
-9999.0 -9999 -9999 -9999 -9999 -9999 -9999 -9999 -9999 -9999 -9999 -9999 -9999 -9999 -9999 -9999 -9999 -9999 -9999 -9999
-9999 -9999 -9999 -9999 17.64981 16.851485 16.747878 16.66983 16.75667 16.914803 16.970624 16.935752 17.05799 16.91469 16.91469 17.186157 17.3772 -9999 -9999 -9999
-9999 -9999 -9999 -9999 16.71785 16.49833 16.546939 16.50208 16.660754 16.899353 16.818008 16.920876 16.946134 16.857181 16.940495 17.074391 17.352542 16.738462 -9999 -9999
-9999 -9999 -9999 16.2855005 16.293589 16.275548 16.422171 16.363095 16.438075 16.579957 16.510877 16.559405 16.601903 16.609858 16.71536 16.823077 16.656624 16.616445 -9999 -9999
-9999 -9999 -9999 16.144273 15.98629 15.883903 16.095694 16.120934 16.202882 16.185378 16.133065 16.132593 16.159552 16.229248 16.3123 16.322641 16.439313 16.841813 -9999 -9999
-9999 -9999 15.93875725 15.915616 15.854117 15.807453 15.812848 15.921992 15.898913 15.894575 15.809495 15.883859 15.834863 15.946122 15.922046 16.148098 16.584029 16.906373 17.08679 -9999
-9999 -9999 15.817858 15.877282 15.782887 15.726382 15.705307 15.720452 15.810137 15.808712 15.791114 15.753368 15.768584 15.864977 15.988964 16.286889 16.601485 16.948968 17.056419 -9999
-9999 -9999 15.753727 15.66717 15.809446 15.781567 15.804647 15.769662 15.769134 15.714767 15.731332 15.731991 15.779199 15.893329 16.127165 16.356276 16.646336 17.07974 17.010328 -9999
-9999 15.43828 15.485567 15.543402 15.703292 15.698478 15.638323 15.758295 15.819957 15.785212 15.782935 15.794034 15.832033 16.0106 16.173415 16.323492 16.687135 17.047731 17.096167 -9999
-9999 15.540883 15.475858 15.522326 15.568845 15.56825 15.534801 15.650889 15.791936 15.862499 15.848962 15.860909 15.929674 16.067873 16.275352 16.320083 16.619499 16.958233 16.878917 -9999
-9999 15.679236 15.46463 15.51124 15.550103 15.544425 15.534221 15.563028 15.586833 15.907691 15.90873 15.905572 16.10954 16.163311 16.265501 16.296111 16.442579 16.684058 16.567024 -9999
-9999 15.807798 15.4727 15.500359 15.533335 15.53176 15.530963 15.547434 15.564998 15.751775 15.816115 15.941292 16.107282 16.201052 16.257004 16.186015 16.257361 16.442788 16.641678 -9999
-9999 15.90175 15.518237 15.488897 15.525492 15.531155 15.527307 15.542907 15.558373 15.576263 15.712143 15.87338 15.988112 16.167828 16.152505 16.078148 16.165087 16.387962 16.723365 -9999
-9999 15.976061 15.581722 15.478073 15.516615 15.530454 15.525533 15.531419 15.547954 15.565151 15.592376 15.766577 15.78796 15.991581 16.102178 16.0069 16.022042 16.365577 16.48673 -9999
-9999 16.01111 15.670527 15.478342 15.505977 15.522135 15.526819 15.523335 15.538839 15.547827 15.565843 15.637491 15.647558 15.816095 15.993266 15.995824 15.969161 16.225303 -9999 -9999
-9999 16.049444 15.781641 15.502157 15.481981 15.503029 15.519407 15.515543 15.516355 15.522158 15.53575 15.57708 15.618591 15.691755 15.859409 15.878546 15.982898 16.261067 -9999 -9999
-9999 16.10742 15.901882 15.674741 15.4854 15.485791 15.502244 15.497567 15.491692 15.486894 15.50825 15.543057 15.585953 15.616927 15.726921 15.731565 15.798679 16.32572 16.23925 16.16308
-9999 -9999 15.999647 15.830274 15.618942 15.492616 15.487922 15.473302 15.460785 15.455344 15.476253 15.508352 15.546395 15.570438 15.600596 15.652177 15.699825 15.748088 15.79407 15.82605
-9999 -9999 15.91392 15.892939 15.687824 15.49832 15.478228 15.445382 15.425362 15.423229 15.433606 15.453192 15.469141 15.48744 15.517244 15.549896 15.601345 15.664379 15.725687 15.77195
-9999 -9999 -9999 15.93282 15.583402 15.504913 15.464668 15.421554 15.394604 15.38283 15.389694 15.399287 15.41101 15.417395 15.41692 15.437312 15.491055 15.52908 15.603425 15.68492
