ncols        20
nrows        20
xllcorner    0
yllcorner    -3.59929275513
cellsize     0.179964631796
NODATA_value -9999
-9999.0 -9999 -9999 -9999 -9999 -9999 -9999 -9999 -9999 -9999 -9999 -9999 -9999 -9999 -9999 -9999 -9999 -9999 -9999 -9999
-9999 -9999 -9999 -9999 16.92366 16.132317 16.043912 15.994814 16.108654 16.278741 16.3159 16.27341275 16.41977 16.29642 16.29642 16.56606175 16.7655 -9999 -9999 -9999
-9999 -9999 -9999 -9999 15.982996 15.767231 15.830164 15.794139 15.971784 16.231095 16.119309 16.259087 16.295485 16.219386 16.316276 16.442019 16.740452 16.12898 -9999 -9999
-9999 -9999 -9999 15.52573475 15.532386 15.510104 15.664707 15.608189 15.692814 15.848652 15.781928 15.848747 15.898563 15.925422 16.046476 16.156717 16.006725 15.972043 -9999 -9999
-9999 -9999 -9999 15.375359 15.212198 15.094536 15.302924 15.327336 15.427005 15.414254 15.362389 15.368234 15.406607 15.489068 15.584541 15.601914 15.751735 16.206566 -9999 -9999
-9999 -9999 15.13278325 15.12031 15.044777 14.998885 14.998455 15.113236 15.088937 15.087092 14.994372 15.080176 15.033899 15.16054 15.14477 15.384832 15.895528 16.260721 16.45075 -9999
-9999 -9999 14.989639 15.045825 14.940404 14.885482 14.865413 14.877612 14.980744 14.98041 14.956641 14.91199 14.934739 15.044931 15.1682 15.525911 15.909211 16.295695 16.43927 -9999
-9999 -9999 14.881502 14.784339 14.945467 14.917996 14.958385 14.915022 14.922898 14.863456 14.876675 14.870127 14.919483 15.037296 15.3082 15.609311 15.950007 16.448085 16.410345 -9999
-9999 14.49817 14.543769 14.593549 14.78291 14.790538 14.738799 14.87709 14.958345 14.927466 14.919691 14.925872 14.959331 15.147826 15.368927 15.564388 15.992829 16.434788 16.534267 -9999
-9999 14.617042 14.526451 14.552755 14.60011 14.608496 14.58817 14.731899 14.900612 14.996007 14.979331 14.988417 15.056448 15.216405 15.487333 15.562328 15.920982 16.354655 16.3032 -9999
-9999 14.777972 14.513841 14.543205 14.573044 14.572867 14.573416 14.625095 14.645518 15.029216 15.03251 15.025382 15.248398 15.330752 15.475701 15.533549 15.729683 16.077401 15.961784 -9999
-9999 14.924803 14.523569 14.534329 14.550579 14.552071 14.563061 14.599995 14.618853 14.838849 14.913762 15.054977 15.252156 15.371221 15.461412 15.406708 15.529552 15.800577 16.054358 -9999
-9999 15.02572 14.578234 14.524683 14.541683 14.547059 14.554451 14.585113 14.612797 14.619346 14.777819 14.96291 15.103916 15.30964 15.329373 15.281103 15.436283 15.73545 16.16485 -9999
-9999 15.104632 14.654356 14.514478 14.531993 14.541968 14.546066 14.558537 14.583606 14.594023 14.617272 14.823713 14.850793 15.083388 15.250029 15.1795 15.247902 15.704577 15.90473 -9999
-9999 15.134926 14.753938 14.514777 14.523937 14.532013 14.538251 14.540903 14.552255 14.557882 14.575212 14.653847 14.65478 14.856313 15.103993 15.146952 15.155277 15.517527 -9999 -9999
-9999 15.16785 14.876136 14.545095 14.510115 14.517138 14.525315 14.518013 14.510566 14.517466 14.529793 14.562811 14.604616 14.692471 14.920276 14.984826 15.14986 15.530192 -9999 -9999
-9999 15.2243 14.998751 14.744814 14.517979 14.508033 14.499667 14.487764 14.483082 14.473555 14.488892 14.502799 14.545807 14.587866 14.742258 14.780529 14.897872 15.57594 15.45834 15.35541
-9999 -9999 15.090651 14.907508 14.672421 14.506337 14.47507 14.46047 14.453025 14.441126 14.44566 14.456437 14.471955 14.510357 14.568779 14.647504 14.730789 14.808655 14.87322 14.90938
-9999 -9999 14.98543425 14.958708 14.731005 14.500423 14.453142 14.434373 14.423467 14.408081 14.394217 14.396118 14.39223 14.39662 14.428531 14.490756 14.575077 14.665507 14.760606 14.82401
-9999 -9999 -9999 14.98487 14.576038 14.494339 14.440926 14.411885 14.389456 14.373551 14.371753 14.358567 14.343216 14.335492 14.328727 14.343634 14.398568 14.473612 14.590804 14.70097
