ncols        20
nrows        20
xllcorner    0
yllcorner    -3.59929275513
cellsize     0.179964631796
NODATA_value -9999
-9999.0 -9999 -9999 -9999 -9999 -9999 -9999 -9999 -9999 -9999 -9999 -9999 -9999 -9999 -9999 -9999 -9999 -9999 -9999 -9999
-9999 -9999 -9999 -9999 17.23454 16.422574 16.313852 16.228331 16.306777 16.453682 16.481592 16.42447 16.56069 16.4444 16.4444 16.72232875 16.92489 -9999 -9999 -9999
-9999 -9999 -9999 -9999 16.299514 16.054172 16.094484 16.027961 16.171528 16.401614 16.287831 16.407395 16.441964 16.370247 16.466178 16.599138 16.899109 16.2689 -9999 -9999
-9999 -9999 -9999 15.866198 15.864596 15.814099 15.933986 15.849192 15.898781 16.033087 15.951531 16.011591 16.061957 16.089104 16.20828 16.318188 16.158144 16.115442 -9999 -9999
-9999 -9999 -9999 15.738499 15.562183 15.419647 15.586343 15.582873 15.648077 15.610413 15.552655 15.55541 15.596758 15.675098 15.766761 15.775031 15.904568 16.343575 -9999 -9999
-9999 -9999 15.5123445 15.493732 15.412908 15.343064 15.312423 15.381853 15.32788 15.309463 15.212763 15.295196 15.255038 15.374616 15.353499 15.57778 16.053829 16.390081 16.56437 -9999
-9999 -9999 15.387447 15.4297 15.317506 15.243715 15.202996 15.180226 15.238749 15.223364 15.193254 15.146485 15.171691 15.279356 15.384147 15.716548 16.057645 16.416994 16.544542 -9999
-9999 -9999 15.313576 15.187375 15.326256 15.280579 15.3042 15.231383 15.198388 15.129156 15.131881 15.118998 15.164801 15.273378 15.522804 15.789504 16.094542 16.559767 16.51678 -9999
-9999 15.0084 15.024752 15.037539 15.18782 15.168741 15.098689 15.209755 15.259401 15.202837 15.184599 15.182801 15.213679 15.381818 15.574682 15.74665 16.136411 16.539113 16.637881 -9999
-9999 15.139645 15.023808 15.025486 15.037838 15.022837 14.977786 15.09187 15.228096 15.28662 15.253956 15.254967 15.317656 15.447078 15.67821 15.738916 16.071739 16.465949 16.417967 -9999
-9999 15.313134 15.02162 15.031133 15.027183 14.997436 14.979137 15.001838 15.004758 15.341369 15.31764 15.303976 15.497534 15.547994 15.670184 15.715466 15.897107 16.203142 16.093885 -9999
-9999 15.46947 15.041608 15.03433 15.020767 14.98875 14.981306 14.988266 14.987739 15.176646 15.226325 15.341353 15.499513 15.589166 15.659292 15.606047 15.712142 15.948981 16.175232 -9999
-9999 15.578625 15.105884 15.033717 15.027792 14.998198 14.985094 14.985803 14.994339 14.990148 15.120967 15.273524 15.376896 15.550636 15.549489 15.496145 15.624466 15.889134 16.268681 -9999
-9999 15.66565 15.192072 15.032564 15.034165 15.009183 14.990619 14.983604 14.988119 14.986761 14.994822 15.165099 15.165754 15.363082 15.491587 15.41261 15.459529 15.860647 16.03825 -9999
-9999 15.70301 15.299562 15.040248 15.036477 15.025302 15.006055 14.99071 14.977739 14.971339 14.977257 15.030779 15.011784 15.175165 15.375207 15.397371 15.386819 15.696843 -9999 -9999
-9999 15.743143 15.429424 15.082041 15.037307 15.035792 15.025585 14.986887 14.954459 14.948034 14.951917 14.968772 14.98555 15.043878 15.233565 15.267923 15.393681 15.723234 -9999 -9999
-9999 15.80755 15.564621 15.296417 15.058024 15.039636 15.026651 14.974624 14.939497 14.917102 14.923066 14.933363 14.952891 14.966406 15.086417 15.098041 15.180492 15.78247 15.686245 15.60569
-9999 -9999 15.67184 15.472831 15.225052 15.047931 15.021572 14.964598 14.922929 14.892737 14.887261 14.894958 14.908064 14.9184 14.948697 15.00197 15.063182 15.11965 15.175465 15.21546
-9999 -9999 15.56505 15.537509 15.293854 15.050589 15.008652 14.957805 14.908416 14.869511 14.846119 14.837854 14.82956 14.829243 14.853629 14.885147 14.941335 15.020206 15.096564 15.15035
-9999 -9999 -9999 15.57802 15.144421 15.051348 15.0093 14.956489 14.907487 14.856067 14.827601 14.800685 14.773993 14.759028 14.748672 14.762027 14.809446 14.862191 14.95616 15.05228
