ncols        20
nrows        20
xllcorner    0
yllcorner    -3.59929275513
cellsize     0.179964631796
NODATA_value -9999
-9999.0 -9999 -9999 -9999 -9999 -9999 -9999 -9999 -9999 -9999 -9999 -9999 -9999 -9999 -9999 -9999 -9999 -9999 -9999 -9999
-9999 -9999 -9999 -9999 17.00988 16.19419 16.094155 16.024224 16.115523 16.275607 16.309699 16.25567375 16.39823 16.26862 16.26862 16.53079225 16.7254 -9999 -9999 -9999
-9999 -9999 -9999 -9999 16.058136 15.820129 15.871955 15.81851 15.977443 16.225609 16.109099 16.239853 16.275513 16.19542 16.286781 16.410986 16.700002 16.086437 -9999 -9999
-9999 -9999 -9999 15.59314075 15.601499 15.561462 15.69695 15.626491 15.695401 15.842708 15.768347 15.831561 15.884481 15.90792 16.024346 16.134846 15.969489 15.926961 -9999 -9999
-9999 -9999 -9999 15.448866 15.264062 15.125987 15.325818 15.337707 15.420804 15.398048 15.341977 15.348672 15.389228 15.46961 15.558778 15.569151 15.718015 16.162582 -9999 -9999
-9999 -9999 15.19000525 15.175076 15.095589 15.034527 15.011502 15.107489 15.068482 15.062968 14.966206 15.054161 15.006457 15.127451 15.093051 15.331084 15.841989 16.188734 16.34001 -9999
-9999 -9999 15.038691 15.097388 14.994647 14.924427 14.893755 14.885445 14.964681 14.958608 14.93096 14.885989 14.905336 15.005112 15.112983 15.467088 15.816718 16.197156 16.306673 -9999
-9999 -9999 14.928616 14.828743 14.98904 14.956986 14.985343 14.928866 14.914467 14.85122 14.859388 14.849393 14.893062 14.994675 15.257966 15.508415 15.847363 16.332271 16.261718 -9999
-9999 14.57285 14.605276 14.644825 14.832087 14.83322 14.771059 14.897315 14.96239 14.917572 14.905616 14.907414 14.932804 15.103016 15.291986 15.447438 15.879449 16.297723 16.361768 -9999
-9999 14.691685 14.593995 14.61264 14.656047 14.659935 14.629359 14.758706 14.917894 14.993343 14.968133 14.971162 15.025556 15.160029 15.387964 15.439209 15.796183 16.203186 16.114163 -9999
-9999 14.853124 14.586109 14.607128 14.630869 14.626534 14.621449 14.656522 14.672071 15.03784 15.02327 15.008579 15.201715 15.254878 15.365789 15.411263 15.594962 15.892246 15.750282 -9999
-9999 15.001422 14.599103 14.601441 14.611138 14.60797 14.614355 14.63627 14.647386 14.859297 14.917023 15.040068 15.191789 15.283163 15.348748 15.284971 15.384744 15.606943 15.826503 -9999
-9999 15.105115 14.654588 14.594738 14.606163 14.605354 14.607705 14.627317 14.644996 14.653232 14.793984 14.955474 15.05864 15.22702 15.22351 15.157379 15.274189 15.533002 15.92336 -9999
-9999 15.186937 14.730729 14.5884 14.600977 14.603103 14.601451 14.609334 14.624111 14.633457 14.651078 14.828453 14.830116 15.025194 15.154788 15.05767 15.090459 15.499494 15.66513 -9999
-9999 15.22293 14.830398 14.592009 14.59466 14.597603 14.597811 14.596172 14.600461 14.60525 14.616731 14.676416 14.653652 14.823218 15.023914 15.031277 15.011047 15.32601 -9999 -9999
-9999 15.262434 14.953396 14.62548 14.584718 14.588807 14.591901 14.578501 14.567556 14.569989 14.57939 14.598882 14.617124 14.676162 14.863503 14.883103 15.014951 15.352533 -9999 -9999
-9999 15.3249 15.085493 14.823666 14.599812 14.582405 14.573907 14.55436 14.536285 14.528353 14.540786 14.552016 14.575299 14.588759 14.703429 14.708102 14.794005 15.41319 15.324485 15.2365
-9999 -9999 15.192533 14.995203 14.752554 14.58359 14.555631 14.52575 14.501452 14.492265 14.498223 14.511179 14.522109 14.532771 14.556498 14.603823 14.662144 14.72957 14.78759 14.82488
-9999 -9999 15.0876 15.061634 14.818822 14.576572 14.537379 14.496218 14.464692 14.451599 14.447833 14.454947 14.451252 14.447557 14.464948 14.490091 14.540588 14.6217 14.692856 14.74729
-9999 -9999 -9999 15.10103 14.672777 14.573754 14.5227 14.471004 14.434844 14.409848 14.408162 14.404912 14.3924 14.373529 14.36099 14.368072 14.409522 14.46342 14.548424 14.64338
