ncols        20
nrows        20
xllcorner    0
yllcorner    -3.59929275513
cellsize     0.179964631796
NODATA_value -9999
-9999.0 -9999 -9999 -9999 -9999 -9999 -9999 -9999 -9999 -9999 -9999 -9999 -9999 -9999 -9999 -9999 -9999 -9999 -9999 -9999
-9999 -9999 -9999 -9999 17.16605 16.343722 16.222197 16.11874 16.180033 16.326402 16.36574 16.3031615 16.4353 16.29456 16.29456 16.56974325 16.76934 -9999 -9999 -9999
-9999 -9999 -9999 -9999 16.234526 15.972733 16.000429 15.927365 16.060258 16.287949 16.175873 16.287425 16.314048 16.226876 16.31616 16.449878 16.743595 16.106671 -9999 -9999
-9999 -9999 -9999 15.80608825 15.812499 15.742393 15.85238 15.758157 15.800076 15.930535 15.847073 15.900798 15.941031 15.964548 16.071802 16.17882 16.012834 15.963525 -9999 -9999
-9999 -9999 -9999 15.675698 15.50163 15.348843 15.506936 15.494094 15.551326 15.514398 15.455051 15.456587 15.495235 15.565579 15.645117 15.65217 15.769829 16.179235 -9999 -9999
-9999 -9999 15.4599875 15.429789 15.356037 15.282986 15.236391 15.288907 15.234553 15.217543 15.120724 15.202509 15.162527 15.269609 15.236526 15.448309 15.900568 16.213763 16.36376 -9999
-9999 -9999 15.34776 15.386703 15.281159 15.200287 15.150919 15.110057 15.154014 15.138132 15.107034 15.060943 15.080915 15.173317 15.26892 15.576759 15.882461 16.222928 16.336827 -9999
-9999 -9999 15.282815 15.159205 15.298235 15.249258 15.264069 15.168632 15.119811 15.055112 15.055675 15.038769 15.075333 15.171607 15.399026 15.619563 15.904579 16.357508 16.295742 -9999
-9999 15.01819 15.019227 15.021035 15.174368 15.147376 15.07023 15.158085 15.190232 15.13043 15.110936 15.103768 15.125009 15.269184 15.427064 15.561517 15.937312 16.329101 16.394942 -9999
-9999 15.166153 15.022893 15.018975 15.036118 15.011421 14.965789 15.063499 15.179252 15.221095 15.182407 15.177204 15.221222 15.321369 15.513679 15.543623 15.869083 16.243537 16.167127 -9999
-9999 15.357418 15.024155 15.028156 15.025628 14.98955 14.970651 14.988123 14.978175 15.289734 15.24884 15.223816 15.388168 15.412241 15.495397 15.519605 15.697751 15.96004 15.83842 -9999
-9999 15.527405 15.051603 15.032975 15.018865 14.984669 14.971035 14.978292 14.969053 15.138145 15.172688 15.263335 15.384783 15.449323 15.483165 15.417854 15.522151 15.713719 15.916837 -9999
-9999 15.647715 15.129231 15.032131 15.026393 14.997777 14.97084 14.978767 14.985784 14.971606 15.083939 15.210961 15.284004 15.42734 15.385256 15.319706 15.436181 15.654286 16.013528 -9999
-9999 15.746055 15.230352 15.032141 15.034971 15.013349 14.974826 14.974503 14.984425 14.986054 14.97829 15.122606 15.103138 15.267281 15.351331 15.24696 15.282371 15.628877 15.77649 -9999
-9999 15.798559 15.350632 15.047715 15.035057 15.024471 15.000204 14.974103 14.9835 14.982947 14.980318 15.014762 14.978442 15.112106 15.262193 15.248789 15.223982 15.480646 -9999 -9999
-9999 15.856725 15.492459 15.10537 15.036049 15.030845 15.024099 14.978387 14.975956 14.973754 14.974843 14.97815 14.979541 15.009174 15.149592 15.146338 15.243454 15.524661 -9999 -9999
-9999 15.9404 15.652746 15.349328 15.078838 15.037395 15.011531 14.976359 14.972514 14.960927 14.965486 14.967258 14.975121 14.961875 15.036451 15.015412 15.071094 15.60004 15.55193 15.52129
-9999 -9999 15.798302 15.559028 15.273928 15.055768 14.993941 14.97535 14.969587 14.958886 14.949803 14.954147 14.958487 14.947533 14.94253 14.966188 14.994838 15.050062 15.11048 15.17937
-9999 -9999 15.6832935 15.657624 15.369022 15.06656 14.989273 14.977919 14.971265 14.960755 14.939928 14.933324 14.925249 14.916123 14.913006 14.906567 14.932977 15.015181 15.076001 15.13909
-9999 -9999 -9999 15.71822 15.232983 15.100857 15.024738 14.999871 14.985886 14.980214 14.965369 14.937765 14.911098 14.886456 14.851093 14.836229 14.859484 14.899615 14.973119 15.06318
