ncols        20
nrows        20
xllcorner    0
yllcorner    -3.59929275513
cellsize     0.179964631796
NODATA_value -9999
-9999.0 -9999 -9999 -9999 -9999 -9999 -9999 -9999 -9999 -9999 -9999 -9999 -9999 -9999 -9999 -9999 -9999 -9999 -9999 -9999
-9999 -9999 -9999 -9999 17.34586 16.545374 16.447298 16.378159 16.467107 16.632167 16.68493 16.645893 16.78245 16.63185 16.63185 16.8929565 17.08624 -9999 -9999 -9999
-9999 -9999 -9999 -9999 16.400466 16.183749 16.236906 16.193498 16.356396 16.606558 16.508117 16.63242 16.660585 16.567173 16.649935 16.774564 17.061087 16.431541 -9999 -9999
-9999 -9999 -9999 15.93595225 15.946015 15.929833 16.080355 16.0215 16.105378 16.252138 16.185022 16.242309 16.28513 16.295704 16.398697 16.502381 16.330129 16.282604 -9999 -9999
-9999 -9999 -9999 15.782031 15.615297 15.5014 15.721404 15.746634 15.842189 15.826101 15.776428 15.780395 15.810358 15.877501 15.954859 15.954531 16.086132 16.503854 -9999 -9999
-9999 -9999 15.553007 15.531287 15.464471 15.416067 15.42025 15.532959 15.509139 15.510054 15.422072 15.502559 15.447677 15.555674 15.519298 15.743468 16.216404 16.538188 16.69111 -9999
-9999 -9999 15.421036 15.477674 15.375172 15.312573 15.303791 15.317779 15.413013 15.414439 15.391498 15.34678 15.356175 15.445691 15.553602 15.878529 16.194853 16.552059 16.651035 -9999
-9999 -9999 15.338411 15.239605 15.391151 15.358212 15.391464 15.35966 15.364459 15.308342 15.319199 15.310068 15.348532 15.449088 15.691457 15.916928 16.22632 16.681807 16.598112 -9999
-9999 15.01245 15.049563 15.094151 15.267569 15.260659 15.203786 15.33613 15.404861 15.368998 15.360178 15.362654 15.390273 15.558751 15.724658 15.866527 16.260339 16.640394 16.683299 -9999
-9999 15.123997 15.041034 15.071914 15.115641 15.115376 15.082159 15.208759 15.362695 15.437108 15.416499 15.421562 15.476453 15.609885 15.817843 15.857368 16.18078 16.54158 16.444317 -9999
-9999 15.274434 15.032491 15.065033 15.093687 15.089298 15.078494 15.111358 15.134449 15.474479 15.46559 15.455855 15.644401 15.700352 15.795842 15.828197 15.988004 16.240157 16.098936 -9999
-9999 15.412385 15.043956 15.057993 15.076777 15.074337 15.074143 15.092877 15.110718 15.307599 15.364769 15.482981 15.63523 15.727766 15.779015 15.708076 15.788727 15.973093 16.176135 -9999
-9999 15.50947 15.095175 15.049738 15.072225 15.071932 15.070397 15.08619 15.103566 15.116473 15.252513 15.405508 15.510303 15.679419 15.663077 15.590448 15.683797 15.908494 16.266671 -9999
-9999 15.585917 15.16569 15.041974 15.066786 15.069544 15.067921 15.071751 15.086757 15.10466 15.125268 15.290829 15.298526 15.490237 15.604016 15.50737 15.521326 15.882583 16.01202 -9999
-9999 15.618785 15.258621 15.044509 15.059357 15.066791 15.065379 15.063334 15.069388 15.076409 15.095639 15.153046 15.139029 15.299286 15.484037 15.48538 15.456178 15.729707 -9999 -9999
-9999 15.654652 15.37386 15.073938 15.043509 15.055703 15.063386 15.050934 15.041744 15.041486 15.061927 15.085257 15.107037 15.161993 15.332322 15.350075 15.465833 15.76234 -9999 -9999
-9999 15.71201 15.4953 15.255753 15.053399 15.045111 15.049646 15.031621 15.014411 15.003393 15.025812 15.045754 15.072753 15.085217 15.186723 15.18583 15.262631 15.82208 15.72523 15.62659
-9999 -9999 15.591254 15.413544 15.19172 15.050736 15.037342 15.0067 14.981708 14.969122 14.984561 15.007949 15.028531 15.039265 15.050477 15.08992 15.136367 15.199923 15.244315 15.26484
-9999 -9999 15.49593 15.471882 15.253875 15.049146 15.025042 14.980691 14.945459 14.933369 14.935882 14.941848 14.945989 14.951877 14.964581 14.979083 15.022558 15.091901 15.157312 15.2043
-9999 -9999 -9999 15.50704 15.123901 15.04493 15.009838 14.958618 14.917341 14.888975 14.890642 14.894147 14.890639 14.880626 14.863936 14.869981 14.905202 14.945678 15.023217 15.11381
