ncols        20
nrows        20
xllcorner    0
yllcorner    -3.59929275513
cellsize     0.179964631796
NODATA_value -9999
-9999.0 -9999 -9999 -9999 -9999 -9999 -9999 -9999 -9999 -9999 -9999 -9999 -9999 -9999 -9999 -9999 -9999 -9999 -9999 -9999
-9999 -9999 -9999 -9999 16.70933 15.887701 15.768313 15.668133 15.732812 15.895004 15.964605 15.904574 16.02624 15.85751 15.85751 16.16277925 16.37618 -9999 -9999 -9999
-9999 -9999 -9999 -9999 15.764263 15.524677 15.558302 15.503006 15.649054 15.891051 15.798494 15.888525 15.905037 15.800123 15.883274 16.041229 16.350434 15.702868 -9999 -9999
-9999 -9999 -9999 15.36298625 15.356338 15.307337 15.430813 15.362323 15.42023 15.555014 15.476514 15.519672 15.549356 15.560218 15.66191 15.780761 15.619091 15.572025 -9999 -9999
-9999 -9999 -9999 15.249194 15.08215 14.945843 15.116479 15.124089 15.187639 15.164828 15.107541 15.102971 15.131521 15.189604 15.266834 15.278079 15.382419 15.799641 -9999 -9999
-9999 -9999 15.06118125 15.03539 14.962335 14.896699 14.862291 14.935922 14.897801 14.889177 14.801479 14.87477 14.830634 14.926591 14.89758 15.101374 15.538421 15.864233 16.0217 -9999
-9999 -9999 14.952818 15.007323 14.898304 14.823862 14.785897 14.763896 14.824897 14.817639 14.797351 14.755191 14.769197 14.853556 14.955477 15.241705 15.550188 15.887862 15.997769 -9999
-9999 -9999 14.905501 14.808179 14.933365 14.879898 14.895824 14.827448 14.801137 14.745613 14.750872 14.741332 14.780129 14.876904 15.083346 15.31689 15.590878 16.016145 15.959535 -9999
-9999 14.60876 14.657878 14.698264 14.840238 14.814719 14.744623 14.836919 14.87221 14.819601 14.805256 14.804929 14.831728 14.978893 15.139757 15.279693 15.629145 15.990723 16.052377 -9999
-9999 14.715008 14.651342 14.688655 14.719019 14.701963 14.659211 14.755719 14.866056 14.903936 14.872506 14.87257 14.92057 15.040931 15.239848 15.272837 15.566553 15.911504 15.835953 -9999
-9999 14.856284 14.640411 14.685288 14.706776 14.684639 14.665231 14.685244 14.685443 14.963849 14.93316 14.916174 15.090703 15.13845 15.235521 15.2518 15.408395 15.645849 15.52461 -9999
-9999 14.986067 14.649161 14.678977 14.696837 14.678634 14.666183 14.675575 14.675314 14.830207 14.862548 14.958751 15.098039 15.18281 15.231123 15.157847 15.251453 15.418678 15.59907 -9999
-9999 15.080385 14.696547 14.668883 14.696718 14.685258 14.666989 14.676337 14.685572 14.682972 14.787479 14.918471 15.007605 15.164043 15.13966 15.072492 15.179581 15.37158 15.690691 -9999
-9999 15.155259 14.762333 14.659059 14.695999 14.692763 14.67165 14.671101 14.682958 14.697525 14.703612 14.846216 14.848285 15.02077 15.107206 15.01731 15.044992 15.362333 15.47503 -9999
-9999 15.189224 14.85209 14.660068 14.688803 14.696136 14.685961 14.671167 14.681248 14.690374 14.702324 14.752571 14.744124 14.878717 15.023592 15.021123 14.999311 15.240926 -9999 -9999
-9999 15.225494 14.963302 14.6849 14.666783 14.687376 14.696157 14.673934 14.670805 14.673894 14.690957 14.716684 14.740248 14.782223 14.91768 14.925178 15.026543 15.287857 -9999 -9999
-9999 15.2813 15.081648 14.858502 14.670065 14.673058 14.687261 14.66932 14.658802 14.653393 14.671918 14.702488 14.733469 14.73621 14.816171 14.810015 14.866394 15.36657 15.31917 15.28236
-9999 -9999 15.174327 15.010692 14.804572 14.683439 14.677835 14.656875 14.639861 14.63235 14.648079 14.679739 14.714554 14.718231 14.728312 14.760034 14.796395 14.847358 14.910545 14.9731
-9999 -9999 15.08905525 15.068512 14.872254 14.69126 14.670702 14.640853 14.617265 14.607766 14.616239 14.629537 14.645017 14.66039 14.682082 14.694524 14.730209 14.808438 14.878659 14.95138
-9999 -9999 -9999 15.10269 14.771119 14.703647 14.664609 14.627417 14.600049 14.578659 14.583758 14.591155 14.593387 14.597632 14.595485 14.607639 14.647915 14.691448 14.781283 14.87957
