ncols        20
nrows        20
xllcorner    0
yllcorner    -3.59929275513
cellsize     0.179964631796
NODATA_value -9999
-9999.0 -9999 -9999 -9999 -9999 -9999 -9999 -9999 -9999 -9999 -9999 -9999 -9999 -9999 -9999 -9999 -9999 -9999 -9999 -9999
-9999 -9999 -9999 -9999 16.8639 16.043868 15.918236 15.80969 15.870277 16.015247 16.062267 16.00314875 16.12574 15.97489 15.97489 16.24612425 16.4402 -9999 -9999 -9999
-9999 -9999 -9999 -9999 15.93201 15.679086 15.702729 15.634323 15.766282 15.989234 15.890976 15.987061 16.008818 15.915165 15.998405 16.131021 16.414871 15.786591 -9999 -9999
-9999 -9999 -9999 15.52473075 15.519526 15.458329 15.567419 15.482931 15.525947 15.652809 15.572592 15.617989 15.654774 15.666194 15.768216 15.87084 15.702946 15.653162 -9999 -9999
-9999 -9999 -9999 15.410587 15.2368 15.093418 15.246511 15.238862 15.292109 15.254697 15.197088 15.191843 15.223955 15.290351 15.366976 15.367275 15.470925 15.854551 -9999 -9999
-9999 -9999 15.2067665 15.17897 15.109291 15.03596 14.993277 15.04801 14.99677 14.978584 14.884246 14.957298 14.913254 15.017333 14.982837 15.190521 15.603656 15.900432 16.04278 -9999
-9999 -9999 15.09304 15.144469 15.042187 14.965337 14.914547 14.872206 14.92432 14.908806 14.877174 14.828811 14.846495 14.939467 15.035477 15.316745 15.589221 15.90942 16.001296 -9999
-9999 -9999 15.041865 14.92959 15.069484 15.027126 15.040232 14.94508 14.896407 14.829534 14.828746 14.813922 14.853779 14.952039 15.162429 15.359991 15.618014 16.03315 15.95043 -9999
-9999 14.75326 14.78394 14.806961 14.957043 14.948964 14.873102 14.953145 14.974867 14.907484 14.887065 14.882176 14.907871 15.051454 15.191904 15.30998 15.653975 15.990689 16.035478 -9999
-9999 14.877066 14.782474 14.802024 14.827006 14.821134 14.777233 14.868005 14.971273 14.999413 14.959457 14.954553 15.00225 15.102242 15.279904 15.300441 15.587606 15.900382 15.81976 -9999
-9999 15.03935 14.777133 14.804713 14.815537 14.79688 14.78334 14.794661 14.784165 15.068579 15.02568 15.003748 15.16878 15.18931 15.263573 15.277698 15.420069 15.631682 15.509024 -9999
-9999 15.185556 14.793544 14.80403 14.807457 14.787874 14.785337 14.786379 14.775342 14.931061 14.957963 15.04542 15.162689 15.22292 15.251878 15.17739 15.249022 15.401755 15.578145 -9999
-9999 15.289563 14.853213 14.799045 14.811645 14.795491 14.787065 14.788513 14.79108 14.77829 14.880155 14.997106 15.064058 15.199281 15.157824 15.080986 15.161697 15.347356 15.660598 -9999
-9999 15.373273 14.933312 14.794339 14.816057 14.804697 14.789827 14.787953 14.791485 14.790413 14.78634 14.91258 14.891858 15.046344 15.121689 15.01857 15.02565 15.327564 15.4426 -9999
-9999 15.412845 15.033681 14.80134 14.814017 14.811713 14.801394 14.790858 14.78907 14.783386 14.780551 14.806341 14.769262 14.897271 15.032348 15.01656 14.979183 15.200968 -9999 -9999
-9999 15.455247 15.155441 14.839166 14.803076 14.8135 14.812386 14.791191 14.775833 14.767473 14.767457 14.765539 14.759214 14.789821 14.922301 14.918912 14.999854 15.245949 -9999 -9999
-9999 15.51941 15.288268 15.035632 14.820948 14.808894 14.811873 14.785661 14.76317 14.745776 14.74717 14.747632 14.74402 14.734349 14.807753 14.787917 14.837327 15.31968 15.255665 15.19861
-9999 -9999 15.397024 15.206875 14.972495 14.823595 14.806324 14.774981 14.746194 14.728232 14.72427 14.724391 14.719755 14.707893 14.704688 14.729179 14.759446 14.809574 14.85233 14.8922
-9999 -9999 15.29804275 15.276262 15.046644 14.827447 14.7977 14.762442 14.729429 14.712087 14.700911 14.689805 14.676908 14.659303 14.653366 14.649955 14.677669 14.753082 14.806755 14.85336
-9999 -9999 -9999 15.31201 14.927811 14.837336 14.796303 14.759776 14.730364 14.704773 14.694307 14.678047 14.654162 14.622444 14.588632 14.573824 14.584348 14.625687 14.696951 14.77536
