ncols        20
nrows        20
xllcorner    0
yllcorner    -3.59929275513
cellsize     0.179964631796
NODATA_value -9999
-9999.0 -9999 -9999 -9999 -9999 -9999 -9999 -9999 -9999 -9999 -9999 -9999 -9999 -9999 -9999 -9999 -9999 -9999 -9999 -9999
-9999 -9999 -9999 -9999 17.89304 17.072536 16.968732 16.893841 16.984631 17.144313 17.178242 17.1252845 17.26795 17.13059 17.13059 17.40995825 17.61634 -9999 -9999 -9999
-9999 -9999 -9999 -9999 16.933273 16.697165 16.744656 16.68626 16.844977 17.094052 16.981065 17.108126 17.143997 17.059012 17.148703 17.284758 17.590032 16.949462 -9999 -9999
-9999 -9999 -9999 16.46203475 16.470279 16.434655 16.56604 16.496851 16.560276 16.709134 16.631877 16.69409 16.750101 16.766161 16.884676 17.001472 16.833058 16.792634 -9999 -9999
-9999 -9999 -9999 16.310161 16.134426 16.003393 16.203973 16.214294 16.288735 16.260879 16.205298 16.206406 16.248377 16.328504 16.421175 16.429622 16.581008 17.032644 -9999 -9999
-9999 -9999 16.06194925 16.04024 15.97099 15.919353 15.89942 15.988613 15.948183 15.938085 15.841392 15.924811 15.875329 15.997102 15.964789 16.204823 16.715399 17.074989 17.2391 -9999
-9999 -9999 15.924091 15.973305 15.877316 15.816242 15.790007 15.777924 15.851145 15.842261 15.814464 15.766779 15.783247 15.881495 15.994994 16.344786 16.706136 17.091906 17.21019 -9999
-9999 -9999 15.83327 15.720794 15.880244 15.854366 15.882887 15.823375 15.803009 15.739113 15.745674 15.733455 15.77533 15.879001 16.137862 16.405271 16.742336 17.232389 17.163662 -9999
-9999 15.50745 15.528082 15.553533 15.733961 15.735993 15.67044 15.79141 15.848494 15.80168 15.790657 15.791159 15.814997 15.985301 16.179948 16.352051 16.778879 17.201644 17.266307 -9999
-9999 15.631637 15.521721 15.531471 15.567683 15.568633 15.534885 15.658792 15.806066 15.874294 15.85021 15.853254 15.91097 16.046412 16.282 16.341507 16.699465 17.104981 17.021847 -9999
-9999 15.798544 15.517102 15.531132 15.545731 15.53646 15.530347 15.559724 15.571539 15.921251 15.90591 15.893084 16.092355 16.145216 16.263787 16.313998 16.501192 16.794737 16.669095 -9999
-9999 15.952127 15.53369 15.528875 15.529548 15.519914 15.524276 15.542031 15.549908 15.749057 15.805206 15.925628 16.082249 16.178572 16.248875 16.190551 16.295776 16.522462 16.75472 -9999
-9999 16.06308 15.593114 15.523867 15.528719 15.520298 15.518007 15.53604 15.549602 15.55131 15.68776 15.844946 15.951886 16.127248 16.124704 16.068278 16.196324 16.456327 16.859194 -9999
-9999 16.15254 15.673981 15.519743 15.528406 15.521856 15.51243 15.520368 15.534157 15.536652 15.551392 15.725827 15.732186 15.929498 16.060698 15.97467 16.018116 16.425663 16.57936 -9999
-9999 16.194063 15.780321 15.52537 15.523497 15.520882 15.513622 15.507638 15.514797 15.512917 15.519065 15.583803 15.566274 15.732387 15.935374 15.951489 15.941591 16.251909 -9999 -9999
-9999 16.238248 15.910805 15.562761 15.516154 15.51663 15.515905 15.493044 15.48701 15.484006 15.486663 15.513975 15.534683 15.592389 15.778691 15.805125 15.947408 16.281257 -9999 -9999
-9999 16.30579 16.053498 15.776001 15.535841 15.513591 15.495907 15.473634 15.461753 15.452024 15.460134 15.475566 15.501579 15.515136 15.629168 15.63444 15.725937 16.34095 16.260155 16.19051
-9999 -9999 16.171147 15.961956 15.703302 15.51706 15.475037 15.451586 15.434445 15.424665 15.432579 15.444132 15.459725 15.470202 15.491972 15.537657 15.594868 15.667378 15.73371 15.7879
-9999 -9999 16.06399225 16.037986 15.781434 15.516494 15.46087 15.430166 15.408147 15.39815 15.395741 15.399416 15.391774 15.38839 15.406621 15.429019 15.4798 15.566834 15.650092 15.71978
-9999 -9999 -9999 16.08488 15.641478 15.529588 15.466666 15.424361 15.396888 15.380275 15.374867 15.364453 15.346958 15.329295 15.311475 15.318163 15.357298 15.418359 15.517512 15.62144
