ncols        20
nrows        20
xllcorner    0
yllcorner    -3.59929275513
cellsize     0.179964631796
NODATA_value -9999
-9999.0 -9999 -9999 -9999 -9999 -9999 -9999 -9999 -9999 -9999 -9999 -9999 -9999 -9999 -9999 -9999 -9999 -9999 -9999 -9999
-9999 -9999 -9999 -9999 17.16025 16.361604 16.257135 16.177646 16.25963 16.414562 16.462022 16.4138545 16.5424 16.40373 16.40373 16.67009075 16.86152 -9999 -9999 -9999
-9999 -9999 -9999 -9999 16.226599 16.004675 16.050171 16.00115 16.150272 16.386299 16.288084 16.399855 16.425079 16.339153 16.427265 16.555527 16.836051 16.216286 -9999 -9999
-9999 -9999 -9999 15.7951345 15.799338 15.771244 15.906668 15.841394 15.904237 16.043259 15.974746 16.026536 16.063767 16.080948 16.189895 16.293145 16.124028 16.078544 -9999 -9999
-9999 -9999 -9999 15.654233 15.500368 15.385372 15.576229 15.58899 15.662637 15.641928 15.589461 15.590559 15.620203 15.692005 15.773696 15.77391 15.893467 16.302054 -9999 -9999
-9999 -9999 15.4493565 15.424709 15.360446 15.309139 15.298143 15.387166 15.351888 15.3452 15.255889 15.333135 15.288112 15.398114 15.363078 15.579833 16.029905 16.350899 16.52026 -9999
-9999 -9999 15.332494 15.38599 15.285208 15.222875 15.191297 15.185774 15.261963 15.256299 15.231486 15.190344 15.208397 15.303568 15.404519 15.71506 16.029274 16.379388 16.490633 -9999
-9999 -9999 15.263087 15.164856 15.311323 15.271993 15.292849 15.237 15.220638 15.161895 15.171632 15.164684 15.206941 15.307211 15.542561 15.773895 16.065956 16.513382 16.443755 -9999
-9999 14.94345 14.983278 15.018407 15.184859 15.174154 15.10719 15.222761 15.279509 15.234996 15.223652 15.226271 15.253402 15.417795 15.583209 15.725919 16.106135 16.481958 16.533099 -9999
-9999 15.064417 14.973944 15.000145 15.036208 15.028293 14.993367 15.111083 15.252962 15.316894 15.290436 15.292729 15.349863 15.47381 15.68164 15.723493 16.035978 16.390212 16.305987 -9999
-9999 15.224694 14.96374 14.997864 15.017868 15.002234 14.991963 15.022476 15.037927 15.370778 15.3504 15.337316 15.524574 15.568522 15.66547 15.697809 15.855904 16.10266 15.980777 -9999
-9999 15.368853 14.976846 14.992342 15.003121 14.990647 14.9876 15.006914 15.018674 15.208894 15.261773 15.37416 15.518104 15.602436 15.651554 15.585172 15.669373 15.855687 16.05858 -9999
-9999 15.46792 15.034754 14.98241 15.001348 14.994304 14.983057 15.002487 15.018231 15.026767 15.159508 15.307623 15.401618 15.563457 15.545072 15.476505 15.578784 15.800306 16.148644 -9999
-9999 15.545805 15.113158 14.972753 15.000074 14.998762 14.981569 14.98839 15.007873 15.021563 15.037136 15.20173 15.201811 15.386252 15.494166 15.40259 15.426669 15.780178 15.89835 -9999
-9999 15.581992 15.211752 14.97751 14.992897 14.995785 14.990779 14.97914 14.998046 15.00832 15.019315 15.068995 15.054758 15.211565 15.384636 15.387652 15.368726 15.635645 -9999 -9999
-9999 15.622897 15.33073 15.013604 14.975134 14.98712 14.991949 14.973655 14.97875 14.990275 14.999867 15.011704 15.026063 15.082464 15.246064 15.260575 15.379009 15.667081 -9999 -9999
-9999 15.68601 15.457438 15.209991 14.991937 14.977307 14.972926 14.963174 14.966259 14.964798 14.979512 14.983961 14.997287 15.010458 15.108669 15.106495 15.184389 15.72861 15.63672 15.56025
-9999 -9999 15.561754 15.375417 15.145643 14.986061 14.953249 14.950551 14.949519 14.944814 14.946581 14.95572 14.964802 14.969732 14.982833 15.021381 15.069048 15.129342 15.17338 15.20516
-9999 -9999 15.46059925 15.439206 15.214715 14.994624 14.940481 14.934219 14.931258 14.922456 14.911149 14.909616 14.907175 14.901943 14.906002 14.923155 14.96319 15.040307 15.101616 15.14314
-9999 -9999 -9999 15.46602 15.088907 15.009393 14.950568 14.928916 14.9133 14.90092 14.899597 14.88633 14.874829 14.859539 14.831142 14.825231 14.848089 14.893261 14.973006 15.05564
