ncols        20
nrows        20
xllcorner    0
yllcorner    -3.59929275513
cellsize     0.179964631796
NODATA_value -9999
-9999.0 -9999 -9999 -9999 -9999 -9999 -9999 -9999 -9999 -9999 -9999 -9999 -9999 -9999 -9999 -9999 -9999 -9999 -9999 -9999
-9999 -9999 -9999 -9999 17.35806 16.556517 16.457909 16.387809 16.477411 16.639695 16.683755 16.63486 16.77285 16.631 16.631 16.89939025 17.09509 -9999 -9999 -9999
-9999 -9999 -9999 -9999 16.418298 16.192424 16.244076 16.19358 16.353237 16.602631 16.497372 16.61973 16.649488 16.561648 16.652518 16.779962 17.069991 16.443621 -9999 -9999
-9999 -9999 -9999 15.968905 15.973912 15.944768 16.082582 16.015765 16.086064 16.234245 16.163645 16.220869 16.26544 16.284501 16.397528 16.505305 16.337236 16.292179 -9999 -9999
-9999 -9999 -9999 15.823388 15.660022 15.537089 15.730944 15.743699 15.827518 15.81088 15.755047 15.753785 15.790331 15.863217 15.949099 15.954143 16.08805 16.520318 -9999 -9999
-9999 -9999 15.59874425 15.579497 15.507078 15.454427 15.441582 15.53437 15.499839 15.49596 15.401141 15.481114 15.432931 15.546013 15.513907 15.734296 16.221144 16.556422 16.70043 -9999
-9999 -9999 15.471009 15.521083 15.416283 15.353223 15.325705 15.322263 15.40411 15.39972 15.371679 15.327181 15.343415 15.436976 15.5392 15.87237 16.202797 16.560855 16.665465 -9999
-9999 -9999 15.39416 15.287356 15.434061 15.397216 15.42422 15.36834 15.356793 15.29573 15.304761 15.295434 15.337634 15.434407 15.679244 15.918534 16.232273 16.692313 16.62327 -9999
-9999 15.07005 15.102833 15.130746 15.300376 15.290937 15.229254 15.34892 15.408872 15.364289 15.351617 15.352718 15.378264 15.537702 15.7171 15.865333 16.265828 16.656595 16.723616 -9999
-9999 15.196532 15.095004 15.109021 15.141878 15.136529 15.103421 15.226065 15.372023 15.440297 15.413466 15.414348 15.464844 15.596466 15.813869 15.857544 16.189384 16.569242 16.490037 -9999
-9999 15.363842 15.087094 15.108656 15.122588 15.108704 15.098285 15.131044 15.143431 15.488375 15.46888 15.451855 15.638958 15.692096 15.796718 15.830149 16.00441 16.280007 16.149225 -9999
-9999 15.514317 15.102075 15.106053 15.108023 15.095187 15.094252 15.113876 15.123034 15.318475 15.372345 15.485288 15.636876 15.725604 15.779903 15.714396 15.814968 16.016975 16.227542 -9999
-9999 15.618913 15.16253 15.099867 15.107404 15.097709 15.091585 15.107853 15.123018 15.125076 15.260879 15.414278 15.5154 15.682382 15.663668 15.601651 15.716316 15.951765 16.323711 -9999
-9999 15.702692 15.244955 15.0937 15.106645 15.101444 15.090105 15.09448 15.109597 15.116712 15.130408 15.300169 15.30458 15.491892 15.60297 15.51664 15.548227 15.923797 16.0741 -9999
-9999 15.74328 15.347856 15.098723 15.101693 15.10278 15.094679 15.087248 15.095249 15.095803 15.103564 15.159256 15.141792 15.300484 15.48551 15.495797 15.477574 15.765482 -9999 -9999
-9999 15.788779 15.472105 15.13582 15.093037 15.096699 15.100099 15.074975 15.070468 15.070514 15.075673 15.089875 15.108197 15.162865 15.339263 15.360485 15.485581 15.796608 -9999 -9999
-9999 15.85776 15.60776 15.341504 15.110616 15.092832 15.081358 15.06025 15.053967 15.041855 15.050596 15.051818 15.072283 15.083186 15.193136 15.195374 15.277499 15.85601 15.77244 15.70343
-9999 -9999 15.725363 15.519256 15.270473 15.099084 15.061278 15.048328 15.039819 15.024633 15.021251 15.023213 15.029891 15.037349 15.058514 15.102935 15.153694 15.223534 15.28083 15.32697
-9999 -9999 15.619031 15.594475 15.343915 15.105255 15.049243 15.037627 15.027541 15.009782 14.989347 14.98859 14.976998 14.966603 14.972167 14.992791 15.040084 15.129591 15.2072 15.2681
-9999 -9999 -9999 15.63703 15.207839 15.116789 15.056959 15.031636 15.0122 14.995367 14.987765 14.972862 14.958936 14.93577 14.905211 14.895987 14.924274 14.9819 15.074967 15.17514
