ncols        20
nrows        20
xllcorner    0
yllcorner    -3.59929275513
cellsize     0.179964631796
NODATA_value -9999
-9999.0 -9999 -9999 -9999 -9999 -9999 -9999 -9999 -9999 -9999 -9999 -9999 -9999 -9999 -9999 -9999 -9999 -9999 -9999 -9999
-9999 -9999 -9999 -9999 17.13509 16.33619 16.211494 16.096228 16.142865 16.294517 16.374645 16.3258735 16.43027 16.25788 16.25788 16.54454825 16.73896 -9999 -9999 -9999
-9999 -9999 -9999 -9999 16.224266 15.992849 16.017394 15.954817 16.089491 16.312669 16.241069 16.311746 16.320409 16.212984 16.288629 16.436284 16.71432 16.090238 -9999 -9999
-9999 -9999 -9999 15.86241275 15.850602 15.806323 15.929777 15.855656 15.912172 16.034848 15.95647 15.989504 16.009379 16.01012 16.098964 16.201898 16.03734 15.988429 -9999 -9999
-9999 -9999 -9999 15.760169 15.614614 15.490248 15.64822 15.652376 15.713652 15.689858 15.633465 15.628593 15.6442 15.693892 15.759773 15.76074 15.833907 16.195138 -9999 -9999
-9999 -9999 15.61658975 15.587739 15.526289 15.461684 15.427563 15.48952 15.458648 15.45031 15.367433 15.43287 15.388896 15.474301 15.443789 15.632762 15.992211 16.259444 16.42456 -9999
-9999 -9999 15.530252 15.588199 15.483783 15.414309 15.367648 15.343432 15.406343 15.400107 15.37713 15.33772 15.34899 15.427731 15.531165 15.765799 16.016482 16.298644 16.402755 -9999
-9999 -9999 15.515566 15.425914 15.547838 15.497433 15.501045 15.423283 15.393892 15.33951 15.345836 15.338016 15.375043 15.472804 15.653091 15.84341 16.054754 16.419498 16.368582 -9999
-9999 15.24414 15.303704 15.349512 15.481313 15.457427 15.388717 15.459572 15.47685 15.419939 15.407314 15.407432 15.43733 15.582595 15.705511 15.816595 16.097509 16.396405 16.463024 -9999
-9999 15.343445 15.299128 15.348764 15.380472 15.369494 15.327898 15.407175 15.493526 15.5122 15.479772 15.480879 15.529918 15.637152 15.79801 15.8144 16.049971 16.328652 16.279493 -9999
-9999 15.473666 15.286192 15.344653 15.37118 15.355537 15.338107 15.350908 15.343412 15.581302 15.54499 15.529225 15.69246 15.72542 15.791559 15.797203 15.917295 16.11539 16.018561 -9999
-9999 15.59224 15.292797 15.337766 15.363798 15.350718 15.342086 15.345332 15.339944 15.468299 15.490375 15.573775 15.699498 15.764875 15.789109 15.719196 15.791662 15.933819 16.091325 -9999
-9999 15.678288 15.336373 15.326566 15.364299 15.356676 15.346125 15.34947 15.356231 15.347539 15.432708 15.545817 15.621555 15.756547 15.716515 15.656031 15.745029 15.911128 16.163766 -9999
-9999 15.74639 15.396627 15.314845 15.363542 15.363304 15.352578 15.349754 15.360392 15.373648 15.36563 15.485981 15.48082 15.630687 15.697831 15.63108 15.653859 15.919872 15.97166 -9999
-9999 15.778703 15.477812 15.315019 15.357497 15.368728 15.362665 15.355329 15.365503 15.37331 15.378066 15.402384 15.3884 15.507971 15.632802 15.644416 15.631743 15.834915 -9999 -9999
-9999 15.814333 15.578338 15.336785 15.330781 15.359754 15.372156 15.362715 15.358886 15.361066 15.372747 15.377496 15.383466 15.424137 15.550121 15.570359 15.66477 15.880932 -9999 -9999
-9999 15.86824 15.685682 15.489506 15.328816 15.342541 15.371393 15.362459 15.352196 15.342567 15.353036 15.370286 15.377006 15.381969 15.463427 15.470415 15.525415 15.95722 15.87812 15.81454
-9999 -9999 15.772581 15.623989 15.445372 15.355796 15.36829 15.353289 15.335636 15.320771 15.325493 15.343698 15.363244 15.364351 15.378137 15.418908 15.458581 15.493812 15.528645 15.56732
-9999 -9999 15.695402 15.678348 15.506797 15.371335 15.365942 15.337083 15.310124 15.295607 15.289614 15.290502 15.294264 15.305207 15.332216 15.348903 15.388054 15.442758 15.499321 15.5502
-9999 -9999 -9999 15.70669 15.425617 15.381332 15.359249 15.318951 15.283394 15.258301 15.25674 15.244982 15.238614 15.238094 15.240145 15.261079 15.303753 15.332695 15.406535 15.49678
