ncols        20
nrows        20
xllcorner    0
yllcorner    -3.59929275513
cellsize     0.179964631796
NODATA_value -9999
-9999.0 -9999 -9999 -9999 -9999 -9999 -9999 -9999 -9999 -9999 -9999 -9999 -9999 -9999 -9999 -9999 -9999 -9999 -9999 -9999
-9999 -9999 -9999 -9999 16.7969 15.983964 15.882552 15.810471 15.899786 16.064303 16.116305 16.0665565 16.19854 16.04381 16.04381 16.30264225 16.49112 -9999 -9999 -9999
-9999 -9999 -9999 -9999 15.846217 15.617332 15.670233 15.62683 15.78832 16.037743 15.938579 16.051697 16.07741 15.981368 16.065547 16.187892 16.46601 15.840891 -9999 -9999
-9999 -9999 -9999 15.40620875 15.410673 15.382519 15.522035 15.464959 15.535625 15.682025 15.613572 15.66671 15.707603 15.715011 15.820454 15.921383 15.744256 15.68946 -9999 -9999
-9999 -9999 -9999 15.263738 15.104207 14.989078 15.189722 15.208108 15.286506 15.271971 15.219026 15.216521 15.244738 15.309461 15.388123 15.383356 15.494901 15.895883 -9999 -9999
-9999 -9999 15.05082725 15.02554 14.958947 14.914043 14.908147 15.003234 14.971796 14.97108 14.879882 14.952562 14.900214 15.003744 14.962738 15.176512 15.620234 15.921685 16.06529 -9999
-9999 -9999 14.928969 14.985062 14.88863 14.831934 14.803087 14.802149 14.885526 14.881528 14.850853 14.803367 14.814383 14.899927 15.002047 15.303404 15.592913 15.928476 16.03008 -9999
-9999 -9999 14.861618 14.761443 14.915303 14.89069 14.91416 14.859477 14.845693 14.781053 14.786105 14.774385 14.81256 14.907918 15.13239 15.338503 15.617892 16.057116 15.98257 -9999
-9999 14.53599 14.575965 14.618207 14.790408 14.797878 14.736608 14.848087 14.898932 14.84899 14.833792 14.833301 14.857856 15.006942 15.158547 15.285297 15.652581 16.020625 16.076427 -9999
-9999 14.650609 14.567111 14.596814 14.638582 14.645969 14.617366 14.730919 14.865623 14.924932 14.896114 14.897928 14.945996 15.055078 15.245034 15.270688 15.581334 15.92983 15.851047 -9999
-9999 14.80425 14.557729 14.590916 14.618033 14.615174 14.61271 14.642746 14.646907 14.971994 14.95049 14.935692 15.110422 15.137968 15.224659 15.243873 15.403735 15.648385 15.526554 -9999
-9999 14.945589 14.569371 14.584159 14.601395 14.598318 14.607053 14.626596 14.629347 14.811517 14.860169 14.96665 15.09638 15.163949 15.20331 15.134461 15.222713 15.405237 15.60132 -9999
-9999 15.0471 14.622504 14.575444 14.596849 14.596735 14.601525 14.620217 14.633754 14.628664 14.754844 14.895284 14.975398 15.120302 15.092016 15.029555 15.137194 15.350186 15.688931 -9999
-9999 15.127304 14.695313 14.567266 14.592012 14.5959 14.595683 14.604475 14.620415 14.623197 14.62827 14.783001 14.773133 14.940621 15.038117 14.95645 14.982996 15.330973 15.45465 -9999
-9999 15.162011 14.793289 14.570832 14.584403 14.59086 14.591921 14.592717 14.604174 14.602686 14.600205 14.645295 14.620491 14.76394 14.929598 14.940406 14.921885 15.190927 -9999 -9999
-9999 15.19955 14.914335 14.602348 14.568276 14.579644 14.586763 14.579342 14.577988 14.575882 14.570203 14.578781 14.58817 14.636496 14.796988 14.81589 14.931595 15.222667 -9999 -9999
-9999 15.25926 15.039924 14.795286 14.581591 14.569459 14.569881 14.560794 14.55574 14.545643 14.543762 14.541357 14.553434 14.56076 14.661107 14.663783 14.738025 15.28586 15.19409 15.10847
-9999 -9999 15.137901 14.958724 14.732613 14.575666 14.552906 14.5392 14.5279 14.517551 14.512603 14.511068 14.510983 14.51355 14.531619 14.575388 14.623143 14.686345 14.73257 14.76126
-9999 -9999 15.04198075 15.018078 14.800421 14.580045 14.539282 14.517079 14.497839 14.487594 14.478606 14.468741 14.450061 14.434427 14.441097 14.463568 14.513505 14.588906 14.654444 14.70264
-9999 -9999 -9999 15.05322 14.675377 14.591096 14.538224 14.501995 14.479281 14.461136 14.455055 14.44104 14.416867 14.385114 14.357489 14.357088 14.385927 14.439077 14.521914 14.60927
