ncols        20
nrows        20
xllcorner    0
yllcorner    -3.59929275513
cellsize     0.179964631796
NODATA_value -9999
-9999.0 -9999 -9999 -9999 -9999 -9999 -9999 -9999 -9999 -9999 -9999 -9999 -9999 -9999 -9999 -9999 -9999 -9999 -9999 -9999
-9999 -9999 -9999 -9999 17.98011 17.157607 17.056284 16.987835 17.086267 17.252024 17.290988 17.23649425 17.37857 17.24367 17.24367 17.5233695 17.72833 -9999 -9999 -9999
-9999 -9999 -9999 -9999 17.015138 16.781532 16.834235 16.786182 16.951446 17.206115 17.092457 17.219463 17.255487 17.172047 17.263417 17.399887 17.701844 17.061159 -9999 -9999
-9999 -9999 -9999 16.5489325 16.562028 16.528709 16.662423 16.599326 16.667849 16.818195 16.74536 16.80791 16.863711 16.881003 17.001893 17.119286 16.945946 16.905539 -9999 -9999
-9999 -9999 -9999 16.397141 16.221423 16.098605 16.302812 16.317709 16.396389 16.375572 16.321648 16.323062 16.363886 16.444118 16.538276 16.544993 16.695147 17.144823 -9999 -9999
-9999 -9999 16.14870575 16.127153 16.057753 16.009343 15.996465 16.093889 16.05925 16.05284 15.958127 16.040567 15.99382 16.115465 16.082562 16.315683 16.831055 17.186516 17.35549 -9999
-9999 -9999 16.007616 16.062913 15.966602 15.905932 15.889415 15.883562 15.961273 15.954986 15.929952 15.884925 15.903094 16.00127 16.106186 16.461184 16.82575 17.207946 17.324707 -9999
-9999 -9999 15.906846 15.807862 15.970992 15.950176 15.979405 15.931687 15.915297 15.854641 15.863534 15.85247 15.893695 15.992899 16.252747 16.523885 16.861164 17.348344 17.28155 -9999
-9999 15.57129 15.601923 15.642159 15.826127 15.834899 15.776857 15.901703 15.963051 15.920182 15.910223 15.911279 15.933957 16.104443 16.297944 16.47232 16.896926 17.316273 17.370464 -9999
-9999 15.683971 15.594613 15.618313 15.664065 15.674317 15.645777 15.768715 15.919457 15.993049 15.970225 15.975314 16.033075 16.164611 16.401533 16.463811 16.814812 17.223213 17.119103 -9999
-9999 15.837732 15.58794 15.612948 15.641013 15.641227 15.641042 15.671069 15.68505 16.037145 16.02237 16.013285 16.211071 16.263043 16.384208 16.432314 16.612551 16.897539 16.758463 -9999
-9999 15.979803 15.600059 15.607949 15.622765 15.622837 15.634765 15.652835 15.662385 15.864714 15.921073 16.043234 16.199006 16.297233 16.369054 16.303089 16.401317 16.61528 16.841695 -9999
-9999 16.079685 15.650658 15.601916 15.617936 15.620185 15.628129 15.645877 15.660926 15.667353 15.803018 15.960501 16.06832 16.246824 16.241117 16.175376 16.292585 16.544585 16.944414 -9999
-9999 16.157953 15.721304 15.596158 15.612848 15.618143 15.620711 15.629718 15.643872 15.651988 15.667024 15.840049 15.848874 16.048131 16.175212 16.07844 16.110628 16.511593 16.67235 -9999
-9999 16.188338 15.816863 15.596909 15.607807 15.612295 15.614858 15.616742 15.623553 15.626493 15.638025 15.695857 15.684139 15.850334 16.048672 16.053116 16.032644 16.33716 -9999 -9999
-9999 16.220146 15.935785 15.623976 15.596246 15.604135 15.608325 15.599977 15.593559 15.594654 15.60531 15.628382 15.650248 15.711336 15.893136 15.908269 16.038347 16.365884 -9999 -9999
-9999 16.27375 16.058261 15.812514 15.600964 15.596656 15.594785 15.578809 15.564454 15.555942 15.571566 15.590208 15.614694 15.630505 15.740151 15.740213 15.823141 16.42549 16.33878 16.24506
-9999 -9999 16.146711 15.971721 15.745455 15.59763 15.57978 15.554721 15.531781 15.521775 15.532463 15.549738 15.570555 15.580915 15.60092 15.647412 15.696047 15.759629 15.81549 15.84366
-9999 -9999 16.0449025 16.021428 15.805805 15.589291 15.562829 15.529308 15.497216 15.486586 15.485699 15.4925 15.493208 15.49545 15.512562 15.533498 15.582912 15.658326 15.721187 15.76938
-9999 -9999 -9999 16.03975 15.662358 15.580753 15.54303 15.500629 15.471667 15.451865 15.443588 15.440165 15.430156 15.417725 15.405435 15.415077 15.452058 15.499969 15.579595 15.66657
