ncols        20
nrows        20
xllcorner    0
yllcorner    -3.59929275513
cellsize     0.179964631796
NODATA_value -9999
-9999.0 -9999 -9999 -9999 -9999 -9999 -9999 -9999 -9999 -9999 -9999 -9999 -9999 -9999 -9999 -9999 -9999 -9999 -9999 -9999
-9999 -9999 -9999 -9999 18.3092 17.503143 17.39954 17.322656 17.406847 17.563805 17.608728 17.55741975 17.68949 17.55114 17.55114 17.8157115 18.00909 -9999 -9999 -9999
-9999 -9999 -9999 -9999 17.365978 17.140105 17.187584 17.138697 17.289991 17.530476 17.427601 17.542207 17.570381 17.484688 17.572316 17.698206 17.983234 17.350098 -9999 -9999
-9999 -9999 -9999 16.930537 16.932634 16.899139 17.034192 16.970552 17.03337 17.176279 17.103075 17.157956 17.200339 17.21499 17.323838 17.427026 17.252889 17.20376 -9999 -9999
-9999 -9999 -9999 16.79584 16.627696 16.505602 16.699546 16.714533 16.788877 16.761497 16.707257 16.709261 16.73838 16.808956 16.891231 16.891579 17.010773 17.416429 -9999 -9999
-9999 -9999 16.58113125 16.557429 16.487776 16.429666 16.418385 16.510685 16.470578 16.459303 16.365734 16.443589 16.397699 16.50833 16.47485 16.690747 17.141189 17.453421 17.61077 -9999
-9999 -9999 16.459461 16.511795 16.412278 16.346057 16.31473 16.310181 16.381145 16.371316 16.343883 16.299799 16.317016 16.410795 16.508967 16.822221 17.129146 17.471497 17.576881 -9999
-9999 -9999 16.39113 16.287745 16.434285 16.397199 16.418991 16.360802 16.340546 16.276517 16.283692 16.273152 16.313763 16.409383 16.645241 16.870813 17.15822 17.602903 17.532635 -9999
-9999 16.07755 16.111617 16.145609 16.307606 16.296924 16.229016 16.342901 16.395641 16.346889 16.33351 16.332681 16.357169 16.514923 16.681464 16.820717 17.193237 17.567935 17.625506 -9999
-9999 16.192169 16.104405 16.128477 16.161399 16.151679 16.112861 16.22681 16.364612 16.425959 16.398438 16.397442 16.451568 16.570465 16.773895 16.807056 17.120738 17.479667 17.39498 -9999
-9999 16.346266 16.096646 16.125998 16.145083 16.12635 16.112838 16.13643 16.149087 16.473993 16.45671 16.439045 16.621033 16.660822 16.756851 16.780106 16.939112 17.191287 17.062106 -9999
-9999 16.48793 16.109439 16.121258 16.132022 16.115519 16.110184 16.123049 16.12948 16.316119 16.363887 16.47086 16.611879 16.692442 16.73774 16.666826 16.752943 16.937361 17.140432 -9999
-9999 16.589148 16.162966 16.113463 16.131064 16.120372 16.107662 16.121463 16.12952 16.136897 16.262674 16.402609 16.49461 16.650785 16.627335 16.55752 16.655751 16.876643 17.23461 -9999
-9999 16.669375 16.235998 16.10623 16.129918 16.126322 16.107913 16.111543 16.123289 16.130467 16.145116 16.297409 16.295927 16.474008 16.576192 16.48025 16.499657 16.852091 16.98492 -9999
-9999 16.705773 16.33305 16.110153 16.123427 16.127281 16.118412 16.105791 16.113781 16.115242 16.124267 16.169379 16.149868 16.299404 16.46663 16.463886 16.43853 16.702359 -9999 -9999
-9999 16.745293 16.452636 16.142269 16.108571 16.119859 16.12505 16.101302 16.095629 16.09656 16.102437 16.110552 16.123176 16.174501 16.330087 16.341903 16.451229 16.740621 -9999 -9999
-9999 16.80646 16.581149 16.33382 16.12175 16.110653 16.111809 16.092543 16.084132 16.075641 16.08021 16.079821 16.093366 16.104545 16.197321 16.192298 16.263086 16.81054 16.7309 16.65863
-9999 -9999 16.684471 16.499287 16.270911 16.118952 16.097462 16.080827 16.068899 16.059535 16.057829 16.053706 16.054743 16.063111 16.075628 16.113462 16.155959 16.218364 16.27092 16.30753
-9999 -9999 16.586948 16.563904 16.340146 16.122332 16.084452 16.067954 16.051253 16.042113 16.034261 16.020381 16.00624 15.992033 15.996428 16.013268 16.056759 16.134598 16.197661 16.24649
-9999 -9999 -9999 16.60013 16.215997 16.131697 16.083078 16.057199 16.041383 16.027215 16.016709 16.001192 15.977317 15.94712 15.920869 15.918728 15.943293 15.990829 16.068872 16.15711
