ncols        20
nrows        20
xllcorner    0
yllcorner    -3.59929275513
cellsize     0.179964631796
NODATA_value -9999
-9999.0 -9999 -9999 -9999 -9999 -9999 -9999 -9999 -9999 -9999 -9999 -9999 -9999 -9999 -9999 -9999 -9999 -9999 -9999 -9999
-9999 -9999 -9999 -9999 17.10665 16.301419 16.17923 16.069033 16.115353 16.264399 16.324397 16.25562775 16.38025 16.21464 16.21464 16.51770925 16.72979 -9999 -9999 -9999
-9999 -9999 -9999 -9999 16.187066 15.94545 15.969711 15.901956 16.026945 16.251023 16.145096 16.240157 16.257008 16.154105 16.241149 16.395196 16.704702 16.062466 -9999 -9999
-9999 -9999 -9999 15.76617475 15.769766 15.715179 15.834566 15.745112 15.790036 15.908124 15.821996 15.866545 15.89465 15.914046 16.016131 16.129738 15.971826 15.916958 -9999 -9999
-9999 -9999 -9999 15.639304 15.468563 15.324947 15.494658 15.485785 15.54131 15.509672 15.447951 15.445418 15.48012 15.545055 15.618622 15.616677 15.71925 16.131118 -9999 -9999
-9999 -9999 15.4440295 15.412977 15.340753 15.270923 15.233889 15.288489 15.239117 15.227382 15.134536 15.213823 15.170802 15.268852 15.228225 15.419003 15.863295 16.181212 16.32887 -9999
-9999 -9999 15.344141 15.379696 15.277654 15.204167 15.15792 15.124702 15.169939 15.158744 15.131413 15.085106 15.09864 15.179216 15.258771 15.553011 15.866158 16.192379 16.300476 -9999
-9999 -9999 15.303594 15.183593 15.316517 15.27519 15.286235 15.190607 15.14708 15.088229 15.087304 15.069507 15.101987 15.181089 15.383458 15.624561 15.892971 16.322279 16.254487 -9999
-9999 15.04025 15.056822 15.077031 15.22353 15.206218 15.129599 15.203614 15.226371 15.163999 15.142073 15.132343 15.145554 15.277273 15.434457 15.577504 15.926005 16.292052 16.327371 -9999
-9999 15.164976 15.057812 15.074498 15.102317 15.084864 15.043311 15.131797 15.229386 15.253274 15.209756 15.197608 15.235363 15.335202 15.533639 15.560343 15.862085 16.203765 16.106663 -9999
-9999 15.328086 15.055836 15.076474 15.091967 15.064715 15.049469 15.066144 15.050111 15.3249 15.27551 15.242365 15.403422 15.435694 15.525519 15.537931 15.697949 15.921448 15.791623 -9999
-9999 15.476249 15.075431 15.075233 15.08332 15.058933 15.049174 15.058799 15.045335 15.193401 15.210959 15.287559 15.4144 15.483261 15.518525 15.440411 15.528263 15.684542 15.862187 -9999
-9999 15.585063 15.137472 15.070483 15.085528 15.069515 15.048207 15.061097 15.066396 15.050665 15.140765 15.254833 15.329046 15.47238 15.42418 15.345969 15.44467 15.630314 15.951015 -9999
-9999 15.673711 15.219802 15.067523 15.088128 15.082991 15.050205 15.054442 15.068278 15.077217 15.0599 15.188781 15.17122 15.328072 15.392828 15.27942 15.301253 15.614487 15.73538 -9999
-9999 15.717778 15.325288 15.077897 15.08187 15.086932 15.069148 15.049776 15.069845 15.079208 15.075205 15.099137 15.065565 15.187419 15.310335 15.285267 15.252508 15.487116 -9999 -9999
-9999 15.764671 15.452611 15.120393 15.071659 15.079168 15.0879 15.051954 15.064902 15.073451 15.08145 15.075964 15.071145 15.094356 15.207716 15.192332 15.277951 15.535809 -9999 -9999
-9999 15.83364 15.593039 15.33085 15.100082 15.074365 15.071368 15.054547 15.063282 15.068711 15.08001 15.074733 15.073426 15.053529 15.108755 15.082758 15.122911 15.61743 15.5804 15.55085
-9999 -9999 15.710815 15.512127 15.268433 15.092647 15.053532 15.053434 15.059589 15.068546 15.070265 15.071471 15.066257 15.043239 15.025139 15.042507 15.064407 15.115837 15.1798 15.24212
-9999 -9999 15.6111245 15.589436 15.351371 15.103236 15.048136 15.052434 15.059066 15.068881 15.062319 15.057645 15.047371 15.024627 14.999808 14.979236 14.999339 15.088261 15.149996 15.21698
-9999 -9999 -9999 15.63212 15.237635 15.134056 15.06822 15.064179 15.072547 15.080767 15.083336 15.07103 15.055134 15.025148 14.971091 14.933039 14.922569 14.967473 15.043488 15.12897
