ncols        20
nrows        20
xllcorner    0
yllcorner    -3.59929275513
cellsize     0.179964631796
NODATA_value -9999
-9999.0 -9999 -9999 -9999 -9999 -9999 -9999 -9999 -9999 -9999 -9999 -9999 -9999 -9999 -9999 -9999 -9999 -9999 -9999 -9999
-9999 -9999 -9999 -9999 17.37027 16.566206 16.475276 16.422236 16.528237 16.687228 16.703245 16.65362175 16.81052 16.69508 16.69508 16.9614775 17.16626 -9999 -9999 -9999
-9999 -9999 -9999 -9999 16.422334 16.188072 16.246325 16.197658 16.364117 16.61382 16.484624 16.637959 16.681384 16.61038 16.708277 16.83124 17.140133 16.49837 -9999 -9999
-9999 -9999 -9999 15.92440325 15.941926 15.901258 16.043786 15.97688 16.052898 16.200894 16.125802 16.200466 16.259618 16.28906 16.415908 16.52819 16.362541 16.31729 -9999 -9999
-9999 -9999 -9999 15.760763 15.57259 15.436466 15.646976 15.661216 15.753203 15.727394 15.673366 15.68458 15.72923 15.817169 15.915543 15.920163 16.082486 16.550267 -9999 -9999
-9999 -9999 15.4702205 15.458695 15.37378 15.322514 15.313148 15.419364 15.381222 15.374202 15.275254 15.370021 15.318418 15.4504 15.425454 15.662251 16.205085 16.573223 16.74559 -9999
-9999 -9999 15.310103 15.351321 15.250221 15.189895 15.172177 15.173832 15.265976 15.260586 15.232923 15.18123 15.20036 15.305913 15.414595 15.792133 16.183922 16.596125 16.703879 -9999
-9999 -9999 15.17006 15.054143 15.232257 15.214363 15.255052 15.208962 15.204814 15.138956 15.147367 15.132569 15.17685 15.27506 15.553438 15.828472 16.211089 16.735907 16.65775 -9999
-9999 14.80177 14.811155 14.852119 15.052263 15.065314 15.011104 15.156752 15.237129 15.199916 15.186443 15.185069 15.203984 15.369583 15.576902 15.764972 16.239645 16.693736 16.745075 -9999
-9999 14.935388 14.802445 14.816247 14.861807 14.877212 14.852798 14.997349 15.171212 15.266743 15.242205 15.243795 15.296142 15.422655 15.677016 15.747235 16.143273 16.593739 16.4824 -9999
-9999 15.11576 14.800427 14.809043 14.834692 14.837949 14.840966 14.885105 14.897478 15.303407 15.29489 15.276327 15.471616 15.523623 15.650311 15.710989 15.918583 16.248886 16.099299 -9999
-9999 15.27988 14.821058 14.804031 14.813815 14.814195 14.83218 14.860532 14.870912 15.102498 15.171626 15.299064 15.456525 15.553357 15.623102 15.567579 15.680457 15.933613 16.182493 -9999
-9999 15.392808 14.887364 14.80051 14.80809 14.807816 14.824633 14.846947 14.869823 14.871329 15.030235 15.198109 15.302575 15.48861 15.479066 15.418638 15.554448 15.845355 16.292938 -9999
-9999 15.481855 14.976316 14.7976 14.801454 14.802206 14.814288 14.823837 14.841179 14.850157 14.86375 15.051584 15.042412 15.253736 15.396159 15.29373 15.340196 15.798348 15.99269 -9999
-9999 15.519639 15.088258 14.804956 14.796907 14.798173 14.799688 14.807891 14.80903 14.814117 14.824407 14.876078 14.841642 15.014114 15.242895 15.255184 15.241749 15.593328 -9999 -9999
-9999 15.561445 15.224299 14.849301 14.793602 14.790909 14.791993 14.778738 14.767041 14.769867 14.780253 14.786916 14.796803 14.850084 15.054188 15.08055 15.236705 15.613485 -9999 -9999
-9999 15.62928 15.366175 15.076683 14.818151 14.79028 14.772201 14.743921 14.727794 14.717975 14.733968 14.730552 14.745466 14.751226 14.875972 14.882996 14.984761 15.66757 15.55178 15.44546
-9999 -9999 15.480656 15.26461 14.995092 14.793028 14.749395 14.711564 14.687605 14.674479 14.674288 14.676578 14.67875 14.685411 14.711921 14.765303 14.823541 14.900948 14.96022 14.98999
-9999 -9999 15.36363775 15.333755 15.064704 14.776531 14.723152 14.683007 14.650216 14.629508 14.611519 14.595281 14.582447 14.575783 14.59381 14.6248 14.684031 14.768626 14.847653 14.89668
-9999 -9999 -9999 15.37553 14.89125 14.764751 14.713512 14.663707 14.6263 14.592009 14.569901 14.5419 14.509972 14.489093 14.47397 14.482002 14.525962 14.584499 14.681129 14.77764
