ncols        20
nrows        20
xllcorner    0
yllcorner    -3.59929275513
cellsize     0.179964631796
NODATA_value -9999
-9999.0 -9999 -9999 -9999 -9999 -9999 -9999 -9999 -9999 -9999 -9999 -9999 -9999 -9999 -9999 -9999 -9999 -9999 -9999 -9999
-9999 -9999 -9999 -9999 16.80649 16.001713 15.906061 15.839748 15.93138 16.091898 16.129785 16.0810505 16.22403 16.09179 16.09179 16.359804 16.55769 -9999 -9999 -9999
-9999 -9999 -9999 -9999 15.857512 15.635098 15.690276 15.640957 15.801679 16.047617 15.934853 16.066014 16.099305 16.017578 16.110949 16.238274 16.532303 15.905691 -9999 -9999
-9999 -9999 -9999 15.39302125 15.405883 15.379736 15.518627 15.454442 15.528091 15.669627 15.595738 15.658539 15.705905 15.730471 15.848936 15.959258 15.794016 15.751106 -9999 -9999
-9999 -9999 -9999 15.237627 15.071063 14.948179 15.153777 15.169324 15.253647 15.22834 15.175728 15.182193 15.220346 15.300346 15.391785 15.400308 15.543349 15.978683 -9999 -9999
-9999 -9999 14.99818475 14.977163 14.90858 14.858669 14.850778 14.949514 14.912562 14.905167 14.812475 14.89823 14.849698 14.971197 14.945216 15.171744 15.672173 16.020517 16.18265 -9999
-9999 -9999 14.864252 14.913697 14.81697 14.756808 14.731367 14.73216 14.812311 14.805378 14.78057 14.733891 14.752244 14.853474 14.960424 15.308383 15.666901 16.03733 16.159638 -9999
-9999 -9999 14.7719 14.664911 14.821803 14.79527 14.825871 14.778051 14.763297 14.698533 14.707918 14.696898 14.739997 14.84211 15.100434 15.363682 15.695071 16.177308 16.117095 -9999
-9999 14.4338 14.461615 14.493727 14.674325 14.676529 14.615196 14.746431 14.811586 14.766458 14.75443 14.755326 14.779313 14.949 15.141285 15.309003 15.727735 16.152261 16.217336 -9999
-9999 14.556459 14.453481 14.468002 14.509242 14.510531 14.477965 14.606859 14.764607 14.83976 14.814886 14.818052 14.872376 15.009877 15.242364 15.297793 15.648565 16.05917 15.97775 -9999
-9999 14.72073 14.446987 14.464545 14.487451 14.47908 14.472399 14.505091 14.520806 14.880838 14.86665 14.854753 15.051085 15.111377 15.22237 15.267366 15.452659 15.756983 15.632304 -9999
-9999 14.870004 14.461852 14.460972 14.469303 14.462808 14.466712 14.486535 14.49702 14.703523 14.762005 14.88515 15.051108 15.145635 15.20484 15.142545 15.248856 15.483004 15.722795 -9999
-9999 14.974118 14.519927 14.455711 14.464509 14.463171 14.461544 14.479907 14.494188 14.498959 14.639633 14.800982 14.917805 15.097151 15.082279 15.020555 15.15015 15.418449 15.831629 -9999
-9999 15.056842 14.599436 14.450768 14.459863 14.464591 14.456991 14.463992 14.477197 14.481302 14.496172 14.676637 14.688441 14.890048 15.019258 14.9289 14.972074 15.388846 15.56268 -9999
-9999 15.093785 14.701351 14.455379 14.454713 14.457837 14.457755 14.452777 14.4583 14.456449 14.461373 14.522007 14.513929 14.683038 14.892963 14.905731 14.89332 15.212473 -9999 -9999
-9999 15.134252 14.825513 14.49066 14.447968 14.449563 14.453027 14.437003 14.431785 14.428186 14.427213 14.44513 14.472995 14.537721 14.733949 14.760685 14.901435 15.241325 -9999 -9999
-9999 15.19786 14.957823 14.694795 14.464717 14.446354 14.434608 14.415591 14.407056 14.394881 14.39894 14.400697 14.42799 14.45081 14.576588 14.586455 14.681585 15.30107 15.21383 15.15002
-9999 -9999 15.065741 14.868411 14.623584 14.451413 14.415557 14.394354 14.381595 14.370171 14.370889 14.37074 14.373284 14.394002 14.428557 14.48599 14.545828 14.619807 14.68776 14.73603
-9999 -9999 14.96035125 14.935273 14.693709 14.449996 14.40019 14.37662 14.357812 14.347783 14.340078 14.336303 14.323435 14.316293 14.330131 14.363034 14.423326 14.516204 14.598896 14.66083
-9999 -9999 -9999 14.97198 14.553541 14.456842 14.399591 14.366251 14.346176 14.33333 14.327105 14.316427 14.295295 14.271163 14.249939 14.252736 14.286929 14.349204 14.449878 14.55094
