ncols        20
nrows        20
xllcorner    0
yllcorner    -3.59929275513
cellsize     0.179964631796
NODATA_value -9999
-9999.0 -9999 -9999 -9999 -9999 -9999 -9999 -9999 -9999 -9999 -9999 -9999 -9999 -9999 -9999 -9999 -9999 -9999 -9999 -9999
-9999 -9999 -9999 -9999 17.16481 16.362394 16.249521 16.158361 16.231734 16.382898 16.424372 16.36287175 16.49375 16.3681 16.3681 16.65645325 16.86083 -9999 -9999 -9999
-9999 -9999 -9999 -9999 16.24314 16.001694 16.036498 15.97365 16.117399 16.347214 16.235753 16.347127 16.374857 16.297209 16.394575 16.534322 16.836086 16.215951 -9999 -9999
-9999 -9999 -9999 15.819758 15.81844 15.769872 15.892353 15.80966 15.862994 15.98955 15.910777 15.964126 16.003264 16.029763 16.148877 16.260388 16.110794 16.063199 -9999 -9999
-9999 -9999 -9999 15.689408 15.528044 15.391543 15.554179 15.551552 15.61782 15.584187 15.526429 15.524872 15.561299 15.638016 15.729778 15.738876 15.856575 16.281814 -9999 -9999
-9999 -9999 15.480117 15.458452 15.385467 15.328213 15.295724 15.362224 15.313947 15.297273 15.20138 15.280789 15.2409 15.35726 15.33694 15.546271 16.005052 16.338205 16.50197 -9999
-9999 -9999 15.363029 15.409579 15.303246 15.241583 15.20144 15.174805 15.234689 15.220949 15.190612 15.141769 15.165433 15.268998 15.36578 15.683079 16.022166 16.359653 16.479509 -9999
-9999 -9999 15.29779 15.186836 15.328596 15.292656 15.31922 15.234067 15.200853 15.134362 15.136602 15.121289 15.163525 15.265597 15.502422 15.772058 16.058945 16.496756 16.44045 -9999
-9999 14.98611 15.018484 15.047932 15.206974 15.200699 15.135623 15.232682 15.272167 15.214841 15.196619 15.192455 15.216729 15.377652 15.565271 15.740534 16.098071 16.472566 16.543841 -9999
-9999 15.104648 15.011596 15.030616 15.061545 15.05547 15.023612 15.135685 15.260707 15.306999 15.270994 15.270373 15.326255 15.44812 15.676883 15.731499 16.035902 16.38983 16.327293 -9999
-9999 15.262646 15.004077 15.029794 15.045596 15.028802 15.021257 15.055834 15.057867 15.372555 15.33874 15.323861 15.506334 15.556588 15.673223 15.705584 15.867838 16.133474 16.004099 -9999
-9999 15.406247 15.017936 15.026826 15.033081 15.017366 15.017467 15.041065 15.04441 15.220314 15.263241 15.369264 15.519774 15.604316 15.669619 15.597745 15.687884 15.880234 16.075753 -9999
-9999 15.507263 15.073977 15.020467 15.032916 15.022464 15.014439 15.03601 15.053289 15.051464 15.174241 15.319923 15.413563 15.579206 15.562401 15.48794 15.595564 15.815115 16.167974 -9999
-9999 15.587497 15.150359 15.013883 15.032415 15.028947 15.013411 15.021271 15.042415 15.05905 15.068852 15.232151 15.22494 15.408355 15.50951 15.40139 15.430084 15.789293 15.96255 -9999
-9999 15.621984 15.249087 15.017622 15.02814 15.031309 15.022458 15.013341 15.031418 15.045508 15.061444 15.112713 15.088599 15.23634 15.403 15.392501 15.36001 15.641704 -9999 -9999
-9999 15.658852 15.369047 15.051212 15.017162 15.025196 15.030567 15.007227 15.008252 15.022114 15.0421 15.05639 15.068278 15.120392 15.276802 15.281518 15.372386 15.67625 -9999 -9999
-9999 15.71771 15.494859 15.248121 15.029398 15.019632 15.015305 14.993486 14.994187 14.993303 15.018488 15.024993 15.041533 15.051045 15.146601 15.136778 15.183881 15.74649 15.674955 15.60972
-9999 -9999 15.592097 15.410791 15.183937 15.026465 14.997724 14.982486 14.980671 14.976891 14.989085 14.995118 15.003888 15.008694 15.024259 15.063053 15.103503 15.152445 15.207075 15.25515
-9999 -9999 15.49027325 15.468305 15.250202 15.03054 14.985473 14.974916 14.97031 14.962076 14.950914 14.954394 14.942942 14.93518 14.943352 14.959162 15.005586 15.091956 15.154642 15.21129
-9999 -9999 -9999 15.4899 15.121287 15.04345 14.992047 14.975886 14.963869 14.950932 14.94817 14.93493 14.923066 14.899763 14.865909 14.858333 14.886792 14.940501 15.030069 15.11538
