ncols        20
nrows        20
xllcorner    0
yllcorner    -3.59929275513
cellsize     0.179964631796
NODATA_value -9999
-9999.0 -9999 -9999 -9999 -9999 -9999 -9999 -9999 -9999 -9999 -9999 -9999 -9999 -9999 -9999 -9999 -9999 -9999 -9999 -9999
-9999 -9999 -9999 -9999 17.64431 16.825102 16.698019 16.578663 16.624697 16.769905 16.830372 16.774313 16.88733 16.73346 16.73346 17.01254325 17.20407 -9999 -9999 -9999
-9999 -9999 -9999 -9999 16.726007 16.468712 16.490831 16.412618 16.541813 16.762609 16.674881 16.758206 16.776835 16.681159 16.763901 16.902769 17.179433 16.560212 -9999 -9999
-9999 -9999 -9999 16.34361375 16.334049 16.27161 16.373156 16.288642 16.330914 16.454557 16.37254 16.413098 16.44769 16.45232 16.554165 16.657756 16.490679 16.442546 -9999 -9999
-9999 -9999 -9999 16.241138 16.073261 15.931482 16.076519 16.071326 16.121133 16.089706 16.029307 16.020231 16.046882 16.106558 16.183366 16.183236 16.276145 16.655044 -9999 -9999
-9999 -9999 16.07021925 16.041718 15.96755 15.887353 15.84141 15.895642 15.849573 15.835816 15.746493 15.812712 15.766728 15.863059 15.827679 16.028137 16.419561 16.717724 16.8696 -9999
-9999 -9999 15.979078 16.018943 15.910785 15.830192 15.770635 15.737583 15.788495 15.776655 15.748303 15.702491 15.716246 15.803004 15.901039 16.158578 16.429587 16.737919 16.83824 -9999
-9999 -9999 15.960594 15.83616 15.952399 15.894836 15.898186 15.808657 15.76703 15.705831 15.708907 15.697524 15.737105 15.831753 16.030347 16.226287 16.467045 16.86232 16.804525 -9999
-9999 15.70278 15.736141 15.7523 15.867269 15.835726 15.75967 15.827066 15.841619 15.780682 15.768518 15.768253 15.794043 15.942032 16.075313 16.190704 16.507741 16.830715 16.901208 -9999
-9999 15.823932 15.738019 15.757537 15.765684 15.740896 15.68777 15.759305 15.845618 15.866863 15.8361 15.838018 15.890852 15.996542 16.16712 16.185472 16.453425 16.761743 16.708553 -9999
-9999 15.980958 15.732659 15.763043 15.764305 15.727334 15.699583 15.697459 15.679439 15.931581 15.89656 15.887162 16.05079 16.082934 16.16033 16.169653 16.308028 16.529678 16.433729 -9999
-9999 16.121955 15.748819 15.764547 15.763886 15.727344 15.708371 15.696081 15.674829 15.810264 15.835692 15.928755 16.051182 16.121261 16.155007 16.086945 16.16723 16.332521 16.506885 -9999
-9999 16.223717 15.807006 15.760765 15.772115 15.742639 15.717888 15.704563 15.69536 15.677031 15.767585 15.887631 15.964023 16.106144 16.07498 16.014504 16.112025 16.29921 16.585455 -9999
-9999 16.306265 15.884937 15.756567 15.779535 15.759948 15.73038 15.717685 15.711339 15.695215 15.685642 15.814267 15.812026 15.971301 16.048463 15.97888 16.001301 16.296827 16.37262 -9999
-9999 16.349582 15.982681 15.763592 15.779623 15.777446 15.756331 15.734873 15.723886 15.701204 15.684431 15.71729 15.706864 15.837864 15.971365 15.980588 15.969239 16.190969 -9999 -9999
-9999 16.397372 16.100764 15.799968 15.770337 15.782525 15.782539 15.747699 15.722871 15.69791 15.67747 15.682598 15.696067 15.740603 15.875443 15.89 15.995634 16.23353 -9999 -9999
-9999 16.46638 16.233799 15.989824 15.785712 15.77955 15.78824 15.75302 15.722325 15.689711 15.67197 15.671517 15.682429 15.689255 15.772933 15.775485 15.840824 16.3058 16.228425 16.17863
-9999 -9999 16.351878 16.158895 15.933057 15.798018 15.788375 15.753378 15.717597 15.683601 15.666585 15.659606 15.661353 15.66478 15.677733 15.720374 15.762487 15.808811 15.854385 15.8998
-9999 -9999 16.2599725 16.238497 16.010413 15.810795 15.787838 15.750962 15.711285 15.680052 15.661105 15.643859 15.630628 15.618483 15.624573 15.639595 15.681887 15.751609 15.816764 15.87017
-9999 -9999 -9999 16.29062 15.907607 15.829377 15.797501 15.756135 15.720704 15.686363 15.66082 15.643263 15.62408 15.595118 15.565914 15.567158 15.600197 15.638131 15.713871 15.81198
