ncols        20
nrows        20
xllcorner    0
yllcorner    -3.59929275513
cellsize     0.179964631796
NODATA_value -9999
-9999.0 -9999 -9999 -9999 -9999 -9999 -9999 -9999 -9999 -9999 -9999 -9999 -9999 -9999 -9999 -9999 -9999 -9999 -9999 -9999
-9999 -9999 -9999 -9999 16.63063 15.811983 15.689804 15.581821 15.636682 15.780908 15.83732 15.78279 15.89827 15.73613 15.73613 16.00429 16.19462 -9999 -9999 -9999
-9999 -9999 -9999 -9999 15.707026 15.453031 15.483745 15.420473 15.548799 15.768759 15.681076 15.767584 15.78423 15.683372 15.761094 15.892542 16.168904 15.525694 -9999 -9999
-9999 -9999 -9999 15.32588675 15.316459 15.256881 15.377315 15.292986 15.331519 15.459006 15.377229 15.418409 15.448771 15.451335 15.543839 15.639151 15.460913 15.400477 -9999 -9999
-9999 -9999 -9999 15.222051 15.058011 14.921594 15.079272 15.073979 15.122633 15.087422 15.029882 15.022591 15.046983 15.100918 15.168044 15.159367 15.234345 15.590053 -9999 -9999
-9999 -9999 15.044453 15.01622 14.950972 14.879891 14.84362 14.89633 14.847922 14.834511 14.745451 14.811112 14.764119 14.853334 14.813537 15.002015 15.369832 15.631583 15.76487 -9999
-9999 -9999 14.943542 14.995999 14.898748 14.829163 14.778364 14.741115 14.791955 14.777846 14.744884 14.695594 14.706216 14.786201 14.87444 15.121715 15.358601 15.639868 15.723815 -9999
-9999 -9999 14.912758 14.805289 14.940565 14.905849 14.910889 14.824372 14.775544 14.705168 14.703058 14.686077 14.718924 14.8056 14.993619 15.167011 15.383557 15.755339 15.665045 -9999
-9999 14.6403 14.682539 14.708999 14.848362 14.841793 14.77273 14.846575 14.856563 14.784359 14.763604 14.755751 14.773624 14.903555 15.022799 15.121175 15.419546 15.712439 15.73474 -9999
-9999 14.75189 14.680708 14.71008 14.73528 14.735115 14.695484 14.77685 14.86311 14.878825 14.837771 14.829266 14.866936 14.950855 15.108108 15.114204 15.358817 15.61733 15.52505 -9999
-9999 14.89906 14.67188 14.712572 14.725394 14.713554 14.703766 14.71269 14.696411 14.951473 14.90576 14.877588 15.023609 15.034758 15.091752 15.091322 15.2006 15.357633 15.224526 -9999
-9999 15.033021 14.684036 14.710563 14.718888 14.705083 14.707019 14.706927 14.691989 14.828228 14.847308 14.921292 15.020953 15.067351 15.082365 14.993897 15.041214 15.14266 15.286098 -9999
-9999 15.129335 14.735872 14.702552 14.723331 14.711075 14.709907 14.71057 14.711548 14.693307 14.782587 14.885677 14.931709 15.052183 14.99148 14.902636 14.958509 15.095835 15.359972 -9999
-9999 15.205774 14.805984 14.694379 14.727783 14.718229 14.712817 14.711934 14.71725 14.715138 14.702964 14.814603 14.779596 14.916046 14.960977 14.84767 14.83621 15.088902 15.16672 -9999
-9999 15.239213 14.897747 14.698683 14.72435 14.725524 14.719786 14.716476 14.720678 14.714912 14.706983 14.719147 14.682016 14.786639 14.886033 14.851961 14.800467 14.990786 -9999 -9999
-9999 15.274677 15.010595 14.729507 14.706307 14.724693 14.727599 14.719728 14.710729 14.702526 14.699277 14.690877 14.677463 14.697743 14.798097 14.770416 14.826382 15.04267 -9999 -9999
-9999 15.33042 15.129092 14.905838 14.716523 14.714767 14.728597 14.713397 14.699177 14.680973 14.68283 14.685151 14.672747 14.654203 14.702257 14.664843 14.691688 15.12711 15.052365 14.98999
-9999 -9999 15.219688 15.05592 14.852298 14.729205 14.724887 14.702153 14.681109 14.661659 14.662363 14.662876 14.664838 14.640049 14.619616 14.625417 14.635091 14.673792 14.70364 14.73976
-9999 -9999 15.13081325 15.110515 14.916525 14.735115 14.717822 14.68937 14.659333 14.644735 14.637139 14.628961 14.614575 14.599893 14.588939 14.569782 14.579904 14.644091 14.681348 14.72214
-9999 -9999 -9999 15.13713 14.808977 14.742505 14.70866 14.675143 14.649709 14.629412 14.618645 14.604648 14.585103 14.558 14.524007 14.509284 14.514349 14.540813 14.598604 14.66987
