ncols        20
nrows        20
xllcorner    0
yllcorner    -3.59929275513
cellsize     0.179964631796
NODATA_value -9999
-9999.0 -9999 -9999 -9999 -9999 -9999 -9999 -9999 -9999 -9999 -9999 -9999 -9999 -9999 -9999 -9999 -9999 -9999 -9999 -9999
-9999 -9999 -9999 -9999 18.47081 17.661547 17.563286 17.499771 17.595888 17.756328 17.789942 17.737068 17.88039 17.75555 17.75555 18.02001175 18.2166 -9999 -9999 -9999
-9999 -9999 -9999 -9999 17.519753 17.287512 17.340525 17.297855 17.456894 17.704968 17.589456 17.719918 17.758508 17.681424 17.773485 17.898453 18.191509 17.575959 -9999 -9999
-9999 -9999 -9999 17.045583 17.053269 17.017809 17.159316 17.096259 17.166505 17.311782 17.241005 17.304948 17.364059 17.385998 17.506442 17.618708 17.455571 17.417047 -9999 -9999
-9999 -9999 -9999 16.895222 16.714088 16.581946 16.784886 16.798521 16.88005 16.854088 16.801728 16.80902 16.852612 16.942084 17.03585 17.044262 17.202318 17.652692 -9999 -9999
-9999 -9999 16.63653875 16.616866 16.534822 16.476117 16.463741 16.564535 16.528762 16.515372 16.418242 16.508753 16.462856 16.592217 16.556217 16.800012 17.326915 17.687833 17.84409 -9999
-9999 -9999 16.499134 16.534933 16.421902 16.34907 16.324817 16.328784 16.411508 16.403344 16.3803 16.336575 16.357765 16.460027 16.572292 16.940164 17.311442 17.695014 17.810884 -9999
-9999 -9999 16.404344 16.265318 16.41704 16.372558 16.403524 16.352175 16.346059 16.288 16.301841 16.294323 16.340218 16.445477 16.719396 16.99384 17.337504 17.836381 17.7624 -9999
-9999 16.07816 16.087711 16.09481 16.25716 16.241557 16.168052 16.303632 16.382749 16.352007 16.34482 16.349391 16.375284 16.556333 16.759267 16.934532 17.37036 17.801584 17.861396 -9999
-9999 16.215205 16.08531 16.076538 16.093125 16.077456 16.028317 16.153757 16.326016 16.421756 16.403445 16.408126 16.470181 16.615836 16.861277 16.919473 17.285407 17.701614 17.60342 -9999
-9999 16.396522 16.084573 16.082091 16.078568 16.049224 16.029167 16.045052 16.067214 16.458052 16.45468 16.443286 16.654823 16.714995 16.839305 16.886145 17.078219 17.375067 17.227555 -9999
-9999 16.558987 16.105804 16.085492 16.068489 16.038121 16.029176 16.031238 16.039533 16.264699 16.339555 16.473457 16.642939 16.744834 16.816068 16.752636 16.860522 17.080069 17.3113 -9999
-9999 16.670358 16.172912 16.085825 16.073082 16.046159 16.029657 16.031447 16.032434 16.042908 16.207756 16.384143 16.502582 16.681282 16.679457 16.617619 16.745995 17.001905 17.420597 -9999
-9999 16.759002 16.26383 16.086704 16.077697 16.056387 16.031815 16.028988 16.030383 16.022294 16.04952 16.247733 16.263482 16.46875 16.602681 16.50722 16.5469 16.965156 17.15416 -9999
-9999 16.798553 16.376139 16.095049 16.077423 16.067021 16.046101 16.028738 16.022143 16.007722 16.009033 16.082825 16.076274 16.255358 16.465649 16.476143 16.456267 16.78231 -9999 -9999
-9999 16.842056 16.510599 16.138358 16.082531 16.072255 16.064379 16.020901 16.001328 15.988725 15.976983 16.001041 16.031374 16.102178 16.297496 16.321756 16.456193 16.808393 -9999 -9999
-9999 16.91067 16.652036 16.366585 16.108035 16.079172 16.0507 16.005869 15.985487 15.963109 15.959202 15.9557 15.983924 16.011116 16.13387 16.137301 16.227926 16.86696 16.7879 16.7222
-9999 -9999 16.768563 16.555524 16.287931 16.086145 16.033363 15.992906 15.97084 15.949202 15.940738 15.932855 15.929185 15.951774 15.983093 16.033078 16.088558 16.169495 16.240835 16.28931
-9999 -9999 16.65645425 16.628 16.363801 16.083714 16.02379 15.990153 15.96193 15.93801 15.918291 15.912694 15.895598 15.880213 15.884077 15.914094 15.969365 16.065928 16.148852 16.20981
-9999 -9999 -9999 16.67373 16.209272 16.094508 16.037458 16.003999 15.973534 15.945947 15.929395 15.907927 15.882853 15.853746 15.821732 15.810606 15.837374 15.905333 16.000794 16.09573
