ncols        20
nrows        20
xllcorner    0
yllcorner    -3.59929275513
cellsize     0.179964631796
NODATA_value -9999
-9999.0 -9999 -9999 -9999 -9999 -9999 -9999 -9999 -9999 -9999 -9999 -9999 -9999 -9999 -9999 -9999 -9999 -9999 -9999 -9999
-9999 -9999 -9999 -9999 17.82802 17.026404 16.915307 16.82387 16.897142 17.046383 17.096068 17.04388 17.16288 17.03172 17.03172 17.309745 17.50252 -9999 -9999 -9999
-9999 -9999 -9999 -9999 16.901594 16.673355 16.712198 16.655852 16.797797 17.024392 16.932148 17.026634 17.053858 16.972553 17.061088 17.197513 17.477859 16.860044 -9999 -9999
-9999 -9999 -9999 16.4900175 16.490358 16.4585 16.585349 16.513354 16.567367 16.698535 16.619295 16.665725 16.712646 16.726598 16.836316 16.944196 16.77707 16.730521 -9999 -9999
-9999 -9999 -9999 16.359937 16.208181 16.088084 16.268796 16.276003 16.338122 16.305532 16.246193 16.242034 16.276475 16.349557 16.434233 16.439801 16.548621 16.955048 -9999 -9999
-9999 -9999 16.1745545 16.145957 16.083843 16.02861 16.008255 16.083999 16.041273 16.02554 15.930219 16.004909 15.958957 16.071184 16.043264 16.254653 16.689183 17.020919 17.18569 -9999
-9999 -9999 16.074108 16.118216 16.017318 15.954912 15.919568 15.901498 15.966358 15.954088 15.923796 15.877591 15.895401 15.991312 16.09355 16.386773 16.704682 17.046289 17.159248 -9999
-9999 -9999 16.034083 15.920226 16.054421 16.021955 16.040379 15.968329 15.935201 15.870766 15.876888 15.866099 15.909256 16.005895 16.229731 16.459841 16.744509 17.179552 17.127495 -9999
-9999 15.7448 15.783234 15.807731 15.951925 15.941403 15.877176 15.971047 16.006249 15.94772 15.936849 15.937003 15.962818 16.119263 16.280016 16.422604 16.785276 17.152556 17.236739 -9999
-9999 15.861377 15.77988 15.802557 15.825687 15.8223 15.782906 15.879539 15.996559 16.038061 16.009629 16.011386 16.069264 16.181473 16.38062 16.418204 16.724079 17.080136 17.03076 -9999
-9999 16.01509 15.77165 15.805475 15.814149 15.800013 15.786845 15.804084 15.80254 16.102242 16.07761 16.064767 16.240474 16.278453 16.374249 16.400466 16.562358 16.830067 16.731955 -9999
-9999 16.154238 15.784809 15.804452 15.80682 15.790782 15.789773 15.79429 15.789887 15.957297 16.002929 16.107156 16.246756 16.320457 16.365533 16.304323 16.40106 16.606368 16.807925 -9999
-9999 16.253058 15.839307 15.79792 15.811628 15.796446 15.793804 15.79451 15.799994 15.797181 15.91756 16.054682 16.143358 16.298766 16.275609 16.214067 16.330436 16.557103 16.895193 -9999
-9999 16.331843 15.913489 15.790675 15.816133 15.803288 15.797785 15.794267 15.799206 15.805851 15.814862 15.9638 15.963067 16.141398 16.23984 16.15498 16.192389 16.537007 16.66722 -9999
-9999 16.368574 16.008868 15.793974 15.814503 15.812778 15.804323 15.800231 15.797025 15.796949 15.803026 15.848466 15.833584 15.98171 16.146278 16.151986 16.141383 16.398398 -9999 -9999
-9999 16.409022 16.125328 15.825586 15.800904 15.81482 15.81452 15.798813 15.7823 15.778081 15.782823 15.797263 15.811957 15.866403 16.027948 16.046537 16.158114 16.435936 -9999 -9999
-9999 16.47115 16.249842 16.011612 15.808852 15.808144 15.815191 15.789894 15.767883 15.751707 15.760082 15.769913 15.78532 15.798989 15.900904 15.907806 15.980127 16.50551 16.429835 16.37056
-9999 -9999 16.352321 16.171508 15.951914 15.819453 15.808697 15.779753 15.751696 15.730246 15.732371 15.740849 15.751605 15.760234 15.782119 15.831523 15.883197 15.938277 15.98894 16.03437
-9999 -9999 16.256608 16.235033 16.019475 15.825925 15.797727 15.768163 15.73596 15.71066 15.699571 15.700631 15.694137 15.689653 15.702723 15.726456 15.778979 15.858036 15.929695 15.98541
-9999 -9999 -9999 16.26757 15.902888 15.832619 15.791029 15.76187 15.728345 15.694482 15.685532 15.67655 15.663145 15.642553 15.625159 15.628783 15.658078 15.711234 15.803099 15.89914
