ncols        20
nrows        20
xllcorner    0
yllcorner    -3.59929275513
cellsize     0.179964631796
NODATA_value -9999
-9999.0 -9999 -9999 -9999 -9999 -9999 -9999 -9999 -9999 -9999 -9999 -9999 -9999 -9999 -9999 -9999 -9999 -9999 -9999 -9999
-9999 -9999 -9999 -9999 18.68714 17.877172 17.780657 17.714242 17.810332 17.974634 18.014623 17.96988325 18.11286 17.97846 17.97846 18.24221675 18.43827 -9999 -9999 -9999
-9999 -9999 -9999 -9999 17.732115 17.508606 17.564031 17.512933 17.677395 17.931344 17.823585 17.954618 17.98847 17.905369 17.996518 18.120866 18.413213 17.790505 -9999 -9999
-9999 -9999 -9999 17.2845805 17.288832 17.259844 17.394763 17.330259 17.401065 17.55453 17.483578 17.544889 17.594279 17.611472 17.729994 17.84033 17.672226 17.627216 -9999 -9999
-9999 -9999 -9999 17.141982 16.975393 16.850541 17.043628 17.056833 17.140927 17.116224 17.063057 17.061772 17.099543 17.172438 17.264958 17.272376 17.411615 17.857196 -9999 -9999
-9999 -9999 16.914736 16.895714 16.823222 16.76877 16.755065 16.846397 16.80665 16.797048 16.70259 16.781453 16.734648 16.850816 16.824996 17.050046 17.550392 17.899385 18.04904 -9999
-9999 -9999 16.784248 16.837 16.731512 16.668142 16.640973 16.63392 16.706994 16.695893 16.668256 16.62246 16.6411 16.740774 16.842076 17.189931 17.546341 17.906166 18.017356 -9999
-9999 -9999 16.696389 16.591556 16.7421 16.708678 16.741646 16.682015 16.660844 16.591468 16.598516 16.586674 16.62774 16.730165 16.98408 17.260084 17.578109 18.041685 17.971032 -9999
-9999 16.37237 16.396977 16.425029 16.598011 16.595574 16.533356 16.656086 16.714727 16.664527 16.647094 16.645197 16.672909 16.839362 17.043341 17.217759 17.613058 18.008476 18.072031 -9999
-9999 16.494655 16.391852 16.403174 16.437437 16.43645 16.401628 16.528645 16.677067 16.744739 16.713654 16.715681 16.773105 16.91011 17.148822 17.206636 17.536657 17.91467 17.8311 -9999
-9999 16.657676 16.387009 16.402963 16.417792 16.407113 16.396047 16.431436 16.447004 16.796139 16.77345 16.761235 16.952609 17.013828 17.138745 17.176248 17.344908 17.61387 17.477777 -9999
-9999 16.804889 16.402559 16.401292 16.4031 16.392683 16.392931 16.412658 16.42483 16.625104 16.683155 16.79838 16.953235 17.053188 17.126514 17.05353 17.139553 17.339929 17.55202 -9999
-9999 16.906165 16.459944 16.397339 16.402743 16.394873 16.391571 16.404927 16.422759 16.430121 16.572941 16.730116 16.835054 17.008509 17.004128 16.927777 17.029403 17.267068 17.646741 -9999
-9999 16.985916 16.538927 16.393861 16.40231 16.39804 16.390813 16.392519 16.405899 16.417629 16.438926 16.619636 16.625686 16.820812 16.938713 16.82955 16.847393 17.232111 17.40511 -9999
-9999 17.018936 16.63948 16.398001 16.398297 16.39905 16.393987 16.388513 16.391082 16.396268 16.411894 16.478201 16.464145 16.633277 16.813645 16.804807 16.767681 17.06411 -9999 -9999
-9999 17.054848 16.761897 16.431684 16.392604 16.394869 16.396911 16.377479 16.368621 16.37072 16.382993 16.410391 16.43707 16.497178 16.664191 16.666777 16.772584 17.095859 -9999 -9999
-9999 17.11366 16.887421 16.632281 16.406486 16.391974 16.384169 16.360507 16.349121 16.341175 16.35706 16.372233 16.403486 16.416738 16.516772 16.502013 16.564474 17.16056 17.07845 17.00189
-9999 -9999 16.98515 16.799915 16.561366 16.397803 16.368741 16.34378 16.328262 16.318481 16.326019 16.340513 16.35993 16.369441 16.385369 16.418214 16.458213 16.516456 16.574075 16.61625
-9999 -9999 16.884805 16.857795 16.627001 16.396161 16.357179 16.328367 16.307488 16.294212 16.285918 16.297517 16.299029 16.300803 16.315989 16.328149 16.365784 16.441427 16.501846 16.55532
-9999 -9999 -9999 16.89636 16.483232 16.393817 16.351967 16.314863 16.289535 16.271613 16.263647 16.260078 16.252686 16.244803 16.225673 16.229502 16.267688 16.307732 16.373915 16.45553
