ncols        20
nrows        20
xllcorner    0
yllcorner    -3.59929275513
cellsize     0.179964631796
NODATA_value -9999
-9999.0 -9999 -9999 -9999 -9999 -9999 -9999 -9999 -9999 -9999 -9999 -9999 -9999 -9999 -9999 -9999 -9999 -9999 -9999 -9999
-9999 -9999 -9999 -9999 18.35826 17.53886 17.437023 17.364658 17.456079 17.624355 17.676704 17.6227765 17.76079 17.61652 17.61652 17.9099665 18.12314 -9999 -9999 -9999
-9999 -9999 -9999 -9999 17.392954 17.169738 17.223024 17.178549 17.341972 17.59552 17.487993 17.607304 17.635019 17.545685 17.637689 17.78254 18.096497 17.442895 -9999 -9999
-9999 -9999 -9999 16.9455675 16.951818 16.93065 17.069577 17.010466 17.080015 17.225886 17.15092 17.207969 17.247867 17.266657 17.382784 17.49858 17.336394 17.290994 -9999 -9999
-9999 -9999 -9999 16.795706 16.641792 16.533382 16.731693 16.750181 16.829101 16.812953 16.756815 16.752704 16.788106 16.857576 16.94699 16.956001 17.081546 17.519856 -9999 -9999
-9999 -9999 16.590674 16.564496 16.501495 16.460059 16.450833 16.548764 16.519368 16.515478 16.425885 16.502393 16.456829 16.567709 16.542955 16.764951 17.235611 17.568047 17.73351 -9999
-9999 -9999 16.477393 16.525101 16.42657 16.373819 16.35438 16.35236 16.432143 16.428882 16.407383 16.364928 16.382303 16.47816 16.584512 16.907062 17.240048 17.59114 17.706499 -9999
-9999 -9999 16.418263 16.311333 16.454281 16.428621 16.459354 16.405806 16.393784 16.337386 16.348349 16.341032 16.384033 16.485742 16.722701 16.983709 17.275592 17.72724 17.668935 -9999
-9999 16.11728 16.146621 16.179696 16.340954 16.339054 16.28422 16.396727 16.45061 16.407759 16.400058 16.403414 16.432702 16.592281 16.77717 16.938102 17.315111 17.699129 17.773672 -9999
-9999 16.237432 16.141709 16.162557 16.199069 16.197545 16.172409 16.291149 16.426122 16.488737 16.467522 16.473183 16.533199 16.653942 16.880006 16.928499 17.247481 17.616934 17.54535 -9999
-9999 16.396062 16.135357 16.15966 16.181359 16.170873 16.168241 16.206364 16.220252 16.539786 16.52894 16.522208 16.704752 16.7548 16.868951 16.902717 17.069933 17.338099 17.21129 -9999
-9999 16.540194 16.150604 16.155968 16.167034 16.158079 16.162304 16.189877 16.202778 16.384196 16.439361 16.559583 16.704165 16.794787 16.85882 16.789797 16.881903 17.082117 17.288148 -9999
-9999 16.643507 16.208168 16.150181 16.164278 16.160149 16.156709 16.18362 16.203414 16.210617 16.340059 16.493271 16.587913 16.757593 16.745623 16.676114 16.791754 17.020404 17.383449 -9999
-9999 16.726139 16.286215 16.144843 16.1612 16.163133 16.152866 16.165324 16.190507 16.211196 16.228094 16.391773 16.391715 16.58141 16.690317 16.59061 16.62515 16.996906 17.1537 -9999
-9999 16.765681 16.387585 16.150754 16.15562 16.161088 16.15717 16.152416 16.178843 16.193627 16.213698 16.27033 16.256527 16.406182 16.58134 16.57925 16.555348 16.845804 -9999 -9999
-9999 16.809712 16.510871 16.186855 16.146007 16.151761 16.158948 16.144378 16.155295 16.168988 16.192363 16.217557 16.238518 16.290763 16.4529 16.45844 16.56748 16.877307 -9999 -9999
-9999 16.87671 16.641915 16.388678 16.164745 16.146866 16.141267 16.130231 16.136633 16.141235 16.167098 16.19028 16.214837 16.226592 16.322789 16.311288 16.373251 16.94303 16.87617 16.82534
-9999 -9999 16.753272 16.560307 16.324453 16.155164 16.124494 16.114668 16.115276 16.119705 16.137273 16.159811 16.179401 16.190179 16.204762 16.241353 16.279722 16.336659 16.39909 16.45912
-9999 -9999 16.6553595 16.631349 16.398168 16.162961 16.116402 16.09863 16.093504 16.098656 16.103168 16.111728 16.113909 16.119173 16.137759 16.154046 16.193858 16.274836 16.344697 16.40517
-9999 -9999 -9999 16.67651 16.275616 16.180661 16.122471 16.094371 16.081102 16.076838 16.087793 16.088603 16.084957 16.074189 16.057657 16.062955 16.099642 16.145674 16.223172 16.31328
