ncols        20
nrows        20
xllcorner    0
yllcorner    -3.59929275513
cellsize     0.179964631796
NODATA_value -9999
-9999.0 -9999 -9999 -9999 -9999 -9999 -9999 -9999 -9999 -9999 -9999 -9999 -9999 -9999 -9999 -9999 -9999 -9999 -9999 -9999
-9999 -9999 -9999 -9999 17.01765 16.206671 16.119921 16.072752 16.186027 16.357138 16.395117 16.34925875 16.49678 16.37198 16.37198 16.65260075 16.86038 -9999 -9999 -9999
-9999 -9999 -9999 -9999 16.03876 15.833659 15.901996 15.87128 16.047745 16.308756 16.195148 16.333265 16.371842 16.294835 16.389942 16.525835 16.834246 16.199305 -9999 -9999
-9999 -9999 -9999 15.549284 15.563107 15.560371 15.71838 15.672144 15.759696 15.914904 15.845687 15.911057 15.967647 15.99215 16.117488 16.238506 16.074429 16.037735 -9999 -9999
-9999 -9999 -9999 15.375687 15.219582 15.118803 15.348739 15.376968 15.474191 15.449909 15.400748 15.405908 15.450449 15.537649 15.637235 15.653636 15.818546 16.279611 -9999 -9999
-9999 -9999 15.13467925 15.113406 15.053465 15.02269 15.033273 15.148858 15.119015 15.112805 15.019463 15.109313 15.06018 15.191174 15.167826 15.412265 15.94782 16.320171 16.4916 -9999
-9999 -9999 14.993213 15.056411 14.967612 14.920527 14.909873 14.922996 15.01358 15.010363 14.989714 14.94545 14.962966 15.066902 15.184054 15.553556 15.937472 16.339568 16.453537 -9999
-9999 -9999 14.894956 14.804429 14.980162 14.967908 15.001573 14.962929 14.961822 14.902605 14.915327 14.905786 14.948253 15.057459 15.32729 15.608212 15.973625 16.482764 16.40157 -9999
-9999 14.52984 14.571547 14.62165 14.825328 14.845156 14.78911 14.926193 15.002586 14.967018 14.959058 14.961806 14.989579 15.165334 15.371812 15.557701 16.008346 16.443253 16.504184 -9999
-9999 14.640159 14.558632 14.587353 14.645223 14.666889 14.645012 14.781907 14.948687 15.037136 15.019227 15.027923 15.087838 15.22774 15.474934 15.547985 15.919714 16.338803 16.246323 -9999
-9999 14.791674 14.54833 14.578244 14.614686 14.629277 14.635151 14.677925 14.699997 15.073789 15.07381 15.065531 15.26631 15.326438 15.458264 15.51511 15.704292 16.010293 15.870767 -9999
-9999 14.931291 14.557035 14.570004 14.590745 14.60508 14.624875 14.655363 14.67393 14.889691 14.960422 15.093997 15.252277 15.357875 15.442337 15.380288 15.477627 15.716981 15.95256 -9999
-9999 15.026978 14.605253 14.56134 14.581954 14.595764 14.614994 14.64432 14.667393 14.679149 14.834007 15.002835 15.112649 15.296071 15.30707 15.243562 15.367808 15.640828 16.054534 -9999
-9999 15.100751 14.673725 14.552966 14.572863 14.586326 14.603318 14.618341 14.640999 14.662215 14.68828 14.870513 14.87581 15.084644 15.231042 15.13949 15.17406 15.603059 15.77862 -9999
-9999 15.127708 14.766454 14.551551 14.564673 14.573792 14.585238 14.597759 14.611537 14.628542 14.651889 14.715325 14.698258 14.871334 15.090904 15.105521 15.087464 15.41759 -9999 -9999
-9999 15.157324 14.882144 14.575421 14.549207 14.55917 14.567667 14.573269 14.57465 14.588718 14.61219 14.636853 14.657717 14.721954 14.919892 14.94564 15.089098 15.44183 -9999 -9999
-9999 15.20946 14.997456 14.758488 14.550784 14.547415 14.547926 14.544544 14.541176 14.544623 14.569722 14.58925 14.613957 14.633058 14.75541 14.759171 14.854914 15.50021 15.40024 15.30804
-9999 -9999 15.081466 14.909821 14.690046 14.543714 14.528182 14.513049 14.50371 14.506061 14.522158 14.541357 14.559376 14.574134 14.602367 14.653321 14.707127 14.779762 14.84334 14.87879
-9999 -9999 14.98106375 14.955078 14.743933 14.535892 14.506259 14.48221 14.464338 14.461801 14.465708 14.470562 14.470844 14.47083 14.49631 14.528094 14.583754 14.663126 14.738326 14.79327
-9999 -9999 -9999 14.97789 14.597332 14.525902 14.483958 14.448574 14.425658 14.411718 14.413581 14.417775 14.409108 14.389485 14.377606 14.393041 14.444075 14.498976 14.586984 14.68444
