ncols        20
nrows        20
xllcorner    0
yllcorner    -3.59929275513
cellsize     0.179964631796
NODATA_value -9999
-9999.0 -9999 -9999 -9999 -9999 -9999 -9999 -9999 -9999 -9999 -9999 -9999 -9999 -9999 -9999 -9999 -9999 -9999 -9999 -9999
-9999 -9999 -9999 -9999 16.66193 15.848288 15.726389 15.618237 15.671128 15.82136 15.884881 15.82770525 15.94576 15.78047 15.78047 16.070492 16.27118 -9999 -9999 -9999
-9999 -9999 -9999 -9999 15.732409 15.491116 15.519765 15.456782 15.588124 15.814529 15.723745 15.812372 15.828944 15.726136 15.809338 15.955391 16.246059 15.612126 -9999 -9999
-9999 -9999 -9999 15.33716975 15.332509 15.280461 15.400973 15.318141 15.365466 15.490775 15.413115 15.454201 15.484914 15.494557 15.593853 15.701977 15.534986 15.48113 -9999 -9999
-9999 -9999 -9999 15.221083 15.062678 14.924285 15.084453 15.079654 15.135637 15.105797 15.049591 15.043386 15.072527 15.135659 15.209359 15.208802 15.302594 15.684771 -9999 -9999
-9999 -9999 15.0412485 15.012522 14.945292 14.878884 14.840788 14.895879 14.849057 14.838636 14.749349 14.820934 14.775381 14.873799 14.836343 15.030941 15.438619 15.721489 15.84519 -9999
-9999 -9999 14.940444 14.990945 14.88835 14.81905 14.772142 14.735746 14.787269 14.776622 14.749549 14.704183 14.716356 14.798842 14.890872 15.158027 15.420846 15.714759 15.809814 -9999
-9999 -9999 14.900392 14.793276 14.929283 14.893184 14.906308 14.813925 14.768636 14.705155 14.706364 14.693209 14.728887 14.819614 15.012861 15.201297 15.439533 15.836978 15.759977 -9999
-9999 14.61045 14.650893 14.685692 14.832973 14.826804 14.760452 14.834881 14.849988 14.784186 14.764846 14.760119 14.782796 14.915084 15.04719 15.15479 15.471665 15.800095 15.828521 -9999
-9999 14.721086 14.648011 14.679632 14.711126 14.711124 14.675023 14.763647 14.856394 14.876925 14.836637 14.830948 14.870121 14.968382 15.135713 15.138245 15.410951 15.712067 15.616517 -9999
-9999 14.866898 14.640393 14.678067 14.69794 14.689144 14.67924 14.698287 14.683323 14.950366 14.90286 14.878052 15.030866 15.056677 15.119693 15.11595 15.25485 15.441098 15.317075 -9999
-9999 14.999959 14.652361 14.673855 14.688435 14.678574 14.680023 14.6892 14.678228 14.822029 14.846943 14.921019 15.03443 15.090505 15.106433 15.023287 15.096673 15.22414 15.384678 -9999
-9999 15.096715 14.703325 14.666427 14.689819 14.681573 14.681407 14.68927 14.697932 14.682383 14.780579 14.887114 14.944754 15.071965 15.014235 14.936588 15.015747 15.178374 15.465842 -9999
-9999 15.174074 14.772898 14.659763 14.690784 14.68581 14.682703 14.683828 14.694757 14.70325 14.698732 14.81822 14.789693 14.929578 14.984016 14.88054 14.890819 15.168944 15.26482 -9999
-9999 15.208825 14.865121 14.664095 14.685063 14.69015 14.684763 14.68382 14.690495 14.694703 14.697865 14.721952 14.684099 14.789913 14.907972 14.883722 14.849531 15.060219 -9999 -9999
-9999 15.245697 14.978638 14.693753 14.667844 14.684209 14.69086 14.681827 14.676395 14.675565 14.684053 14.685129 14.681097 14.702132 14.815963 14.796334 14.872592 15.108086 -9999 -9999
-9999 15.30292 15.098465 14.872052 14.678966 14.673807 14.685811 14.672896 14.661084 14.653554 14.661044 14.668348 14.671703 14.656735 14.717801 14.690697 14.727422 15.18674 15.132065 15.08589
-9999 -9999 15.191809 15.025358 14.817318 14.687409 14.67778 14.656702 14.640024 14.63128 14.633357 14.640285 14.646586 14.636189 14.631433 14.651956 14.672198 14.714994 14.758925 14.81007
-9999 -9999 15.10228425 15.08216 14.884502 14.696505 14.670894 14.639346 14.617262 14.605753 14.596389 14.595668 14.589 14.580517 14.588745 14.587719 14.610934 14.683041 14.732507 14.78764
-9999 -9999 -9999 15.10981 14.778499 14.707569 14.668134 14.629826 14.603156 14.581932 14.572464 14.56291 14.548606 14.524952 14.50593 14.507531 14.533648 14.567564 14.639063 14.72545
