ncols        20
nrows        20
xllcorner    0
yllcorner    -3.59929275513
cellsize     0.179964631796
NODATA_value -9999
-9999.0 -9999 -9999 -9999 -9999 -9999 -9999 -9999 -9999 -9999 -9999 -9999 -9999 -9999 -9999 -9999 -9999 -9999 -9999 -9999
-9999 -9999 -9999 -9999 17.99312 17.183871 17.081806 17.011112 17.100755 17.262695 17.308547 17.2581365 17.39614 17.25008 17.25008 17.5211855 17.7204 -9999 -9999 -9999
-9999 -9999 -9999 -9999 17.042023 16.815488 16.865511 16.824291 16.980254 17.227494 17.120247 17.243355 17.272804 17.182294 17.269629 17.399706 17.695007 17.058161 -9999 -9999
-9999 -9999 -9999 16.58390925 16.593728 16.560296 16.701842 16.640685 16.712813 16.858886 16.787828 16.845071 16.889931 16.906851 17.014786 17.122872 16.954355 16.904433 -9999 -9999
-9999 -9999 -9999 16.434434 16.265452 16.137835 16.344258 16.36288 16.44823 16.427351 16.373146 16.374784 16.410423 16.484878 16.566211 16.570079 16.700789 17.120501 -9999 -9999
-9999 -9999 16.202641 16.179679 16.109596 16.055436 16.045764 16.147189 16.115336 16.108573 16.014056 16.097378 16.045507 16.159858 16.12251 16.344827 16.82338 17.149343 17.28069 -9999
-9999 -9999 16.0731 16.123351 16.021109 15.956583 15.932859 15.937055 16.018893 16.013022 15.98839 15.941059 15.954578 16.048705 16.149805 16.475089 16.793975 17.139233 17.243914 -9999
-9999 -9999 15.989389 15.885031 16.030306 15.994185 16.02414 15.978629 15.971997 15.91084 15.919741 15.907676 15.947492 16.044475 16.283824 16.510487 16.811401 17.272153 17.193323 -9999
-9999 15.67016 15.697426 15.732476 15.8998 15.889349 15.825868 15.952173 16.017906 15.975463 15.964877 15.964875 15.98689 16.14595 16.30835 16.448019 16.839967 17.233937 17.279284 -9999
-9999 15.790745 15.690729 15.712189 15.749035 15.739242 15.700205 15.821034 15.974512 16.045797 16.022357 16.024701 16.075648 16.192648 16.400053 16.430241 16.760454 17.136594 17.03557 -9999
-9999 15.952094 15.684607 15.708427 15.731046 15.7136 15.698491 15.724065 15.743042 16.088326 16.0741 16.061316 16.24417 16.282122 16.375403 16.398356 16.569556 16.825718 16.68444 -9999
-9999 16.100776 15.700056 15.703702 15.716039 15.701725 15.695455 15.708643 15.719959 15.919044 15.974383 16.092225 16.230799 16.310188 16.353967 16.280348 16.37171 16.555394 16.76173 -9999
-9999 16.209233 15.757996 15.697071 15.712984 15.705367 15.692826 15.705473 15.715446 15.725224 15.862682 16.014879 16.107061 16.263479 16.234826 16.165049 16.263718 16.487011 16.85707 -9999
-9999 16.296418 15.836223 15.691207 15.709643 15.710396 15.692317 15.695108 15.706007 15.7149 15.73587 15.900866 15.898543 16.076804 16.178004 16.07848 16.093783 16.456838 16.60906 -9999
-9999 16.339476 15.940054 15.697411 15.702903 15.708471 15.700432 15.688346 15.694702 15.697463 15.706515 15.764701 15.743717 15.891503 16.064333 16.058477 16.024687 16.298047 -9999 -9999
-9999 16.38674 16.067617 15.734512 15.691578 15.698502 15.705495 15.679434 15.676019 15.676454 15.67973 15.696796 15.715207 15.763372 15.925219 15.929488 16.035046 16.33386 -9999 -9999
-9999 16.45702 16.208411 15.941185 15.711642 15.692029 15.686696 15.666474 15.659498 15.654425 15.659822 15.660313 15.684114 15.692696 15.787595 15.775832 15.841211 16.40019 16.33693 16.28086
-9999 -9999 16.328906 16.123171 15.874551 15.701054 15.668111 15.650919 15.639145 15.633301 15.637311 15.638876 15.644166 15.653017 15.664159 15.698039 15.738936 15.80453 15.862855 15.91412
-9999 -9999 16.22629625 16.202108 15.954263 15.703338 15.656034 15.635267 15.619144 15.614111 15.610931 15.610243 15.597468 15.58604 15.589524 15.603669 15.641806 15.727289 15.797472 15.85784
-9999 -9999 -9999 16.251 15.829028 15.719367 15.657205 15.627603 15.613296 15.6045 15.601717 15.591448 15.570033 15.546339 15.517453 15.509983 15.53469 15.588382 15.673865 15.76963
