ncols        20
nrows        20
xllcorner    0
yllcorner    -3.59929275513
cellsize     0.179964631796
NODATA_value -9999
-9999.0 -9999 -9999 -9999 -9999 -9999 -9999 -9999 -9999 -9999 -9999 -9999 -9999 -9999 -9999 -9999 -9999 -9999 -9999 -9999
-9999 -9999 -9999 -9999 16.0979 15.290797 15.174721 15.070946 15.125389 15.283263 15.362688 15.31072075 15.42351 15.2487 15.2487 15.5476915 15.75017 -9999 -9999 -9999
-9999 -9999 -9999 -9999 15.166487 14.943021 14.979768 14.924515 15.063152 15.295788 15.216029 15.295648 15.307696 15.198837 15.281377 15.433811 15.725408 15.093008 -9999 -9999
-9999 -9999 -9999 14.779401 14.774249 14.74799 14.8817 14.811999 14.864867 14.993443 14.913592 14.951266 14.975865 14.980022 15.078825 15.186939 15.026689 14.973815 -9999 -9999
-9999 -9999 -9999 14.657302 14.519566 14.412594 14.593088 14.602341 14.659745 14.637714 14.579522 14.568972 14.59396 14.649226 14.72351 14.724636 14.8044 15.182337 -9999 -9999
-9999 -9999 14.517374 14.483604 14.427786 14.382326 14.366893 14.436261 14.400959 14.3954 14.311964 14.378419 14.331899 14.423451 14.392629 14.585904 14.95962 15.248859 15.39054 -9999
-9999 -9999 14.438838 14.489752 14.394215 14.339922 14.304925 14.288324 14.35077 14.346275 14.32446 14.28025 14.291498 14.373707 14.477185 14.715224 14.966541 15.261506 15.360046 -9999
-9999 -9999 14.433534 14.33544 14.46388 14.430604 14.442364 14.368679 14.341416 14.285779 14.292739 14.282252 14.320914 14.417087 14.597468 14.777129 15.001224 15.383461 15.320815 -9999
-9999 14.17716 14.229621 14.270141 14.405492 14.397307 14.334512 14.406958 14.423888 14.368198 14.356832 14.355776 14.382776 14.514105 14.634894 14.741162 15.04151 15.352057 15.409353 -9999
-9999 14.278261 14.227193 14.271821 14.306686 14.30813 14.273758 14.354057 14.437995 14.458896 14.427929 14.42806 14.474104 14.564138 14.726745 14.734511 14.989297 15.278196 15.215537 -9999
-9999 14.410598 14.216172 14.268977 14.295362 14.290469 14.282773 14.296258 14.287098 14.526136 14.49275 14.477713 14.628401 14.652101 14.717225 14.718408 14.847903 15.040936 14.941312 -9999
-9999 14.531723 14.224537 14.263109 14.287086 14.282162 14.284486 14.290825 14.28257 14.411352 14.435546 14.520508 14.632394 14.689808 14.712009 14.637368 14.711289 14.852093 15.00917 -9999
-9999 14.621358 14.269579 14.252883 14.287578 14.28496 14.285469 14.294703 14.298112 14.288446 14.375573 14.48743 14.548863 14.678616 14.633824 14.567503 14.654778 14.823555 15.08316 -9999
-9999 14.692773 14.331566 14.242783 14.287301 14.288642 14.2868 14.291151 14.302434 14.314178 14.306154 14.42228 14.405459 14.549028 14.611416 14.53396 14.554532 14.826794 14.88877 -9999
-9999 14.724923 14.416469 14.244615 14.280543 14.291884 14.288977 14.290148 14.305246 14.31037 14.313083 14.334357 14.311818 14.421775 14.541582 14.54383 14.528539 14.732702 -9999 -9999
-9999 14.758996 14.521463 14.268487 14.256137 14.282185 14.294931 14.293921 14.297654 14.296957 14.306913 14.304988 14.308034 14.33783 14.455724 14.463361 14.557536 14.778303 -9999 -9999
-9999 14.81165 14.630774 14.429947 14.259204 14.266075 14.293225 14.291839 14.288614 14.284734 14.290692 14.295545 14.300427 14.295885 14.366798 14.360619 14.415277 14.85394 14.781525 14.7161
-9999 -9999 14.713563 14.567898 14.385177 14.280634 14.289477 14.281419 14.271831 14.267985 14.269709 14.276117 14.283906 14.275699 14.280921 14.312062 14.345133 14.385856 14.422275 14.45808
-9999 -9999 14.63343925 14.616986 14.447769 14.296532 14.28651 14.267612 14.251946 14.24942 14.243699 14.235505 14.230977 14.224093 14.227734 14.233944 14.268244 14.330403 14.385475 14.43582
-9999 -9999 -9999 14.63531 14.359401 14.310664 14.280792 14.257706 14.242763 14.231962 14.226094 14.212872 14.195747 14.176884 14.155398 14.156557 14.178152 14.209675 14.279784 14.36733
