ncols        20
nrows        20
xllcorner    0
yllcorner    -3.59929275513
cellsize     0.179964631796
NODATA_value -9999
-9999.0 -9999 -9999 -9999 -9999 -9999 -9999 -9999 -9999 -9999 -9999 -9999 -9999 -9999 -9999 -9999 -9999 -9999 -9999 -9999
-9999 -9999 -9999 -9999 18.72148 17.92132 17.833036 17.781346 17.891691 18.05912 18.091279 18.03900425 18.18857 18.06887 18.06887 18.33772275 18.53711 -9999 -9999 -9999
-9999 -9999 -9999 -9999 17.766385 17.553824 17.617806 17.577145 17.749271 18.004505 17.882373 18.023125 18.061949 17.988203 18.089485 18.212446 18.51185 17.894444 -9999 -9999
-9999 -9999 -9999 17.2924035 17.305808 17.293763 17.445467 17.384835 17.458367 17.606983 17.532173 17.600739 17.654075 17.681685 17.810797 17.91994 17.763621 17.72019 -9999 -9999
-9999 -9999 -9999 17.12269 16.974731 16.870905 17.083259 17.101889 17.188229 17.161554 17.107876 17.110388 17.153927 17.238585 17.339825 17.347712 17.492399 17.947122 -9999 -9999
-9999 -9999 16.8955375 16.869949 16.813426 16.783761 16.786392 16.889002 16.84877 16.840182 16.745328 16.829213 16.78832 16.915838 16.896695 17.125337 17.631812 17.976047 18.13629 -9999
-9999 -9999 16.771845 16.817666 16.727003 16.685375 16.664031 16.66468 16.748091 16.741178 16.712464 16.665296 16.690553 16.798719 16.905674 17.262108 17.618745 17.984601 18.112691 -9999
-9999 -9999 16.684717 16.578326 16.750604 16.738709 16.778328 16.714524 16.699524 16.63393 16.641691 16.628412 16.672207 16.781696 17.047127 17.327532 17.648216 18.130812 18.07476 -9999
-9999 16.33255 16.367239 16.407185 16.600508 16.620298 16.564567 16.688493 16.751442 16.707611 16.692935 16.691462 16.71869 16.885195 17.099372 17.279483 17.686824 18.10572 18.187956 -9999
-9999 16.451797 16.356187 16.378673 16.425919 16.441884 16.421506 16.556715 16.708804 16.788214 16.760778 16.763637 16.820869 16.955258 17.206073 17.267581 17.613844 18.018276 17.94761 -9999
-9999 16.613638 16.347237 16.37325 16.401331 16.404425 16.410107 16.459545 16.46779 16.83512 16.82101 16.807374 17.004252 17.060756 17.192891 17.23706 17.420273 17.726083 17.588352 -9999
-9999 16.760959 16.359702 16.36726 16.381169 16.383045 16.400941 16.437097 16.44702 16.654791 16.719013 16.841742 17.004441 17.09736 17.175455 17.110057 17.208129 17.437032 17.664318 -9999
-9999 16.860695 16.414876 16.359213 16.3752 16.379639 16.393521 16.424167 16.450299 16.450824 16.601449 16.763299 16.867135 17.042359 17.044266 16.975854 17.092707 17.356487 17.761565 -9999
-9999 16.937942 16.491018 16.351311 16.369295 16.377443 16.384231 16.397895 16.424862 16.44275 16.46053 16.63986 16.634323 16.834197 16.967311 16.86338 16.89427 17.314449 17.51982 -9999
-9999 16.96803 16.589288 16.353405 16.362283 16.368477 16.374393 16.38121 16.399679 16.419062 16.437587 16.486119 16.454875 16.625268 16.83229 16.833767 16.802808 17.130218 -9999 -9999
-9999 17.001435 16.70969 16.385302 16.349126 16.356414 16.363471 16.360927 16.366501 16.387108 16.407147 16.413933 16.422552 16.48147 16.671605 16.68709 16.800657 17.154215 -9999 -9999
-9999 17.05812 16.832174 16.581372 16.359862 16.348105 16.341196 16.336516 16.343262 16.348754 16.371216 16.372657 16.383539 16.391353 16.504829 16.500536 16.572633 17.21229 17.11381 17.01795
-9999 -9999 16.924909 16.741403 16.510818 16.349208 16.318266 16.314689 16.316978 16.319836 16.325896 16.332758 16.331335 16.331928 16.352496 16.393168 16.443105 16.510298 16.56709 16.60449
-9999 -9999 16.81918225 16.793597 16.569261 16.341771 16.296563 16.29237 16.287771 16.287495 16.281359 16.277341 16.268251 16.253413 16.257025 16.276673 16.322092 16.411156 16.477002 16.52787
-9999 -9999 -9999 16.81682 16.419364 16.336479 16.28674 16.265046 16.258048 16.254298 16.257328 16.24548 16.226212 16.20753 16.173243 16.163932 16.19316 16.249742 16.330729 16.41744
