ncols        20
nrows        20
xllcorner    0
yllcorner    -3.59929275513
cellsize     0.179964631796
NODATA_value -9999
-9999.0 -9999 -9999 -9999 -9999 -9999 -9999 -9999 -9999 -9999 -9999 -9999 -9999 -9999 -9999 -9999 -9999 -9999 -9999 -9999
-9999 -9999 -9999 -9999 17.33488 16.52324 16.407812 16.313505 16.38943 16.543218 16.595434 16.550279 16.67453 16.52834 16.52834 16.79950625 16.99159 -9999 -9999 -9999
-9999 -9999 -9999 -9999 16.404533 16.164142 16.198999 16.140799 16.288333 16.52233 16.431545 16.534388 16.560653 16.469902 16.553796 16.686612 16.966027 16.336179 -9999 -9999
-9999 -9999 -9999 15.98839225 15.987678 15.941572 16.062256 15.992835 16.053908 16.19071 16.115706 16.164466 16.209403 16.215422 16.32239 16.430155 16.254565 16.206407 -9999 -9999
-9999 -9999 -9999 15.867898 15.69346 15.560192 15.738313 15.746968 15.81612 15.789862 15.734142 15.72916 15.760451 15.825219 15.908662 15.917673 16.029004 16.429283 -9999 -9999
-9999 -9999 15.659394 15.63688 15.564735 15.494343 15.471278 15.550837 15.51364 15.504194 15.4134 15.487149 15.43541 15.542015 15.512993 15.72845 16.165851 16.48355 16.64182 -9999
-9999 -9999 15.537865 15.594933 15.495586 15.424072 15.387042 15.370521 15.437916 15.429092 15.404116 15.359344 15.371167 15.463689 15.567998 15.862919 16.16738 16.50639 16.597615 -9999
-9999 -9999 15.473023 15.376899 15.516794 15.482418 15.498364 15.437594 15.40812 15.345263 15.351972 15.34287 15.383465 15.479762 15.701358 15.91644 16.201833 16.631558 16.547597 -9999
-9999 15.16554 15.211356 15.250542 15.403473 15.398439 15.33457 15.435152 15.47278 15.416483 15.405589 15.407146 15.433482 15.591187 15.743883 15.86847 16.240532 16.586748 16.628967 -9999
-9999 15.272354 15.205674 15.239848 15.272777 15.274544 15.235925 15.334276 15.455245 15.499275 15.472373 15.477038 15.532524 15.64787 15.836909 15.868082 16.169446 16.495755 16.40397 -9999
-9999 15.415114 15.195978 15.236565 15.258837 15.250141 15.239861 15.254838 15.257019 15.558596 15.53392 15.525258 15.700017 15.739112 15.822064 15.848019 15.989783 16.209092 16.082839 -9999
-9999 15.545101 15.205146 15.231537 15.24819 15.238385 15.241152 15.244505 15.242504 15.412392 15.458615 15.563295 15.698022 15.773448 15.811096 15.738111 15.807192 15.96892 16.156142 -9999
-9999 15.63584 15.252245 15.223324 15.248052 15.240779 15.242924 15.245097 15.249681 15.248758 15.369843 15.507646 15.593182 15.745162 15.712781 15.630597 15.712935 15.91394 16.242513 -9999
-9999 15.706668 15.31808 15.215005 15.246892 15.243763 15.244518 15.242516 15.246897 15.251591 15.262478 15.414206 15.411667 15.585508 15.670792 15.55946 15.572257 15.894419 16.00873 -9999
-9999 15.732156 15.405149 15.214955 15.241813 15.247671 15.245909 15.245056 15.240567 15.239396 15.248246 15.292464 15.280616 15.42659 15.572609 15.556024 15.521786 15.760352 -9999 -9999
-9999 15.758583 15.513362 15.238539 15.223114 15.242308 15.24807 15.239796 15.222175 15.216024 15.22527 15.243357 15.258742 15.307543 15.449637 15.447101 15.537397 15.799996 -9999 -9999
-9999 15.80538 15.619722 15.405511 15.222758 15.229282 15.248019 15.22661 15.20087 15.183735 15.19619 15.218187 15.234621 15.242772 15.326072 15.310709 15.362973 15.86948 15.797305 15.72798
-9999 -9999 15.692859 15.543476 15.347687 15.236009 15.244351 15.208403 15.173017 15.152275 15.162946 15.182232 15.205154 15.208779 15.216056 15.246168 15.278076 15.324965 15.368845 15.40741
-9999 -9999 15.6048915 15.581711 15.398833 15.235521 15.233612 15.185797 15.141343 15.119314 15.116997 15.125109 15.130965 15.13888 15.161268 15.170771 15.202694 15.264402 15.318696 15.36433
-9999 -9999 -9999 15.60152 15.273708 15.226425 15.208014 15.16317 15.11924 15.08354 15.078473 15.075202 15.069298 15.064513 15.061007 15.078449 15.120851 15.150487 15.211385 15.29239
