ncols        20
nrows        20
xllcorner    0
yllcorner    -3.59929275513
cellsize     0.179964631796
NODATA_value -9999
-9999.0 -9999 -9999 -9999 -9999 -9999 -9999 -9999 -9999 -9999 -9999 -9999 -9999 -9999 -9999 -9999 -9999 -9999 -9999 -9999
-9999 -9999 -9999 -9999 16.43979 15.632528 15.529887 15.45485 15.544447 15.711208 15.768089 15.7210425 15.85243 15.69378 15.69378 15.95700575 16.15077 -9999 -9999 -9999
-9999 -9999 -9999 -9999 15.489946 15.271639 15.321531 15.276168 15.440356 15.690899 15.594387 15.707383 15.72997 15.631466 15.712406 15.840121 16.124726 15.487647 -9999 -9999
-9999 -9999 -9999 15.06088 15.060504 15.037466 15.175273 15.118826 15.197151 15.343048 15.27433 15.32694 15.361295 15.37046 15.47131 15.572722 15.394502 15.342715 -9999 -9999
-9999 -9999 -9999 14.928939 14.764131 14.643817 14.84068 14.860871 14.947176 14.930889 14.881505 14.884935 14.90903 14.974044 15.048565 15.040277 15.152932 15.550748 -9999 -9999
-9999 -9999 14.7169465 14.694947 14.627727 14.572464 14.559437 14.656945 14.631331 14.630493 14.544305 14.62024 14.568715 14.672212 14.632479 14.839806 15.280718 15.575761 15.72358 -9999
-9999 -9999 14.591332 14.652568 14.555409 14.489916 14.457905 14.45841 14.543633 14.540724 14.516813 14.472129 14.483189 14.569905 14.66624 14.968053 15.255728 15.589635 15.699684 -9999
-9999 -9999 14.516586 14.423315 14.573967 14.53825 14.556814 14.511731 14.502544 14.440647 14.449067 14.439654 14.478116 14.571726 14.80026 15.001975 15.279089 15.718033 15.661095 -9999
-9999 14.18718 14.231522 14.271732 14.441997 14.437513 14.373704 14.492185 14.549804 14.505177 14.493196 14.494445 14.518739 14.670732 14.820818 14.941608 15.311245 15.692606 15.755829 -9999
-9999 14.300931 14.222306 14.250896 14.291899 14.293159 14.255714 14.368875 14.507764 14.574193 14.550409 14.551933 14.601183 14.717187 14.906305 14.927634 15.239635 15.608943 15.531877 -9999
-9999 14.453296 14.212059 14.246232 14.271609 14.265968 14.255122 14.275771 14.289072 14.613932 14.5999 14.585053 14.765471 14.799351 14.881935 14.900186 15.061503 15.32721 15.211659 -9999
-9999 14.593278 14.222678 14.240307 14.255485 14.251359 14.252761 14.26095 14.267779 14.454947 14.501379 14.610098 14.750709 14.821695 14.861218 14.787523 14.879302 15.083693 15.29335 -9999
-9999 14.693965 14.274901 14.231826 14.251902 14.250904 14.250305 14.25785 14.265886 14.271396 14.39139 14.53181 14.623275 14.772247 14.746241 14.681479 14.796837 15.031088 15.386577 -9999
-9999 14.774163 14.346662 14.223492 14.248145 14.251109 14.247993 14.249613 14.2548 14.255127 14.264456 14.419 14.417129 14.589257 14.692024 14.61061 14.648654 15.010731 15.13806 -9999
-9999 14.81322 14.442453 14.226556 14.241727 14.247067 14.246981 14.244098 14.241122 14.235199 14.235836 14.285797 14.269354 14.408935 14.584442 14.59721 14.590058 14.863266 -9999 -9999
-9999 14.856713 14.560681 14.256756 14.226178 14.238043 14.243738 14.232253 14.221244 14.212131 14.206533 14.221563 14.237334 14.284892 14.449938 14.474822 14.603918 14.899167 -9999 -9999
-9999 14.92202 14.690593 14.444445 14.23733 14.228656 14.230455 14.215374 14.19975 14.183365 14.180604 14.183687 14.200383 14.211971 14.315357 14.326704 14.414069 14.96299 14.887955 14.81889
-9999 -9999 14.80086 14.610478 14.383176 14.236348 14.21661 14.194506 14.17426 14.157759 14.155731 14.154103 14.155494 14.166273 14.189086 14.240009 14.294709 14.363842 14.418205 14.46094
-9999 -9999 14.7029655 14.681204 14.454558 14.23981 14.203591 14.173192 14.146938 14.131636 14.123825 14.118357 14.104832 14.09497 14.110211 14.13522 14.183913 14.269271 14.343502 14.40322
-9999 -9999 -9999 14.71932 14.335738 14.249206 14.194905 14.156553 14.12677 14.104869 14.098382 14.08913 14.067013 14.043967 14.026489 14.03352 14.065414 14.119926 14.213477 14.31269
