ncols        20
nrows        20
xllcorner    0
yllcorner    -3.59929275513
cellsize     0.179964631796
NODATA_value -9999
-9999.0 -9999 -9999 -9999 -9999 -9999 -9999 -9999 -9999 -9999 -9999 -9999 -9999 -9999 -9999 -9999 -9999 -9999 -9999 -9999
-9999 -9999 -9999 -9999 17.6389 16.833483 16.75283 16.715308 16.837566 17.003417 17.008668 16.95257275 17.12097 17.02531 17.02531 17.29713375 17.51209 -9999 -9999 -9999
-9999 -9999 -9999 -9999 16.671519 16.450001 16.518858 16.471605 16.64923 16.911332 16.766878 16.935874 16.986569 16.92819 17.034144 17.157235 17.485066 16.837134 -9999 -9999
-9999 -9999 -9999 16.1483595 16.165936 16.14274 16.290342 16.226308 16.303139 16.459179 16.387569 16.471027 16.535847 16.57294 16.713593 16.831367 16.674788 16.628634 -9999 -9999
-9999 -9999 -9999 15.968599 15.787384 15.661279 15.878704 15.895378 15.990351 15.967789 15.915078 15.925923 15.975237 16.070875 16.181896 16.191738 16.363811 16.869252 -9999 -9999
-9999 -9999 15.6725875 15.659483 15.575747 15.538205 15.536078 15.649695 15.609431 15.602533 15.499862 15.596566 15.549453 15.691239 15.672468 15.917479 16.498287 16.888816 17.06138 -9999
-9999 -9999 15.513573 15.548695 15.441733 15.390858 15.384569 15.388028 15.48529 15.47973 15.448848 15.394461 15.419459 15.534703 15.642292 16.054919 16.478305 16.901487 17.033013 -9999
-9999 -9999 15.367226 15.242503 15.421063 15.403361 15.457805 15.413251 15.415708 15.347046 15.353595 15.335686 15.380993 15.48512 15.789593 16.114002 16.508105 17.054795 16.98912 -9999
-9999 14.98408 14.983633 15.017883 15.223098 15.236839 15.187909 15.34561 15.439153 15.405697 15.390222 15.387103 15.406026 15.580577 15.832202 16.056566 16.542193 17.02481 17.101536 -9999
-9999 15.126216 14.972178 14.972196 15.014646 15.0223 15.005395 15.16767 15.36045 15.470504 15.446309 15.447762 15.500461 15.649834 15.946119 16.03962 16.449643 16.922782 16.82968 -9999
-9999 15.319078 14.971002 14.965863 14.987164 14.979798 14.9854 15.045942 15.066644 15.499897 15.49657 15.480049 15.69008 15.764575 15.925435 16.000503 16.220378 16.581763 16.423839 -9999
-9999 15.495505 14.994046 14.961592 14.963713 14.956366 14.972072 15.017055 15.036139 15.283419 15.364669 15.50635 15.687256 15.7998 15.903291 15.847455 15.967332 16.243301 16.510202 -9999
-9999 15.618523 15.065694 14.958744 14.955655 14.953584 14.961561 14.999287 15.029559 15.032041 15.208185 15.397442 15.519092 15.724126 15.742528 15.682403 15.828803 16.144757 16.625554 -9999
-9999 15.717005 15.161919 14.956743 14.947411 14.952233 14.950312 14.966026 14.994818 15.001942 15.02157 15.23567 15.234155 15.466291 15.640726 15.53441 15.587878 16.089867 16.33613 -9999
-9999 15.762323 15.283814 14.965274 14.941293 14.942577 14.943996 14.943814 14.956022 14.960574 14.972175 15.040726 15.010874 15.203727 15.468685 15.485757 15.468251 15.86471 -9999 -9999
-9999 15.812386 15.43111 15.014503 14.943773 14.931807 14.933694 14.913585 14.906433 14.914516 14.923393 14.935503 14.956301 15.025249 15.260001 15.295962 15.449966 15.87432 -9999 -9999
-9999 15.89023 15.590942 15.267458 14.975598 14.934429 14.901485 14.875277 14.871554 14.865432 14.881856 14.868842 14.893257 14.911006 15.057051 15.067865 15.169075 15.92 15.794585 15.66825
-9999 -9999 15.727777 15.479195 15.176563 14.93338 14.870579 14.846247 14.839518 14.833981 14.828968 14.81931 14.811731 14.82804 14.866227 14.925303 14.992156 15.075343 15.138525 15.16682
-9999 -9999 15.59950125 15.566973 15.258584 14.919513 14.845565 14.824071 14.814216 14.80423 14.775576 14.762163 14.736325 14.7164 14.721966 14.759864 14.824312 14.924975 15.008993 15.06424
-9999 -9999 -9999 15.62406 15.074355 14.922206 14.846827 14.812177 14.795866 14.785144 14.766911 14.73189 14.6974 14.664356 14.622733 14.606116 14.637208 14.713908 14.821186 14.91825
