ncols        20
nrows        20
xllcorner    0
yllcorner    -3.59929275513
cellsize     0.179964631796
NODATA_value -9999
-9999.0 -9999 -9999 -9999 -9999 -9999 -9999 -9999 -9999 -9999 -9999 -9999 -9999 -9999 -9999 -9999 -9999 -9999 -9999 -9999
-9999 -9999 -9999 -9999 17.0793 16.266209 16.157897 16.070417 16.144989 16.306848 16.372051 16.321901 16.44773 16.28385 16.28385 16.57264 16.77884 -9999 -9999 -9999
-9999 -9999 -9999 -9999 16.127266 15.909848 15.955359 15.90825 16.057126 16.298187 16.204883 16.308438 16.326553 16.224712 16.305997 16.452491 16.753232 16.111995 -9999 -9999
-9999 -9999 -9999 15.6965105 15.701029 15.686417 15.825276 15.76397 15.825977 15.962721 15.893004 15.939943 15.967862 15.973699 16.077287 16.189761 16.025809 15.978383 -9999 -9999
-9999 -9999 -9999 15.54943 15.408317 15.309712 15.509103 15.525731 15.594545 15.576969 15.523678 15.518431 15.541513 15.600036 15.679428 15.68354 15.79191 16.197745 -9999 -9999
-9999 -9999 15.37852225 15.342581 15.291394 15.25576 15.24953 15.336975 15.303583 15.30069 15.213014 15.283902 15.236428 15.334159 15.303018 15.504286 15.938455 16.244635 16.38312 -9999
-9999 -9999 15.284553 15.337525 15.246154 15.195665 15.170574 15.162878 15.234127 15.229303 15.203406 15.159347 15.171156 15.255876 15.350581 15.640775 15.932532 16.250109 16.35869 -9999
-9999 -9999 15.255902 15.160324 15.300329 15.274531 15.296813 15.233543 15.211498 15.150798 15.154913 15.143125 15.178801 15.270736 15.480727 15.703357 15.960322 16.377449 16.32175 -9999
-9999 14.967 15.012808 15.058076 15.217232 15.215134 15.154632 15.249036 15.282868 15.225419 15.209961 15.206984 15.229395 15.37491 15.526346 15.655939 15.994303 16.351716 16.415372 -9999
-9999 15.069825 15.008396 15.047674 15.091358 15.096664 15.066171 15.166016 15.276847 15.312979 15.279371 15.27599 15.325153 15.431907 15.620298 15.643515 15.931554 16.273968 16.198843 -9999
-9999 15.207118 14.999037 15.041772 15.074146 15.072978 15.069073 15.094035 15.092875 15.377455 15.3427 15.32539 15.494823 15.524762 15.609722 15.619219 15.77251 16.007734 15.886433 -9999
-9999 15.332938 15.007602 15.035075 15.060301 15.060026 15.067005 15.082943 15.082534 15.241245 15.276989 15.370448 15.497237 15.564211 15.600476 15.522523 15.611341 15.778135 15.95776 -9999
-9999 15.422645 15.052222 15.026437 15.056751 15.059614 15.0646 15.08193 15.09372 15.092462 15.202265 15.327895 15.401847 15.5431 15.504528 15.433213 15.537349 15.728675 16.043675 -9999
-9999 15.492965 15.11501 15.018428 15.052477 15.059921 15.062015 15.071142 15.088152 15.108817 15.115706 15.251827 15.236907 15.393455 15.469302 15.37521 15.395913 15.716522 15.82314 -9999
-9999 15.516105 15.200456 15.018742 15.044953 15.056846 15.058974 15.063327 15.082627 15.098447 15.115655 15.153608 15.126107 15.247902 15.384213 15.373375 15.347099 15.591549 -9999 -9999
-9999 15.537908 15.307283 15.040446 15.025071 15.044901 15.056699 15.059272 15.066958 15.07892 15.103667 15.118035 15.119176 15.149569 15.278816 15.273692 15.370663 15.632987 -9999 -9999
-9999 15.57866 15.410069 15.203589 15.02587 15.030658 15.051151 15.050881 15.052197 15.058558 15.081932 15.105191 15.111574 15.100867 15.169364 15.151682 15.207577 15.70466 15.64365 15.58455
-9999 -9999 15.472102 15.337796 15.148816 15.040568 15.046805 15.035141 15.031337 15.037437 15.05534 15.078778 15.099488 15.082025 15.073172 15.093968 15.127115 15.175826 15.225705 15.27194
-9999 -9999 15.3879045 15.367 15.200416 15.044464 15.041638 15.015101 15.004255 15.009094 15.019619 15.025161 15.032555 15.030617 15.033807 15.023826 15.048112 15.119659 15.177212 15.23548
-9999 -9999 -9999 15.37472 15.083499 15.044678 15.02894 15.001016 14.982843 14.972147 14.984209 14.990662 14.98798 14.974783 14.948111 14.945886 14.966823 15.002937 15.071436 15.15807
