ncols        20
nrows        20
xllcorner    0
yllcorner    -3.59929275513
cellsize     0.179964631796
NODATA_value -9999
-9999.0 -9999 -9999 -9999 -9999 -9999 -9999 -9999 -9999 -9999 -9999 -9999 -9999 -9999 -9999 -9999 -9999 -9999 -9999 -9999
-9999 -9999 -9999 -9999 18.22087 17.41011 17.295339 17.202523 17.27375 17.428716 17.480564 17.42803975 17.5561 17.40538 17.40538 17.667205 17.85738 -9999 -9999 -9999
-9999 -9999 -9999 -9999 17.286384 17.046903 17.081832 17.024086 17.166776 17.404283 17.305401 17.412822 17.437836 17.344288 17.426624 17.552628 17.832188 17.202328 -9999 -9999
-9999 -9999 -9999 16.8728255 16.871182 16.821473 16.9375 16.863572 16.918589 17.058528 16.985399 17.036879 17.077116 17.084794 17.187958 17.289548 17.113397 17.06397 -9999 -9999
-9999 -9999 -9999 16.75594 16.577796 16.435555 16.606438 16.610962 16.677997 16.656502 16.600497 16.59985 16.627069 16.690856 16.768471 16.764766 16.875993 17.267392 -9999 -9999
-9999 -9999 16.5444415 16.520652 16.442008 16.367785 16.332795 16.408459 16.365583 16.359356 16.268682 16.344242 16.29644 16.398853 16.362194 16.565294 17.001314 17.283577 17.42946 -9999
-9999 -9999 16.428479 16.472695 16.36424 16.285003 16.238097 16.217805 16.281334 16.273162 16.248546 16.204085 16.217198 16.302559 16.398148 16.693419 16.97547 17.293446 17.392115 -9999
-9999 -9999 16.360387 16.245651 16.380182 16.331615 16.346556 16.277635 16.247721 16.18476 16.19026 16.179178 16.216575 16.307186 16.530761 16.730755 16.996497 17.420791 17.3368 -9999
-9999 16.05322 16.084977 16.105461 16.255369 16.23571 16.165417 16.267452 16.310086 16.255613 16.240555 16.239437 16.260911 16.405446 16.556499 16.678142 17.028411 17.381574 17.407673 -9999
-9999 16.182179 16.080292 16.094431 16.117279 16.100234 16.055244 16.156476 16.283584 16.334443 16.304889 16.304446 16.348995 16.456154 16.644529 16.665334 16.957093 17.283221 17.180013 -9999
-9999 16.351932 16.073505 16.09659 16.105363 16.077774 16.058154 16.071132 16.075247 16.384272 16.36265 16.339463 16.510813 16.542003 16.624076 16.635141 16.77938 16.998119 16.850207 -9999
-9999 16.507151 16.090493 16.09542 16.095852 16.070219 16.05914 16.060627 16.058824 16.231726 16.26845 16.369107 16.498857 16.569277 16.609228 16.523753 16.593861 16.744724 16.92209 -9999
-9999 16.622143 16.153845 16.089629 16.098126 16.079046 16.060384 16.06169 16.062933 16.056814 16.166259 16.298963 16.382668 16.53037 16.4967 16.414333 16.4985 16.684155 17.013894 -9999
-9999 16.716279 16.238187 16.084225 16.100559 16.089694 16.064157 16.060252 16.060527 16.051851 16.049778 16.193271 16.189622 16.357964 16.441307 16.33684 16.345392 16.667871 16.78565 -9999
-9999 16.768388 16.34743 16.093698 16.09639 16.094985 16.080704 16.062241 16.055507 16.039417 16.027553 16.067846 16.04892 16.184637 16.334359 16.323135 16.288045 16.536268 -9999 -9999
-9999 16.825731 16.480057 16.136607 16.087667 16.093102 16.093504 16.060576 16.044421 16.024942 16.007323 16.01043 16.019496 16.063745 16.206506 16.208334 16.304146 16.576495 -9999 -9999
-9999 16.90623 16.63518 16.353501 16.115486 16.089989 16.08265 16.054824 16.0349 16.009579 15.99229 15.981253 15.988584 15.99515 16.082886 16.073415 16.130201 16.65089 16.58618 16.51985
-9999 -9999 16.776939 16.550463 16.288527 16.105141 16.068152 16.045466 16.022124 15.997497 15.977642 15.963264 15.95119 15.95347 15.965463 16.00305 16.041083 16.099639 16.149905 16.19263
-9999 -9999 16.671032 16.649286 16.381385 16.116884 16.060679 16.035788 16.009725 15.988642 15.966993 15.946707 15.918054 15.8916 15.887687 15.904382 15.946518 16.028594 16.092863 16.14214
-9999 -9999 -9999 16.70744 16.269429 16.147471 16.077111 16.038572 16.013279 15.992395 15.972286 15.946532 15.908791 15.868502 15.831874 15.819773 15.839629 15.889582 15.974121 16.06125
