ncols        109
nrows        82
xllcorner    -1.041666666667
yllcorner    37.041665395101
cellsize     0.083333333333
NODATA_value -9999
0.0 0 0 0 0 0 0 0 0 0 0 0 0 0 0 0 0 0 0 0 0 0 0 0 0 0 0 0 0 0 0 0 0 0 0 0 0 0 0 0 0 0 0 0 0 0 0 0 0 0 0 0 0 0 0 0 0 0 0 0 0 0 0 0 0 0 0 0 0 0 0 0 0 0 0 0 0 0 0 0 0 0 0 0 0 0 0 0 0 0 0 0 0 0 0 0 0 0 0 0 0 0 0 0 0 0.13091 0.13084 0.13105 0.13114
0 0 0 0 0 0 0 0 0 0 0 0 0 0 0 0 0 0 0 0 0 0 0 0 0 0 0 0 0 0 0 0 0 0 0 0 0 0 0 0 0 0 0 0 0 0 0 0 0 0 0 0 0 0 0 0 0 0 0 0 0 0 0 0 0 0 0 0 0 0 0 0 0 0 0 0 0 0 0 0 0 0 0 0 0 0 0 0 0 0 0 0 0 0 0 0 0 0 0 0 0 0.13053 0.13073 0.13097 0.1312 0.13147 0.13123 0.13131 0.13145
0 0 0 0 0 0 0 0 0 0 0 0 0 0 0 0 0 0 0 0 0 0 0 0 0 0 0 0 0 0 0 0 0 0 0 0 0 0 0 0 0 0 0 0 0 0 0 0 0 0 0 0 0 0 0 0 0 0 0 0 0 0 0 0 0 0 0 0 0 0 0 0 0 0 0 0 0 0 0 0 0 0 0 0 0 0 0 0 0 0 0 0 0 0 0 0 0 0 0.12949 0.13001 0.13045 0.13068 0.13086 0.13091 0.13092 0.13084 0.1308 0.13079 0.13066
0 0 0 0 0 0 0 0 0 0 0 0 0 0 0 0 0 0 0 0 0 0 0 0 0 0 0 0 0 0 0 0 0 0 0 0 0 0 0 0 0 0 0 0 0 0 0 0 0 0 0 0 0 0 0 0 0 0 0 0 0 0 0 0 0 0 0 0 0 0 0 0 0 0 0 0 0 0 0 0 0 0 0 0 0 0 0 0 0 0 0 0 0 0 0 0 0 0.12864 0.12952 0.13006 0.13041 0.13086 0.1311 0.13065 0.13019 0.13031 0.13014 0.12993 0.12976
0 0 0 0 0 0 0 0 0 0 0 0 0 0 0 0 0 0 0 0 0 0 0 0 0 0 0 0 0 0 0 0 0 0 0 0 0 0 0 0 0 0 0 0 0 0 0 0 0 0 0 0 0 0 0 0 0 0 0.11734 0.11657 0.11564 0.11696 0 0 0 0 0 0 0 0 0 0 0 0 0 0 0 0 0 0 0 0 0 0 0 0 0 0 0 0 0 0 0 0 0 0.12748 0.12735 0.12849 0.1295 0.13037 0.13078 0.13136 0.13164 0.13091 0.13018 0.12955 0.12931 0.12912 0.12886
0 0 0 0 0 0 0 0 0 0 0 0 0 0 0 0 0 0 0 0 0 0 0 0 0 0 0 0 0 0 0 0 0 0 0 0 0 0 0 0 0 0 0 0 0 0 0 0 0 0 0 0 0 0 0 0 0.1191 0.11836 0.11838 0.11812 0.1178 0.11909 0.11979 0.12048 0.11413 0.10787 0.10131 0 0 0 0 0.11554 0 0 0 0 0 0 0 0 0 0 0 0 0 0 0 0 0 0 0 0 0 0.1279 0.12789 0.12778 0.12759 0.1282 0.1289 0.12958 0.12963 0.12983 0.12998 0.12958 0.12904 0.1286 0.12831 0.12807 0.12773
0 0 0 0 0 0 0 0 0 0 0 0 0 0 0 0 0 0 0 0 0 0 0 0 0 0 0 0 0 0 0 0 0 0 0 0 0 0 0 0 0 0 0 0 0 0 0 0 0 0 0 0 0 0 0 0.11876 0.11984 0.12039 0.12047 0.12001 0.11908 0.11964 0.12036 0.12041 0.11808 0.1155 0.11264 0.11955 0.1188 0.11842 0.11876 0.11749 0.11619 0.11329 0.10761 0.10407 0.10499 0 0 0 0 0 0 0 0 0 0 0 0 0 0 0 0.1274 0.1269 0.12782 0.12797 0.12796 0.12819 0.12851 0.12865 0.12863 0.12858 0.12852 0.12824 0.12785 0.12733 0.12707 0.12685 0.12656
0 0 0 0 0 0 0 0 0 0 0 0 0 0 0 0 0 0 0 0 0 0 0 0 0 0 0 0 0 0 0 0 0 0 0 0 0 0 0 0 0 0 0 0 0 0 0 0 0 0 0 0.11261 0.1143 0.11532 0.11687 0.11863 0.12022 0.12119 0.12121 0.12096 0.1202 0.12034 0.12036 0.11998 0.12116 0.12266 0.12364 0.12192 0.11971 0.11698 0.11717 0.11705 0.11649 0.10947 0.10229 0.09499 0 0 0 0 0 0 0 0 0 0 0 0 0 0 0 0 0.12616 0.1274 0.12777 0.12816 0.12827 0.12834 0.12821 0.12808 0.12782 0.12727 0.12695 0.12675 0.1265 0.12611 0.12582 0.12555 0.12526
0 0 0 0 0 0 0 0 0 0 0 0 0 0 0 0 0 0 0 0 0 0 0 0 0 0 0 0 0 0 0 0 0 0 0 0 0 0 0 0 0 0 0 0 0 0 0 0 0 0 0.1095 0.11127 0.11226 0.11344 0.11493 0.1166 0.11808 0.11825 0.11801 0.11748 0.11643 0.11802 0.11982 0.12122 0.12491 0.12882 0.13232 0.13074 0.12862 0.12639 0.1254 0.12418 0.12259 0.11729 0.11195 0.10621 0.10735 0.10822 0.10932 0.11271 0.11632 0.11941 0 0 0 0 0 0 0 0.11753 0.12124 0.12363 0.12529 0.12756 0.12779 0.12798 0.12806 0.1278 0.12743 0.12725 0.12675 0.12624 0.12573 0.12535 0.12504 0.12472 0.12457 0.12436 0.12407
0 0 0 0 0 0 0 0 0 0 0 0 0 0 0 0 0 0 0 0 0 0 0 0 0 0 0 0 0 0 0 0 0 0 0 0 0 0 0 0 0 0 0 0 0 0 0 0 0 0.11008 0.10856 0.10808 0.10977 0.11145 0.11188 0.1132 0.11412 0.11449 0.11366 0.11307 0.11212 0.11551 0.11901 0.12211 0.12849 0.13469 0.14069 0.13909 0.13736 0.13556 0.13336 0.13113 0.12858 0.12487 0.12082 0.11703 0.11783 0.11861 0.11901 0.12367 0.12373 0.12522 0 0.12598 0.12553 0.11834 0.10554 0.09783 0.10473 0.11654 0.12258 0.12404 0.12501 0.12748 0.12756 0.1275 0.12743 0.12697 0.12647 0.12604 0.12553 0.12486 0.12412 0.12393 0.12375 0.12348 0.12346 0.12345 0.12334
0 0 0 0 0 0 0 0 0 0 0 0 0 0 0 0 0 0 0 0 0 0 0 0 0 0 0 0 0 0 0 0 0 0 0 0 0 0 0 0 0 0 0 0 0 0 0 0 0 0.10938 0.10633 0.10393 0.10606 0.10786 0.109 0.10921 0.10956 0.10951 0.10911 0.10853 0.10736 0.11256 0.11776 0.12276 0.13175 0.14038 0.14862 0.14744 0.14606 0.14464 0.1411 0.13758 0.13397 0.13202 0.12963 0.12782 0.12817 0.12842 0.12861 0.12889 0.12921 0.12958 0.13076 0.13218 0.13356 0.11458 0.09579 0.07682 0.09365 0.11061 0.12738 0.12722 0.12712 0.12694 0.12686 0.12678 0.12663 0.12613 0.12543 0.12468 0.12399 0.12325 0.12257 0.1225 0.12236 0.12225 0.12241 0.12237 0.12245
0 0 0 0 0 0 0 0 0 0 0 0 0 0 0 0 0 0 0 0 0 0 0 0 0 0 0 0 0 0 0 0 0 0 0 0 0 0 0 0 0 0 0 0 0 0 0 0 0 0.11089 0.10944 0.10656 0.10918 0.11152 0.11315 0.11424 0.11551 0.11637 0.11604 0.11535 0.11464 0.11827 0.12203 0.12561 0.13194 0.13782 0.1435 0.14268 0.14163 0.1405 0.13808 0.1355 0.13288 0.13121 0.12937 0.12788 0.12816 0.12838 0.12861 0.12893 0.12924 0.12926 0.12992 0.13088 0.1319 0.11922 0.10656 0.09379 0.10482 0.11597 0.12693 0.12668 0.12631 0.12599 0.12558 0.12508 0.12469 0.12486 0.12424 0.1233 0.12277 0.12229 0.12175 0.12169 0.12168 0.12165 0.12169 0.12178 0.1219
0 0 0 0 0 0 0 0 0 0 0 0 0 0 0 0 0 0 0 0 0 0 0 0 0 0 0 0 0 0 0 0 0 0 0 0 0 0 0 0 0 0 0 0 0 0 0 0 0 0.11312 0.11251 0.10863 0.1117 0.1144 0.11681 0.1187 0.12069 0.12249 0.12207 0.12155 0.12128 0.12352 0.12565 0.12774 0.13135 0.13468 0.13779 0.13727 0.13689 0.13666 0.13479 0.13287 0.13123 0.13033 0.12929 0.12822 0.12831 0.12861 0.12911 0.12929 0.12947 0.12926 0.12928 0.12951 0.13008 0.12374 0.11737 0.11099 0.11609 0.12123 0.12638 0.12594 0.12569 0.12532 0.1246 0.12397 0.12351 0.12333 0.12262 0.12191 0.12154 0.12116 0.12071 0.12073 0.12074 0.1208 0.12094 0.12115 0.12137
0 0 0 0 0 0 0 0 0 0 0 0 0 0 0 0 0 0 0 0 0 0 0 0 0 0 0 0 0 0 0 0 0 0 0 0 0 0 0 0 0 0 0 0 0 0 0 0 0 0.11403 0.11229 0.11044 0.11408 0.11883 0.1207 0.12364 0.12565 0.12784 0.12784 0.12763 0.12732 0.12816 0.12899 0.12974 0.13055 0.13113 0.13172 0.13166 0.13221 0.13191 0.13111 0.13037 0.12955 0.12926 0.12877 0.12831 0.12822 0.1285 0.12895 0.12945 0.1293 0.12872 0.12819 0.12796 0.12802 0.1281 0.12813 0.12815 0.12729 0.12645 0.1256 0.12524 0.12496 0.12453 0.12399 0.12317 0.12246 0.1218 0.12113 0.12046 0.12028 0.12001 0.11975 0.11984 0.11996 0.12007 0.1203 0.12049 0.12067
0 0 0 0 0 0 0 0 0 0 0 0 0 0 0 0 0 0 0 0 0 0 0 0 0 0 0 0 0 0 0 0 0 0 0 0 0 0 0 0 0 0 0 0 0 0 0 0 0 0.11614 0.11501 0.11488 0.11745 0.12012 0.12379 0.12531 0.12593 0.12682 0.12668 0.12635 0.12616 0.12704 0.12784 0.12838 0.12908 0.1296 0.13016 0.13062 0.13066 0.13043 0.12972 0.12906 0.12835 0.12812 0.12788 0.1275 0.12747 0.12752 0.12766 0.12786 0.12745 0.12706 0.12685 0.12661 0.12634 0.12601 0.12595 0.12583 0.1253 0.12478 0.12417 0.12367 0.12327 0.12299 0.12254 0.12196 0.12126 0.12071 0.12026 0.11976 0.11958 0.11948 0.11938 0.11952 0.11961 0.11973 0.11997 0.12022 0.12037
0 0 0 0 0 0 0 0 0 0 0 0 0 0 0 0 0 0 0 0 0 0 0 0 0 0 0 0 0 0 0 0 0 0 0 0 0 0 0 0 0 0 0 0 0 0 0 0 0 0.11697 0.11976 0.1205 0.12209 0.12432 0.12642 0.12653 0.12595 0.12542 0.12534 0.12514 0.12517 0.12593 0.12662 0.12725 0.12787 0.12835 0.12904 0.12911 0.12914 0.12878 0.12827 0.12781 0.12716 0.12684 0.12657 0.12629 0.12626 0.12613 0.1259 0.12593 0.12557 0.12521 0.12491 0.12457 0.1242 0.12392 0.12379 0.12366 0.12327 0.12282 0.1224 0.12201 0.12177 0.12153 0.12113 0.12059 0.1201 0.11981 0.1195 0.11915 0.11918 0.1191 0.11905 0.1192 0.11928 0.11941 0.11967 0.11999 0.1202
0 0 0 0 0 0 0 0 0 0 0 0 0 0 0 0 0 0 0 0 0 0 0 0 0 0 0 0 0 0 0 0 0 0 0 0 0 0 0 0 0 0 0 0 0 0 0 0 0 0 0.1225 0.12335 0.12463 0.1269 0.12833 0.1271 0.12603 0.12423 0.12399 0.12389 0.12353 0.12458 0.12519 0.12589 0.12635 0.12721 0.12764 0.12755 0.12743 0.12716 0.12681 0.12629 0.12576 0.12548 0.12508 0.12473 0.12453 0.12426 0.124 0.12386 0.12345 0.12296 0.12255 0.12227 0.12196 0.12173 0.12164 0.12138 0.12105 0.12077 0.12047 0.12023 0.11998 0.11974 0.11953 0.11932 0.11905 0.11893 0.11867 0.11841 0.11845 0.11852 0.11857 0.11883 0.11904 0.11931 0.11951 0.1198 0.12007
0 0 0 0 0 0 0 0 0 0 0 0 0 0 0 0 0 0 0 0 0 0 0 0 0 0 0 0 0 0 0 0 0 0 0 0 0 0 0 0 0 0 0 0 0 0 0 0 0 0 0.12411 0.1248 0.12515 0.12591 0.12736 0.12629 0.12547 0.12362 0.12337 0.12332 0.12297 0.12401 0.12478 0.12535 0.12566 0.12628 0.12648 0.12632 0.12611 0.12598 0.12562 0.12521 0.12478 0.12454 0.12421 0.12392 0.12369 0.12341 0.12307 0.1229 0.12261 0.12236 0.1221 0.12175 0.12145 0.12111 0.12086 0.12068 0.12054 0.12035 0.1201 0.11984 0.11958 0.1194 0.11917 0.11894 0.11874 0.11855 0.11841 0.11824 0.11833 0.11843 0.11855 0.11879 0.11901 0.11928 0.11954 0.11979 0.12
0 0 0 0 0 0 0 0 0 0 0 0 0 0 0 0 0 0 0 0 0 0 0 0 0 0 0 0 0 0 0 0 0 0 0 0 0 0 0 0 0 0 0 0 0 0 0 0 0 0 0 0 0.12492 0.12552 0.12686 0.12567 0.12483 0.123 0.12298 0.12275 0.12254 0.12339 0.12411 0.12446 0.12483 0.12524 0.12529 0.12517 0.1249 0.12458 0.12429 0.12397 0.12372 0.12356 0.1232 0.12289 0.12273 0.12254 0.1223 0.1221 0.12175 0.12148 0.12115 0.12092 0.1207 0.12049 0.12028 0.12008 0.11989 0.11971 0.11943 0.11922 0.11899 0.11875 0.11859 0.11845 0.11833 0.11826 0.11829 0.11813 0.11824 0.11833 0.11845 0.11872 0.11895 0.11928 0.11955 0.11982 0.12009
0 0 0 0 0 0 0 0 0 0 0 0 0 0 0 0 0 0 0 0 0 0 0 0 0 0 0 0 0 0 0 0 0 0 0 0 0 0 0 0 0 0 0 0 0 0 0 0 0 0 0.12408 0.12348 0.12427 0.12513 0.12577 0.12493 0.12402 0.12234 0.12234 0.1222 0.12201 0.12272 0.12323 0.12366 0.12374 0.12403 0.12415 0.12381 0.12343 0.12313 0.12299 0.12265 0.12227 0.12216 0.12196 0.12179 0.12177 0.12153 0.12141 0.12146 0.1214 0.12119 0.12076 0.12051 0.12028 0.12006 0.11982 0.11961 0.11934 0.11914 0.1189 0.11872 0.11855 0.11833 0.11821 0.11811 0.11805 0.11812 0.1181 0.11811 0.11821 0.11829 0.11841 0.11865 0.11897 0.11929 0.11963 0.11983 0.12019
0 0 0 0 0 0 0 0 0 0 0 0 0 0 0 0 0 0 0 0 0 0 0 0 0 0 0 0 0 0 0 0 0 0 0 0 0 0 0 0 0 0 0 0 0 0 0 0 0 0 0.12467 0.12416 0.12474 0.12526 0.1252 0.12433 0.1235 0.12205 0.12191 0.12178 0.12163 0.12204 0.12254 0.12315 0.1233 0.12333 0.12348 0.12326 0.12301 0.12282 0.12274 0.12244 0.12215 0.12197 0.12175 0.1216 0.12156 0.12147 0.12138 0.12144 0.12133 0.12118 0.12096 0.12068 0.12043 0.12025 0.12008 0.1199 0.11972 0.11952 0.11929 0.11904 0.11883 0.11864 0.11851 0.11841 0.11834 0.11834 0.11836 0.11833 0.11852 0.11855 0.11867 0.11895 0.1192 0.11948 0.11978 0.12013 0.12043
0 0 0 0 0 0 0 0 0 0 0 0 0 0 0 0 0 0 0 0 0 0 0 0 0 0 0 0 0 0 0 0 0 0 0 0 0 0 0 0 0 0 0 0 0 0 0 0 0 0 0 0.12505 0.12517 0.12501 0.12448 0.12367 0.12282 0.12177 0.12165 0.12153 0.12126 0.12169 0.12214 0.1225 0.12287 0.12301 0.1228 0.12277 0.12273 0.12259 0.12252 0.12234 0.12199 0.12175 0.12159 0.12156 0.12164 0.12159 0.12141 0.12132 0.12129 0.12117 0.12099 0.12068 0.1204 0.12039 0.12031 0.1202 0.11996 0.11978 0.11951 0.11932 0.11924 0.119 0.11882 0.11869 0.11855 0.11855 0.11855 0.11851 0.11873 0.11885 0.11895 0.11917 0.1194 0.11971 0.12012 0.1204 0.12068
0 0 0 0 0 0 0 0 0 0 0 0 0 0 0 0 0 0 0 0 0 0 0 0 0 0 0 0 0 0 0 0 0 0 0 0 0 0 0 0 0 0 0 0 0 0 0 0 0 0 0 0.12618 0.12541 0.1246 0.12392 0.12329 0.12227 0.12136 0.1214 0.12137 0.12118 0.12172 0.12204 0.1222 0.12239 0.12238 0.1221 0.12222 0.12222 0.12223 0.12201 0.12181 0.12153 0.1214 0.12136 0.12139 0.12145 0.12151 0.12151 0.1214 0.12121 0.12081 0.12063 0.12054 0.12055 0.12038 0.12031 0.12021 0.12014 0.12001 0.11983 0.1196 0.11948 0.11936 0.11926 0.1191 0.11886 0.1189 0.11888 0.11885 0.11896 0.11902 0.1191 0.11942 0.11963 0.11991 0.12028 0.12058 0.12087
0 0 0 0 0 0 0 0 0 0 0 0 0 0 0 0 0 0 0 0 0 0 0 0 0 0 0 0 0 0 0 0 0 0 0 0 0 0 0 0 0 0 0 0 0 0 0 0 0 0 0 0.12694 0.12587 0.12484 0.12372 0.12281 0.1219 0.12118 0.12122 0.12111 0.12117 0.12153 0.12181 0.12193 0.12193 0.12205 0.12188 0.12199 0.12217 0.12223 0.12196 0.12176 0.12165 0.12147 0.12144 0.12145 0.12157 0.12156 0.12147 0.12146 0.12128 0.12119 0.12086 0.12077 0.12066 0.12057 0.12042 0.12023 0.12022 0.12007 0.11995 0.11986 0.11968 0.11946 0.11951 0.11944 0.1194 0.11929 0.11919 0.11911 0.11921 0.11927 0.11923 0.11955 0.11985 0.12014 0.12054 0.12101 0.12132
0 0 0 0 0 0 0 0 0 0 0 0 0 0 0 0 0 0 0 0 0 0 0 0 0 0 0 0 0 0 0 0 0 0 0 0 0 0 0 0 0 0 0 0 0 0 0 0 0 0.12419 0.12569 0.12734 0.12631 0.12499 0.12346 0.12258 0.1216 0.12106 0.12097 0.121 0.12101 0.12141 0.12169 0.12182 0.12149 0.12161 0.12156 0.12177 0.12209 0.12199 0.12189 0.12178 0.12165 0.12159 0.12147 0.12153 0.12158 0.12163 0.12159 0.12156 0.12143 0.12129 0.12108 0.12083 0.12062 0.12051 0.12049 0.12027 0.12029 0.12019 0.12014 0.12003 0.11993 0.11974 0.11978 0.11976 0.11964 0.1196 0.11941 0.11931 0.11945 0.11951 0.11955 0.11989 0.12014 0.12042 0.12085 0.1212 0.12164
0 0 0 0 0 0 0 0 0 0 0 0 0 0 0 0 0 0 0 0 0 0 0 0 0 0 0 0 0 0 0 0 0 0 0 0 0 0 0 0 0 0 0 0 0 0 0 0 0.1196 0.12256 0.12511 0.12744 0.12632 0.12485 0.12313 0.12238 0.12127 0.12078 0.12073 0.12071 0.12088 0.12127 0.12152 0.12172 0.12147 0.12138 0.12127 0.12137 0.1216 0.12178 0.12181 0.12174 0.1217 0.12184 0.12156 0.12152 0.12158 0.12173 0.12167 0.12168 0.12153 0.12142 0.12125 0.12089 0.12067 0.12061 0.12061 0.12048 0.12037 0.12036 0.12019 0.12016 0.12009 0.11989 0.11989 0.11994 0.11992 0.11978 0.11967 0.11957 0.11973 0.11982 0.11995 0.12027 0.12048 0.12067 0.12108 0.12152 0.12194
0 0 0 0 0 0 0 0 0 0 0 0 0 0 0 0 0 0 0 0 0 0 0 0 0 0 0 0 0 0 0 0 0 0 0 0 0 0 0 0 0 0 0 0 0 0.12856 0.12648 0.12507 0.12286 0.12454 0.12569 0.12702 0.12606 0.1247 0.12328 0.12251 0.12141 0.1209 0.12084 0.12076 0.12099 0.12124 0.12147 0.12148 0.12123 0.12128 0.12123 0.12121 0.12139 0.1217 0.12189 0.122 0.12197 0.1222 0.12212 0.12199 0.12185 0.12187 0.12179 0.1218 0.12174 0.12149 0.12129 0.12097 0.12065 0.12062 0.12058 0.12051 0.12041 0.12038 0.12041 0.12037 0.12027 0.12018 0.12015 0.12022 0.12022 0.12011 0.11999 0.11987 0.12023 0.12042 0.12046 0.12074 0.12091 0.1211 0.12154 0.12202 0.12236
0 0 0 0 0 0 0 0 0 0 0 0 0 0 0 0 0 0 0 0 0 0 0 0 0 0 0 0 0 0 0 0 0 0 0 0 0 0 0 0 0 0 0.12817 0.12887 0.1298 0.12935 0.12858 0.12822 0.12614 0.12634 0.12703 0.12666 0.12552 0.12453 0.12322 0.12266 0.12171 0.12098 0.12102 0.12087 0.12094 0.12121 0.12139 0.12146 0.12108 0.12119 0.12118 0.12126 0.12139 0.12155 0.12172 0.12208 0.12231 0.12246 0.12252 0.12243 0.12225 0.1222 0.12212 0.12207 0.1218 0.12148 0.12132 0.12107 0.1208 0.12072 0.12072 0.12047 0.12042 0.12044 0.12037 0.12038 0.1202 0.12027 0.12025 0.1203 0.12043 0.12054 0.12046 0.12047 0.12079 0.121 0.12102 0.12122 0.12142 0.12163 0.12208 0.12255 0.12294
0 0 0 0 0 0 0 0 0 0 0 0 0 0 0 0 0 0 0 0 0 0 0 0 0 0 0 0 0 0 0 0 0 0 0 0 0 0 0 0 0.13051 0.12845 0.12869 0.12912 0.13074 0.13132 0.13038 0.12966 0.12945 0.12831 0.12733 0.12587 0.12512 0.12441 0.12338 0.12274 0.12213 0.12114 0.1215 0.12144 0.12106 0.12103 0.12125 0.12105 0.1211 0.12147 0.12138 0.12146 0.12164 0.12177 0.12191 0.12221 0.12267 0.12286 0.12284 0.12264 0.12255 0.12251 0.12246 0.12241 0.12212 0.12181 0.12159 0.12132 0.12095 0.1208 0.12071 0.12044 0.12047 0.12049 0.12036 0.12032 0.12028 0.12035 0.12045 0.12053 0.12063 0.12083 0.12086 0.12095 0.12141 0.12152 0.12155 0.12179 0.12202 0.12213 0.12264 0.12307 0.12339
0 0 0 0 0 0 0 0 0 0 0 0 0 0 0 0 0 0 0 0 0 0 0 0 0 0 0 0 0 0 0 0 0 0 0 0 0 0 0 0.13248 0.13181 0.12932 0.12939 0.12918 0.12974 0.13008 0.1297 0.12902 0.1281 0.12722 0.12662 0.12571 0.12522 0.12446 0.12386 0.1233 0.1226 0.12183 0.12215 0.12199 0.12165 0.12161 0.12151 0.12124 0.12117 0.12132 0.12162 0.12167 0.12173 0.12195 0.12222 0.12251 0.12284 0.12299 0.12293 0.12279 0.12275 0.12271 0.12269 0.12252 0.1223 0.12199 0.12178 0.12144 0.12114 0.12095 0.12084 0.12065 0.12067 0.12061 0.12049 0.12043 0.12051 0.12067 0.12086 0.12097 0.12099 0.12121 0.12137 0.12149 0.12177 0.12192 0.12223 0.1225 0.12269 0.12284 0.12328 0.12356 0.12386
0 0 0 0 0 0 0 0 0 0 0 0 0 0 0 0 0 0 0 0 0 0 0 0 0 0 0 0 0 0 0 0 0 0 0 0 0 0 0.1329 0.13469 0.13357 0.13028 0.12996 0.12965 0.1295 0.1296 0.12873 0.128 0.12724 0.12673 0.126 0.12535 0.125 0.12448 0.12383 0.12326 0.12293 0.12249 0.12257 0.12239 0.12225 0.122 0.12164 0.12168 0.12185 0.12188 0.12181 0.12177 0.12187 0.12203 0.12242 0.12276 0.12296 0.12303 0.12305 0.12287 0.12293 0.1227 0.12265 0.12252 0.12237 0.12208 0.12192 0.12159 0.12134 0.12115 0.12107 0.12084 0.12102 0.12091 0.12081 0.12078 0.12085 0.1209 0.12116 0.12138 0.12141 0.12156 0.12171 0.12185 0.12199 0.12221 0.12252 0.12289 0.12318 0.12342 0.12378 0.12395 0.1241
0 0 0 0 0 0 0 0 0 0 0 0 0 0 0 0 0 0 0 0 0 0 0 0 0 0 0 0 0 0 0 0 0 0 0.13204 0.12353 0.11646 0.12405 0.13197 0.13944 0.13669 0.13374 0.13175 0.13079 0.12944 0.12847 0.12765 0.1268 0.12567 0.12544 0.12517 0.12486 0.12478 0.12457 0.12379 0.12353 0.12317 0.12289 0.12291 0.12268 0.12229 0.12182 0.12188 0.12193 0.12217 0.12224 0.12222 0.12217 0.12218 0.12223 0.12249 0.12255 0.12257 0.12261 0.12256 0.12255 0.12279 0.12283 0.12268 0.12248 0.12233 0.12225 0.12199 0.12181 0.12158 0.12147 0.12134 0.12118 0.12116 0.12132 0.12117 0.12115 0.12131 0.12126 0.12147 0.12161 0.1218 0.12183 0.12198 0.12204 0.12234 0.12265 0.1228 0.12324 0.12367 0.12386 0.12416 0.12429 0.12441
0 0 0 0 0 0 0 0 0 0 0 0 0 0 0 0 0 0 0 0 0 0 0 0 0 0 0 0 0 0.1519 0.15073 0.14918 0.14552 0.14256 0.13788 0.13204 0.12523 0.12981 0.13442 0.13909 0.13713 0.13414 0.13187 0.13036 0.12939 0.12783 0.12751 0.12685 0.12567 0.12557 0.1252 0.12518 0.12478 0.12442 0.12403 0.12365 0.12336 0.12321 0.12291 0.12262 0.12264 0.12261 0.12249 0.12243 0.12245 0.12259 0.12267 0.12266 0.12255 0.12264 0.12254 0.12247 0.12237 0.12249 0.12243 0.12249 0.12257 0.12262 0.12264 0.12265 0.12242 0.12219 0.12213 0.12191 0.12177 0.1219 0.12184 0.12165 0.12159 0.12173 0.12169 0.12179 0.12188 0.12176 0.12196 0.12212 0.12222 0.12213 0.12228 0.12243 0.1227 0.12304 0.12323 0.12373 0.12416 0.12437 0.12467 0.12483 0.12485
0 0 0 0 0 0 0 0 0 0 0 0 0 0 0 0 0 0 0 0 0 0 0 0 0 0.15285 0.15509 0.15485 0.15524 0.15502 0.15454 0.15163 0.14818 0.14646 0.14427 0.14122 0.13477 0.1351 0.13621 0.13789 0.13668 0.13439 0.13179 0.12961 0.12877 0.12724 0.12706 0.12636 0.12612 0.12591 0.1255 0.12525 0.12497 0.12486 0.12451 0.12428 0.12369 0.12339 0.12334 0.12317 0.12321 0.12304 0.12286 0.12277 0.12269 0.12274 0.1228 0.12289 0.12278 0.12277 0.12268 0.12255 0.12241 0.12252 0.12237 0.12243 0.12243 0.12249 0.12262 0.12258 0.12245 0.12218 0.12214 0.12215 0.12197 0.12203 0.12215 0.12203 0.12208 0.1222 0.12213 0.12225 0.12218 0.12215 0.12248 0.12261 0.12275 0.12276 0.1228 0.12289 0.12315 0.12352 0.12368 0.12418 0.12462 0.12482 0.12511 0.12522 0.12527
0 0 0 0 0 0 0 0 0 0 0 0 0 0 0 0 0 0 0 0 0 0 0 0.14856 0.1512 0.15391 0.15661 0.15675 0.159 0.1581 0.15918 0.15435 0.15045 0.14865 0.14775 0.14611 0.14389 0.14079 0.13785 0.13652 0.13523 0.13359 0.13059 0.12796 0.12752 0.12668 0.12649 0.12624 0.12608 0.12615 0.1256 0.12538 0.12521 0.1251 0.12489 0.12438 0.12413 0.1237 0.12387 0.12374 0.12354 0.12342 0.12332 0.12313 0.12298 0.12292 0.12298 0.12296 0.12286 0.12297 0.12283 0.12258 0.12244 0.12248 0.12224 0.12225 0.12236 0.12248 0.1226 0.12257 0.12258 0.12218 0.12211 0.12209 0.12214 0.12222 0.12226 0.12223 0.1224 0.12254 0.1225 0.12257 0.12253 0.12249 0.12289 0.12308 0.12312 0.12341 0.12327 0.12325 0.12367 0.12395 0.12422 0.12461 0.12502 0.12522 0.12552 0.12557 0.12571
0 0 0 0 0 0 0 0 0 0 0 0 0 0 0 0 0 0 0 0 0 0 0.14589 0.14742 0.14893 0.15173 0.15696 0.15881 0.1578 0.15785 0.15796 0.15373 0.1497 0.14549 0.14417 0.14336 0.14078 0.13895 0.13646 0.13461 0.13341 0.13222 0.13062 0.12872 0.12732 0.12663 0.1263 0.1262 0.12593 0.12592 0.12568 0.1255 0.1253 0.12534 0.12507 0.12456 0.12423 0.12427 0.12419 0.12402 0.12386 0.12388 0.12371 0.12368 0.12359 0.12348 0.12338 0.12336 0.12323 0.12303 0.12279 0.12261 0.12239 0.12232 0.12228 0.12226 0.12237 0.1225 0.12238 0.12241 0.12228 0.1222 0.12231 0.12217 0.12215 0.12236 0.12243 0.12251 0.12268 0.12287 0.12287 0.12294 0.12295 0.12298 0.12336 0.12362 0.1235 0.12368 0.12367 0.12372 0.12417 0.12442 0.12464 0.12512 0.12544 0.12568 0.12591 0.12597 0.12606
0 0 0 0 0 0 0 0 0 0 0 0 0 0 0 0 0 0 0 0 0 0.14459 0.14522 0.14594 0.14624 0.14876 0.15338 0.15939 0.15765 0.15585 0.15567 0.1509 0.14562 0.14036 0.13944 0.13974 0.13727 0.13505 0.13389 0.13236 0.13155 0.13068 0.1292 0.12765 0.12666 0.12632 0.12612 0.12584 0.12565 0.1257 0.12546 0.12542 0.12538 0.12558 0.12527 0.12495 0.12461 0.12462 0.1246 0.12447 0.12441 0.12437 0.12423 0.12421 0.12411 0.12395 0.12363 0.12336 0.12312 0.12312 0.12312 0.12279 0.12249 0.12229 0.12231 0.12234 0.12253 0.12261 0.12254 0.12251 0.12246 0.12252 0.12245 0.12241 0.12232 0.12244 0.12252 0.12254 0.1228 0.12301 0.12309 0.12318 0.12326 0.12331 0.1236 0.12375 0.12355 0.12386 0.12392 0.12403 0.12455 0.12479 0.12505 0.12535 0.12567 0.12598 0.12611 0.12624 0.12621
0 0 0 0 0 0 0 0 0 0 0 0 0 0 0 0 0 0 0 0 0 0 0 0.14568 0.14386 0.14822 0.15319 0.16187 0.15807 0.15521 0.15434 0.14754 0.14177 0.13775 0.13664 0.13706 0.13529 0.13359 0.13205 0.13054 0.13001 0.12893 0.1278 0.12675 0.1265 0.12642 0.12603 0.12584 0.12546 0.12568 0.12544 0.12536 0.12535 0.12552 0.12547 0.12509 0.12489 0.12498 0.12507 0.12483 0.12479 0.12466 0.12453 0.12437 0.12422 0.12382 0.12358 0.12347 0.12337 0.12335 0.12332 0.12305 0.12272 0.12242 0.12243 0.12246 0.12254 0.12265 0.12266 0.12262 0.12265 0.12265 0.12262 0.12248 0.12243 0.12249 0.12262 0.12267 0.12288 0.12311 0.12317 0.12318 0.12323 0.12324 0.12349 0.12374 0.12357 0.12394 0.12417 0.12445 0.12483 0.12511 0.12521 0.12557 0.12597 0.12627 0.12638 0.12641 0.12636
0 0 0 0 0 0 0 0 0 0 0 0 0 0 0 0 0 0 0 0 0 0.14214 0.14391 0.146 0.14476 0.14855 0.15324 0.16324 0.15808 0.15422 0.15181 0.14611 0.14028 0.13661 0.13636 0.13584 0.1338 0.13213 0.13091 0.12984 0.12907 0.12804 0.12719 0.12667 0.12615 0.12601 0.126 0.12576 0.12567 0.1255 0.12534 0.12531 0.12526 0.12511 0.12514 0.12502 0.12501 0.12514 0.12523 0.12533 0.12519 0.12493 0.12488 0.12485 0.12464 0.12437 0.12409 0.12395 0.12383 0.12361 0.12351 0.12347 0.12323 0.12307 0.12294 0.12284 0.12295 0.12304 0.12303 0.12308 0.12306 0.12298 0.12298 0.12284 0.12289 0.12301 0.12307 0.12308 0.12327 0.12342 0.12335 0.12338 0.12335 0.12337 0.12349 0.12368 0.12366 0.12405 0.12442 0.12462 0.12494 0.12518 0.12526 0.12559 0.12602 0.12632 0.12648 0.1266 0.12674
0 0 0 0 0 0 0 0 0 0 0 0 0 0 0 0 0 0 0 0.13718 0.13838 0.13883 0.14247 0.14743 0.14652 0.14908 0.15481 0.16377 0.15809 0.15302 0.15012 0.14444 0.13851 0.13479 0.13465 0.13407 0.13235 0.13073 0.12975 0.12881 0.1281 0.12738 0.12699 0.12655 0.1259 0.12566 0.12562 0.1255 0.12539 0.12524 0.12518 0.12508 0.12493 0.12485 0.12486 0.12479 0.12483 0.1251 0.12527 0.12546 0.12521 0.12513 0.12517 0.12525 0.12509 0.12482 0.12459 0.12442 0.12424 0.12407 0.12394 0.12381 0.12365 0.12364 0.12362 0.12328 0.12336 0.1234 0.1235 0.12347 0.1233 0.12322 0.12325 0.12318 0.12323 0.12339 0.12351 0.12349 0.12369 0.12369 0.12364 0.12382 0.1239 0.12371 0.12385 0.12379 0.12364 0.12413 0.12444 0.12468 0.12497 0.12516 0.12518 0.12563 0.12605 0.12625 0.12654 0.12681 0.12697
0 0 0 0 0 0 0 0 0 0 0 0 0 0 0 0 0 0 0.13153 0.13574 0.13795 0.13577 0.1405 0.14323 0.14723 0.15097 0.15638 0.16479 0.15791 0.15278 0.1486 0.14245 0.13698 0.13359 0.13283 0.13159 0.13096 0.12949 0.12813 0.1277 0.12723 0.12709 0.12674 0.12614 0.12547 0.12528 0.12535 0.12542 0.12531 0.12525 0.12521 0.12507 0.12489 0.12466 0.12462 0.12459 0.12476 0.12509 0.12517 0.12513 0.12506 0.1251 0.12509 0.12525 0.12525 0.12511 0.12479 0.12469 0.12454 0.1244 0.12434 0.12432 0.12412 0.12416 0.12408 0.12388 0.1239 0.12385 0.12382 0.12387 0.12375 0.12356 0.12356 0.12357 0.1236 0.12373 0.12383 0.1239 0.124 0.12402 0.12379 0.12414 0.12424 0.12406 0.12421 0.12426 0.12411 0.12454 0.12473 0.12495 0.12511 0.12511 0.12516 0.12561 0.12604 0.12616 0.12659 0.12695 0.12726
0 0 0 0 0 0 0 0 0 0 0 0 0 0 0 0 0 0.12455 0.12758 0.13262 0.13841 0.13613 0.14095 0.14562 0.15174 0.15406 0.15735 0.16014 0.15463 0.14979 0.14636 0.14144 0.13564 0.13249 0.13129 0.13064 0.13011 0.12908 0.12817 0.1275 0.1272 0.12689 0.12656 0.12606 0.12547 0.12528 0.12533 0.12543 0.12531 0.12524 0.12528 0.1253 0.12525 0.12494 0.12451 0.12445 0.12436 0.12462 0.12494 0.12511 0.12527 0.12514 0.12514 0.12516 0.12517 0.12513 0.12497 0.12479 0.12485 0.12489 0.12489 0.12485 0.12481 0.12472 0.12461 0.12442 0.12437 0.12428 0.12426 0.12434 0.12415 0.1239 0.12388 0.12384 0.1239 0.12401 0.12417 0.12431 0.12442 0.12446 0.12406 0.12443 0.1245 0.12434 0.12464 0.12463 0.12434 0.12472 0.12488 0.12519 0.12526 0.12538 0.12535 0.12577 0.12617 0.12635 0.12672 0.12687 0.12725
0 0 0 0 0 0 0 0 0 0 0 0 0 0 0 0 0.11752 0.11784 0.11871 0.12483 0.13136 0.13034 0.14001 0.14533 0.1509 0.15186 0.15537 0.15605 0.15133 0.14773 0.14428 0.14051 0.13548 0.13198 0.13132 0.13038 0.12957 0.12873 0.12822 0.12744 0.127 0.1268 0.12638 0.12585 0.12534 0.12526 0.12544 0.12568 0.12548 0.12537 0.12517 0.12519 0.12502 0.12494 0.12465 0.1246 0.12446 0.12471 0.12498 0.12514 0.12531 0.12522 0.12516 0.12512 0.12516 0.12522 0.12515 0.12507 0.12517 0.12514 0.12515 0.12508 0.12501 0.12499 0.12487 0.12477 0.12475 0.12468 0.1246 0.12445 0.12429 0.12407 0.12404 0.12414 0.12436 0.12447 0.12458 0.12463 0.12478 0.12477 0.12462 0.12477 0.12477 0.12469 0.12492 0.12496 0.12452 0.12492 0.12514 0.1252 0.12524 0.12539 0.1254 0.12588 0.12617 0.12638 0.12678 0.12686 0.12704
0 0 0 0 0 0 0 0 0 0 0 0 0 0 0 0.11775 0.11575 0.11171 0.10804 0.11459 0.12083 0.12642 0.13952 0.14598 0.15233 0.15181 0.153 0.15358 0.14796 0.1457 0.14295 0.1397 0.13558 0.13142 0.13175 0.13066 0.12962 0.12899 0.12823 0.12745 0.12704 0.12673 0.12636 0.12596 0.1254 0.12528 0.12549 0.12544 0.12531 0.1252 0.12499 0.12495 0.12468 0.12445 0.12433 0.12449 0.12471 0.12479 0.12469 0.12479 0.1255 0.12481 0.12483 0.12542 0.12549 0.12564 0.12578 0.12559 0.1255 0.12541 0.12529 0.12527 0.12532 0.12522 0.12512 0.12492 0.12497 0.1249 0.12457 0.12445 0.12432 0.12418 0.12433 0.12437 0.12447 0.12461 0.12471 0.12476 0.12499 0.12497 0.1249 0.12498 0.12519 0.12503 0.12515 0.12507 0.12477 0.12499 0.12526 0.12512 0.12537 0.12548 0.12558 0.12602 0.12626 0.12644 0.12669 0.12682 0.12675
0 0 0 0 0 0 0 0 0 0 0 0 0 0 0.11521 0.11637 0.11638 0.11577 0.11189 0.11773 0.12338 0.12991 0.14 0.14471 0.14852 0.1492 0.15009 0.15029 0.14575 0.14279 0.14072 0.13793 0.13408 0.13097 0.13066 0.12961 0.12894 0.12846 0.12777 0.12715 0.12668 0.12631 0.12591 0.12545 0.12511 0.1251 0.12536 0.12552 0.12539 0.12549 0.12565 0.12575 0.12535 0.12487 0.12456 0.12366 0.12299 0.12222 0.12371 0.12383 0.12421 0.12374 0.12326 0.12054 0.12235 0.12443 0.12663 0.12635 0.12601 0.12567 0.12551 0.1254 0.12542 0.1253 0.1252 0.12508 0.12498 0.12473 0.12457 0.12448 0.12446 0.12429 0.12455 0.12481 0.12489 0.12495 0.12514 0.12515 0.12548 0.12545 0.12516 0.12554 0.12554 0.12549 0.12542 0.12536 0.12505 0.12529 0.1254 0.12547 0.12564 0.12571 0.12585 0.12625 0.12655 0.12686 0.12703 0.12708 0.1273
0 0 0 0 0 0 0 0 0 0 0 0 0 0.1143 0.11427 0.11246 0.11633 0.12084 0.1172 0.12353 0.13018 0.1364 0.14127 0.1435 0.14457 0.14658 0.14665 0.14741 0.14349 0.14039 0.13922 0.13653 0.13278 0.13019 0.12969 0.12883 0.12848 0.12792 0.12723 0.12662 0.12626 0.12593 0.1254 0.12505 0.12472 0.12457 0.12497 0.12529 0.12546 0.12571 0.12599 0.12632 0.1258 0.1253 0.12475 0.12284 0.12108 0.11936 0 0 0 0.12374 0.12077 0.11555 0.1194 0.12337 0.12725 0.127 0.12645 0.12599 0.12576 0.12561 0.12544 0.12537 0.12528 0.12502 0.12479 0.12468 0.12458 0.12449 0.12459 0.12448 0.12471 0.12502 0.12505 0.12525 0.12533 0.12532 0.12568 0.12569 0.12568 0.12599 0.12581 0.12571 0.12575 0.12568 0.12542 0.12553 0.12567 0.12581 0.12596 0.12604 0.12612 0.12645 0.12682 0.12695 0.12735 0.12756 0.12763
0 0 0 0 0 0 0 0 0 0 0 0 0 0.11765 0.11098 0.10583 0.11073 0.11721 0.12367 0.1302 0.1367 0.14474 0.14305 0.14263 0.14177 0.14406 0.14342 0.14444 0.14098 0.1377 0.13827 0.13554 0.13205 0.12927 0.12876 0.12861 0.12802 0.12746 0.12685 0.12652 0.12632 0.12589 0.12512 0.12421 0.12398 0.12438 0.1244 0.12504 0.1251 0.12468 0.12513 0.12659 0.12454 0.12328 0.12457 0.12162 0.11892 0.11616 0 0 0 0 0 0.11766 0.11627 0.12196 0.12762 0.12722 0.12689 0.12633 0.12615 0.12591 0.12548 0.12534 0.1251 0.12483 0.12471 0.12475 0.12461 0.1245 0.12456 0.12454 0.12476 0.12504 0.12506 0.12527 0.12538 0.12544 0.12595 0.12593 0.12614 0.12617 0.12592 0.12567 0.12591 0.12591 0.12563 0.1258 0.12593 0.12611 0.12625 0.12619 0.12619 0.12657 0.12688 0.12707 0.12774 0.12807 0.12823
0 0 0 0 0 0 0 0 0 0 0 0 0.1215 0.12156 0.11988 0.11789 0.1209 0.1253 0.12937 0.13357 0.13719 0.14111 0.14058 0.14067 0.14025 0.14138 0.14054 0.14144 0.13851 0.13601 0.136 0.13347 0.13065 0.12869 0.12821 0.12797 0.12785 0.12726 0.12648 0.12654 0.12425 0.12217 0.11953 0.12274 0.12305 0.12369 0.12406 0 0 0.12497 0 0.12339 0.12142 0.11967 0.11253 0.11469 0.11702 0.11949 0.11884 0.12074 0.1219 0 0 0 0.11943 0.12342 0.12745 0.12696 0.12666 0.12609 0.12578 0.12545 0.12526 0.1251 0.12488 0.12468 0.12469 0.1248 0.12466 0.12462 0.12474 0.12474 0.12496 0.1251 0.1252 0.12564 0.12576 0.12591 0.12625 0.12637 0.12648 0.1263 0.12604 0.12589 0.12621 0.12612 0.12566 0.12601 0.12626 0.12625 0.12632 0.12633 0.12636 0.12654 0.12684 0.12687 0.12743 0.12786 0.12813
0 0 0 0 0 0 0 0 0 0 0 0.1202 0.1196 0.1231 0.13004 0.12963 0.13103 0.13324 0.13486 0.13636 0.13723 0.13806 0.13764 0.13786 0.13815 0.1383 0.13801 0.13863 0.13646 0.13452 0.13354 0.1318 0.12985 0.12843 0.12815 0.12787 0.12758 0.12679 0.1262 0.12594 0.122 0.11813 0.11401 0.11751 0.12014 0 0 0 0 0 0.12089 0.1184 0.11429 0.10821 0.10033 0.10772 0.11518 0.12259 0.12103 0.12123 0.12186 0.12261 0.12257 0.12017 0.12279 0.12502 0.12732 0.1269 0.12625 0.1256 0.12538 0.12517 0.12505 0.12486 0.12461 0.12462 0.12465 0.12479 0.12466 0.12486 0.12492 0.12494 0.12514 0.12534 0.12543 0.12578 0.12605 0.12609 0.12663 0.12667 0.12666 0.12655 0.12645 0.12632 0.12648 0.12625 0.12606 0.12625 0.12641 0.1264 0.12647 0.12646 0.12639 0.12652 0.12666 0.12673 0.12714 0.12757 0.12784
0 0 0 0 0 0 0 0 0 0 0.12325 0.11812 0.11371 0.12212 0.131 0.13971 0.1408 0.14049 0.14006 0.13878 0.1368 0.13527 0.13594 0.13506 0.13562 0.13511 0.13547 0.13561 0.13408 0.13253 0.13181 0.13016 0.12906 0.12819 0.12799 0.12767 0.12727 0.12647 0.12568 0.12547 0.12302 0.11462 0.10847 0 0 0 0 0 0 0 0 0 0 0 0.08849 0.10076 0.11337 0.12577 0.12504 0.12433 0.12375 0.12398 0.12433 0.12487 0.12559 0.12633 0.12706 0.12662 0.12585 0.12524 0.12515 0.12502 0.12485 0.12445 0.12437 0.12445 0.12457 0.12467 0.12464 0.12476 0.12488 0.12494 0.12525 0.1255 0.12556 0.12588 0.12612 0.12635 0.12676 0.12678 0.12671 0.12681 0.12665 0.12653 0.12658 0.12638 0.12621 0.12645 0.12657 0.12659 0.12657 0.12644 0.12635 0.12646 0.12654 0.12653 0.127 0.12728 0.12762
0 0 0 0 0 0 0 0 0 0 0.12834 0.12487 0.12343 0.1277 0.13248 0.13713 0.13762 0.13709 0.13647 0.13495 0.13323 0.13239 0.13197 0.13216 0.13146 0.13121 0.1315 0.1315 0.13041 0.12963 0.12897 0.12845 0.12825 0.12789 0.12763 0.12745 0.12708 0.12631 0.12538 0.12494 0.12235 0 0 0 0 0 0 0 0 0 0 0 0 0 0.10117 0.109 0.11701 0.1251 0.12465 0.12396 0.12345 0.12365 0.12396 0.12442 0.12517 0.12588 0.12656 0.1262 0.12567 0.1252 0.12492 0.1246 0.12456 0.12453 0.12448 0.12455 0.12467 0.12477 0.12494 0.12514 0.12514 0.12518 0.12549 0.12577 0.12593 0.12608 0.12622 0.1263 0.12646 0.12654 0.12663 0.12671 0.12675 0.12662 0.12661 0.12652 0.12645 0.12669 0.12673 0.12674 0.12676 0.12669 0.12662 0.12658 0.1265 0.12652 0.12682 0.12708 0.12729
0 0 0 0 0 0 0 0 0 0.13319 0.1348 0.13745 0.13427 0.13454 0.13471 0.13563 0.13461 0.13362 0.13296 0.1316 0.13016 0.12866 0.12843 0.12797 0.12779 0.12766 0.12771 0.12765 0.12744 0.12744 0.12719 0.12731 0.12752 0.12737 0.12721 0.12704 0.12685 0.12603 0.12507 0.1243 0.12383 0 0 0 0 0 0 0 0 0 0 0 0 0.11729 0.11382 0.11722 0.12078 0.12441 0.12402 0.12365 0.12332 0.12338 0.12361 0.12404 0.12497 0.12557 0.12594 0.12571 0.12548 0.12499 0.12452 0.12457 0.12447 0.12455 0.12457 0.12456 0.12466 0.12485 0.12504 0.12521 0.1253 0.1254 0.12577 0.12607 0.12612 0.12614 0.12626 0.12635 0.12649 0.12652 0.12634 0.12651 0.12657 0.12663 0.12664 0.12651 0.12651 0.12675 0.12687 0.12686 0.12687 0.1268 0.12676 0.1266 0.12646 0.1263 0.12651 0.12672 0.12681
0 0 0 0 0 0 0 0 0.13273 0.13512 0.13845 0.14196 0.1449 0.14128 0.13758 0.13408 0.13319 0.13205 0.13101 0.13036 0.12948 0.12836 0.12823 0.12796 0.12785 0.12768 0.1277 0.12749 0.12732 0.12727 0.12699 0.12713 0.12724 0.12725 0.12706 0.12697 0.1267 0.12572 0.1248 0.12384 0.12394 0.12363 0 0.12139 0.12074 0 0 0 0 0 0 0 0.12096 0.12396 0.12655 0.1256 0.1246 0.1235 0.12347 0.12333 0.12319 0.12347 0.12375 0.12416 0.12479 0.12532 0.12551 0.12528 0.12508 0.12472 0.12445 0.12437 0.12413 0.12428 0.12434 0.12433 0.12444 0.12461 0.1248 0.12515 0.12541 0.12562 0.12588 0.12586 0.12598 0.12604 0.12615 0.12621 0.12632 0.12626 0.12606 0.12625 0.12637 0.12629 0.12638 0.12639 0.12635 0.1265 0.12659 0.12675 0.12662 0.12658 0.12644 0.1263 0.12615 0.1258 0.126 0.12601 0.12598
0 0 0 0 0 0 0 0 0.13339 0.135 0.13696 0.13864 0.14316 0.13931 0.13592 0.133 0.13207 0.13076 0.13005 0.12956 0.12892 0.12808 0.12787 0.1277 0.12762 0.12748 0.12724 0.12695 0.12691 0.1271 0.12699 0.12706 0.12721 0.12716 0.12707 0.12687 0.12662 0.12597 0.12537 0.12477 0.12476 0.12475 0.12374 0.12319 0.12256 0 0 0 0 0 0 0.12038 0.12163 0.12299 0.12588 0.12514 0.12445 0.12369 0.12358 0.12349 0.12338 0.12367 0.12382 0.12413 0.12461 0.12487 0.12508 0.1249 0.12463 0.1244 0.12429 0.1243 0.1242 0.12427 0.12427 0.12436 0.12441 0.12461 0.12479 0.12504 0.12525 0.12542 0.12548 0.12564 0.1257 0.12588 0.12608 0.12606 0.12622 0.1262 0.12616 0.1263 0.12618 0.12634 0.12621 0.12624 0.12626 0.12651 0.12662 0.12656 0.12643 0.12634 0.12631 0.1261 0.12592 0.12568 0.12579 0.12576 0.12568
0 0 0 0 0 0 0 0 0 0.13229 0.13506 0.13613 0.1408 0.13787 0.13474 0.13178 0.13055 0.12971 0.12935 0.12886 0.1285 0.12791 0.12778 0.12751 0.12738 0.12716 0.12697 0.12676 0.12684 0.12695 0.127 0.12703 0.12715 0.1272 0.12702 0.12691 0.12674 0.12634 0.12596 0.12562 0.12604 0.12581 0.12545 0.12502 0.12454 0.12398 0.12097 0.11476 0 0 0.12049 0.12305 0.12265 0.12307 0.12513 0.1248 0.12425 0.12386 0.12368 0.12345 0.12338 0.12371 0.12389 0.12409 0.12434 0.12451 0.12457 0.12436 0.12419 0.12419 0.12428 0.12427 0.12422 0.12428 0.12424 0.12425 0.12437 0.12456 0.12472 0.12484 0.12504 0.12516 0.12539 0.12546 0.12556 0.1258 0.12586 0.12589 0.126 0.12592 0.12597 0.12597 0.12604 0.12607 0.12603 0.12605 0.12609 0.12632 0.12635 0.12637 0.12629 0.12619 0.12612 0.12596 0.12574 0.12544 0.12546 0.12553 0.12541
0 0 0 0 0 0 0 0 0 0.12928 0.13215 0.13605 0.13919 0.13585 0.13276 0.1298 0.12921 0.12878 0.1283 0.12823 0.12804 0.12769 0.12739 0.12721 0.12702 0.12689 0.1268 0.12674 0.12686 0.12694 0.12692 0.12708 0.12716 0.1272 0.12706 0.127 0.12691 0.12673 0.1265 0.12645 0.12654 0.12667 0.12675 0.12695 0.12712 0.12731 0.11877 0.11034 0.10167 0.10978 0.11777 0.12559 0.12526 0.12487 0.12448 0.12437 0.12412 0.12396 0.12392 0.12367 0.12356 0.12373 0.12383 0.12401 0.12407 0.12406 0.12398 0.12376 0.12366 0.12391 0.12404 0.1241 0.12409 0.12428 0.12433 0.1244 0.12449 0.12462 0.12478 0.12491 0.125 0.12492 0.12519 0.12542 0.12552 0.12566 0.12573 0.1257 0.12564 0.12558 0.12551 0.12569 0.12579 0.12587 0.12593 0.12603 0.12609 0.12626 0.12614 0.12615 0.12616 0.12596 0.12579 0.12563 0.12554 0.12525 0.12521 0.12518 0.12503
0 0 0 0 0 0 0 0 0 0.12414 0.12536 0.12689 0.11984 0.12348 0.12673 0.12971 0.12891 0.12825 0.12787 0.12779 0.1277 0.12752 0.1274 0.12725 0.12728 0.12713 0.12708 0.12709 0.12749 0.12767 0.12781 0.12823 0.12851 0.12876 0.12819 0.12757 0.12706 0.12689 0.12657 0.12639 0.12642 0.12637 0.12633 0.12645 0.12658 0.12669 0.12103 0 0.10954 0.11498 0.12037 0.12564 0.12531 0.12487 0.12445 0.12424 0.12411 0.12391 0.12385 0.12381 0.12378 0.12396 0.12412 0.12421 0.12428 0.12421 0.12418 0.1241 0.12409 0.12408 0.12415 0.12419 0.12417 0.12434 0.12443 0.12447 0.12462 0.12471 0.12479 0.12489 0.12492 0.12488 0.12514 0.12527 0.12535 0.12553 0.1258 0.12579 0.12577 0.12579 0.1259 0.12603 0.12607 0.12615 0.12617 0.12625 0.12641 0.12631 0.12628 0.12614 0.1261 0.12591 0.12567 0.12552 0.12526 0.12493 0.125 0.1249 0.12498
0 0 0 0 0 0 0 0 0 0 0.11382 0.10777 0.1019 0.1112 0.12043 0.12959 0.12857 0.12816 0.12763 0.12763 0.12763 0.12757 0.1275 0.12752 0.12762 0.12738 0.12751 0.12762 0 0 0 0.12916 0.12993 0.13037 0.12934 0.12824 0.1272 0.12684 0.12664 0.12635 0.12622 0.12604 0.12592 0.12597 0.12595 0.126 0.1232 0.12033 0.11746 0.12019 0.12281 0.12539 0.12516 0.12482 0.12453 0.12436 0.12402 0.12403 0.12404 0.12402 0.12396 0.1241 0.12417 0.12434 0.12434 0.12435 0.12441 0.12437 0.12432 0.12418 0.12417 0.12418 0.12423 0.12423 0.12427 0.12436 0.12451 0.1246 0.12479 0.1248 0.12484 0.12485 0.12492 0.12501 0.12512 0.12536 0.12539 0.12561 0.12581 0.12589 0.12604 0.12622 0.12626 0.12625 0.12635 0.12631 0.12635 0.12618 0.12608 0.1259 0.12579 0.12577 0.1256 0.12544 0.12506 0.1247 0.12479 0.12479 0.1249
0 0 0 0 0 0 0 0 0 0 0 0.09387 0.08388 0.09906 0.12288 0.13023 0.1268 0.12702 0.12776 0.12764 0.12778 0.12777 0.12777 0.12792 0.12809 0.12804 0.12817 0.12825 0 0 0 0.12986 0.13131 0.13201 0.13043 0.12889 0.12722 0.12697 0.12668 0.12638 0.12606 0.12572 0.12541 0.12534 0.12525 0.12531 0.12531 0.12531 0.12526 0.12533 0.12539 0.12533 0.12505 0.12474 0.12446 0.12425 0.12403 0.12405 0.12405 0.12416 0.12415 0.12428 0.12433 0.12443 0.12455 0.1246 0.12451 0.12444 0.12451 0.12448 0.1244 0.12427 0.12416 0.12425 0.12424 0.12414 0.12421 0.12437 0.1245 0.12452 0.12459 0.12455 0.12476 0.1249 0.1248 0.12521 0.12542 0.1255 0.12571 0.12597 0.12627 0.1263 0.12633 0.12609 0.12621 0.12623 0.12618 0.12609 0.12584 0.12563 0.12547 0.12554 0.12536 0.12525 0.12499 0.12463 0.12473 0.12473 0.12484
0 0 0 0 0 0 0 0 0 0 0 0 0.09729 0.10559 0.11833 0.1248 0.12487 0.126 0.12754 0.12768 0.12786 0.12796 0.12812 0.12839 0.12861 0.12529 0.1219 0 0 0.1233 0.12885 0.12933 0.12987 0.13043 0.1294 0.12827 0.12721 0.12693 0.12667 0.12636 0.126 0.12572 0.12537 0.12537 0.1253 0.12526 0.12525 0.12531 0.12531 0.12536 0.12538 0.12533 0.12509 0.12494 0.1247 0.12453 0.12438 0.12435 0.12435 0.12444 0.12454 0.12452 0.12452 0.12474 0.12488 0.12468 0.12466 0.12472 0.12477 0.12461 0.12452 0.12441 0.12445 0.12433 0.12421 0.12422 0.12414 0.12428 0.12445 0.12448 0.12457 0.12463 0.12477 0.12485 0.12494 0.12518 0.12531 0.12543 0.12563 0.12588 0.1261 0.12614 0.12611 0.12607 0.12609 0.12612 0.12613 0.12598 0.12581 0.12555 0.12547 0.12545 0.12533 0.12507 0.12474 0.12442 0.12451 0.12455 0.12458
0 0 0 0 0 0 0 0 0 0 0 0 0 0 0 0.12003 0.1226 0.12522 0.12731 0.1276 0.12786 0.12809 0.12843 0.12882 0.12914 0.12236 0.11564 0.1089 0.11523 0.12147 0.12766 0.12811 0.12849 0.12895 0.12839 0.12781 0.12729 0.12695 0.12659 0.12627 0.12609 0.12575 0.12544 0.12546 0.1254 0.1253 0.1253 0.12532 0.12535 0.12544 0.1255 0.12544 0.12532 0.12514 0.12495 0.12484 0.1247 0.12453 0.12459 0.12458 0.1247 0.12476 0.12491 0.12504 0.12497 0.12492 0.12498 0.12495 0.12484 0.12474 0.12462 0.12453 0.12449 0.1245 0.12443 0.12449 0.12446 0.12442 0.12434 0.12446 0.12445 0.12448 0.12473 0.12496 0.12508 0.12522 0.12535 0.12535 0.12555 0.12586 0.12608 0.12615 0.12612 0.12614 0.12614 0.12618 0.12621 0.126 0.12583 0.12549 0.12528 0.12527 0.12504 0.12477 0.1245 0.12425 0.12432 0.12425 0.12424
0 0 0 0 0 0 0 0 0 0 0 0 0 0 0 0.11865 0.12186 0.1252 0.12697 0.12739 0.12782 0.12821 0.12872 0.1292 0.12964 0.11945 0.10937 0.09898 0.1083 0 0.12648 0.12679 0.12712 0.12748 0.12739 0.1273 0.12719 0.12686 0.12655 0.12618 0.12602 0.12576 0.12547 0.1255 0.12542 0.12534 0.12543 0.12548 0.12552 0.12553 0.12551 0.12551 0.1255 0.12539 0.1252 0.12504 0.12472 0.12461 0.1247 0.1248 0.1249 0.1249 0.12499 0.12519 0.1251 0.12512 0.12512 0.125 0.12489 0.12471 0.12466 0.12458 0.12452 0.12454 0.12451 0.12426 0.12432 0.1243 0.12418 0.1242 0.12434 0.12453 0.12474 0.12487 0.12487 0.12501 0.1251 0.12515 0.12543 0.12572 0.12587 0.1259 0.12602 0.12611 0.12603 0.12614 0.12623 0.12609 0.12573 0.12546 0.12523 0.12499 0.12473 0.12447 0.12415 0.12392 0.12394 0.12395 0.12388
0 0 0 0 0 0 0 0 0 0 0 0 0 0.11273 0.11457 0.11665 0.11994 0.12442 0.127 0.12762 0.12809 0.12862 0.12907 0.12944 0.12976 0.12297 0.11628 0.10941 0.11552 0.12206 0.12764 0.12764 0.12756 0.12751 0.12745 0.12734 0.12719 0.1269 0.12667 0.12637 0.12621 0.12603 0.12584 0.12584 0.12579 0.12576 0.12576 0.12579 0.12582 0.12584 0.12584 0.12582 0.12567 0.12547 0.12527 0.12514 0.12501 0.12495 0.12499 0.12506 0.12513 0.12508 0.12507 0.12521 0.1251 0.12513 0.12515 0.12509 0.12486 0.1247 0.12473 0.1247 0.12463 0.12458 0.12457 0.12443 0.12436 0.12421 0.12417 0.12419 0.12435 0.12451 0.12463 0.12481 0.12498 0.12506 0.12521 0.12533 0.12551 0.12555 0.12569 0.1259 0.12605 0.12611 0.12614 0.12614 0.12625 0.12611 0.12585 0.12558 0.12534 0.12519 0.12487 0.12459 0.12434 0.1242 0.1241 0.12408 0.12408
0 0 0 0 0 0 0 0 0 0 0 0 0.10914 0.11076 0.11263 0.11438 0.11823 0.12313 0.12714 0.12779 0.12843 0.12898 0.12916 0.1294 0.12967 0.12634 0.12288 0.11944 0.12245 0.12548 0.12856 0.12833 0.12797 0.12763 0.12745 0.12728 0.12718 0.12697 0.12667 0.12648 0.12633 0.12627 0.12619 0.12617 0.12609 0.12599 0.12596 0.12596 0.12596 0.12598 0.12602 0.12595 0.12582 0.12568 0.12547 0.12528 0.12515 0.12514 0.12516 0.12527 0.12526 0.12523 0.12518 0.12524 0.12514 0.12514 0.12516 0.12506 0.12502 0.12501 0.12498 0.12494 0.12496 0.12482 0.12473 0.12457 0.12439 0.1244 0.12433 0.12429 0.12437 0.12451 0.12458 0.12473 0.12494 0.12499 0.12515 0.12524 0.12541 0.12544 0.12564 0.12581 0.12592 0.12609 0.12614 0.12623 0.12624 0.12615 0.12601 0.12585 0.12562 0.12541 0.12516 0.125 0.12475 0.12459 0.12455 0.12438 0.12433
0 0 0 0 0 0 0 0 0.11685 0.1157 0.11327 0.10876 0.10472 0.10616 0.1076 0.10908 0.11507 0.12125 0.12728 0.12797 0.12865 0.12932 0.12939 0.12952 0.12965 0.12966 0.12949 0.12942 0.12947 0.12954 0.12955 0.12892 0.12826 0.12752 0.12743 0.12731 0.1271 0.12691 0.12666 0.12647 0.12645 0.12638 0.12633 0.12633 0.12636 0.12633 0.12631 0.12626 0.1262 0.12625 0.12616 0.12608 0.12592 0.12573 0.1256 0.12544 0.12523 0.12523 0.12527 0.1253 0.12532 0.12521 0.12521 0.12523 0.12535 0.1252 0.12511 0.12508 0.12513 0.12517 0.12523 0.12524 0.12523 0.1251 0.1249 0.12474 0.12462 0.12447 0.12426 0.12433 0.12438 0.12452 0.12456 0.12457 0.12466 0.12488 0.12512 0.12523 0.12549 0.12563 0.12575 0.12573 0.12589 0.12599 0.12606 0.12618 0.12625 0.12627 0.12611 0.12596 0.12582 0.12565 0.12534 0.1253 0.12519 0.12513 0.12502 0.12465 0.12442
0 0 0 0 0 0 0 0.11919 0.1187 0.11948 0.11817 0.11595 0.11367 0.11444 0.11522 0.11604 0.11992 0.1241 0.12816 0.12853 0.12892 0.12933 0.12926 0.12933 0.12927 0.12922 0.12909 0.12905 0.12909 0.12912 0.12911 0.12865 0.12818 0.12768 0.12756 0.12746 0.12728 0.12709 0.12688 0.12671 0.12665 0.12661 0.12658 0.1266 0.12659 0.12657 0.12657 0.12651 0.12646 0.12646 0.12641 0.12622 0.12603 0.12586 0.12573 0.1257 0.12546 0.12532 0.12533 0.12529 0.12524 0.12522 0.12521 0.12533 0.12535 0.12536 0.1254 0.12531 0.12532 0.12532 0.1254 0.1254 0.12534 0.12527 0.12516 0.12491 0.12472 0.12457 0.12447 0.12438 0.1244 0.12449 0.12464 0.12465 0.12463 0.1248 0.1249 0.12503 0.12521 0.12543 0.12552 0.12566 0.12582 0.12602 0.12611 0.1263 0.12639 0.12636 0.12625 0.12616 0.12598 0.12597 0.12576 0.1256 0.12561 0.12546 0.12524 0.12498 0.1248
0 0 0 0 0 0 0.12075 0.1209 0.12032 0.12006 0.12127 0.12337 0.12208 0.12224 0.12248 0.12257 0.12467 0.1268 0.12883 0.12895 0.12914 0.12932 0.12921 0.12911 0.12896 0.12889 0.12872 0.12864 0.12866 0.12873 0.1287 0.12842 0.12811 0.12786 0.12781 0.12761 0.1275 0.12725 0.12709 0.12698 0.12693 0.12683 0.12686 0.12687 0.1269 0.12686 0.1269 0.12678 0.12671 0.12669 0.12661 0.12646 0.12619 0.12599 0.12579 0.12574 0.12567 0.12551 0.12544 0.12537 0.12533 0.12538 0.12538 0.12547 0.12539 0.12544 0.12549 0.12552 0.12553 0.12551 0.12559 0.12557 0.12559 0.1255 0.12531 0.12517 0.12503 0.12485 0.12465 0.12452 0.12449 0.12443 0.12452 0.12444 0.12449 0.12455 0.12462 0.12489 0.1251 0.12526 0.12552 0.12563 0.12585 0.12612 0.12628 0.1263 0.12641 0.1264 0.1264 0.12639 0.12636 0.12625 0.12606 0.12601 0.12595 0.12581 0.12557 0.12532 0.12508
0 0 0 0 0 0 0.12066 0.12068 0.1199 0.1184 0.12252 0.1264 0.13043 0.12992 0.12954 0.129 0.12918 0.12927 0.12948 0.12947 0.12938 0.12937 0.12909 0.12889 0.12863 0.12854 0.12838 0.12822 0.12825 0.12825 0.12822 0.12815 0.12809 0.12802 0.12792 0.12782 0.12768 0.1275 0.12732 0.12721 0.12719 0.12712 0.12718 0.1272 0.12721 0.12711 0.12709 0.12715 0.12711 0.12695 0.12679 0.1266 0.12639 0.12614 0.12595 0.1257 0.12557 0.12552 0.12546 0.12546 0.12542 0.12545 0.12545 0.12545 0.1255 0.12549 0.12553 0.12555 0.12557 0.12572 0.12571 0.12577 0.1257 0.12557 0.12553 0.12537 0.12522 0.12511 0.12483 0.12465 0.12451 0.12438 0.12439 0.12432 0.12422 0.12433 0.12454 0.12471 0.12488 0.12512 0.12535 0.12565 0.12579 0.12616 0.12624 0.12633 0.12655 0.12655 0.12665 0.12656 0.12654 0.12654 0.12651 0.12637 0.12628 0.12619 0.12598 0.12565 0.12557
0 0 0 0 0 0.11969 0.12039 0.12147 0.1227 0.12288 0.12552 0.12821 0.13093 0.13056 0.13021 0.12973 0.12973 0.12968 0.12967 0.12948 0.12932 0.12921 0.12902 0.12878 0.12859 0.12852 0.12847 0.1284 0.12838 0.1284 0.1284 0.12832 0.12821 0.12808 0.12806 0.12802 0.12793 0.12772 0.1275 0.12743 0.1273 0.12722 0.12721 0.12723 0.12718 0.12712 0.12718 0.12724 0.12725 0.1272 0.12705 0.12675 0.12645 0.12635 0.12611 0.12591 0.12574 0.12573 0.12576 0.1257 0.12559 0.12562 0.12559 0.12557 0.12558 0.12563 0.12572 0.12567 0.1258 0.12599 0.12592 0.12586 0.12586 0.12578 0.12563 0.12562 0.1255 0.12527 0.12498 0.12466 0.12457 0.12448 0.1245 0.12439 0.1243 0.12445 0.12469 0.12486 0.12503 0.12513 0.12543 0.12569 0.12587 0.12611 0.12621 0.12642 0.12656 0.1266 0.12665 0.12663 0.12645 0.12634 0.12647 0.12655 0.12659 0.12639 0.12629 0.12604 0.12583
0 0 0 0 0.1185 0.1188 0.11854 0.12097 0.12546 0.12723 0.12868 0.12987 0.13117 0.13094 0.13069 0.13039 0.13024 0.12993 0.1297 0.12946 0.12925 0.12903 0.12891 0.12873 0.12861 0.12858 0.12854 0.12857 0.12855 0.12845 0.12846 0.12844 0.12839 0.12835 0.12825 0.12813 0.12808 0.12793 0.12775 0.12762 0.12747 0.12739 0.12734 0.12727 0.1272 0.12717 0.12726 0.1273 0.12722 0.12728 0.12715 0.12688 0.1266 0.12646 0.12632 0.12605 0.12599 0.126 0.12594 0.12587 0.12579 0.12578 0.12571 0.12561 0.12567 0.12581 0.12591 0.12592 0.12597 0.12613 0.12618 0.12608 0.12604 0.12596 0.12592 0.12581 0.12564 0.12537 0.12515 0.12502 0.12493 0.12475 0.12461 0.12453 0.12452 0.12474 0.125 0.12505 0.12513 0.12528 0.12564 0.12572 0.12592 0.12626 0.12629 0.12646 0.12667 0.12668 0.12662 0.12669 0.12644 0.1264 0.12628 0.12649 0.12668 0.12649 0.12655 0.12636 0.12615
0 0 0 0 0.11785 0.11766 0.11613 0.12115 0.1262 0.1314 0.1316 0.13157 0.13136 0.13126 0.13114 0.13101 0.13059 0.13011 0.12969 0.12939 0.12909 0.12882 0.12881 0.1287 0.12857 0.12863 0.12871 0.12873 0.12867 0.12857 0.12854 0.12856 0.12849 0.12846 0.12837 0.12828 0.1282 0.12811 0.12797 0.12784 0.12771 0.12761 0.12743 0.12733 0.12729 0.12727 0.1274 0.12739 0.12728 0.12727 0.12724 0.12701 0.12667 0.12658 0.1265 0.1263 0.12624 0.12615 0.12605 0.12587 0.12578 0.12573 0.12575 0.12574 0.12584 0.12594 0.12609 0.12615 0.12616 0.12634 0.12629 0.12627 0.12626 0.1262 0.12622 0.12609 0.12584 0.12571 0.1255 0.12537 0.1251 0.12491 0.12484 0.12479 0.12473 0.12494 0.12513 0.12519 0.12535 0.12551 0.12563 0.12563 0.12586 0.12612 0.12625 0.12636 0.12654 0.1266 0.12652 0.12655 0.12665 0.12663 0.12661 0.12665 0.12669 0.12659 0.12648 0.12655 0.12649
0 0 0 0.11112 0.11584 0.11852 0.12031 0.12372 0.12717 0.13066 0.1309 0.13091 0.13089 0.1307 0.13056 0.13038 0.13004 0.12978 0.12953 0.12934 0.1292 0.12898 0.12892 0.12878 0.12866 0.12869 0.12865 0.12865 0.1286 0.12851 0.12855 0.12856 0.12856 0.12848 0.12841 0.1283 0.12827 0.12815 0.12801 0.12793 0.12788 0.12774 0.12766 0.12758 0.12749 0.12746 0.12749 0.12744 0.12746 0.12747 0.12742 0.12724 0.12706 0.12698 0.12686 0.12671 0.12649 0.12648 0.12635 0.1263 0.12619 0.12609 0.12605 0.12597 0.12613 0.12637 0.12657 0.12661 0.1266 0.1267 0.12668 0.12668 0.12666 0.12653 0.12633 0.12623 0.12599 0.1258 0.12569 0.12555 0.12543 0.12519 0.12513 0.12519 0.12519 0.12526 0.12541 0.12555 0.1256 0.12576 0.12579 0.12576 0.12579 0.1259 0.12615 0.12622 0.12636 0.12631 0.12633 0.12636 0.12642 0.12652 0.12663 0.12657 0.12666 0.1265 0.12645 0.12646 0.12652
0 0 0 0.1013 0.10948 0.12004 0.12446 0.12628 0.12808 0.12991 0.13017 0.13029 0.13044 0.13017 0.12994 0.12973 0.12961 0.12948 0.12938 0.12935 0.12922 0.12908 0.12895 0.12883 0.12874 0.12874 0.12868 0.12863 0.1286 0.12856 0.12859 0.12862 0.12862 0.12858 0.12844 0.12835 0.1283 0.12822 0.12822 0.12816 0.12813 0.12804 0.12802 0.12791 0.12781 0.12768 0.12763 0.1276 0.1277 0.12769 0.12767 0.12749 0.12739 0.12737 0.12724 0.12711 0.12705 0.12696 0.12691 0.12676 0.12663 0.12647 0.12634 0.12627 0.12637 0.12658 0.1268 0.12699 0.1271 0.12711 0.12703 0.12699 0.12686 0.12681 0.12658 0.12636 0.12611 0.126 0.12581 0.12567 0.12558 0.12552 0.12546 0.12553 0.12563 0.12551 0.12558 0.12582 0.12589 0.12593 0.12597 0.12598 0.12581 0.12587 0.12592 0.12602 0.12605 0.12606 0.12618 0.12617 0.12624 0.12627 0.12636 0.12651 0.12642 0.12638 0.12642 0.12644 0.12648
0 0 0 0.08624 0.10083 0.11493 0.12862 0.12891 0.12909 0.12928 0.12953 0.12972 0.12989 0.12972 0.12944 0.12928 0.12928 0.12928 0.12928 0.1293 0.12919 0.12912 0.12908 0.12898 0.12883 0.12879 0.12875 0.1287 0.12865 0.12861 0.1286 0.12868 0.12876 0.12877 0.12867 0.12859 0.12852 0.12848 0.12848 0.12843 0.12835 0.12827 0.12831 0.12819 0.12813 0.12803 0.12801 0.12791 0.12793 0.128 0.12808 0.12801 0.12794 0.12788 0.12781 0.12764 0.12755 0.12753 0.12738 0.12716 0.127 0.12692 0.12682 0.12675 0.12675 0.12691 0.12705 0.12714 0.12724 0.1274 0.12742 0.12734 0.1272 0.12705 0.12676 0.12655 0.12635 0.12633 0.12622 0.12609 0.12593 0.12575 0.12582 0.12587 0.12594 0.12598 0.12588 0.12597 0.12606 0.12613 0.12609 0.12601 0.12586 0.12565 0.12576 0.12588 0.12599 0.12598 0.12616 0.12624 0.12623 0.12626 0.12625 0.12637 0.12626 0.12626 0.12624 0.12635 0.12642
0 0 0 0.1026 0.11242 0.12172 0.13093 0.13078 0.13072 0.13051 0.13041 0.13026 0.13014 0.12989 0.12966 0.12949 0.12949 0.12952 0.1295 0.12945 0.12936 0.12925 0.1291 0.12893 0.12882 0.12878 0.12873 0.12862 0.1286 0.12856 0.12856 0.12866 0.1287 0.12866 0.1286 0.1286 0.12862 0.12866 0.12869 0.1286 0.12851 0.12843 0.12842 0.12841 0.12842 0.12845 0.12844 0.12838 0.12847 0.12856 0.12857 0.1285 0.12852 0.12857 0.12861 0.12848 0.12824 0.12823 0.12813 0.12797 0.12794 0.12779 0.12765 0.12766 0.12753 0.12754 0.12756 0.12775 0.12778 0.12776 0.12773 0.12776 0.12777 0.12747 0.1272 0.12712 0.12697 0.12687 0.12679 0.12667 0.12652 0.12639 0.12649 0.12656 0.12654 0.12659 0.12658 0.12664 0.12663 0.12651 0.12644 0.12648 0.12632 0.12607 0.1262 0.12631 0.12623 0.12627 0.12624 0.1262 0.12631 0.12648 0.12657 0.12658 0.12661 0.12659 0.12658 0.12667 0.12676
0.13044 0.13148 0.1244 0.11896 0.12411 0.12881 0.13341 0.13295 0.1324 0.13179 0.1313 0.13073 0.13032 0.13011 0.12992 0.12967 0.12966 0.12966 0.12964 0.12954 0.12942 0.1293 0.12914 0.12896 0.12883 0.12878 0.12874 0.1287 0.12864 0.1286 0.12863 0.12866 0.12867 0.12867 0.12873 0.12877 0.1288 0.12883 0.1288 0.1288 0.12874 0.12863 0.12853 0.12858 0.1286 0.12877 0.12877 0.12887 0.12895 0.12902 0.12912 0.12912 0.12902 0.12912 0.1293 0.12929 0.12918 0.12914 0.12893 0.12881 0.12881 0.1288 0.12862 0.12848 0.1284 0.12832 0.12839 0.12845 0.12848 0.12838 0.12827 0.12818 0.12818 0.12794 0.12776 0.12755 0.12749 0.12746 0.12739 0.12733 0.12736 0.12708 0.12703 0.12711 0.12701 0.12712 0.12712 0.12719 0.12715 0.12707 0.12705 0.12688 0.12675 0.12663 0.12655 0.12651 0.12641 0.12642 0.1264 0.12635 0.12638 0.12648 0.12662 0.1268 0.12689 0.12679 0.12691 0.12698 0.12718
0.12941 0.13147 0.13357 0.13538 0.1357 0.13554 0.13516 0.13434 0.13348 0.1327 0.13206 0.13111 0.13048 0.13032 0.1301 0.12979 0.1298 0.12972 0.12964 0.12948 0.12931 0.12917 0.12914 0.129 0.12886 0.12882 0.12872 0.12868 0.12861 0.12859 0.12868 0.12873 0.12879 0.12885 0.12893 0.12888 0.12891 0.12892 0.12896 0.12895 0.12894 0.12887 0.12891 0.12898 0.12908 0.12917 0.12908 0.12918 0.12939 0.12943 0.12949 0.1295 0.12958 0.12964 0.12967 0.12993 0.13002 0.12998 0.1299 0.12981 0.12977 0.12962 0.12934 0.1292 0.12927 0.12938 0.12935 0.12929 0.12909 0.12911 0.12905 0.12892 0.12877 0.12841 0.12823 0.1281 0.12813 0.12808 0.12798 0.12795 0.12789 0.12794 0.12788 0.12786 0.12767 0.12784 0.1278 0.12778 0.12773 0.12758 0.12754 0.12735 0.12729 0.12711 0.12693 0.12675 0.12676 0.12672 0.12662 0.12663 0.12679 0.12688 0.12689 0.12689 0.12697 0.12704 0.12725 0.12734 0.12752
0.12983 0.1316 0.13332 0.135 0.13548 0.13548 0.13538 0.13466 0.13406 0.13338 0.1326 0.13189 0.13113 0.13077 0.13044 0.13001 0.1299 0.12975 0.12959 0.12945 0.12928 0.12921 0.12912 0.12896 0.12887 0.12889 0.12886 0.12884 0.1288 0.12883 0.12892 0.12904 0.12915 0.12926 0.1293 0.12936 0.12936 0.12926 0.1293 0.12922 0.12929 0.12931 0.12942 0.12941 0.12944 0.12947 0.12959 0.12974 0.12996 0.12997 0.13002 0.13016 0.13036 0.13044 0.13053 0.13061 0.13068 0.1307 0.13067 0.13065 0.13059 0.13041 0.13028 0.13034 0.13024 0.13009 0.13003 0.12989 0.12982 0.12977 0.12976 0.12958 0.1294 0.12934 0.12917 0.12891 0.12884 0.12879 0.12872 0.12868 0.12867 0.12859 0.12869 0.12876 0.12864 0.12872 0.12878 0.12904 0.12895 0.12877 0.12861 0.12831 0.12806 0.12781 0.12767 0.12747 0.12731 0.12723 0.12723 0.12724 0.12752 0.1278 0.12793 0.12785 0.12766 0.12763 0.12781 0.12787 0.12789
0.13011 0.1315 0.13293 0.13428 0.13487 0.13519 0.13556 0.13505 0.13449 0.13394 0.13316 0.13245 0.13172 0.13124 0.13079 0.13028 0.13004 0.12988 0.12969 0.12955 0.12934 0.1292 0.12906 0.129 0.12892 0.129 0.12901 0.12898 0.12896 0.12904 0.12914 0.12924 0.12944 0.12954 0.12954 0.12958 0.12965 0.1297 0.12984 0.12986 0.12982 0.12981 0.12985 0.12988 0.12987 0.12998 0.13015 0.13033 0.13036 0.1305 0.1306 0.13078 0.13091 0.13102 0.1312 0.13132 0.13143 0.13157 0.13142 0.13138 0.13131 0.13126 0.13123 0.13118 0.13104 0.13086 0.13066 0.13052 0.13047 0.13029 0.13019 0.13014 0.13014 0.13013 0.12988 0.12951 0.1294 0.12944 0.12937 0.12938 0.12935 0.1294 0.1295 0.12947 0.12942 0.12972 0.13006 0.13021 0.13013 0.13006 0.12997 0.12948 0.12894 0.12839 0.12818 0.12803 0.12785 0.12793 0.12812 0.12822 0.12831 0.1285 0.12868 0.12865 0.12857 0.12847 0.12852 0.12846 0.12843
0.13012 0.13114 0.13225 0.13335 0.13413 0.13484 0.13552 0.13519 0.13481 0.13448 0.13368 0.13292 0.13219 0.13159 0.131 0.13038 0.13007 0.12981 0.12954 0.12935 0.12922 0.12906 0.12899 0.12892 0.12887 0.12894 0.12897 0.12898 0.12902 0.12918 0.12931 0.12948 0.12964 0.12971 0.12969 0.1298 0.12986 0.1299 0.13015 0.13018 0.13018 0.13028 0.13041 0.13042 0.13049 0.13077 0.1311 0.13128 0.13129 0.13124 0.13134 0.13158 0.1317 0.13183 0.13208 0.13219 0.13184 0.13181 0.13179 0.13173 0.13168 0.13169 0.13168 0.13156 0.13136 0.13111 0.13102 0.13092 0.13063 0.13045 0.13039 0.13037 0.13044 0.13028 0.13008 0.12988 0.12977 0.12966 0.12958 0.12955 0.12954 0.12958 0.12979 0.12992 0.12997 0.13013 0.13082 0.13138 0.13054 0.13028 0.13084 0.13017 0.12954 0.12863 0.12849 0.12848 0.12833 0.12842 0.12853 0.12867 0.1268 0.12745 0.12941 0.12854 0.12861 0.12921 0.12927 0.12912 0.12876
0.13092 0.13182 0.13261 0.13345 0.13402 0.13462 0.13498 0.1346 0.13432 0.13412 0.13343 0.13269 0.13211 0.13155 0.13101 0.13044 0.13017 0.12994 0.12973 0.12962 0.12949 0.12937 0.12937 0.12931 0.12923 0.12931 0.12946 0.12957 0.12969 0.12991 0.13004 0.13022 0.13031 0.13037 0.13039 0.13042 0.13041 0.13052 0.13067 0.13073 0.13088 0.13098 0.13102 0.1313 0.13162 0.13178 0.13205 0.13228 0.13237 0.13228 0.13239 0.13243 0.13259 0.13266 0.13273 0.1328 0.13252 0.13256 0.13256 0.13258 0.13261 0.13253 0.13242 0.13238 0.13222 0.13217 0.13204 0.13177 0.13144 0.13094 0.13091 0.13074 0.13069 0.13063 0.1305 0.13011 0.13 0.12989 0.12979 0.12987 0.13001 0.12999 0.13035 0.13064 0.13081 0.13035 0.13061 0.13064 0.1302 0.12994 0.12981 0.1292 0.12876 0.12839 0.12521 0.12194 0.11868 0.11885 0.11898 0.11912 0.12312 0.1246 0.12652 0.1277 0.1282 0.12884 0.12988 0.1301 0.13163
0.13154 0.13215 0.13267 0.13316 0.13362 0.13397 0.13434 0.13408 0.13379 0.1336 0.13316 0.13259 0.13202 0.13157 0.13102 0.13052 0.13032 0.13014 0.12998 0.12992 0.12985 0.12973 0.12973 0.12973 0.12971 0.12977 0.12989 0.12997 0.13022 0.13045 0.13063 0.13073 0.13086 0.13093 0.13099 0.131 0.13096 0.13109 0.13122 0.13141 0.13166 0.13181 0.13191 0.13219 0.1325 0.13285 0.13293 0.13326 0.13352 0.13351 0.13358 0.13354 0.13354 0.13351 0.13355 0.13367 0.13347 0.13357 0.13349 0.13351 0.13358 0.13347 0.13341 0.13347 0.13306 0.13292 0.13294 0.13258 0.13217 0.13172 0.13126 0.13094 0.13077 0.13082 0.13106 0.13075 0.13058 0.13031 0.13027 0.13027 0.13041 0.13036 0.13095 0.13141 0.13194 0.12954 0.12876 0.13021 0 0 0.12908 0.12886 0.12856 0.12841 0.12186 0.11547 0.10898 0.10915 0.10932 0 0 0.1242 0.12258 0.1249 0.12767 0.12898 0.13036 0.13244 0.13439
