ncols        109
nrows        82
xllcorner    -1.041666666667
yllcorner    37.041665395101
cellsize     0.083333333333
NODATA_value -9999
0.0 0 0 0 0 0 0 0 0 0 0 0 0 0 0 0 0 0 0 0 0 0 0 0 0 0 0 0 0 0 0 0 0 0 0 0 0 0 0 0 0 0 0 0 0 0 0 0 0 0 0 0 0 0 0 0 0 0 0 0 0 0 0 0 0 0 0 0 0 0 0 0 0 0 0 0 0 0 0 0 0 0 0 0 0 0 0 0 0 0 0 0 0 0 0 0 0 0 0 0 0 0 0 0 0 0.14245 0.14204 0.14203 0.14205
0 0 0 0 0 0 0 0 0 0 0 0 0 0 0 0 0 0 0 0 0 0 0 0 0 0 0 0 0 0 0 0 0 0 0 0 0 0 0 0 0 0 0 0 0 0 0 0 0 0 0 0 0 0 0 0 0 0 0 0 0 0 0 0 0 0 0 0 0 0 0 0 0 0 0 0 0 0 0 0 0 0 0 0 0 0 0 0 0 0 0 0 0 0 0 0 0 0 0 0 0 0.14217 0.14222 0.14261 0.14314 0.14394 0.14318 0.14273 0.1425
0 0 0 0 0 0 0 0 0 0 0 0 0 0 0 0 0 0 0 0 0 0 0 0 0 0 0 0 0 0 0 0 0 0 0 0 0 0 0 0 0 0 0 0 0 0 0 0 0 0 0 0 0 0 0 0 0 0 0 0 0 0 0 0 0 0 0 0 0 0 0 0 0 0 0 0 0 0 0 0 0 0 0 0 0 0 0 0 0 0 0 0 0 0 0 0 0 0 0.14237 0.14242 0.14237 0.14221 0.14229 0.14236 0.14236 0.14236 0.14187 0.14155 0.14129
0 0 0 0 0 0 0 0 0 0 0 0 0 0 0 0 0 0 0 0 0 0 0 0 0 0 0 0 0 0 0 0 0 0 0 0 0 0 0 0 0 0 0 0 0 0 0 0 0 0 0 0 0 0 0 0 0 0 0 0 0 0 0 0 0 0 0 0 0 0 0 0 0 0 0 0 0 0 0 0 0 0 0 0 0 0 0 0 0 0 0 0 0 0 0 0 0 0.14246 0.14296 0.14314 0.14281 0.14254 0.1427 0.14238 0.14152 0.14165 0.14127 0.14088 0.1407
0 0 0 0 0 0 0 0 0 0 0 0 0 0 0 0 0 0 0 0 0 0 0 0 0 0 0 0 0 0 0 0 0 0 0 0 0 0 0 0 0 0 0 0 0 0 0 0 0 0 0 0 0 0 0 0 0 0 0.14308 0.14552 0.14695 0.14892 0 0 0 0 0 0 0 0 0 0 0 0 0 0 0 0 0 0 0 0 0 0 0 0 0 0 0 0 0 0 0 0 0 0.14275 0.14299 0.14337 0.14398 0.14439 0.14417 0.14407 0.1441 0.1434 0.14245 0.14159 0.14114 0.14061 0.14015
0 0 0 0 0 0 0 0 0 0 0 0 0 0 0 0 0 0 0 0 0 0 0 0 0 0 0 0 0 0 0 0 0 0 0 0 0 0 0 0 0 0 0 0 0 0 0 0 0 0 0 0 0 0 0 0 0.14203 0.14159 0.14211 0.14358 0.1461 0.14595 0.14723 0.14774 0.13702 0.12706 0.11826 0 0 0 0 0.12661 0 0 0 0 0 0 0 0 0 0 0 0 0 0 0 0 0 0 0 0 0 0.14255 0.14267 0.14249 0.143 0.14308 0.14318 0.14344 0.14311 0.14321 0.14323 0.14256 0.14188 0.14134 0.14103 0.14065 0.14013
0 0 0 0 0 0 0 0 0 0 0 0 0 0 0 0 0 0 0 0 0 0 0 0 0 0 0 0 0 0 0 0 0 0 0 0 0 0 0 0 0 0 0 0 0 0 0 0 0 0 0 0 0 0 0 0.14229 0.14481 0.14598 0.14505 0.14424 0.14578 0.14548 0.14532 0.14617 0.13954 0.13461 0.12942 0.13472 0.13166 0.13055 0.13034 0.12864 0.12772 0.12499 0.12015 0.11693 0.11722 0 0 0 0 0 0 0 0 0 0 0 0 0 0 0 0.14244 0.14172 0.14246 0.14249 0.14302 0.14278 0.14291 0.14282 0.14245 0.14236 0.14245 0.14172 0.14145 0.14107 0.14077 0.14045 0.13999
0 0 0 0 0 0 0 0 0 0 0 0 0 0 0 0 0 0 0 0 0 0 0 0 0 0 0 0 0 0 0 0 0 0 0 0 0 0 0 0 0 0 0 0 0 0 0 0 0 0 0 0.13162 0.13326 0.1352 0.13837 0.14267 0.14718 0.15019 0.14923 0.14869 0.14857 0.14868 0.14802 0.14599 0.14262 0.14215 0.14247 0.13781 0.13329 0.1303 0.12909 0.12887 0.12896 0.12216 0.11589 0.10912 0 0 0 0 0 0 0 0 0 0 0 0 0 0 0 0 0.14111 0.14304 0.14283 0.14304 0.14303 0.14276 0.14255 0.14239 0.14212 0.14148 0.1413 0.14113 0.14101 0.14103 0.14067 0.1405 0.14025
0 0 0 0 0 0 0 0 0 0 0 0 0 0 0 0 0 0 0 0 0 0 0 0 0 0 0 0 0 0 0 0 0 0 0 0 0 0 0 0 0 0 0 0 0 0 0 0 0 0 0.12911 0.13054 0.13106 0.13288 0.13553 0.13845 0.14175 0.14387 0.14248 0.14182 0.14167 0.14226 0.143 0.14337 0.14371 0.14599 0.14901 0.14534 0.14159 0.1391 0.13752 0.13687 0.13624 0.13099 0.12599 0.11982 0.12025 0.12169 0.12262 0.12514 0.12901 0.13261 0 0 0 0 0 0 0 0.13137 0.13539 0.13801 0.14 0.14277 0.14241 0.14222 0.14199 0.14154 0.14097 0.14075 0.14034 0.1401 0.13991 0.1397 0.13959 0.13921 0.13901 0.139 0.13888
0 0 0 0 0 0 0 0 0 0 0 0 0 0 0 0 0 0 0 0 0 0 0 0 0 0 0 0 0 0 0 0 0 0 0 0 0 0 0 0 0 0 0 0 0 0 0 0 0 0.12897 0.1285 0.12845 0.12905 0.13091 0.13168 0.13219 0.13357 0.13617 0.13419 0.13318 0.13266 0.13501 0.13798 0.14136 0.14567 0.15059 0.1556 0.15229 0.14949 0.14726 0.14545 0.14395 0.14245 0.13828 0.13418 0.13011 0.1315 0.13176 0.13254 0.13711 0.13757 0.13942 0 0.14116 0.1414 0.13333 0.11886 0.11043 0.11781 0.1304 0.13734 0.13873 0.13933 0.14231 0.14199 0.14143 0.14099 0.14069 0.14024 0.14006 0.13967 0.13939 0.13879 0.13829 0.13797 0.13785 0.13797 0.13806 0.13808
0 0 0 0 0 0 0 0 0 0 0 0 0 0 0 0 0 0 0 0 0 0 0 0 0 0 0 0 0 0 0 0 0 0 0 0 0 0 0 0 0 0 0 0 0 0 0 0 0 0.12847 0.12738 0.1267 0.12716 0.12859 0.13082 0.12982 0.12803 0.12748 0.12663 0.12589 0.12459 0.12935 0.13433 0.13982 0.14784 0.15546 0.16335 0.16067 0.15802 0.15675 0.15371 0.15131 0.14879 0.14595 0.143 0.14077 0.14236 0.14272 0.14373 0.14378 0.14403 0.14423 0.14625 0.14888 0.15181 0.13032 0.10916 0.08871 0.10592 0.12456 0.14306 0.14267 0.14226 0.14205 0.14132 0.14092 0.14093 0.14051 0.14021 0.13981 0.13908 0.13817 0.13764 0.13742 0.13711 0.137 0.13702 0.13676 0.13665
0 0 0 0 0 0 0 0 0 0 0 0 0 0 0 0 0 0 0 0 0 0 0 0 0 0 0 0 0 0 0 0 0 0 0 0 0 0 0 0 0 0 0 0 0 0 0 0 0 0.12945 0.12862 0.12753 0.12896 0.13035 0.13226 0.13183 0.13222 0.13292 0.13195 0.13115 0.13055 0.13344 0.13658 0.14012 0.14547 0.15092 0.15632 0.15401 0.15182 0.15116 0.14878 0.14674 0.14505 0.14332 0.14128 0.13985 0.13984 0.14052 0.14132 0.14149 0.14189 0.14218 0.14388 0.14585 0.14748 0.13321 0.11918 0.10525 0.11739 0.12971 0.1419 0.14117 0.14065 0.14056 0.14017 0.13979 0.13949 0.13958 0.13918 0.1384 0.13791 0.13753 0.13688 0.1363 0.13599 0.13584 0.13606 0.13587 0.13585
0 0 0 0 0 0 0 0 0 0 0 0 0 0 0 0 0 0 0 0 0 0 0 0 0 0 0 0 0 0 0 0 0 0 0 0 0 0 0 0 0 0 0 0 0 0 0 0 0 0.13167 0.13159 0.12987 0.13105 0.1326 0.13413 0.13459 0.13696 0.13839 0.13737 0.13641 0.13555 0.13734 0.13873 0.14054 0.1435 0.14652 0.14867 0.14707 0.1467 0.14592 0.14442 0.14302 0.1419 0.14069 0.13889 0.1384 0.13928 0.13962 0.13992 0.13993 0.14034 0.14068 0.1417 0.14266 0.14355 0.13662 0.12984 0.1231 0.12921 0.13509 0.14081 0.1403 0.13995 0.1399 0.13912 0.13891 0.13878 0.13829 0.13777 0.13729 0.13689 0.13617 0.13549 0.13507 0.13459 0.13454 0.13479 0.13513 0.13528
0 0 0 0 0 0 0 0 0 0 0 0 0 0 0 0 0 0 0 0 0 0 0 0 0 0 0 0 0 0 0 0 0 0 0 0 0 0 0 0 0 0 0 0 0 0 0 0 0 0.13309 0.13307 0.13275 0.13356 0.13517 0.13774 0.14024 0.14237 0.14447 0.14282 0.1418 0.14084 0.14134 0.14162 0.14198 0.14186 0.1421 0.14231 0.14195 0.14199 0.14166 0.14087 0.1398 0.13889 0.13847 0.13824 0.1387 0.13906 0.13921 0.13928 0.13934 0.13944 0.13962 0.14029 0.14067 0.14105 0.14095 0.1412 0.14142 0.14129 0.14092 0.14023 0.13971 0.13922 0.13906 0.13883 0.13845 0.13776 0.13736 0.13656 0.13599 0.1355 0.13484 0.13428 0.13387 0.13379 0.13388 0.13406 0.1341 0.13435
0 0 0 0 0 0 0 0 0 0 0 0 0 0 0 0 0 0 0 0 0 0 0 0 0 0 0 0 0 0 0 0 0 0 0 0 0 0 0 0 0 0 0 0 0 0 0 0 0 0.13417 0.13387 0.13394 0.13531 0.13649 0.14062 0.14178 0.14263 0.14336 0.14217 0.1415 0.1408 0.14036 0.14052 0.14053 0.14009 0.14002 0.14046 0.14055 0.1403 0.14028 0.13955 0.13868 0.13816 0.13756 0.13702 0.13673 0.13684 0.13707 0.13729 0.13745 0.1374 0.13759 0.13782 0.13807 0.13815 0.13838 0.13864 0.13893 0.13869 0.13826 0.13797 0.13768 0.13735 0.13724 0.13687 0.13631 0.1359 0.13542 0.13487 0.13429 0.13387 0.13352 0.13313 0.13312 0.13299 0.13312 0.13329 0.1335 0.1336
0 0 0 0 0 0 0 0 0 0 0 0 0 0 0 0 0 0 0 0 0 0 0 0 0 0 0 0 0 0 0 0 0 0 0 0 0 0 0 0 0 0 0 0 0 0 0 0 0 0.13487 0.13656 0.13733 0.13894 0.14166 0.14526 0.14363 0.14337 0.1424 0.14139 0.14111 0.14046 0.14019 0.13981 0.13913 0.13903 0.13879 0.13981 0.13971 0.1395 0.13966 0.13878 0.13786 0.13689 0.1363 0.13599 0.13573 0.13571 0.13584 0.13598 0.13617 0.13616 0.13631 0.13645 0.13663 0.1366 0.13656 0.13687 0.13694 0.13647 0.13611 0.13577 0.13561 0.13542 0.13539 0.13486 0.13436 0.13393 0.13359 0.13316 0.13268 0.13258 0.13238 0.13219 0.1322 0.13228 0.13239 0.13261 0.13296 0.13308
0 0 0 0 0 0 0 0 0 0 0 0 0 0 0 0 0 0 0 0 0 0 0 0 0 0 0 0 0 0 0 0 0 0 0 0 0 0 0 0 0 0 0 0 0 0 0 0 0 0 0.13931 0.14059 0.14223 0.14599 0.1488 0.14559 0.1442 0.14122 0.14057 0.1405 0.13975 0.13918 0.13888 0.13853 0.13849 0.13856 0.13932 0.139 0.13867 0.13878 0.13767 0.13675 0.13648 0.13603 0.13571 0.13537 0.1352 0.13507 0.135 0.13509 0.13507 0.13508 0.13512 0.13497 0.13493 0.13484 0.13501 0.13478 0.13431 0.13409 0.13405 0.13379 0.1335 0.13315 0.13287 0.13263 0.13243 0.13214 0.13176 0.1314 0.13128 0.13102 0.13105 0.13125 0.13142 0.13169 0.13196 0.13221 0.13258
0 0 0 0 0 0 0 0 0 0 0 0 0 0 0 0 0 0 0 0 0 0 0 0 0 0 0 0 0 0 0 0 0 0 0 0 0 0 0 0 0 0 0 0 0 0 0 0 0 0 0.14049 0.14158 0.14217 0.14346 0.14615 0.14378 0.14304 0.1406 0.13962 0.13887 0.13859 0.1382 0.13792 0.13772 0.13758 0.13801 0.13847 0.13807 0.13785 0.13742 0.13641 0.13591 0.13564 0.13526 0.13499 0.13476 0.1346 0.13448 0.13429 0.13422 0.13417 0.13405 0.13408 0.13404 0.13404 0.13396 0.13389 0.13368 0.13344 0.13327 0.13308 0.13283 0.13258 0.1323 0.13198 0.13173 0.13157 0.13132 0.13103 0.13084 0.13069 0.13044 0.13032 0.13053 0.13083 0.13113 0.13131 0.13151 0.13183
0 0 0 0 0 0 0 0 0 0 0 0 0 0 0 0 0 0 0 0 0 0 0 0 0 0 0 0 0 0 0 0 0 0 0 0 0 0 0 0 0 0 0 0 0 0 0 0 0 0 0 0 0.14112 0.14132 0.14382 0.1421 0.14149 0.13968 0.13887 0.13837 0.13778 0.1374 0.13704 0.13695 0.13698 0.13731 0.13775 0.13764 0.13719 0.13655 0.1359 0.13547 0.13515 0.1348 0.13445 0.13409 0.13402 0.134 0.13356 0.13357 0.13359 0.13367 0.13358 0.13366 0.13359 0.1335 0.13351 0.13329 0.13301 0.1326 0.13223 0.13197 0.13179 0.13156 0.13121 0.13092 0.13081 0.13074 0.13054 0.13041 0.13009 0.12979 0.12964 0.12985 0.13009 0.13039 0.13063 0.13095 0.13114
0 0 0 0 0 0 0 0 0 0 0 0 0 0 0 0 0 0 0 0 0 0 0 0 0 0 0 0 0 0 0 0 0 0 0 0 0 0 0 0 0 0 0 0 0 0 0 0 0 0 0.14088 0.14143 0.14125 0.14074 0.14176 0.14124 0.13974 0.13888 0.13822 0.13778 0.13726 0.13691 0.13617 0.13603 0.1364 0.13727 0.13733 0.13686 0.13639 0.13576 0.13514 0.13478 0.13454 0.13423 0.134 0.13368 0.13323 0.13301 0.13265 0.13272 0.13287 0.13297 0.13319 0.13323 0.13319 0.13301 0.1331 0.13293 0.13249 0.13213 0.13185 0.13159 0.13137 0.13105 0.13071 0.13045 0.13035 0.13037 0.13036 0.13015 0.12965 0.12932 0.12922 0.12939 0.12958 0.12994 0.13019 0.13041 0.13061
0 0 0 0 0 0 0 0 0 0 0 0 0 0 0 0 0 0 0 0 0 0 0 0 0 0 0 0 0 0 0 0 0 0 0 0 0 0 0 0 0 0 0 0 0 0 0 0 0 0 0.13907 0.1408 0.14055 0.14012 0.14046 0.13986 0.13879 0.13772 0.13744 0.13694 0.1364 0.13597 0.13529 0.13524 0.13571 0.13672 0.13691 0.13633 0.13592 0.13542 0.13489 0.13463 0.13431 0.13413 0.1339 0.1335 0.13332 0.13303 0.13285 0.13288 0.13294 0.13298 0.13285 0.13286 0.13285 0.13275 0.13283 0.13277 0.13236 0.132 0.13158 0.13125 0.13103 0.13082 0.13058 0.13041 0.13014 0.13004 0.12987 0.12975 0.12926 0.12894 0.1288 0.12901 0.12911 0.12936 0.12959 0.12984 0.1301
0 0 0 0 0 0 0 0 0 0 0 0 0 0 0 0 0 0 0 0 0 0 0 0 0 0 0 0 0 0 0 0 0 0 0 0 0 0 0 0 0 0 0 0 0 0 0 0 0 0 0 0.13909 0.13885 0.13916 0.13903 0.13808 0.13766 0.13674 0.13663 0.13584 0.13532 0.13505 0.13449 0.13482 0.13526 0.13609 0.13636 0.13598 0.13551 0.135 0.13471 0.1345 0.13409 0.13378 0.13341 0.13333 0.13322 0.13296 0.13298 0.13288 0.1328 0.13276 0.13268 0.13261 0.13261 0.13257 0.13256 0.13249 0.13225 0.1318 0.13131 0.13089 0.13069 0.13059 0.13037 0.12996 0.1298 0.12933 0.12911 0.12891 0.12883 0.12854 0.1284 0.12847 0.12853 0.12881 0.1291 0.12936 0.12961
0 0 0 0 0 0 0 0 0 0 0 0 0 0 0 0 0 0 0 0 0 0 0 0 0 0 0 0 0 0 0 0 0 0 0 0 0 0 0 0 0 0 0 0 0 0 0 0 0 0 0 0.13728 0.13727 0.1372 0.13689 0.13589 0.13635 0.13565 0.13552 0.13478 0.13453 0.1341 0.13385 0.13438 0.13498 0.13537 0.13559 0.13542 0.13501 0.13466 0.13441 0.13412 0.13379 0.13344 0.13355 0.13334 0.13335 0.13334 0.13324 0.13308 0.13318 0.13297 0.13277 0.13274 0.13281 0.13279 0.13261 0.13234 0.13206 0.13174 0.13141 0.13105 0.13077 0.13067 0.13035 0.12989 0.12959 0.12928 0.12887 0.12858 0.12833 0.12796 0.12768 0.12779 0.12785 0.12806 0.12837 0.12869 0.12895
0 0 0 0 0 0 0 0 0 0 0 0 0 0 0 0 0 0 0 0 0 0 0 0 0 0 0 0 0 0 0 0 0 0 0 0 0 0 0 0 0 0 0 0 0 0 0 0 0 0 0 0.13693 0.13622 0.13571 0.13529 0.1344 0.13481 0.13434 0.13389 0.13351 0.13344 0.13314 0.13347 0.13396 0.13415 0.13459 0.13488 0.13485 0.13463 0.13466 0.13427 0.13401 0.13372 0.13344 0.1333 0.13319 0.1332 0.13331 0.13321 0.13289 0.13278 0.13288 0.13261 0.13246 0.13245 0.13238 0.13223 0.13185 0.13138 0.13105 0.13091 0.13069 0.13035 0.13004 0.12976 0.12955 0.12946 0.12899 0.12835 0.12783 0.12744 0.12712 0.12669 0.12687 0.12704 0.12728 0.12765 0.12802 0.12827
0 0 0 0 0 0 0 0 0 0 0 0 0 0 0 0 0 0 0 0 0 0 0 0 0 0 0 0 0 0 0 0 0 0 0 0 0 0 0 0 0 0 0 0 0 0 0 0 0 0.1327 0.13406 0.1371 0.13617 0.1349 0.13413 0.13365 0.13331 0.13293 0.13253 0.13248 0.13228 0.13249 0.13268 0.13342 0.13347 0.1338 0.13419 0.13437 0.13444 0.1346 0.13432 0.13392 0.13351 0.13329 0.13308 0.13314 0.13316 0.13325 0.13312 0.13285 0.13249 0.13271 0.13244 0.13228 0.13205 0.1319 0.1317 0.13145 0.13107 0.13068 0.13029 0.13001 0.1301 0.12969 0.12939 0.12926 0.12896 0.12865 0.12787 0.12725 0.12677 0.1265 0.12611 0.1262 0.12648 0.12684 0.12719 0.12744 0.1278
0 0 0 0 0 0 0 0 0 0 0 0 0 0 0 0 0 0 0 0 0 0 0 0 0 0 0 0 0 0 0 0 0 0 0 0 0 0 0 0 0 0 0 0 0 0 0 0 0.12777 0.13115 0.13419 0.1368 0.13549 0.13402 0.13305 0.13281 0.13251 0.13223 0.13176 0.13166 0.13168 0.13202 0.13228 0.13255 0.13276 0.133 0.1333 0.13377 0.13403 0.13405 0.13391 0.13361 0.1333 0.13289 0.13293 0.13309 0.133 0.1328 0.13278 0.13276 0.13225 0.13233 0.13218 0.1319 0.1317 0.13154 0.13136 0.13101 0.13072 0.13034 0.13 0.12977 0.12957 0.12933 0.12909 0.12898 0.12887 0.12826 0.12755 0.12709 0.12664 0.12628 0.12587 0.12603 0.12619 0.12643 0.1269 0.12726 0.12755
0 0 0 0 0 0 0 0 0 0 0 0 0 0 0 0 0 0 0 0 0 0 0 0 0 0 0 0 0 0 0 0 0 0 0 0 0 0 0 0 0 0 0 0 0 0.13263 0.13199 0.13085 0.1298 0.13182 0.13377 0.13519 0.13443 0.13303 0.13212 0.1319 0.13203 0.13156 0.13109 0.13089 0.13067 0.13116 0.13153 0.13188 0.13188 0.13241 0.13281 0.13308 0.13339 0.13382 0.13393 0.13321 0.13321 0.1329 0.13281 0.13298 0.13272 0.13263 0.1325 0.13214 0.13209 0.13166 0.13143 0.13132 0.13113 0.13091 0.13076 0.13049 0.1302 0.12998 0.12981 0.12939 0.12908 0.12889 0.12857 0.12864 0.12859 0.12803 0.12716 0.12678 0.12633 0.1261 0.12565 0.12572 0.12575 0.12613 0.12652 0.12708 0.1274
0 0 0 0 0 0 0 0 0 0 0 0 0 0 0 0 0 0 0 0 0 0 0 0 0 0 0 0 0 0 0 0 0 0 0 0 0 0 0 0 0 0 0.13053 0.13161 0.13265 0.13309 0.1328 0.13251 0.13183 0.13242 0.13286 0.13355 0.13287 0.1318 0.13137 0.13121 0.13116 0.13078 0.13084 0.13017 0.12999 0.1306 0.13122 0.13136 0.13145 0.13187 0.13237 0.13261 0.13308 0.13345 0.13312 0.13303 0.13295 0.13285 0.13278 0.13291 0.13256 0.13256 0.13245 0.13203 0.13157 0.13116 0.13088 0.13074 0.13072 0.13059 0.13021 0.12977 0.12952 0.12933 0.12919 0.12906 0.12883 0.12857 0.12833 0.12811 0.1279 0.12758 0.12694 0.12666 0.12628 0.1259 0.12566 0.12559 0.12551 0.12584 0.12627 0.12674 0.12714
0 0 0 0 0 0 0 0 0 0 0 0 0 0 0 0 0 0 0 0 0 0 0 0 0 0 0 0 0 0 0 0 0 0 0 0 0 0 0 0 0.12921 0.12966 0.1302 0.13128 0.13285 0.13371 0.13363 0.13356 0.1334 0.13263 0.13189 0.13171 0.13137 0.13082 0.13067 0.1304 0.13035 0.13008 0.13006 0.12963 0.1295 0.12977 0.13034 0.1305 0.13098 0.13158 0.13211 0.13238 0.13257 0.13282 0.13276 0.13284 0.13292 0.13297 0.133 0.13289 0.13263 0.13245 0.13246 0.132 0.13134 0.13093 0.13067 0.13022 0.13023 0.13014 0.13005 0.1297 0.12929 0.12898 0.1286 0.12856 0.12835 0.12809 0.12775 0.12754 0.12729 0.12699 0.12673 0.12658 0.12622 0.12562 0.1255 0.12544 0.12543 0.12555 0.12614 0.12645 0.12688
0 0 0 0 0 0 0 0 0 0 0 0 0 0 0 0 0 0 0 0 0 0 0 0 0 0 0 0 0 0 0 0 0 0 0 0 0 0 0 0.12836 0.12936 0.12944 0.1298 0.13026 0.13156 0.13215 0.13194 0.13189 0.13154 0.13095 0.13054 0.13028 0.13017 0.12959 0.12958 0.12954 0.12942 0.12941 0.12934 0.12922 0.12919 0.12938 0.1297 0.13012 0.1306 0.13107 0.1316 0.13202 0.13229 0.1324 0.13244 0.13233 0.13278 0.13289 0.13286 0.13274 0.13241 0.13213 0.13198 0.13133 0.13086 0.13057 0.13039 0.13013 0.12989 0.1297 0.12963 0.1294 0.12885 0.1284 0.1283 0.12813 0.12805 0.12791 0.12779 0.12755 0.12707 0.12685 0.12647 0.12625 0.12582 0.12538 0.12532 0.12536 0.12555 0.12574 0.12616 0.12636 0.12671
0 0 0 0 0 0 0 0 0 0 0 0 0 0 0 0 0 0 0 0 0 0 0 0 0 0 0 0 0 0 0 0 0 0 0 0 0 0 0.12768 0.13036 0.13024 0.12974 0.12987 0.12974 0.1302 0.13049 0.13031 0.12979 0.12956 0.1293 0.12944 0.12929 0.12934 0.12919 0.12921 0.129 0.12893 0.12896 0.12886 0.12891 0.12905 0.12938 0.12951 0.1299 0.13036 0.13078 0.1311 0.1314 0.13174 0.132 0.13195 0.13212 0.13228 0.13252 0.13259 0.13244 0.13205 0.13163 0.13144 0.13093 0.13054 0.13034 0.13002 0.12969 0.12957 0.12954 0.12943 0.12924 0.12892 0.1288 0.12851 0.12813 0.12798 0.12792 0.1277 0.12765 0.12719 0.12676 0.12619 0.12601 0.12549 0.12522 0.12517 0.12541 0.1257 0.12602 0.12636 0.12651 0.12683
0 0 0 0 0 0 0 0 0 0 0 0 0 0 0 0 0 0 0 0 0 0 0 0 0 0 0 0 0 0 0 0 0 0 0.12281 0.11483 0.10826 0.1172 0.12572 0.13382 0.13273 0.13149 0.13055 0.13 0.12959 0.1289 0.1286 0.12831 0.12789 0.12797 0.12823 0.12842 0.12862 0.12891 0.1288 0.12876 0.12876 0.12895 0.12891 0.12896 0.12909 0.12931 0.12945 0.12968 0.13008 0.13031 0.13068 0.13107 0.13139 0.13171 0.13172 0.13175 0.13181 0.13194 0.13189 0.13171 0.13156 0.13129 0.13104 0.13054 0.13043 0.13022 0.12977 0.12928 0.12917 0.12922 0.12923 0.12896 0.12884 0.12886 0.12871 0.12837 0.12839 0.12819 0.12782 0.12753 0.12723 0.12646 0.12588 0.12575 0.12556 0.12521 0.12506 0.12547 0.12594 0.12625 0.12653 0.12673 0.12698
0 0 0 0 0 0 0 0 0 0 0 0 0 0 0 0 0 0 0 0 0 0 0 0 0 0 0 0 0 0.13558 0.13555 0.13551 0.13404 0.13183 0.1283 0.12359 0.11741 0.12303 0.12845 0.1337 0.13259 0.13127 0.13012 0.12949 0.12911 0.12846 0.12808 0.12764 0.12745 0.12769 0.12781 0.12835 0.12821 0.12828 0.12847 0.12831 0.12866 0.12884 0.12884 0.12889 0.12899 0.12918 0.1294 0.12954 0.1298 0.13004 0.13048 0.13091 0.13092 0.13091 0.13103 0.13109 0.13106 0.13128 0.13129 0.13102 0.1307 0.13052 0.13036 0.13004 0.12973 0.12965 0.1295 0.12908 0.12889 0.129 0.12891 0.12865 0.12858 0.12862 0.12852 0.12824 0.12811 0.12786 0.12765 0.12739 0.12704 0.12621 0.1258 0.12561 0.12544 0.12528 0.12523 0.12562 0.12608 0.12639 0.1266 0.12689 0.12709
0 0 0 0 0 0 0 0 0 0 0 0 0 0 0 0 0 0 0 0 0 0 0 0 0 0.13123 0.13246 0.13186 0.13438 0.13768 0.13883 0.13767 0.13641 0.13605 0.1341 0.13233 0.12685 0.12896 0.13117 0.1335 0.13243 0.13084 0.1294 0.12864 0.12821 0.12765 0.12755 0.12744 0.12747 0.12749 0.1276 0.12813 0.12801 0.12811 0.12824 0.12835 0.12856 0.12873 0.12895 0.12905 0.12917 0.12913 0.12928 0.12945 0.12957 0.13001 0.13027 0.1306 0.13034 0.13026 0.13048 0.13063 0.13075 0.13088 0.13055 0.13023 0.13002 0.12982 0.1298 0.12955 0.12924 0.1289 0.12887 0.12887 0.12858 0.12868 0.12866 0.12842 0.12851 0.12846 0.12838 0.12802 0.12765 0.12751 0.12752 0.12716 0.12678 0.1262 0.12581 0.12556 0.12535 0.1253 0.12533 0.12567 0.1262 0.12661 0.12682 0.12712 0.12736
0 0 0 0 0 0 0 0 0 0 0 0 0 0 0 0 0 0 0 0 0 0 0 0.12826 0.12955 0.13117 0.13159 0.12954 0.13472 0.1387 0.14274 0.14032 0.13907 0.13836 0.13763 0.13648 0.13546 0.13436 0.13356 0.13255 0.13167 0.13015 0.12867 0.12758 0.12727 0.12686 0.12708 0.127 0.12702 0.12727 0.12736 0.12789 0.1277 0.1279 0.12811 0.12809 0.12833 0.12857 0.12891 0.12904 0.12906 0.12904 0.12921 0.12928 0.12945 0.12948 0.1299 0.12994 0.12994 0.12994 0.12989 0.12993 0.13003 0.13009 0.12966 0.12914 0.12885 0.12874 0.12879 0.12877 0.12877 0.12846 0.12823 0.12834 0.1284 0.12826 0.12827 0.12825 0.12822 0.12832 0.12811 0.12778 0.12725 0.12722 0.12711 0.12689 0.12659 0.12617 0.12569 0.12533 0.12532 0.12536 0.12561 0.1258 0.1263 0.12662 0.12694 0.12734 0.12762
0 0 0 0 0 0 0 0 0 0 0 0 0 0 0 0 0 0 0 0 0 0 0.12515 0.12675 0.12787 0.1299 0.13354 0.13266 0.13552 0.13885 0.14156 0.13987 0.13793 0.13669 0.13617 0.13534 0.13403 0.13337 0.13255 0.13146 0.13055 0.12968 0.12862 0.12786 0.12708 0.1266 0.12649 0.12646 0.12649 0.1267 0.12672 0.1274 0.1275 0.12785 0.12807 0.12822 0.12825 0.12856 0.12872 0.12886 0.12906 0.12919 0.12914 0.12926 0.12929 0.1294 0.12948 0.1297 0.12959 0.12938 0.12938 0.12947 0.12948 0.12929 0.1287 0.12837 0.12811 0.12805 0.12789 0.12755 0.12745 0.12753 0.12758 0.12762 0.12774 0.12763 0.12759 0.12774 0.12758 0.12761 0.1277 0.12714 0.12704 0.12689 0.12683 0.12668 0.12636 0.12581 0.12548 0.12527 0.12512 0.12521 0.12538 0.12576 0.12625 0.12669 0.12703 0.1273 0.12753
0 0 0 0 0 0 0 0 0 0 0 0 0 0 0 0 0 0 0 0 0 0.12313 0.1235 0.12387 0.12406 0.1273 0.1316 0.13399 0.13579 0.13758 0.13951 0.1376 0.13583 0.1343 0.13366 0.13315 0.13192 0.13097 0.13047 0.12977 0.1291 0.12854 0.12769 0.12694 0.12632 0.12626 0.12626 0.1261 0.12605 0.12621 0.12645 0.12698 0.12748 0.12792 0.12824 0.12829 0.12835 0.12844 0.12865 0.12884 0.12911 0.12916 0.12916 0.12918 0.12918 0.12914 0.12918 0.12934 0.12937 0.12937 0.1293 0.12907 0.12896 0.12867 0.12837 0.12795 0.12781 0.12766 0.12744 0.1272 0.1271 0.12715 0.12734 0.12742 0.12739 0.12729 0.12705 0.12715 0.12716 0.12703 0.12716 0.12682 0.12657 0.12658 0.12656 0.12634 0.12605 0.12555 0.1253 0.12493 0.125 0.12504 0.12531 0.12566 0.1261 0.12662 0.12697 0.12731 0.1276
0 0 0 0 0 0 0 0 0 0 0 0 0 0 0 0 0 0 0 0 0 0 0 0.12275 0.12042 0.12498 0.13041 0.13617 0.13612 0.13668 0.13756 0.13535 0.13348 0.13203 0.13135 0.13088 0.12987 0.12935 0.12901 0.12827 0.12778 0.12707 0.12649 0.12593 0.12589 0.12586 0.1258 0.12584 0.12576 0.12604 0.12609 0.12661 0.12711 0.12762 0.12794 0.12812 0.12832 0.12842 0.12855 0.12881 0.12918 0.12919 0.12917 0.12917 0.12905 0.12897 0.12901 0.1292 0.12924 0.12932 0.12928 0.12915 0.12886 0.1285 0.12819 0.12775 0.1275 0.1273 0.12713 0.1269 0.12686 0.1269 0.1271 0.127 0.12708 0.12706 0.12681 0.12672 0.12667 0.12672 0.12666 0.1264 0.12624 0.12624 0.12615 0.12606 0.12571 0.12522 0.12496 0.1249 0.12488 0.12502 0.12523 0.12563 0.12598 0.1265 0.12681 0.12717 0.12751
0 0 0 0 0 0 0 0 0 0 0 0 0 0 0 0 0 0 0 0 0 0.11734 0.11996 0.12294 0.1214 0.12652 0.13167 0.13843 0.13706 0.13633 0.1359 0.13429 0.13241 0.13095 0.13062 0.13012 0.12901 0.12848 0.12824 0.12767 0.12712 0.12635 0.12581 0.12555 0.12534 0.12538 0.12548 0.12544 0.12559 0.12576 0.12581 0.12618 0.12657 0.12688 0.12723 0.12733 0.12758 0.12768 0.128 0.12849 0.12881 0.12889 0.12898 0.12907 0.1289 0.12889 0.12886 0.12894 0.12893 0.12883 0.1288 0.12879 0.12861 0.1283 0.12786 0.12744 0.12719 0.12713 0.12699 0.12687 0.12692 0.12696 0.12704 0.1268 0.12696 0.12691 0.1269 0.12674 0.12659 0.12655 0.12639 0.12617 0.12615 0.12609 0.12581 0.12558 0.12522 0.12481 0.12473 0.12436 0.1245 0.12457 0.12472 0.12506 0.12556 0.12611 0.12653 0.12708 0.12755
0 0 0 0 0 0 0 0 0 0 0 0 0 0 0 0 0 0 0 0.11164 0.11019 0.10957 0.11571 0.1222 0.12305 0.12751 0.13332 0.14025 0.13805 0.13626 0.1346 0.13307 0.13108 0.12988 0.1296 0.12898 0.12815 0.12768 0.12728 0.12683 0.12633 0.12566 0.12518 0.12498 0.12471 0.12474 0.12491 0.12488 0.1252 0.12529 0.1254 0.12565 0.12586 0.12614 0.12646 0.12668 0.12684 0.12726 0.1276 0.12798 0.1282 0.12847 0.12876 0.12899 0.12899 0.12893 0.12881 0.12876 0.12864 0.12852 0.12838 0.12822 0.12817 0.1279 0.12753 0.12715 0.12697 0.12701 0.12691 0.12679 0.12682 0.12679 0.1269 0.12677 0.12681 0.12679 0.12682 0.12673 0.12658 0.12655 0.12647 0.12629 0.12627 0.12619 0.12565 0.12505 0.12472 0.12452 0.12428 0.12409 0.12413 0.12416 0.12415 0.12461 0.12518 0.12559 0.12631 0.12694 0.12743
0 0 0 0 0 0 0 0 0 0 0 0 0 0 0 0 0 0 0.10813 0.10888 0.10596 0.10027 0.10922 0.11655 0.12401 0.12882 0.13496 0.14186 0.1388 0.13618 0.13327 0.13189 0.13003 0.1291 0.12863 0.12786 0.12733 0.12675 0.12613 0.12571 0.12528 0.12488 0.12456 0.12437 0.12404 0.12397 0.12419 0.12437 0.12448 0.12483 0.125 0.12514 0.12528 0.12541 0.12554 0.1259 0.1263 0.12685 0.12714 0.12737 0.12764 0.12807 0.12842 0.12876 0.12871 0.12854 0.12849 0.12844 0.12832 0.12824 0.1281 0.12796 0.12789 0.12758 0.12727 0.1271 0.12703 0.12692 0.12683 0.12687 0.12679 0.1268 0.12676 0.12679 0.12683 0.12689 0.12691 0.12665 0.12651 0.12642 0.12635 0.12643 0.12644 0.1264 0.12563 0.12529 0.12487 0.12457 0.12402 0.124 0.12396 0.12397 0.12375 0.12419 0.12462 0.12516 0.12594 0.12662 0.12726
0 0 0 0 0 0 0 0 0 0 0 0 0 0 0 0 0 0.10508 0.10634 0.10873 0.11093 0.10587 0.11377 0.1217 0.12958 0.13309 0.13646 0.13939 0.137 0.13484 0.13266 0.13118 0.12947 0.12885 0.12809 0.12737 0.12689 0.12646 0.12594 0.12539 0.12506 0.12473 0.1244 0.12422 0.12398 0.12396 0.12412 0.12424 0.12439 0.12458 0.12479 0.12498 0.12519 0.12521 0.12517 0.12541 0.12583 0.12622 0.12656 0.12715 0.12758 0.12789 0.12814 0.1284 0.12856 0.12877 0.12871 0.12852 0.12828 0.1281 0.12789 0.1278 0.12771 0.12753 0.12732 0.12729 0.1273 0.12717 0.127 0.12706 0.12699 0.12685 0.12683 0.12675 0.12678 0.12679 0.12684 0.12669 0.12668 0.12658 0.12642 0.12644 0.12619 0.12607 0.12568 0.12513 0.12464 0.12413 0.12371 0.12392 0.12363 0.12373 0.12356 0.12394 0.12434 0.12498 0.12575 0.12629 0.1271
0 0 0 0 0 0 0 0 0 0 0 0 0 0 0 0 0.10071 0.09966 0.09907 0.10489 0.11133 0.10838 0.11792 0.12541 0.13238 0.13409 0.13606 0.13697 0.13521 0.1337 0.13174 0.13068 0.12925 0.12844 0.12808 0.12727 0.12648 0.12612 0.12567 0.12533 0.12491 0.12459 0.12425 0.12399 0.12372 0.12383 0.12416 0.12438 0.1244 0.1245 0.12462 0.12472 0.1248 0.1249 0.12489 0.12513 0.12559 0.12593 0.12632 0.12682 0.12738 0.12764 0.12793 0.12816 0.12839 0.12865 0.12875 0.12857 0.12832 0.12822 0.12793 0.12783 0.12776 0.12754 0.12741 0.12732 0.12733 0.12727 0.12716 0.12709 0.12706 0.12698 0.12688 0.12687 0.12718 0.12707 0.12694 0.12688 0.12685 0.12673 0.1266 0.12633 0.1263 0.12623 0.12563 0.12505 0.12431 0.12383 0.12366 0.12358 0.12327 0.12336 0.12338 0.12373 0.12403 0.12476 0.12553 0.12616 0.12672
0 0 0 0 0 0 0 0 0 0 0 0 0 0 0 0.10365 0.1006 0.09458 0.08898 0.09683 0.10428 0.111 0.12114 0.12845 0.13534 0.1353 0.13551 0.13482 0.13331 0.13252 0.1312 0.1301 0.12915 0.12808 0.12777 0.12727 0.12644 0.12597 0.12561 0.12516 0.12469 0.12444 0.12416 0.12396 0.12363 0.1237 0.12413 0.12426 0.1243 0.12424 0.12429 0.12442 0.12431 0.12425 0.12432 0.12464 0.12507 0.12541 0.12552 0.12605 0.12697 0.12665 0.12721 0.12795 0.12811 0.12847 0.12863 0.1285 0.12836 0.1283 0.1281 0.12782 0.1278 0.12767 0.12742 0.12707 0.12726 0.1274 0.12722 0.1273 0.12725 0.12709 0.12711 0.12704 0.12708 0.12691 0.12685 0.12685 0.12685 0.12673 0.12671 0.12634 0.12633 0.12595 0.12539 0.12467 0.12394 0.12351 0.12334 0.12314 0.12305 0.12309 0.12313 0.12364 0.12388 0.1245 0.12513 0.12578 0.12626
0 0 0 0 0 0 0 0 0 0 0 0 0 0 0.1028 0.1038 0.10301 0.10188 0.09682 0.10393 0.1107 0.11764 0.12479 0.12938 0.13371 0.13396 0.13409 0.13365 0.13232 0.13138 0.13048 0.12946 0.12868 0.12767 0.12733 0.12676 0.12612 0.12568 0.12534 0.12488 0.12452 0.12426 0.12383 0.1236 0.12344 0.12355 0.12394 0.1243 0.12433 0.12449 0.12467 0.12496 0.12471 0.12438 0.12437 0.12361 0.12288 0.12236 0.12405 0.12466 0.12517 0.125 0.12508 0.12244 0.12463 0.1269 0.12887 0.12857 0.12837 0.12804 0.12778 0.12751 0.12745 0.12727 0.12709 0.12694 0.12703 0.12707 0.12707 0.12715 0.1271 0.12681 0.12679 0.12676 0.12676 0.12667 0.12666 0.12667 0.12672 0.12655 0.12608 0.12607 0.12585 0.12568 0.12494 0.12421 0.12349 0.12321 0.1231 0.12297 0.12288 0.12286 0.1229 0.12346 0.1238 0.12438 0.12499 0.12555 0.12629
0 0 0 0 0 0 0 0 0 0 0 0 0 0.10328 0.10292 0.10083 0.10463 0.1091 0.10471 0.11155 0.11852 0.12506 0.12817 0.13016 0.13174 0.1325 0.13256 0.1325 0.13132 0.13046 0.12976 0.12909 0.12818 0.12717 0.12678 0.12615 0.12589 0.12543 0.12488 0.12439 0.12411 0.12392 0.12349 0.12326 0.12308 0.12307 0.12353 0.12397 0.12435 0.12468 0.12495 0.12529 0.12492 0.12465 0.1243 0.12254 0.12066 0.11897 0 0 0 0.12508 0.12239 0.11706 0.1211 0.12523 0.12928 0.12883 0.12837 0.12787 0.12747 0.1272 0.12701 0.12692 0.12691 0.1269 0.12676 0.12667 0.12664 0.12671 0.12679 0.12665 0.12655 0.12662 0.12656 0.12656 0.12656 0.1265 0.12647 0.1262 0.12612 0.12603 0.12559 0.12536 0.12471 0.12397 0.12323 0.12311 0.12302 0.12292 0.12279 0.12269 0.12277 0.12321 0.12391 0.12423 0.12496 0.12575 0.12636
0 0 0 0 0 0 0 0 0 0 0 0 0 0.10683 0.10008 0.094 0.10007 0.10633 0.11254 0.11951 0.12598 0.13293 0.13208 0.13114 0.13031 0.13102 0.13106 0.13134 0.13059 0.12967 0.12957 0.12908 0.12777 0.12672 0.12626 0.12612 0.12563 0.12519 0.12467 0.12435 0.12429 0.12401 0.12335 0.12248 0.12232 0.12272 0.12305 0.12391 0.12417 0.12371 0.12404 0.12543 0.12362 0.12273 0.12423 0.12138 0.11848 0.1156 0 0 0 0 0 0.11898 0.11755 0.12368 0.12959 0.12901 0.12832 0.12772 0.12736 0.12711 0.12683 0.12668 0.12658 0.12639 0.12631 0.12643 0.1264 0.1264 0.1266 0.12644 0.12642 0.12646 0.12625 0.12636 0.1262 0.12642 0.12639 0.1261 0.12616 0.12583 0.12533 0.12484 0.12442 0.12374 0.12311 0.12298 0.12299 0.12294 0.12276 0.1226 0.12261 0.1232 0.12385 0.12436 0.12527 0.12624 0.12701
0 0 0 0 0 0 0 0 0 0 0 0 0.11266 0.11171 0.10948 0.10772 0.11137 0.11568 0.12035 0.12457 0.12856 0.13249 0.1318 0.13089 0.13007 0.13052 0.13064 0.13112 0.13036 0.12961 0.12961 0.12857 0.12739 0.12654 0.12617 0.12592 0.12568 0.12519 0.12454 0.12433 0.12233 0.12026 0.11781 0.12102 0.12146 0.12218 0.12269 0 0 0.12397 0 0.12237 0.12051 0.11899 0.11195 0.11427 0.11662 0.11903 0.11841 0.12029 0.12158 0 0 0 0.12023 0.12461 0.12897 0.12834 0.12758 0.12695 0.12663 0.12634 0.12617 0.126 0.12579 0.12563 0.12578 0.12592 0.12597 0.12608 0.12623 0.12617 0.12612 0.12594 0.12594 0.12629 0.12608 0.12621 0.12629 0.12629 0.12612 0.1256 0.12503 0.12469 0.12438 0.1237 0.12311 0.12308 0.12306 0.12296 0.12284 0.1227 0.12269 0.1231 0.12365 0.12399 0.12482 0.12592 0.12673
0 0 0 0 0 0 0 0 0 0 0 0.11176 0.11096 0.11474 0.12154 0.1204 0.12246 0.125 0.12743 0.12912 0.13051 0.13203 0.13145 0.13102 0.13063 0.13076 0.1308 0.1312 0.13044 0.12956 0.12898 0.12827 0.1274 0.12667 0.1264 0.12612 0.12571 0.12493 0.12435 0.12416 0.12031 0.11643 0.11238 0.11585 0.11853 0 0 0 0 0 0.11991 0.11745 0.11344 0.1075 0.09954 0.107 0.11468 0.12207 0.1205 0.12081 0.12146 0.12247 0.12275 0.12024 0.12308 0.12562 0.12819 0.12768 0.12692 0.12624 0.12602 0.12588 0.12572 0.12552 0.12532 0.12533 0.12544 0.12557 0.12558 0.12566 0.1258 0.12582 0.12569 0.12563 0.12574 0.12595 0.12606 0.12599 0.12636 0.12636 0.12608 0.12556 0.12509 0.12478 0.12431 0.12369 0.12329 0.12319 0.1231 0.12307 0.12288 0.12274 0.12267 0.12305 0.12339 0.12376 0.12447 0.12561 0.12646
0 0 0 0 0 0 0 0 0 0 0.1151 0.10962 0.10473 0.11446 0.12403 0.13339 0.13384 0.13429 0.13448 0.1337 0.13268 0.13161 0.13144 0.13067 0.13047 0.13054 0.13065 0.13082 0.13002 0.12913 0.12868 0.12796 0.12739 0.12679 0.12647 0.12622 0.12567 0.12484 0.1241 0.12397 0.12144 0.11308 0.1068 0 0 0 0 0 0 0 0 0 0 0 0.08719 0.09975 0.11253 0.12486 0.12424 0.12368 0.12305 0.12349 0.12398 0.12459 0.12558 0.12645 0.12744 0.12677 0.12619 0.12545 0.12552 0.12541 0.12515 0.12489 0.12481 0.12495 0.1251 0.12522 0.1252 0.12518 0.12512 0.12522 0.12533 0.12535 0.12543 0.12567 0.12574 0.12598 0.12616 0.12619 0.12598 0.12569 0.12515 0.12479 0.12427 0.12388 0.12341 0.12332 0.12324 0.12314 0.12291 0.12277 0.12259 0.12296 0.12326 0.12355 0.12427 0.12521 0.12629
0 0 0 0 0 0 0 0 0 0 0.11978 0.11681 0.11546 0.12106 0.12669 0.13224 0.13274 0.13291 0.13305 0.13239 0.13165 0.13123 0.1308 0.13047 0.13006 0.13014 0.13024 0.13018 0.12945 0.12876 0.12817 0.12765 0.12734 0.12686 0.12644 0.12605 0.12557 0.12489 0.12391 0.12356 0.12089 0 0 0 0 0 0 0 0 0 0 0 0 0 0.09993 0.10796 0.11604 0.124 0.12358 0.12312 0.12282 0.12322 0.12364 0.12406 0.12494 0.12566 0.1265 0.1259 0.12552 0.12506 0.12485 0.12461 0.12451 0.12445 0.12437 0.12442 0.12455 0.12473 0.12495 0.12501 0.12502 0.12502 0.12503 0.12518 0.12527 0.12534 0.12538 0.12546 0.12537 0.12531 0.12531 0.12512 0.12489 0.12457 0.12412 0.12378 0.12339 0.12341 0.12328 0.12319 0.12298 0.12285 0.12276 0.12293 0.1231 0.12342 0.124 0.1248 0.12564
0 0 0 0 0 0 0 0 0 0.12438 0.12579 0.12897 0.12634 0.12826 0.12969 0.13158 0.13147 0.13149 0.13155 0.13121 0.13075 0.13044 0.1305 0.13012 0.13007 0.12989 0.12987 0.1297 0.12914 0.12859 0.12781 0.1274 0.12712 0.12676 0.1264 0.12602 0.12564 0.12475 0.12367 0.12292 0.12243 0 0 0 0 0 0 0 0 0 0 0 0 0.11587 0.1125 0.11603 0.11958 0.12316 0.12295 0.1228 0.12261 0.12301 0.12333 0.12375 0.12455 0.12517 0.12556 0.12521 0.12493 0.12456 0.12412 0.12405 0.12398 0.12404 0.12414 0.12419 0.12433 0.12439 0.1245 0.12463 0.12467 0.1248 0.12499 0.1251 0.12519 0.12508 0.12495 0.12501 0.12491 0.12481 0.12464 0.1246 0.12444 0.12424 0.12394 0.12361 0.12335 0.12331 0.12322 0.12316 0.123 0.12284 0.12272 0.12291 0.12312 0.12323 0.1236 0.12416 0.12483
0 0 0 0 0 0 0 0 0.12487 0.12677 0.13036 0.13447 0.13753 0.13543 0.13309 0.13081 0.13069 0.13062 0.13045 0.13045 0.13044 0.13057 0.13047 0.13007 0.13009 0.12989 0.12987 0.12973 0.12908 0.12846 0.12775 0.12743 0.12707 0.12674 0.12636 0.12596 0.12564 0.12451 0.1234 0.12249 0.12254 0.12218 0 0.11988 0.11924 0 0 0 0 0 0 0 0.11942 0.12245 0.12505 0.12418 0.12321 0.12218 0.12234 0.12236 0.12241 0.12278 0.12324 0.12354 0.1241 0.12457 0.12477 0.12448 0.12422 0.12385 0.12364 0.12355 0.12348 0.12371 0.12396 0.1239 0.12401 0.12415 0.12419 0.1244 0.1248 0.12511 0.12508 0.12507 0.12518 0.12493 0.12485 0.12473 0.12456 0.12439 0.12418 0.1242 0.12413 0.12405 0.12396 0.12364 0.12342 0.12329 0.12322 0.12323 0.1231 0.12295 0.12283 0.12303 0.12315 0.12317 0.12341 0.12376 0.12412
0 0 0 0 0 0 0 0 0.12663 0.12811 0.12987 0.13197 0.13666 0.13452 0.13226 0.13016 0.13008 0.12986 0.12981 0.1299 0.13 0.13016 0.12998 0.12978 0.12968 0.12958 0.12937 0.12914 0.1286 0.12823 0.12774 0.12744 0.1271 0.12674 0.12642 0.12607 0.1257 0.12483 0.12404 0.12342 0.12335 0.12326 0.12227 0.12163 0.12083 0 0 0 0 0 0 0.11865 0.12003 0.12144 0.12431 0.1237 0.123 0.12231 0.12236 0.12236 0.12239 0.12274 0.12304 0.1233 0.12369 0.12405 0.12418 0.12393 0.12369 0.12351 0.12343 0.12346 0.1234 0.12367 0.12376 0.12382 0.12393 0.12398 0.12403 0.1243 0.12454 0.12479 0.12466 0.12468 0.12454 0.1244 0.1244 0.12431 0.12433 0.12427 0.12419 0.12415 0.12393 0.12397 0.12387 0.12371 0.12349 0.12349 0.12347 0.12333 0.12315 0.12298 0.12306 0.12307 0.1232 0.12326 0.12351 0.12365 0.12401
0 0 0 0 0 0 0 0 0 0.12694 0.12879 0.1306 0.13552 0.13368 0.13153 0.12954 0.12927 0.12919 0.12923 0.12933 0.12973 0.12989 0.1297 0.12956 0.12951 0.12916 0.12903 0.1288 0.12841 0.12813 0.12773 0.12745 0.12713 0.12689 0.12652 0.12624 0.12595 0.12531 0.12476 0.12437 0.12468 0.12432 0.12384 0.12328 0.1227 0.12195 0.11896 0.11277 0 0 0.11854 0.12124 0.12084 0.1213 0.12348 0.12317 0.12274 0.12246 0.12231 0.12217 0.12225 0.12265 0.12295 0.12314 0.1233 0.12358 0.12367 0.12342 0.12332 0.12323 0.12335 0.1234 0.12343 0.12351 0.12356 0.12365 0.12377 0.12392 0.12405 0.1242 0.12439 0.12455 0.12445 0.1242 0.12399 0.12411 0.12415 0.12401 0.12415 0.12407 0.12407 0.12391 0.12393 0.1239 0.12383 0.1237 0.12353 0.12356 0.12349 0.12343 0.1232 0.12318 0.1232 0.1232 0.12318 0.12319 0.12341 0.12372 0.12402
0 0 0 0 0 0 0 0 0 0.12484 0.1271 0.13139 0.13487 0.13269 0.13063 0.12855 0.12847 0.12847 0.12839 0.12881 0.12924 0.12958 0.12943 0.12927 0.12913 0.12895 0.1288 0.12872 0.12846 0.12818 0.12781 0.12755 0.12725 0.12697 0.12667 0.12646 0.12628 0.12585 0.12546 0.12523 0.12521 0.12514 0.12499 0.12508 0.12512 0.12522 0.1167 0.1082 0.09936 0.10763 0.11571 0.12363 0.12331 0.12291 0.12263 0.12257 0.12248 0.12241 0.1224 0.12222 0.12224 0.12249 0.12272 0.12288 0.12286 0.12296 0.12295 0.12282 0.12269 0.12287 0.12306 0.1232 0.12334 0.12353 0.12367 0.12371 0.12385 0.12397 0.12409 0.1241 0.12417 0.1241 0.12408 0.12392 0.12394 0.12393 0.12392 0.12394 0.12386 0.12388 0.12382 0.12376 0.12385 0.12393 0.12387 0.12374 0.12362 0.12369 0.12348 0.12351 0.12343 0.12337 0.12333 0.12329 0.12333 0.12323 0.12335 0.12368 0.124
0 0 0 0 0 0 0 0 0 0.12024 0.12111 0.12315 0.11623 0.12059 0.12481 0.12879 0.12859 0.12834 0.12823 0.12868 0.12898 0.12936 0.12932 0.12925 0.12924 0.12907 0.12889 0.1288 0.12891 0.12888 0.12869 0.12868 0.12866 0.12868 0.12794 0.12728 0.12655 0.12616 0.1256 0.12529 0.12516 0.12482 0.12453 0.12438 0.12437 0.12451 0.11887 0 0.1074 0.11281 0.11825 0.12351 0.12328 0.12291 0.12253 0.12236 0.12232 0.12223 0.12231 0.12232 0.12228 0.12252 0.12277 0.1229 0.12293 0.12291 0.12295 0.12284 0.12285 0.12282 0.12303 0.12311 0.12326 0.12341 0.12354 0.12365 0.12371 0.12372 0.12372 0.12378 0.12377 0.12364 0.12372 0.12373 0.12368 0.12379 0.124 0.12405 0.12399 0.12394 0.124 0.12407 0.12407 0.12408 0.12393 0.12391 0.12393 0.12388 0.12379 0.12363 0.12351 0.12349 0.12342 0.12334 0.12314 0.12302 0.12326 0.12353 0.12398
0 0 0 0 0 0 0 0 0 0 0.10989 0.10402 0.09822 0.10862 0.11895 0.12902 0.12867 0.12826 0.1283 0.12871 0.12891 0.12918 0.12907 0.12916 0.12939 0.12919 0.12923 0.12919 0 0 0 0.12957 0.13016 0.13039 0.12916 0.12794 0.1267 0.12612 0.12558 0.12505 0.12471 0.12435 0.124 0.1239 0.1237 0.1237 0.12092 0.1181 0.1152 0.11795 0.12061 0.1232 0.12306 0.12276 0.12245 0.12236 0.12216 0.12228 0.12241 0.12241 0.1223 0.12257 0.12269 0.12277 0.12277 0.12287 0.12301 0.12297 0.12299 0.12285 0.12293 0.12299 0.12306 0.12321 0.12329 0.12337 0.12353 0.1236 0.12367 0.1236 0.12351 0.12347 0.12344 0.12355 0.12361 0.12381 0.1239 0.12407 0.12407 0.12414 0.12421 0.1242 0.12426 0.12424 0.12414 0.1241 0.1241 0.12398 0.12381 0.1237 0.12364 0.12372 0.12367 0.1235 0.12321 0.12298 0.12329 0.12355 0.12399
0 0 0 0 0 0 0 0 0 0 0 0.09013 0.08009 0.09651 0.12144 0.12931 0.1269 0.12722 0.12858 0.12876 0.12912 0.12926 0.1291 0.12919 0.12937 0.12927 0.12945 0.12962 0 0 0 0.1302 0.13166 0.13204 0.13029 0.12863 0.12662 0.12611 0.12559 0.12511 0.12456 0.124 0.1235 0.12323 0.12302 0.12289 0.12292 0.12291 0.12288 0.12293 0.12295 0.12295 0.12279 0.1225 0.12228 0.12213 0.12206 0.12224 0.12232 0.12236 0.12242 0.12262 0.12276 0.12293 0.12295 0.12296 0.12294 0.12301 0.12308 0.12306 0.1231 0.12305 0.12298 0.12314 0.12325 0.12316 0.12331 0.1234 0.12345 0.12337 0.12337 0.12328 0.12337 0.12357 0.1235 0.12383 0.12406 0.12412 0.12422 0.12444 0.12466 0.12455 0.12463 0.12447 0.12441 0.12435 0.12427 0.12409 0.12384 0.12382 0.12372 0.12387 0.12375 0.12367 0.12349 0.12327 0.1234 0.12369 0.12415
0 0 0 0 0 0 0 0 0 0 0 0 0.09462 0.10386 0.11729 0.12411 0.12501 0.12631 0.12829 0.12854 0.12898 0.12919 0.12921 0.1294 0.12963 0.12625 0.12298 0 0 0.12397 0.12947 0.12973 0.12999 0.13033 0.12914 0.12782 0.12643 0.12593 0.12542 0.1249 0.12435 0.12392 0.12341 0.12326 0.12307 0.12292 0.12289 0.12285 0.12277 0.12283 0.12282 0.12286 0.12271 0.12258 0.12236 0.12225 0.12222 0.12232 0.12243 0.12248 0.12264 0.1228 0.12293 0.12318 0.12324 0.12305 0.12305 0.12311 0.12318 0.12311 0.1231 0.12315 0.12317 0.12314 0.12309 0.12315 0.1232 0.12333 0.12352 0.12346 0.12344 0.12344 0.12354 0.1236 0.12368 0.12396 0.12418 0.12416 0.12423 0.12433 0.1245 0.12446 0.12446 0.1244 0.12444 0.12438 0.12436 0.12422 0.12412 0.124 0.12387 0.12386 0.1238 0.12355 0.12334 0.12319 0.12335 0.12361 0.12393
0 0 0 0 0 0 0 0 0 0 0 0 0 0 0 0.11988 0.12284 0.12557 0.1281 0.12836 0.12879 0.12914 0.12937 0.1297 0.13003 0.12326 0.11673 0.1101 0.11615 0.12212 0.12813 0.12834 0.12845 0.12864 0.12792 0.12717 0.12639 0.12575 0.12522 0.12472 0.12441 0.1239 0.1234 0.12326 0.12304 0.12294 0.12293 0.12286 0.12278 0.12284 0.12288 0.12285 0.12278 0.12269 0.12255 0.1225 0.12252 0.12248 0.12263 0.12271 0.12289 0.12305 0.1232 0.12345 0.12339 0.12338 0.12336 0.12326 0.12313 0.12315 0.12311 0.12311 0.12312 0.12318 0.12319 0.12323 0.12338 0.12345 0.12353 0.12355 0.12355 0.12357 0.12367 0.12377 0.12387 0.12399 0.12412 0.12416 0.12428 0.12445 0.12458 0.12457 0.12448 0.1245 0.12453 0.12445 0.12448 0.12436 0.12433 0.12422 0.12394 0.124 0.12376 0.1236 0.12341 0.12336 0.12345 0.12351 0.12382
0 0 0 0 0 0 0 0 0 0 0 0 0 0 0 0.11904 0.12233 0.12588 0.12786 0.12819 0.12859 0.12906 0.12952 0.12994 0.13033 0.12021 0.11037 0.10024 0.10914 0 0.12677 0.12682 0.12694 0.12705 0.12687 0.12654 0.12622 0.1256 0.12507 0.1245 0.12421 0.12381 0.12339 0.12327 0.12301 0.1229 0.12288 0.12285 0.12283 0.12282 0.12278 0.1228 0.12287 0.12283 0.12279 0.12279 0.12272 0.1227 0.12282 0.12299 0.12319 0.12321 0.1233 0.12354 0.12351 0.12354 0.12353 0.12348 0.12332 0.12328 0.12324 0.12322 0.12327 0.12331 0.12339 0.12328 0.12327 0.12332 0.12352 0.12349 0.12363 0.12366 0.12381 0.12392 0.12401 0.12404 0.12403 0.12412 0.12436 0.12457 0.12464 0.12465 0.12467 0.1247 0.12463 0.12475 0.12478 0.12481 0.1246 0.12458 0.1243 0.12406 0.12391 0.12372 0.12351 0.12339 0.12345 0.12355 0.12366
0 0 0 0 0 0 0 0 0 0 0 0 0 0.11318 0.1152 0.11734 0.12053 0.12507 0.1278 0.12827 0.12875 0.12937 0.12977 0.13004 0.13032 0.12346 0.11693 0.11016 0.11595 0.12231 0.12776 0.12752 0.12714 0.12691 0.12664 0.12635 0.12607 0.12554 0.12506 0.12456 0.1242 0.12392 0.12363 0.12355 0.12335 0.12327 0.12316 0.12311 0.12309 0.12305 0.12299 0.12306 0.12304 0.12297 0.12291 0.12292 0.12293 0.12297 0.12306 0.12315 0.12324 0.12331 0.12333 0.12348 0.12335 0.12344 0.12346 0.12345 0.1234 0.12331 0.1233 0.12329 0.12328 0.12339 0.12356 0.1234 0.12342 0.12344 0.12362 0.1237 0.12372 0.1238 0.12385 0.12401 0.12418 0.12422 0.12415 0.12427 0.12435 0.12443 0.12468 0.12481 0.12487 0.12483 0.12502 0.12494 0.12508 0.12492 0.12481 0.12475 0.12443 0.12435 0.12424 0.12407 0.12385 0.12383 0.12384 0.12388 0.12398
0 0 0 0 0 0 0 0 0 0 0 0 0.10966 0.11143 0.11341 0.11528 0.11885 0.12359 0.12769 0.12821 0.12884 0.12946 0.12959 0.12977 0.13001 0.12664 0.12317 0.11979 0.12262 0.12552 0.12841 0.12803 0.12741 0.12689 0.12656 0.12622 0.1259 0.12549 0.12498 0.12455 0.12429 0.12409 0.12392 0.12375 0.12356 0.12345 0.12337 0.12337 0.1233 0.12328 0.1232 0.12321 0.12327 0.12322 0.12317 0.12317 0.12318 0.12328 0.12328 0.12334 0.12345 0.12346 0.12347 0.12362 0.12348 0.12346 0.12355 0.12358 0.12362 0.12367 0.12364 0.12362 0.12373 0.12371 0.1237 0.12367 0.12363 0.12376 0.12374 0.12388 0.12389 0.12399 0.12399 0.12404 0.12411 0.12419 0.12434 0.12434 0.12443 0.1246 0.12485 0.12487 0.12487 0.12504 0.12508 0.1251 0.12505 0.12504 0.12499 0.12486 0.12464 0.12455 0.12446 0.12433 0.12417 0.12413 0.12415 0.12417 0.12422
0 0 0 0 0 0 0 0 0.11657 0.11554 0.11333 0.10902 0.10536 0.10685 0.10819 0.1097 0.11557 0.1216 0.12755 0.12824 0.12892 0.12968 0.1297 0.1298 0.1299 0.12983 0.12962 0.12962 0.12955 0.12943 0.12933 0.12856 0.12765 0.12679 0.12646 0.12612 0.12572 0.12531 0.12487 0.12449 0.12438 0.12419 0.12403 0.12398 0.12387 0.12378 0.12373 0.12365 0.12355 0.12348 0.12335 0.12329 0.1233 0.12328 0.12335 0.12334 0.12334 0.12331 0.12344 0.12345 0.12359 0.12355 0.1235 0.12359 0.12367 0.12364 0.12367 0.12365 0.12378 0.12387 0.12398 0.12405 0.12403 0.12408 0.12394 0.12389 0.12386 0.12373 0.12372 0.12384 0.1239 0.12402 0.12406 0.12397 0.12408 0.12422 0.12443 0.12472 0.12474 0.12482 0.12502 0.12508 0.12516 0.12524 0.12521 0.1252 0.12524 0.12523 0.1252 0.12511 0.12498 0.1248 0.12461 0.12459 0.1245 0.1246 0.12456 0.12439 0.12439
0 0 0 0 0 0 0 0.11884 0.11836 0.11932 0.11812 0.11606 0.11402 0.11471 0.11535 0.11605 0.12009 0.1241 0.1281 0.12843 0.12882 0.12939 0.12936 0.12943 0.12938 0.12929 0.12916 0.1291 0.12903 0.12889 0.12877 0.12815 0.12748 0.12677 0.1264 0.12607 0.12574 0.12539 0.12501 0.12469 0.12454 0.12438 0.12421 0.12415 0.12401 0.12391 0.12389 0.12383 0.12373 0.12366 0.12358 0.12346 0.12344 0.12336 0.12339 0.12342 0.12343 0.1235 0.12347 0.12346 0.1235 0.1235 0.12351 0.12358 0.12372 0.12379 0.12395 0.12392 0.12405 0.12405 0.12418 0.12431 0.12436 0.12427 0.12415 0.12407 0.12403 0.12394 0.12392 0.12396 0.12397 0.12403 0.12412 0.12415 0.12412 0.12427 0.12448 0.12459 0.12463 0.12485 0.12505 0.1251 0.12518 0.1253 0.12529 0.12539 0.12542 0.12538 0.12532 0.12525 0.12519 0.1251 0.12496 0.12483 0.12487 0.12486 0.12476 0.12456 0.12452
0 0 0 0 0 0 0.1204 0.1205 0.11994 0.11971 0.12089 0.12307 0.12211 0.12231 0.12235 0.12231 0.12449 0.12648 0.12843 0.12858 0.12884 0.12917 0.1291 0.12906 0.12894 0.12882 0.12868 0.12857 0.1285 0.12839 0.12827 0.12778 0.12729 0.12686 0.12654 0.12616 0.12588 0.12552 0.12518 0.12489 0.12469 0.12454 0.1245 0.1244 0.12423 0.12414 0.12415 0.12402 0.12395 0.12387 0.12379 0.1237 0.12359 0.12359 0.12348 0.12347 0.12344 0.12337 0.12344 0.12357 0.12352 0.12357 0.1236 0.12371 0.1237 0.12384 0.12399 0.12415 0.12422 0.12423 0.12434 0.12445 0.12455 0.12451 0.12445 0.12445 0.12437 0.12433 0.12418 0.12412 0.12409 0.12402 0.12409 0.12409 0.12405 0.12416 0.12437 0.12465 0.12471 0.12488 0.12516 0.12526 0.12539 0.12548 0.12548 0.12544 0.12551 0.12545 0.12546 0.12549 0.12545 0.12536 0.12524 0.12513 0.12507 0.125 0.12487 0.12473 0.12463
0 0 0 0 0 0 0.12038 0.12033 0.11957 0.11815 0.1221 0.126 0.13014 0.1297 0.12927 0.1285 0.12863 0.12859 0.12881 0.12883 0.12886 0.12894 0.12877 0.12864 0.12844 0.12832 0.12814 0.128 0.12797 0.12787 0.1276 0.12741 0.12723 0.12702 0.1267 0.12642 0.12609 0.12568 0.12535 0.12508 0.12495 0.12483 0.12473 0.12462 0.12452 0.12443 0.12434 0.12428 0.1242 0.12408 0.12396 0.12387 0.12374 0.12366 0.12363 0.12358 0.12347 0.12352 0.12351 0.12355 0.12359 0.1236 0.12367 0.12381 0.12394 0.12401 0.12418 0.12422 0.12433 0.12449 0.12455 0.12463 0.12466 0.12462 0.12461 0.12464 0.12465 0.12463 0.12451 0.12431 0.12418 0.12412 0.12411 0.1241 0.12403 0.1242 0.12436 0.12446 0.12465 0.12493 0.12527 0.12544 0.12551 0.12561 0.12559 0.12565 0.12574 0.12564 0.12575 0.12564 0.12571 0.12565 0.12564 0.12559 0.12548 0.12537 0.12526 0.125 0.12491
0 0 0 0 0 0.11925 0.11995 0.1211 0.12239 0.12254 0.12523 0.12775 0.13044 0.13016 0.12977 0.12918 0.12901 0.12885 0.12875 0.12865 0.12858 0.12852 0.12852 0.12831 0.1281 0.12796 0.12798 0.12798 0.12788 0.12777 0.12753 0.12733 0.12713 0.12688 0.12672 0.12644 0.12613 0.12581 0.12547 0.12525 0.12503 0.1249 0.12482 0.12471 0.12457 0.12451 0.12446 0.1244 0.12437 0.12433 0.12425 0.12411 0.12402 0.1239 0.12385 0.12379 0.12376 0.12383 0.12392 0.1239 0.12381 0.12383 0.12388 0.12393 0.12398 0.12416 0.12432 0.12439 0.12458 0.12479 0.12485 0.12495 0.12506 0.12495 0.12481 0.12487 0.1248 0.12465 0.12457 0.1244 0.12426 0.12424 0.12413 0.12418 0.12413 0.12428 0.12449 0.12459 0.12475 0.12492 0.1252 0.12534 0.12539 0.12548 0.12548 0.12559 0.12566 0.12559 0.12563 0.12569 0.12549 0.12536 0.12547 0.12555 0.12562 0.12546 0.12539 0.12525 0.12508
0 0 0 0 0.11812 0.11843 0.11818 0.1206 0.12505 0.12702 0.12844 0.12951 0.13061 0.1304 0.13015 0.12973 0.12943 0.12904 0.12868 0.12849 0.12843 0.12826 0.12826 0.12809 0.12791 0.12779 0.12776 0.12787 0.12779 0.12754 0.12737 0.12723 0.1271 0.12695 0.12674 0.12639 0.12615 0.12587 0.1256 0.1254 0.12519 0.12505 0.12495 0.12483 0.12469 0.12462 0.12458 0.12451 0.12443 0.12444 0.1244 0.12436 0.12429 0.12424 0.12419 0.12415 0.12408 0.12407 0.12407 0.12406 0.12406 0.12404 0.12406 0.12408 0.1242 0.12444 0.1246 0.12472 0.12484 0.12504 0.12523 0.12532 0.12539 0.12534 0.1253 0.1253 0.12516 0.12501 0.12493 0.12489 0.12469 0.12442 0.12427 0.12436 0.1244 0.1244 0.12467 0.12468 0.12473 0.12487 0.12509 0.12518 0.12524 0.1254 0.12538 0.12547 0.12557 0.12556 0.12557 0.12565 0.12536 0.12534 0.12523 0.12537 0.12555 0.12549 0.12548 0.12543 0.12534
0 0 0 0 0.1175 0.11728 0.11581 0.1209 0.1259 0.13115 0.1313 0.13113 0.13075 0.13053 0.13045 0.13018 0.1297 0.12905 0.12853 0.12831 0.12813 0.12795 0.12798 0.1278 0.12766 0.12767 0.12781 0.12784 0.12771 0.12757 0.12739 0.12725 0.12712 0.12697 0.12669 0.12641 0.12615 0.12592 0.12572 0.12558 0.1254 0.12526 0.12508 0.12497 0.12479 0.12474 0.12471 0.12465 0.12457 0.12454 0.12449 0.12451 0.12453 0.12451 0.12445 0.12444 0.12443 0.12437 0.1244 0.12425 0.1242 0.1242 0.1243 0.12434 0.12443 0.12466 0.12496 0.125 0.12517 0.12542 0.12554 0.12563 0.12568 0.12575 0.12585 0.12589 0.12562 0.12547 0.12529 0.12515 0.125 0.12464 0.12456 0.12455 0.12447 0.12453 0.12468 0.12469 0.12477 0.12489 0.12508 0.12504 0.12508 0.12513 0.12521 0.12526 0.12553 0.1255 0.12535 0.12534 0.12538 0.12532 0.12531 0.12536 0.12541 0.12553 0.12548 0.12557 0.12555
0 0 0 0.11079 0.11557 0.11819 0.11998 0.12338 0.12683 0.13026 0.13044 0.1303 0.13011 0.12993 0.1297 0.12946 0.12903 0.12865 0.12832 0.1281 0.12803 0.12785 0.1278 0.12767 0.12749 0.12753 0.12744 0.12739 0.12727 0.12705 0.12694 0.12685 0.12677 0.12667 0.12651 0.12632 0.12617 0.12595 0.12581 0.12573 0.12565 0.12553 0.12535 0.1253 0.12515 0.12508 0.1251 0.12508 0.12504 0.12504 0.12503 0.12506 0.1251 0.12507 0.12503 0.12494 0.12491 0.12491 0.12486 0.12479 0.12469 0.1247 0.12466 0.12474 0.12491 0.12504 0.12526 0.12543 0.12559 0.12573 0.12582 0.1259 0.12599 0.12609 0.12614 0.12609 0.1259 0.12579 0.1256 0.12537 0.12523 0.12493 0.12481 0.12485 0.12476 0.12484 0.12485 0.12486 0.12483 0.12486 0.12505 0.12497 0.12492 0.12489 0.1251 0.1251 0.12516 0.12517 0.12513 0.12516 0.12512 0.12511 0.12513 0.12508 0.1252 0.1252 0.12523 0.12528 0.12539
0 0 0 0.10093 0.10918 0.11965 0.12402 0.12578 0.12762 0.12949 0.12962 0.12959 0.12966 0.12935 0.12902 0.12871 0.12859 0.12846 0.12829 0.12817 0.12808 0.12792 0.12768 0.12757 0.12744 0.12735 0.12713 0.12708 0.12704 0.12696 0.12686 0.12672 0.12662 0.1265 0.1264 0.12634 0.1262 0.12605 0.12599 0.12587 0.12581 0.12564 0.12556 0.12548 0.1254 0.12538 0.12539 0.12541 0.12549 0.12548 0.12547 0.12553 0.12556 0.12552 0.12547 0.12542 0.12533 0.12543 0.12533 0.12531 0.12533 0.12527 0.12524 0.12522 0.12529 0.12547 0.12568 0.12587 0.12598 0.12611 0.12617 0.12624 0.12635 0.12641 0.1264 0.12632 0.12606 0.12591 0.12569 0.1255 0.12533 0.12516 0.12491 0.12484 0.12493 0.12496 0.12491 0.12489 0.12489 0.12501 0.12508 0.12503 0.12487 0.12482 0.1248 0.12485 0.12482 0.12485 0.12494 0.12495 0.12487 0.12486 0.12484 0.1249 0.1249 0.12493 0.12499 0.12506 0.12518
0 0 0 0.08582 0.10044 0.11454 0.12807 0.1283 0.12853 0.12881 0.12894 0.12901 0.12907 0.12884 0.1285 0.12827 0.12819 0.12822 0.12809 0.12806 0.128 0.12792 0.12781 0.12762 0.12742 0.12727 0.1271 0.12698 0.12689 0.12679 0.1267 0.12662 0.12658 0.12656 0.12649 0.12635 0.12617 0.12606 0.12599 0.12597 0.12585 0.12572 0.12571 0.12569 0.1256 0.12558 0.12566 0.12568 0.1257 0.12577 0.12578 0.12588 0.12596 0.12602 0.126 0.12592 0.12587 0.12578 0.12581 0.12592 0.12595 0.12592 0.12581 0.12576 0.12583 0.1259 0.12619 0.12624 0.12636 0.12651 0.12658 0.12661 0.1267 0.12662 0.12647 0.12646 0.12629 0.12614 0.12599 0.12577 0.12564 0.12537 0.12515 0.12505 0.12504 0.12495 0.12483 0.12491 0.12492 0.12502 0.12506 0.12495 0.12482 0.12459 0.12462 0.12458 0.12462 0.12463 0.12475 0.12481 0.12472 0.12472 0.12462 0.12472 0.12476 0.12478 0.12478 0.12491 0.12503
0 0 0 0.10223 0.11184 0.12116 0.13038 0.13021 0.12998 0.12979 0.12967 0.12935 0.12919 0.12889 0.12858 0.12836 0.12829 0.1282 0.12805 0.12802 0.12794 0.12783 0.12765 0.1274 0.12714 0.127 0.12683 0.12668 0.12663 0.12655 0.12651 0.12647 0.12639 0.1263 0.12625 0.12621 0.12616 0.12612 0.126 0.12594 0.12589 0.12591 0.12589 0.1259 0.12588 0.12591 0.12601 0.1261 0.12621 0.12621 0.12622 0.12624 0.12633 0.12638 0.1265 0.12638 0.12643 0.12642 0.12647 0.12644 0.12656 0.12647 0.12639 0.12639 0.12644 0.12653 0.1267 0.12677 0.12687 0.12694 0.12689 0.12694 0.12701 0.12699 0.12687 0.12681 0.12661 0.1265 0.12635 0.12626 0.12604 0.1258 0.12555 0.12542 0.12534 0.12538 0.12536 0.12547 0.1255 0.1254 0.12532 0.12536 0.12516 0.12493 0.12493 0.12494 0.12484 0.12483 0.12473 0.12468 0.12466 0.12478 0.12488 0.1249 0.12497 0.125 0.12499 0.12506 0.12522
0.13017 0.13114 0.12398 0.11864 0.12366 0.12846 0.13312 0.1326 0.13196 0.13116 0.1304 0.12968 0.12922 0.12897 0.12871 0.1284 0.12829 0.12817 0.12809 0.12795 0.12779 0.12762 0.12741 0.12718 0.1269 0.1268 0.12665 0.12657 0.12648 0.12644 0.12635 0.12628 0.12622 0.12622 0.1262 0.12619 0.12612 0.12606 0.126 0.12599 0.12601 0.12603 0.12598 0.12608 0.12613 0.12627 0.12631 0.12643 0.1265 0.12663 0.12676 0.12684 0.12678 0.12688 0.12696 0.12697 0.12695 0.12699 0.12705 0.12703 0.12704 0.12707 0.12705 0.12696 0.12694 0.12705 0.12723 0.12727 0.12747 0.1276 0.12761 0.12748 0.12744 0.12737 0.12734 0.12715 0.12703 0.12685 0.12677 0.1266 0.12645 0.12615 0.126 0.12591 0.12584 0.12586 0.12588 0.12611 0.12602 0.12589 0.1259 0.12569 0.12553 0.12536 0.12526 0.12513 0.12492 0.12481 0.12479 0.12469 0.12457 0.12464 0.12482 0.12496 0.12511 0.12514 0.12524 0.12527 0.12541
0.1292 0.13115 0.13306 0.13482 0.13528 0.13503 0.13446 0.13344 0.13248 0.13178 0.13115 0.13002 0.12929 0.12906 0.1288 0.1284 0.1283 0.12817 0.128 0.12776 0.12751 0.12731 0.12719 0.12696 0.1267 0.12654 0.12639 0.12634 0.1263 0.12629 0.12619 0.12612 0.12616 0.12609 0.12602 0.126 0.12609 0.12602 0.12598 0.126 0.12613 0.12614 0.12617 0.12625 0.12635 0.12643 0.12653 0.12673 0.12692 0.127 0.12702 0.12711 0.1272 0.12733 0.12739 0.12751 0.12756 0.12763 0.12769 0.12778 0.12776 0.12771 0.12767 0.12762 0.12766 0.12778 0.12787 0.12802 0.12803 0.12808 0.12803 0.12804 0.12797 0.12786 0.12776 0.12771 0.12754 0.1274 0.12734 0.1271 0.12692 0.12675 0.12657 0.1264 0.1263 0.12649 0.12652 0.12649 0.12645 0.1264 0.1264 0.1261 0.12601 0.12592 0.12569 0.12538 0.12529 0.12512 0.12493 0.12482 0.1249 0.12493 0.12498 0.12493 0.12505 0.12519 0.12537 0.12555 0.12569
0.12954 0.13111 0.13263 0.13424 0.13475 0.13459 0.13434 0.13355 0.13294 0.13226 0.13139 0.13068 0.12991 0.12946 0.12903 0.12853 0.12838 0.12814 0.12783 0.12758 0.12735 0.1272 0.12704 0.12676 0.12652 0.12636 0.12631 0.12629 0.12631 0.12631 0.1262 0.12626 0.12626 0.12622 0.1262 0.12623 0.12625 0.12618 0.12619 0.12625 0.12636 0.12648 0.12654 0.12664 0.12672 0.1269 0.127 0.12718 0.12734 0.12744 0.12753 0.12761 0.12779 0.12793 0.12804 0.1281 0.12818 0.12828 0.1283 0.1284 0.12841 0.12837 0.12832 0.12834 0.12833 0.12833 0.1284 0.12846 0.12861 0.12864 0.12863 0.12856 0.12848 0.12848 0.1284 0.12834 0.12824 0.12802 0.1279 0.12778 0.12765 0.12743 0.12724 0.12725 0.12718 0.1274 0.12756 0.12783 0.12772 0.12753 0.12746 0.12692 0.12665 0.12632 0.12611 0.12587 0.12561 0.12558 0.1255 0.12545 0.12555 0.12576 0.12592 0.12581 0.12564 0.12562 0.12578 0.12585 0.12593
0.12985 0.13102 0.13224 0.13333 0.13388 0.13423 0.1345 0.13388 0.13322 0.13257 0.13177 0.13107 0.13035 0.12977 0.12924 0.12863 0.12837 0.12808 0.1278 0.12751 0.12722 0.12698 0.12673 0.12654 0.12638 0.12631 0.12626 0.12621 0.1262 0.12627 0.12629 0.12626 0.12638 0.12643 0.1264 0.12641 0.12639 0.12641 0.12642 0.12647 0.12663 0.12679 0.1268 0.12694 0.12713 0.12733 0.12747 0.12762 0.12778 0.12794 0.12802 0.12821 0.12833 0.1285 0.1286 0.12877 0.12889 0.12905 0.12899 0.12908 0.12906 0.12904 0.12907 0.12908 0.12904 0.12908 0.12911 0.12908 0.12912 0.12911 0.12906 0.12912 0.12918 0.12919 0.12915 0.12895 0.12886 0.12879 0.12863 0.12861 0.12839 0.12818 0.12808 0.128 0.12801 0.12841 0.12877 0.12904 0.12894 0.12866 0.12851 0.12806 0.12748 0.12692 0.12665 0.12639 0.12616 0.1262 0.12625 0.12629 0.12639 0.12654 0.12671 0.12658 0.12647 0.12631 0.1263 0.12621 0.12618
0.12966 0.13052 0.13143 0.13233 0.13304 0.13375 0.13439 0.13391 0.13351 0.13304 0.13229 0.13143 0.13066 0.12997 0.12931 0.12852 0.12815 0.12781 0.12742 0.12717 0.12692 0.1267 0.12651 0.12629 0.12612 0.1262 0.1262 0.12612 0.1262 0.12623 0.12628 0.12639 0.12649 0.12656 0.12661 0.12667 0.12661 0.12656 0.12663 0.12671 0.12686 0.12704 0.12718 0.12735 0.12756 0.12782 0.12801 0.12815 0.12834 0.1285 0.12868 0.12892 0.12901 0.1291 0.12926 0.12938 0.12928 0.12944 0.12948 0.12948 0.12947 0.12952 0.12945 0.1294 0.12938 0.1295 0.12957 0.12954 0.12942 0.12934 0.1293 0.12937 0.12957 0.12952 0.12953 0.12941 0.1293 0.12916 0.12905 0.1291 0.12893 0.12865 0.1286 0.12861 0.12866 0.12888 0.12963 0.13019 0.12943 0.1291 0.12981 0.12899 0.12834 0.1275 0.1272 0.12694 0.12674 0.12683 0.12689 0.12703 0.12491 0.12556 0.12751 0.12666 0.12663 0.1272 0.12715 0.12695 0.1266
0.13048 0.13116 0.13178 0.13249 0.13303 0.13353 0.13398 0.13347 0.13311 0.13282 0.13208 0.13126 0.13057 0.12992 0.12924 0.12858 0.12816 0.1278 0.1275 0.1273 0.12705 0.12684 0.12669 0.1266 0.12645 0.12656 0.12659 0.12662 0.1267 0.12679 0.12691 0.12706 0.12719 0.12727 0.12727 0.12733 0.1272 0.12725 0.12724 0.1273 0.12747 0.12758 0.12768 0.12804 0.12839 0.12866 0.12882 0.12902 0.12931 0.12941 0.1295 0.12962 0.12972 0.12976 0.12983 0.12994 0.13001 0.13009 0.13017 0.13022 0.13033 0.13039 0.13038 0.13041 0.13037 0.13041 0.1304 0.13022 0.13005 0.12974 0.12971 0.12966 0.12973 0.12968 0.12963 0.12955 0.12936 0.12911 0.12903 0.12911 0.12902 0.12897 0.12922 0.12949 0.1297 0.12925 0.12948 0.12948 0.12898 0.12871 0.12889 0.12822 0.12769 0.12711 0.12371 0.12028 0.1169 0.117 0.11714 0.11726 0.1212 0.12273 0.12465 0.12579 0.12625 0.1268 0.12781 0.12798 0.12952
0.13128 0.13178 0.13205 0.13236 0.13272 0.13302 0.13336 0.13308 0.13267 0.13243 0.13186 0.13112 0.13047 0.12987 0.12917 0.12851 0.12812 0.12788 0.12763 0.12747 0.12728 0.12705 0.12704 0.12695 0.12684 0.12688 0.12694 0.12696 0.12719 0.12738 0.12757 0.1277 0.12781 0.12787 0.12784 0.12778 0.12762 0.12774 0.12781 0.12787 0.12795 0.12805 0.12817 0.12858 0.12903 0.12941 0.12962 0.12995 0.13026 0.13034 0.13048 0.13049 0.13049 0.13046 0.13045 0.1306 0.13068 0.13084 0.13095 0.13109 0.1313 0.13137 0.13146 0.13161 0.13142 0.13133 0.13131 0.13095 0.13068 0.13036 0.13006 0.12981 0.12962 0.12959 0.12965 0.12957 0.12945 0.12926 0.12911 0.12917 0.12927 0.12939 0.12985 0.13038 0.13076 0.12846 0.12773 0.12918 0 0 0.12811 0.12766 0.12729 0.12703 0.1203 0.11366 0.10712 0.10729 0.10747 0 0 0.12232 0.12071 0.12302 0.1257 0.12702 0.12843 0.1305 0.13243
