ncols        109
nrows        82
xllcorner    -1.041666666667
yllcorner    37.041665395101
cellsize     0.083333333333
NODATA_value -9999
0.0 0 0 0 0 0 0 0 0 0 0 0 0 0 0 0 0 0 0 0 0 0 0 0 0 0 0 0 0 0 0 0 0 0 0 0 0 0 0 0 0 0 0 0 0 0 0 0 0 0 0 0 0 0 0 0 0 0 0 0 0 0 0 0 0 0 0 0 0 0 0 0 0 0 0 0 0 0 0 0 0 0 0 0 0 0 0 0 0 0 0 0 0 0 0 0 0 0 0 0 0 0 0 0 0 0.13837 0.13808 0.13803 0.13801
0 0 0 0 0 0 0 0 0 0 0 0 0 0 0 0 0 0 0 0 0 0 0 0 0 0 0 0 0 0 0 0 0 0 0 0 0 0 0 0 0 0 0 0 0 0 0 0 0 0 0 0 0 0 0 0 0 0 0 0 0 0 0 0 0 0 0 0 0 0 0 0 0 0 0 0 0 0 0 0 0 0 0 0 0 0 0 0 0 0 0 0 0 0 0 0 0 0 0 0 0 0.13798 0.13804 0.13832 0.13868 0.13907 0.13861 0.13823 0.13808
0 0 0 0 0 0 0 0 0 0 0 0 0 0 0 0 0 0 0 0 0 0 0 0 0 0 0 0 0 0 0 0 0 0 0 0 0 0 0 0 0 0 0 0 0 0 0 0 0 0 0 0 0 0 0 0 0 0 0 0 0 0 0 0 0 0 0 0 0 0 0 0 0 0 0 0 0 0 0 0 0 0 0 0 0 0 0 0 0 0 0 0 0 0 0 0 0 0 0.13816 0.13823 0.1382 0.13799 0.13804 0.1381 0.13822 0.13816 0.13767 0.13715 0.13677
0 0 0 0 0 0 0 0 0 0 0 0 0 0 0 0 0 0 0 0 0 0 0 0 0 0 0 0 0 0 0 0 0 0 0 0 0 0 0 0 0 0 0 0 0 0 0 0 0 0 0 0 0 0 0 0 0 0 0 0 0 0 0 0 0 0 0 0 0 0 0 0 0 0 0 0 0 0 0 0 0 0 0 0 0 0 0 0 0 0 0 0 0 0 0 0 0 0.13814 0.13858 0.13879 0.13858 0.13837 0.13849 0.1382 0.13742 0.13748 0.13709 0.13666 0.13625
0 0 0 0 0 0 0 0 0 0 0 0 0 0 0 0 0 0 0 0 0 0 0 0 0 0 0 0 0 0 0 0 0 0 0 0 0 0 0 0 0 0 0 0 0 0 0 0 0 0 0 0 0 0 0 0 0 0 0.13868 0.14084 0.14211 0.14334 0 0 0 0 0 0 0 0 0 0 0 0 0 0 0 0 0 0 0 0 0 0 0 0 0 0 0 0 0 0 0 0 0 0.13817 0.13807 0.13856 0.13923 0.1398 0.13981 0.13979 0.13986 0.13911 0.13816 0.13737 0.13697 0.13643 0.13591
0 0 0 0 0 0 0 0 0 0 0 0 0 0 0 0 0 0 0 0 0 0 0 0 0 0 0 0 0 0 0 0 0 0 0 0 0 0 0 0 0 0 0 0 0 0 0 0 0 0 0 0 0 0 0 0 0.13761 0.13746 0.13817 0.13921 0.1414 0.14207 0.14266 0.14323 0.13357 0.12442 0.11559 0 0 0 0 0.12324 0 0 0 0 0 0 0 0 0 0 0 0 0 0 0 0 0 0 0 0 0 0.13811 0.13833 0.13821 0.13835 0.1386 0.13882 0.13922 0.13906 0.13921 0.13921 0.13849 0.13771 0.13703 0.13664 0.13616 0.13561
0 0 0 0 0 0 0 0 0 0 0 0 0 0 0 0 0 0 0 0 0 0 0 0 0 0 0 0 0 0 0 0 0 0 0 0 0 0 0 0 0 0 0 0 0 0 0 0 0 0 0 0 0 0 0 0.13733 0.13999 0.14118 0.14035 0.13962 0.14144 0.14147 0.14142 0.14186 0.1362 0.13112 0.12624 0.13133 0.12854 0.12751 0.12691 0.12514 0.124 0.12107 0.11576 0.11269 0.11325 0 0 0 0 0 0 0 0 0 0 0 0 0 0 0 0.13792 0.13718 0.13818 0.13827 0.1385 0.13854 0.13871 0.13875 0.13856 0.13845 0.13841 0.13769 0.13721 0.13669 0.13636 0.13599 0.13552
0 0 0 0 0 0 0 0 0 0 0 0 0 0 0 0 0 0 0 0 0 0 0 0 0 0 0 0 0 0 0 0 0 0 0 0 0 0 0 0 0 0 0 0 0 0 0 0 0 0 0 0.12771 0.12922 0.13075 0.13323 0.13703 0.14218 0.14578 0.14458 0.1434 0.14282 0.14233 0.14195 0.14154 0.13932 0.13821 0.13791 0.13377 0.13002 0.12709 0.12579 0.12514 0.12491 0.11808 0.11137 0.10448 0 0 0 0 0 0 0 0 0 0 0 0 0 0 0 0 0.13687 0.13846 0.13842 0.13861 0.13863 0.13848 0.13839 0.13827 0.13808 0.13758 0.13747 0.1371 0.13688 0.13673 0.13635 0.13604 0.13567
0 0 0 0 0 0 0 0 0 0 0 0 0 0 0 0 0 0 0 0 0 0 0 0 0 0 0 0 0 0 0 0 0 0 0 0 0 0 0 0 0 0 0 0 0 0 0 0 0 0 0.12518 0.1266 0.12732 0.1286 0.13037 0.13279 0.13605 0.1382 0.13699 0.13596 0.13526 0.13622 0.13761 0.13911 0.14041 0.14223 0.14452 0.14114 0.13811 0.13584 0.13408 0.13275 0.13164 0.12619 0.12099 0.11507 0.11588 0.11719 0.11817 0.12127 0.12521 0.12893 0 0 0 0 0 0 0 0.12755 0.1315 0.13422 0.13599 0.13848 0.13829 0.13821 0.13801 0.13771 0.13731 0.13705 0.13667 0.13639 0.13627 0.13595 0.13566 0.13533 0.13507 0.13494 0.1346
0 0 0 0 0 0 0 0 0 0 0 0 0 0 0 0 0 0 0 0 0 0 0 0 0 0 0 0 0 0 0 0 0 0 0 0 0 0 0 0 0 0 0 0 0 0 0 0 0 0.12548 0.12446 0.12418 0.12523 0.12653 0.12707 0.12799 0.12873 0.13088 0.12945 0.12813 0.12706 0.12991 0.13307 0.13671 0.1413 0.14631 0.15144 0.14856 0.1462 0.14415 0.14196 0.13988 0.13816 0.13396 0.12986 0.12562 0.12677 0.12743 0.12844 0.13306 0.13364 0.13567 0 0.13675 0.13659 0.12875 0.11492 0.10686 0.11414 0.12659 0.13316 0.13465 0.13551 0.13828 0.13806 0.13769 0.13743 0.13706 0.13667 0.13636 0.13598 0.13572 0.13522 0.13478 0.13448 0.13426 0.13412 0.13405 0.13396
0 0 0 0 0 0 0 0 0 0 0 0 0 0 0 0 0 0 0 0 0 0 0 0 0 0 0 0 0 0 0 0 0 0 0 0 0 0 0 0 0 0 0 0 0 0 0 0 0 0.12478 0.12349 0.12265 0.12278 0.12405 0.1255 0.12472 0.12408 0.12383 0.12252 0.12098 0.11968 0.12444 0.12961 0.13491 0.14276 0.1507 0.159 0.15664 0.15467 0.15336 0.15035 0.14789 0.14504 0.14213 0.13903 0.13659 0.13781 0.13833 0.13936 0.13953 0.13993 0.14016 0.14177 0.14373 0.14576 0.12524 0.105 0.0852 0.10244 0.12036 0.13844 0.13836 0.13815 0.13816 0.13783 0.13741 0.13736 0.13687 0.13638 0.13596 0.13539 0.13478 0.13432 0.13411 0.13389 0.13368 0.13358 0.13337 0.13322
0 0 0 0 0 0 0 0 0 0 0 0 0 0 0 0 0 0 0 0 0 0 0 0 0 0 0 0 0 0 0 0 0 0 0 0 0 0 0 0 0 0 0 0 0 0 0 0 0 0.12584 0.12482 0.12421 0.12513 0.1263 0.12761 0.12766 0.12846 0.12875 0.12755 0.12623 0.12522 0.12843 0.13183 0.13542 0.14076 0.14636 0.15207 0.15054 0.14908 0.14833 0.14593 0.14367 0.1417 0.13987 0.13774 0.13623 0.13645 0.13703 0.13777 0.13802 0.13836 0.1386 0.13993 0.1413 0.14268 0.12908 0.11561 0.10241 0.11383 0.12576 0.13772 0.13734 0.13689 0.13691 0.13665 0.13666 0.1364 0.1359 0.1355 0.13488 0.13452 0.13424 0.13376 0.1334 0.1332 0.13302 0.13309 0.13291 0.13282
0 0 0 0 0 0 0 0 0 0 0 0 0 0 0 0 0 0 0 0 0 0 0 0 0 0 0 0 0 0 0 0 0 0 0 0 0 0 0 0 0 0 0 0 0 0 0 0 0 0.12869 0.1288 0.12679 0.1277 0.12894 0.13021 0.13117 0.13287 0.13397 0.13283 0.13159 0.13063 0.13246 0.13416 0.13618 0.13908 0.14222 0.14531 0.14447 0.14399 0.14349 0.14186 0.1405 0.1392 0.13813 0.1364 0.13566 0.13617 0.13646 0.13674 0.13689 0.13717 0.13743 0.13818 0.13884 0.13957 0.13284 0.12628 0.11977 0.12541 0.1311 0.13673 0.13624 0.13601 0.13603 0.13588 0.13584 0.13556 0.13486 0.13443 0.13401 0.13371 0.13336 0.13287 0.13257 0.13227 0.13219 0.13226 0.13253 0.13267
0 0 0 0 0 0 0 0 0 0 0 0 0 0 0 0 0 0 0 0 0 0 0 0 0 0 0 0 0 0 0 0 0 0 0 0 0 0 0 0 0 0 0 0 0 0 0 0 0 0.12978 0.12998 0.12998 0.13036 0.13168 0.13361 0.13574 0.13773 0.1396 0.13833 0.13729 0.13622 0.13663 0.13708 0.13757 0.13796 0.13859 0.13931 0.1393 0.13938 0.13942 0.1384 0.13749 0.13663 0.13637 0.13611 0.13608 0.13623 0.13616 0.13628 0.13625 0.13643 0.13661 0.13687 0.13698 0.13699 0.13689 0.13713 0.13749 0.13723 0.13687 0.1361 0.13555 0.13531 0.13547 0.13534 0.13518 0.13447 0.13406 0.1335 0.13307 0.13272 0.13236 0.13199 0.13176 0.13169 0.13176 0.13196 0.13208 0.13239
0 0 0 0 0 0 0 0 0 0 0 0 0 0 0 0 0 0 0 0 0 0 0 0 0 0 0 0 0 0 0 0 0 0 0 0 0 0 0 0 0 0 0 0 0 0 0 0 0 0.13082 0.13059 0.13084 0.13186 0.13291 0.13648 0.13732 0.13789 0.13835 0.13723 0.13637 0.13551 0.13562 0.13599 0.13654 0.13693 0.13745 0.13803 0.13783 0.13765 0.13777 0.1371 0.13632 0.13577 0.13531 0.13487 0.13465 0.13468 0.13464 0.13464 0.13462 0.13458 0.13457 0.1347 0.13487 0.13498 0.13489 0.13508 0.13522 0.13486 0.13453 0.1342 0.13409 0.13402 0.13397 0.13358 0.13315 0.13292 0.1327 0.13235 0.132 0.13182 0.13162 0.13147 0.13149 0.13144 0.13156 0.13171 0.13196 0.13213
0 0 0 0 0 0 0 0 0 0 0 0 0 0 0 0 0 0 0 0 0 0 0 0 0 0 0 0 0 0 0 0 0 0 0 0 0 0 0 0 0 0 0 0 0 0 0 0 0 0.13149 0.13305 0.1337 0.13512 0.13732 0.14039 0.13894 0.13833 0.13721 0.13634 0.13554 0.135 0.13522 0.13544 0.13572 0.13618 0.13638 0.13676 0.13656 0.13641 0.13664 0.13596 0.13522 0.13455 0.13412 0.13384 0.13355 0.13336 0.13326 0.13319 0.13312 0.1331 0.13301 0.13314 0.13315 0.13319 0.13319 0.13332 0.13337 0.13315 0.13292 0.13265 0.13251 0.13232 0.13225 0.13198 0.13172 0.13155 0.13139 0.13114 0.13098 0.13105 0.13111 0.13114 0.13129 0.13137 0.13151 0.13171 0.13196 0.1321
0 0 0 0 0 0 0 0 0 0 0 0 0 0 0 0 0 0 0 0 0 0 0 0 0 0 0 0 0 0 0 0 0 0 0 0 0 0 0 0 0 0 0 0 0 0 0 0 0 0 0.13579 0.13657 0.13791 0.14122 0.14363 0.14053 0.13878 0.13614 0.13558 0.13503 0.13443 0.13445 0.13473 0.13506 0.13532 0.13538 0.13573 0.13539 0.13529 0.13531 0.13473 0.13421 0.13389 0.13342 0.1329 0.13254 0.13236 0.13217 0.13197 0.13185 0.13175 0.13167 0.13167 0.13164 0.13157 0.13147 0.13152 0.13149 0.13126 0.13113 0.1311 0.13097 0.13083 0.13078 0.1307 0.13043 0.13039 0.13036 0.13029 0.13033 0.13057 0.13056 0.13076 0.13098 0.13119 0.13144 0.13164 0.13187 0.13223
0 0 0 0 0 0 0 0 0 0 0 0 0 0 0 0 0 0 0 0 0 0 0 0 0 0 0 0 0 0 0 0 0 0 0 0 0 0 0 0 0 0 0 0 0 0 0 0 0 0 0.13752 0.13809 0.13875 0.13955 0.14168 0.13945 0.13795 0.13555 0.13476 0.13412 0.13354 0.13351 0.13379 0.13431 0.13442 0.13465 0.13488 0.13457 0.13431 0.13421 0.13358 0.13318 0.13286 0.13253 0.13226 0.13194 0.13169 0.13144 0.13127 0.13117 0.13116 0.13105 0.13105 0.13106 0.13108 0.13088 0.13091 0.13081 0.13068 0.13062 0.13054 0.13045 0.13042 0.13037 0.13021 0.13025 0.13021 0.13026 0.13031 0.13036 0.13052 0.13053 0.13065 0.13094 0.13115 0.13131 0.13153 0.13182 0.13207
0 0 0 0 0 0 0 0 0 0 0 0 0 0 0 0 0 0 0 0 0 0 0 0 0 0 0 0 0 0 0 0 0 0 0 0 0 0 0 0 0 0 0 0 0 0 0 0 0 0 0 0 0.13846 0.13812 0.14005 0.1384 0.13706 0.13513 0.13435 0.13373 0.13301 0.13289 0.13297 0.13348 0.13355 0.13373 0.13402 0.13374 0.13348 0.13323 0.13274 0.13238 0.13203 0.13169 0.13136 0.13108 0.13096 0.13083 0.1306 0.13062 0.13065 0.13064 0.13067 0.13071 0.13067 0.1306 0.13067 0.13062 0.13048 0.13043 0.13034 0.13025 0.13018 0.13016 0.13006 0.12995 0.13012 0.13024 0.13027 0.13038 0.13038 0.13037 0.13047 0.13075 0.13097 0.13113 0.13141 0.13169 0.13191
0 0 0 0 0 0 0 0 0 0 0 0 0 0 0 0 0 0 0 0 0 0 0 0 0 0 0 0 0 0 0 0 0 0 0 0 0 0 0 0 0 0 0 0 0 0 0 0 0 0 0.13827 0.13903 0.13876 0.13829 0.13859 0.13778 0.13622 0.1345 0.13383 0.13325 0.13252 0.13227 0.13214 0.13251 0.13263 0.1332 0.13332 0.13286 0.13264 0.13247 0.13209 0.13172 0.13145 0.1312 0.13086 0.13049 0.13027 0.13019 0.12998 0.12996 0.13 0.13009 0.13028 0.13035 0.13042 0.13047 0.13057 0.13057 0.13041 0.13022 0.13011 0.13009 0.13005 0.1301 0.13004 0.13003 0.13015 0.13024 0.13034 0.13038 0.13036 0.13027 0.13034 0.13055 0.1307 0.13084 0.13112 0.13145 0.13172
0 0 0 0 0 0 0 0 0 0 0 0 0 0 0 0 0 0 0 0 0 0 0 0 0 0 0 0 0 0 0 0 0 0 0 0 0 0 0 0 0 0 0 0 0 0 0 0 0 0 0.1371 0.13811 0.13786 0.13747 0.13744 0.13668 0.13553 0.13382 0.13327 0.13266 0.13202 0.13156 0.13161 0.13204 0.13233 0.1328 0.133 0.13256 0.13244 0.13228 0.13193 0.13161 0.13135 0.13115 0.13093 0.1306 0.13045 0.13035 0.13032 0.13038 0.13037 0.13048 0.13044 0.13049 0.13054 0.13058 0.1307 0.13077 0.13058 0.13037 0.13019 0.13006 0.13014 0.13018 0.13022 0.13027 0.13018 0.13017 0.13024 0.13036 0.13024 0.13018 0.13023 0.13044 0.13052 0.13055 0.13073 0.13101 0.13127
0 0 0 0 0 0 0 0 0 0 0 0 0 0 0 0 0 0 0 0 0 0 0 0 0 0 0 0 0 0 0 0 0 0 0 0 0 0 0 0 0 0 0 0 0 0 0 0 0 0 0 0.13752 0.13699 0.13638 0.1358 0.13502 0.13439 0.13315 0.13268 0.13188 0.13127 0.13118 0.13122 0.13177 0.13197 0.13245 0.13267 0.13236 0.13212 0.13199 0.13177 0.13155 0.13133 0.13122 0.13096 0.13077 0.13062 0.13043 0.13044 0.1305 0.13052 0.13056 0.13065 0.13069 0.13079 0.13079 0.1309 0.13097 0.13081 0.13055 0.13033 0.13018 0.13018 0.13022 0.13023 0.13016 0.13013 0.12995 0.12991 0.12992 0.13007 0.13 0.13007 0.13016 0.13026 0.1304 0.13054 0.13078 0.13103
0 0 0 0 0 0 0 0 0 0 0 0 0 0 0 0 0 0 0 0 0 0 0 0 0 0 0 0 0 0 0 0 0 0 0 0 0 0 0 0 0 0 0 0 0 0 0 0 0 0 0 0.13679 0.13616 0.13535 0.13459 0.1336 0.13345 0.13253 0.13211 0.13146 0.13108 0.1309 0.131 0.13134 0.13172 0.13202 0.13228 0.13203 0.13181 0.13181 0.1317 0.13158 0.13151 0.13135 0.13126 0.13097 0.13087 0.13088 0.13085 0.13081 0.13096 0.13103 0.13105 0.1311 0.13114 0.13112 0.13116 0.13119 0.13104 0.13091 0.13075 0.13058 0.13046 0.13055 0.13038 0.13024 0.13015 0.13006 0.12987 0.12982 0.12986 0.12981 0.12969 0.1297 0.12977 0.12992 0.13015 0.13044 0.13073
0 0 0 0 0 0 0 0 0 0 0 0 0 0 0 0 0 0 0 0 0 0 0 0 0 0 0 0 0 0 0 0 0 0 0 0 0 0 0 0 0 0 0 0 0 0 0 0 0 0 0 0.13676 0.13592 0.13492 0.13396 0.13293 0.13251 0.13177 0.13158 0.13113 0.13077 0.13077 0.131 0.13125 0.13152 0.13181 0.13202 0.13187 0.13183 0.13189 0.13187 0.1318 0.13172 0.13166 0.13148 0.13126 0.13122 0.13121 0.13117 0.13104 0.13105 0.13129 0.13125 0.1313 0.1313 0.13124 0.13133 0.13129 0.13103 0.13088 0.13086 0.13074 0.13058 0.13052 0.13033 0.1302 0.13014 0.13002 0.12964 0.1294 0.12926 0.12912 0.129 0.1291 0.12919 0.12942 0.12972 0.13005 0.13033
0 0 0 0 0 0 0 0 0 0 0 0 0 0 0 0 0 0 0 0 0 0 0 0 0 0 0 0 0 0 0 0 0 0 0 0 0 0 0 0 0 0 0 0 0 0 0 0 0 0.13283 0.13444 0.13705 0.13584 0.13473 0.13364 0.13275 0.13184 0.1313 0.13093 0.13065 0.13045 0.13064 0.1308 0.13106 0.13133 0.13151 0.13181 0.13171 0.13182 0.13199 0.132 0.1319 0.13184 0.13184 0.13169 0.13156 0.13153 0.13151 0.13141 0.13141 0.13131 0.13147 0.13146 0.13159 0.13156 0.13135 0.13146 0.13145 0.13117 0.13098 0.13086 0.13068 0.13074 0.1306 0.13038 0.13032 0.13013 0.12992 0.12942 0.12898 0.12878 0.12874 0.12861 0.12875 0.12892 0.12925 0.12955 0.12979 0.13021
0 0 0 0 0 0 0 0 0 0 0 0 0 0 0 0 0 0 0 0 0 0 0 0 0 0 0 0 0 0 0 0 0 0 0 0 0 0 0 0 0 0 0 0 0 0 0 0 0.12832 0.13131 0.13439 0.13708 0.13563 0.13463 0.13353 0.13269 0.13186 0.13105 0.13056 0.13048 0.13037 0.1304 0.13062 0.13084 0.13095 0.1312 0.13156 0.13167 0.13176 0.13191 0.132 0.13202 0.13201 0.13192 0.13186 0.13179 0.13171 0.1316 0.13157 0.13157 0.13142 0.1316 0.13157 0.13156 0.13159 0.13152 0.13152 0.13149 0.13126 0.13103 0.13081 0.1307 0.13062 0.13062 0.13045 0.13034 0.13027 0.12979 0.12934 0.12899 0.1287 0.1287 0.12851 0.12863 0.12877 0.12896 0.12937 0.12971 0.12997
0 0 0 0 0 0 0 0 0 0 0 0 0 0 0 0 0 0 0 0 0 0 0 0 0 0 0 0 0 0 0 0 0 0 0 0 0 0 0 0 0 0 0 0 0 0.13354 0.13276 0.13178 0.1311 0.13284 0.13439 0.13583 0.13462 0.13402 0.13303 0.13249 0.1317 0.13074 0.13039 0.1303 0.13013 0.13017 0.13029 0.1306 0.13076 0.13097 0.1313 0.13147 0.13172 0.13205 0.13215 0.13206 0.13224 0.1322 0.13212 0.13208 0.13188 0.13182 0.13172 0.13159 0.13155 0.13137 0.13133 0.13136 0.1314 0.13139 0.13136 0.13132 0.13109 0.13082 0.13065 0.1305 0.13036 0.13031 0.13017 0.13015 0.13012 0.12971 0.12929 0.12902 0.12877 0.1286 0.12837 0.12847 0.12851 0.12877 0.12915 0.12961 0.12983
0 0 0 0 0 0 0 0 0 0 0 0 0 0 0 0 0 0 0 0 0 0 0 0 0 0 0 0 0 0 0 0 0 0 0 0 0 0 0 0 0 0 0.13116 0.13228 0.13356 0.13416 0.1337 0.134 0.13305 0.13362 0.13372 0.13449 0.13358 0.13329 0.13253 0.13191 0.13129 0.13062 0.1304 0.13 0.12997 0.13002 0.13026 0.13053 0.13066 0.13086 0.13118 0.1314 0.13183 0.13213 0.1321 0.13221 0.13232 0.13242 0.13243 0.13243 0.13223 0.13211 0.13197 0.13183 0.13158 0.13146 0.1313 0.13127 0.13132 0.13138 0.13125 0.1311 0.13084 0.13064 0.13057 0.13036 0.13021 0.13013 0.12995 0.12991 0.12993 0.12961 0.12925 0.1291 0.12881 0.12855 0.12844 0.12837 0.12838 0.12862 0.12893 0.12932 0.12961
0 0 0 0 0 0 0 0 0 0 0 0 0 0 0 0 0 0 0 0 0 0 0 0 0 0 0 0 0 0 0 0 0 0 0 0 0 0 0 0 0.12963 0.13022 0.13074 0.13197 0.13387 0.1351 0.13486 0.13499 0.13525 0.1344 0.1335 0.13305 0.13253 0.13232 0.13159 0.13125 0.13072 0.1304 0.13026 0.13001 0.12981 0.12979 0.13006 0.13025 0.13053 0.13092 0.13124 0.1314 0.13169 0.13197 0.13211 0.13223 0.13242 0.13259 0.13275 0.13278 0.13258 0.13234 0.13223 0.13205 0.13177 0.13162 0.1315 0.13129 0.13135 0.1312 0.13116 0.13117 0.13084 0.13062 0.13055 0.1304 0.13026 0.13012 0.12996 0.12986 0.12979 0.12943 0.1292 0.12912 0.12886 0.12846 0.1284 0.1283 0.12833 0.1284 0.12883 0.12906 0.12944
0 0 0 0 0 0 0 0 0 0 0 0 0 0 0 0 0 0 0 0 0 0 0 0 0 0 0 0 0 0 0 0 0 0 0 0 0 0 0 0.12837 0.12959 0.13034 0.13056 0.13081 0.13188 0.13264 0.13286 0.133 0.13285 0.1323 0.13172 0.1317 0.13143 0.1313 0.13096 0.13061 0.13028 0.13007 0.13005 0.12978 0.12972 0.1297 0.12985 0.13019 0.13051 0.13078 0.13106 0.13135 0.1316 0.13187 0.132 0.13206 0.13235 0.13257 0.13275 0.13275 0.13266 0.13254 0.13237 0.13203 0.13171 0.13153 0.13138 0.13128 0.13117 0.13099 0.13112 0.13115 0.13076 0.13055 0.13052 0.13028 0.13018 0.13014 0.13001 0.12984 0.12952 0.12935 0.12912 0.12878 0.12855 0.12829 0.12817 0.12829 0.12844 0.12861 0.1289 0.12904 0.12934
0 0 0 0 0 0 0 0 0 0 0 0 0 0 0 0 0 0 0 0 0 0 0 0 0 0 0 0 0 0 0 0 0 0 0 0 0 0 0.12728 0.13003 0.13021 0.13057 0.1309 0.13062 0.13074 0.13118 0.13092 0.13076 0.1305 0.13064 0.13073 0.13093 0.13086 0.13072 0.13048 0.13036 0.13013 0.13009 0.12999 0.1299 0.12978 0.12975 0.12986 0.13017 0.1304 0.13065 0.13092 0.13108 0.13139 0.1317 0.13179 0.13199 0.13226 0.13246 0.13261 0.13267 0.13251 0.13241 0.13234 0.13203 0.13174 0.13149 0.13129 0.13108 0.13103 0.13103 0.13093 0.13098 0.13077 0.13065 0.13062 0.13029 0.13016 0.13018 0.12998 0.12981 0.12952 0.12922 0.12888 0.12866 0.12829 0.12823 0.12814 0.12834 0.12855 0.12871 0.12892 0.12909 0.12931
0 0 0 0 0 0 0 0 0 0 0 0 0 0 0 0 0 0 0 0 0 0 0 0 0 0 0 0 0 0 0 0 0 0 0.12235 0.11507 0.10888 0.11728 0.12574 0.13374 0.13264 0.13206 0.13149 0.13124 0.13063 0.12952 0.12922 0.12926 0.12906 0.12935 0.12968 0.13015 0.13046 0.13062 0.13042 0.13024 0.1301 0.13008 0.13005 0.13008 0.13007 0.12994 0.12989 0.13013 0.13032 0.1305 0.1307 0.131 0.13135 0.13168 0.13178 0.13198 0.13226 0.13247 0.13261 0.13258 0.1325 0.13236 0.13222 0.13192 0.13176 0.13156 0.13134 0.13098 0.13094 0.13096 0.13094 0.1309 0.13079 0.13079 0.13075 0.13049 0.13044 0.13028 0.12989 0.12969 0.12948 0.12907 0.12873 0.1285 0.12836 0.12822 0.12807 0.12834 0.12863 0.12879 0.12897 0.12912 0.12925
0 0 0 0 0 0 0 0 0 0 0 0 0 0 0 0 0 0 0 0 0 0 0 0 0 0 0 0 0 0.13461 0.13455 0.13432 0.13293 0.1307 0.1274 0.12317 0.11724 0.12287 0.12812 0.13331 0.13216 0.13083 0.13021 0.12977 0.12944 0.12855 0.129 0.12911 0.12896 0.12942 0.12957 0.12985 0.1301 0.13045 0.13043 0.13029 0.13006 0.12995 0.12999 0.12994 0.13018 0.13012 0.13005 0.13022 0.13033 0.13044 0.13065 0.13097 0.1312 0.13133 0.1314 0.1316 0.13179 0.13207 0.13224 0.13219 0.13207 0.13195 0.13186 0.13164 0.1315 0.13138 0.13125 0.13097 0.13089 0.13096 0.13088 0.13074 0.13064 0.13072 0.13074 0.13052 0.13027 0.13005 0.1297 0.1295 0.12939 0.12891 0.12852 0.12831 0.12824 0.12821 0.12802 0.12829 0.12861 0.12884 0.12894 0.12909 0.12922
0 0 0 0 0 0 0 0 0 0 0 0 0 0 0 0 0 0 0 0 0 0 0 0 0 0.13059 0.13162 0.13108 0.13342 0.13673 0.13789 0.13666 0.13527 0.13479 0.133 0.13135 0.1261 0.12818 0.13054 0.13298 0.13203 0.13048 0.12913 0.12858 0.12842 0.12798 0.12841 0.12878 0.12926 0.12947 0.12959 0.12989 0.12991 0.13024 0.13059 0.13056 0.13023 0.13035 0.13014 0.13016 0.13029 0.13014 0.13029 0.13043 0.13048 0.13062 0.13076 0.13094 0.13095 0.13104 0.13122 0.13133 0.13142 0.13166 0.13167 0.13169 0.1316 0.13154 0.13143 0.13143 0.13135 0.13123 0.13109 0.13103 0.1308 0.13092 0.1308 0.1306 0.13055 0.13048 0.13055 0.13031 0.12999 0.12989 0.12952 0.1293 0.12917 0.12869 0.12832 0.12812 0.12819 0.12811 0.12799 0.1283 0.12856 0.1288 0.12891 0.1291 0.12926
0 0 0 0 0 0 0 0 0 0 0 0 0 0 0 0 0 0 0 0 0 0 0 0.12766 0.12897 0.13021 0.13061 0.12863 0.13378 0.138 0.14217 0.13967 0.13808 0.13732 0.13639 0.13531 0.13438 0.13358 0.133 0.13183 0.13123 0.12974 0.1281 0.12748 0.12741 0.12746 0.12797 0.12877 0.12933 0.12979 0.1298 0.12996 0.12997 0.13034 0.13054 0.13059 0.13049 0.13054 0.13043 0.13038 0.13046 0.13047 0.13046 0.13055 0.13062 0.13059 0.13074 0.13072 0.13086 0.13103 0.13107 0.13104 0.13109 0.1312 0.13103 0.13098 0.13091 0.13086 0.13087 0.13099 0.1311 0.13102 0.13084 0.13084 0.13085 0.13072 0.13063 0.1306 0.13044 0.1305 0.13037 0.13009 0.12984 0.12967 0.12951 0.12927 0.12906 0.12875 0.12827 0.12801 0.12804 0.12808 0.12809 0.1282 0.12849 0.12875 0.12886 0.12908 0.12946
0 0 0 0 0 0 0 0 0 0 0 0 0 0 0 0 0 0 0 0 0 0 0.12414 0.12595 0.12711 0.12915 0.13243 0.13139 0.13484 0.13771 0.14075 0.13916 0.13694 0.13542 0.13489 0.13392 0.1329 0.13243 0.1318 0.13083 0.13013 0.12921 0.12783 0.12745 0.12705 0.12721 0.12776 0.12834 0.12902 0.12934 0.12948 0.12966 0.12982 0.1301 0.13042 0.1304 0.13039 0.1304 0.13038 0.13044 0.13049 0.13052 0.13063 0.13081 0.13067 0.13075 0.13064 0.13062 0.1306 0.13067 0.13061 0.13064 0.13063 0.13066 0.13049 0.13044 0.1303 0.13041 0.13032 0.13028 0.1303 0.13045 0.13044 0.13039 0.1304 0.13034 0.13028 0.13031 0.13019 0.13016 0.13018 0.12989 0.12965 0.12947 0.12938 0.12918 0.12895 0.12848 0.12811 0.12793 0.12795 0.12797 0.12794 0.12813 0.12847 0.12876 0.12879 0.12897 0.12927
0 0 0 0 0 0 0 0 0 0 0 0 0 0 0 0 0 0 0 0 0 0.12126 0.12207 0.12284 0.12318 0.12641 0.13074 0.13294 0.13502 0.13653 0.13859 0.13689 0.13503 0.13362 0.13289 0.13197 0.13094 0.13038 0.12984 0.12926 0.12867 0.12814 0.12738 0.1271 0.12682 0.12691 0.1275 0.12793 0.12854 0.12907 0.12914 0.12952 0.12968 0.13011 0.13033 0.13032 0.13039 0.1305 0.1305 0.13054 0.1306 0.13067 0.13065 0.13076 0.1306 0.13058 0.1306 0.13043 0.13049 0.13059 0.13054 0.1304 0.13032 0.13023 0.13009 0.13 0.12987 0.12984 0.12977 0.12981 0.12992 0.12999 0.13007 0.13013 0.13013 0.13014 0.13014 0.13029 0.13016 0.1301 0.13005 0.12976 0.12953 0.12946 0.12922 0.1289 0.12878 0.12827 0.128 0.12775 0.12782 0.12778 0.12784 0.12806 0.12835 0.12867 0.12879 0.12891 0.12911
0 0 0 0 0 0 0 0 0 0 0 0 0 0 0 0 0 0 0 0 0 0 0 0.12134 0.11966 0.12399 0.12914 0.13451 0.13511 0.13544 0.13623 0.13456 0.13283 0.13141 0.13054 0.12968 0.12858 0.12843 0.12842 0.128 0.12771 0.12724 0.12667 0.1265 0.12653 0.12686 0.12732 0.12778 0.12826 0.12871 0.1289 0.12928 0.12962 0.13004 0.13034 0.13023 0.13027 0.13055 0.13063 0.13066 0.13082 0.1307 0.13074 0.13089 0.13074 0.13055 0.13052 0.13039 0.13047 0.1306 0.1306 0.13029 0.13017 0.13004 0.12985 0.12971 0.12946 0.12933 0.1293 0.12932 0.12937 0.12955 0.12976 0.12986 0.13002 0.12999 0.12999 0.1301 0.13007 0.12996 0.12999 0.12966 0.12941 0.12932 0.12896 0.12879 0.12856 0.12809 0.12787 0.12767 0.12767 0.12769 0.12773 0.12799 0.12827 0.1286 0.12868 0.12883 0.12901
0 0 0 0 0 0 0 0 0 0 0 0 0 0 0 0 0 0 0 0 0 0.11498 0.11761 0.12077 0.12001 0.12497 0.13016 0.1367 0.13579 0.13493 0.13443 0.13292 0.13161 0.13022 0.12961 0.12889 0.12797 0.12787 0.12781 0.12758 0.12728 0.12692 0.12644 0.12627 0.12618 0.1264 0.12677 0.12722 0.1278 0.12811 0.12837 0.12863 0.12901 0.12929 0.12954 0.12958 0.12968 0.13005 0.13006 0.13011 0.13024 0.13034 0.13045 0.13075 0.13047 0.13029 0.13023 0.13013 0.13014 0.13026 0.13026 0.13021 0.13006 0.12984 0.12965 0.12937 0.12922 0.12924 0.12913 0.1291 0.12915 0.12935 0.12955 0.12966 0.12985 0.12991 0.13 0.13009 0.1299 0.12979 0.12979 0.12941 0.1292 0.12917 0.12886 0.1284 0.12812 0.12786 0.12765 0.12743 0.12745 0.12747 0.12742 0.12762 0.12792 0.12823 0.12845 0.12874 0.12901
0 0 0 0 0 0 0 0 0 0 0 0 0 0 0 0 0 0 0 0.10952 0.10793 0.10732 0.11345 0.11972 0.12085 0.12573 0.13135 0.13812 0.13658 0.1349 0.133 0.13171 0.13023 0.12922 0.12864 0.12814 0.12738 0.12726 0.1273 0.1271 0.12688 0.12655 0.12607 0.12595 0.12582 0.12585 0.12618 0.12662 0.12709 0.12739 0.12776 0.12807 0.12819 0.12839 0.12861 0.12886 0.12909 0.1294 0.12959 0.12972 0.12981 0.12999 0.13012 0.1304 0.13038 0.13024 0.13017 0.13014 0.13014 0.13012 0.13006 0.12989 0.12986 0.1297 0.12951 0.12932 0.12913 0.12908 0.12898 0.12896 0.12896 0.12919 0.12943 0.12959 0.12984 0.12994 0.12999 0.13002 0.12974 0.12962 0.12957 0.12928 0.12914 0.12908 0.1287 0.12814 0.12791 0.12781 0.12759 0.12729 0.12716 0.12721 0.12717 0.12737 0.12758 0.12785 0.1282 0.12868 0.12906
0 0 0 0 0 0 0 0 0 0 0 0 0 0 0 0 0 0 0.10616 0.10678 0.10337 0.09782 0.10723 0.1149 0.12236 0.12692 0.13301 0.13965 0.13714 0.13461 0.13148 0.13051 0.12885 0.12828 0.12778 0.1273 0.12672 0.12677 0.12678 0.12661 0.12647 0.1262 0.1259 0.12577 0.1257 0.12585 0.12594 0.12622 0.12653 0.12682 0.12715 0.12743 0.12751 0.12761 0.12779 0.12809 0.12844 0.12886 0.12894 0.1291 0.12934 0.12956 0.12986 0.13022 0.13013 0.13011 0.13004 0.13004 0.13008 0.13008 0.12999 0.12982 0.12973 0.12948 0.12927 0.12911 0.12908 0.12901 0.12881 0.12893 0.12905 0.12923 0.12945 0.12966 0.12979 0.1298 0.12987 0.12992 0.12964 0.12946 0.12947 0.12934 0.12918 0.12909 0.1286 0.12823 0.12797 0.12768 0.12734 0.12721 0.12709 0.12706 0.12691 0.12708 0.12722 0.12748 0.12787 0.1284 0.12898
0 0 0 0 0 0 0 0 0 0 0 0 0 0 0 0 0 0.10327 0.10448 0.10675 0.10851 0.1035 0.11157 0.11973 0.12765 0.13099 0.13409 0.13704 0.13512 0.13333 0.13086 0.12983 0.12838 0.12786 0.12754 0.12697 0.12665 0.1266 0.12653 0.12652 0.12638 0.12609 0.12598 0.12595 0.12584 0.12579 0.12598 0.12634 0.12657 0.12673 0.12695 0.12718 0.12727 0.12733 0.12736 0.12751 0.12788 0.12817 0.12839 0.12871 0.1291 0.12926 0.12946 0.12972 0.12993 0.13016 0.13024 0.13015 0.12988 0.12984 0.12984 0.12969 0.12965 0.12935 0.12923 0.12911 0.12909 0.12899 0.12903 0.12909 0.12913 0.12924 0.12935 0.1295 0.12961 0.12971 0.1298 0.12989 0.12972 0.12949 0.12943 0.1293 0.12903 0.12891 0.12846 0.12804 0.12771 0.12742 0.12707 0.12697 0.12677 0.12677 0.12665 0.12679 0.12694 0.12724 0.12764 0.12795 0.1286
0 0 0 0 0 0 0 0 0 0 0 0 0 0 0 0 0.09952 0.09842 0.09737 0.10286 0.10944 0.10668 0.11571 0.12362 0.13079 0.13237 0.13363 0.13481 0.1334 0.1321 0.13013 0.12922 0.12802 0.12744 0.12725 0.12686 0.12637 0.12628 0.12626 0.12619 0.12615 0.12608 0.126 0.12601 0.12592 0.12595 0.12606 0.12635 0.12652 0.12663 0.1268 0.12684 0.12689 0.12699 0.12697 0.12709 0.12747 0.12776 0.12812 0.12845 0.12877 0.12906 0.12933 0.12963 0.12991 0.13016 0.13041 0.13025 0.12993 0.12992 0.12982 0.12975 0.12964 0.12939 0.12929 0.12925 0.12929 0.1293 0.12933 0.12925 0.12929 0.1293 0.12936 0.12952 0.12976 0.12984 0.12973 0.12986 0.12983 0.12971 0.12962 0.12933 0.12914 0.12899 0.12833 0.12799 0.1275 0.12718 0.12688 0.12665 0.12647 0.12643 0.12634 0.12655 0.12671 0.12704 0.12743 0.12771 0.1282
0 0 0 0 0 0 0 0 0 0 0 0 0 0 0 0.10287 0.09956 0.09348 0.08796 0.09545 0.1029 0.10997 0.11949 0.12662 0.13356 0.13334 0.13297 0.13234 0.13166 0.13083 0.12956 0.12857 0.12757 0.12692 0.12677 0.12642 0.12616 0.126 0.12599 0.12594 0.12592 0.12596 0.12605 0.12596 0.12584 0.12594 0.12608 0.12622 0.12646 0.12656 0.12661 0.12665 0.12659 0.12645 0.12637 0.12655 0.12695 0.12732 0.12731 0.12773 0.12865 0.12815 0.12874 0.12946 0.12977 0.13008 0.13044 0.1303 0.13006 0.13006 0.1299 0.1298 0.1298 0.12967 0.12967 0.12951 0.12952 0.12957 0.12947 0.12955 0.12952 0.12952 0.12962 0.12972 0.12976 0.12975 0.12986 0.12987 0.12982 0.12974 0.12969 0.12937 0.12925 0.12884 0.12823 0.12771 0.12728 0.12684 0.12653 0.12638 0.12626 0.12612 0.12613 0.12639 0.12655 0.12683 0.12715 0.12742 0.12771
0 0 0 0 0 0 0 0 0 0 0 0 0 0 0.1023 0.10323 0.10234 0.10087 0.09553 0.10298 0.11003 0.11696 0.12337 0.12758 0.13175 0.13175 0.13174 0.13138 0.13094 0.13016 0.1291 0.12823 0.12717 0.12657 0.12647 0.12627 0.12601 0.12591 0.12585 0.12574 0.12567 0.1256 0.12564 0.12556 0.12559 0.1257 0.126 0.12621 0.12645 0.12679 0.12706 0.12728 0.127 0.12672 0.12643 0.12555 0.12483 0.12417 0.12588 0.12634 0.12684 0.12666 0.12668 0.12413 0.12628 0.12855 0.13065 0.13037 0.13009 0.12991 0.1297 0.12952 0.1295 0.12943 0.12937 0.12922 0.12926 0.12929 0.12937 0.12937 0.12936 0.12935 0.1294 0.12949 0.12944 0.12942 0.12952 0.12964 0.12958 0.12963 0.12935 0.12923 0.12905 0.12864 0.12798 0.12746 0.12687 0.12646 0.12622 0.1262 0.12604 0.12587 0.1258 0.1262 0.12644 0.12686 0.12722 0.12754 0.12799
0 0 0 0 0 0 0 0 0 0 0 0 0 0.10303 0.10259 0.10052 0.10411 0.10835 0.10367 0.11069 0.11761 0.12396 0.12684 0.12855 0.13001 0.13018 0.13037 0.13038 0.12995 0.12944 0.12868 0.1278 0.12699 0.12635 0.12629 0.12626 0.12605 0.1258 0.12569 0.12543 0.12543 0.12538 0.12539 0.12544 0.12544 0.12534 0.12571 0.12603 0.12636 0.12685 0.12733 0.12773 0.12734 0.12694 0.12653 0.12461 0.12281 0.12116 0 0 0 0.12672 0.1241 0.11895 0.12295 0.12711 0.1312 0.13066 0.13015 0.12976 0.12949 0.12933 0.12928 0.12923 0.12907 0.12893 0.12901 0.12909 0.12917 0.12913 0.12919 0.12912 0.12908 0.12914 0.12922 0.12923 0.12931 0.12947 0.1295 0.12951 0.12953 0.12919 0.12887 0.12845 0.12785 0.12727 0.12659 0.1263 0.12608 0.12601 0.12581 0.12563 0.12561 0.12596 0.12644 0.12671 0.12723 0.12781 0.1283
0 0 0 0 0 0 0 0 0 0 0 0 0 0.10637 0.10012 0.09448 0.09999 0.10583 0.11166 0.1185 0.12473 0.13123 0.13066 0.12964 0.12855 0.12885 0.12921 0.12942 0.12912 0.12874 0.1281 0.12742 0.12677 0.12613 0.12606 0.12598 0.12593 0.1257 0.12553 0.12538 0.12535 0.12528 0.12518 0.12471 0.12467 0.12511 0.12513 0.12574 0.12622 0.12592 0.12675 0.12822 0.12622 0.12506 0.1264 0.12351 0.12071 0.11808 0 0 0 0 0 0.12092 0.11962 0.1257 0.1317 0.13092 0.13022 0.12982 0.12952 0.12931 0.12917 0.129 0.12887 0.12883 0.12891 0.129 0.12908 0.12903 0.12911 0.12911 0.12902 0.12902 0.12904 0.12902 0.12909 0.12942 0.12947 0.12955 0.12968 0.12927 0.12868 0.12808 0.12766 0.12709 0.12646 0.12615 0.12601 0.12594 0.12565 0.12543 0.12535 0.12583 0.1263 0.12672 0.12751 0.12827 0.12893
0 0 0 0 0 0 0 0 0 0 0 0 0.11197 0.11113 0.10886 0.10731 0.11066 0.11488 0.11919 0.12318 0.1271 0.13104 0.13035 0.1293 0.12841 0.12867 0.12898 0.12912 0.12894 0.12853 0.12788 0.12726 0.12672 0.12615 0.12613 0.12603 0.12592 0.12559 0.12534 0.12538 0.12342 0.12155 0.11958 0.12305 0.12362 0.12434 0.12472 0 0 0.12629 0 0.12486 0.12292 0.12114 0.11407 0.1163 0.11852 0.1208 0.1202 0.12187 0.12306 0 0 0 0.12215 0.12656 0.13097 0.13024 0.12945 0.12889 0.12865 0.12843 0.1283 0.12811 0.12802 0.12804 0.12824 0.12843 0.12855 0.12863 0.12864 0.12871 0.12866 0.12864 0.12869 0.12888 0.12898 0.12912 0.12918 0.12935 0.12934 0.12889 0.12827 0.12782 0.12747 0.12691 0.12622 0.12612 0.12602 0.12583 0.12559 0.12534 0.12533 0.12565 0.12609 0.1263 0.12708 0.12798 0.12867
0 0 0 0 0 0 0 0 0 0 0 0.11134 0.11051 0.11407 0.12053 0.11945 0.12141 0.12374 0.12615 0.1278 0.12922 0.13076 0.13002 0.12912 0.12837 0.12855 0.12879 0.12885 0.12858 0.12822 0.1276 0.12712 0.12661 0.12624 0.12618 0.12603 0.12585 0.12551 0.12527 0.12512 0.12136 0.11773 0.11398 0.11757 0.12039 0 0 0 0 0 0.12231 0.11975 0.1156 0.10954 0.10175 0.10895 0.11625 0.12357 0.122 0.12231 0.12297 0.1239 0.12415 0.12193 0.1247 0.12745 0.13005 0.1294 0.12869 0.12802 0.1278 0.1276 0.12751 0.12739 0.12734 0.12739 0.12754 0.12778 0.12803 0.12809 0.12839 0.12844 0.12835 0.12834 0.12847 0.12858 0.12876 0.12876 0.12902 0.12902 0.12904 0.12847 0.12809 0.12779 0.12738 0.12673 0.12626 0.12612 0.12597 0.12583 0.12552 0.1253 0.12521 0.1255 0.1258 0.12602 0.1267 0.12764 0.12839
0 0 0 0 0 0 0 0 0 0 0.11493 0.10937 0.10444 0.11383 0.12303 0.13197 0.1325 0.13301 0.13323 0.13232 0.13125 0.13009 0.12948 0.12885 0.12828 0.12846 0.12873 0.12853 0.12832 0.12788 0.12745 0.12703 0.12667 0.12623 0.12617 0.12593 0.12577 0.12542 0.1251 0.12488 0.12242 0.11442 0.10844 0 0 0 0 0 0 0 0 0 0 0 0.08944 0.10174 0.11399 0.12645 0.12589 0.12525 0.12463 0.12501 0.12551 0.12613 0.12707 0.12814 0.12905 0.1284 0.12776 0.12723 0.12704 0.12688 0.12683 0.12677 0.12676 0.12696 0.12707 0.12725 0.12741 0.12752 0.1278 0.128 0.12789 0.12789 0.12818 0.12829 0.12834 0.12855 0.12868 0.12858 0.1285 0.12824 0.12783 0.12763 0.12716 0.12666 0.1261 0.12605 0.12591 0.1258 0.12551 0.12526 0.12508 0.1253 0.12557 0.12576 0.1264 0.12725 0.12811
0 0 0 0 0 0 0 0 0 0 0.11947 0.11664 0.11508 0.12051 0.12555 0.13095 0.13156 0.13179 0.13193 0.131 0.13025 0.12958 0.12909 0.12866 0.12831 0.12849 0.12863 0.12844 0.12812 0.12784 0.12743 0.12708 0.12671 0.1263 0.12615 0.12601 0.12586 0.12534 0.12487 0.12449 0.12186 0 0 0 0 0 0 0 0 0 0 0 0 0 0.1019 0.10971 0.11757 0.12559 0.12515 0.12464 0.12422 0.12452 0.12499 0.12551 0.12648 0.12732 0.12803 0.12744 0.12707 0.12669 0.1265 0.12632 0.12619 0.1262 0.12621 0.12622 0.12635 0.12654 0.12678 0.12699 0.12719 0.12743 0.12729 0.12734 0.12746 0.12748 0.12758 0.1277 0.12769 0.12771 0.1276 0.12729 0.12718 0.12697 0.1266 0.12635 0.12596 0.12592 0.12575 0.12562 0.12535 0.12517 0.12506 0.12519 0.12531 0.12556 0.12605 0.12672 0.12745
0 0 0 0 0 0 0 0 0 0.12384 0.12519 0.12813 0.12533 0.12701 0.12853 0.13028 0.13034 0.13027 0.13019 0.12986 0.12946 0.12911 0.12899 0.12864 0.12845 0.12859 0.12854 0.1284 0.12815 0.12779 0.12752 0.12703 0.12672 0.12642 0.12622 0.12616 0.12606 0.12529 0.12466 0.12401 0.12347 0 0 0 0 0 0 0 0 0 0 0 0 0.1178 0.11443 0.11779 0.12125 0.1248 0.1245 0.12423 0.12395 0.12421 0.12455 0.12502 0.12582 0.12658 0.12707 0.12671 0.12639 0.12611 0.12589 0.12579 0.12566 0.12565 0.1257 0.12572 0.12592 0.12614 0.12637 0.12658 0.12673 0.12692 0.12687 0.12698 0.12704 0.12694 0.127 0.12697 0.12693 0.12678 0.12659 0.12651 0.12645 0.12643 0.12624 0.12598 0.12575 0.12567 0.12551 0.12543 0.12526 0.12513 0.12498 0.12504 0.12522 0.12527 0.12562 0.12611 0.12662
0 0 0 0 0 0 0 0 0.12418 0.12608 0.12957 0.13322 0.13611 0.13412 0.13197 0.12987 0.12966 0.12938 0.12922 0.12907 0.12893 0.12885 0.12897 0.12898 0.12896 0.12889 0.12878 0.12864 0.12833 0.12797 0.12761 0.12721 0.12682 0.12653 0.12642 0.12632 0.12623 0.12538 0.12445 0.12361 0.12363 0.12321 0 0.121 0.1205 0 0 0 0 0 0 0 0.12128 0.12438 0.12701 0.126 0.12491 0.1239 0.1238 0.12373 0.12368 0.12398 0.12431 0.12471 0.12521 0.12576 0.12626 0.12607 0.12596 0.12579 0.12558 0.12538 0.12522 0.12524 0.12543 0.12552 0.12572 0.12591 0.12622 0.12643 0.12666 0.12688 0.12679 0.12692 0.12703 0.12687 0.12669 0.12663 0.12661 0.12641 0.12623 0.12617 0.12616 0.12611 0.12603 0.12582 0.12564 0.12545 0.12536 0.1254 0.12528 0.12513 0.12501 0.12507 0.12521 0.12517 0.12532 0.12555 0.12583
0 0 0 0 0 0 0 0 0.12567 0.12705 0.12892 0.13091 0.13534 0.1334 0.13139 0.12918 0.12899 0.12879 0.12865 0.12867 0.12868 0.12861 0.12865 0.12867 0.12869 0.12866 0.12855 0.12839 0.12811 0.12787 0.12749 0.12724 0.12696 0.12664 0.12657 0.12653 0.12643 0.12576 0.12513 0.12444 0.12432 0.12429 0.12332 0.12279 0.12215 0 0 0 0 0 0 0.12035 0.12175 0.12323 0.12614 0.12538 0.12456 0.12384 0.1237 0.12361 0.12354 0.12379 0.12402 0.1244 0.12483 0.12525 0.1257 0.1256 0.12556 0.12549 0.12527 0.12502 0.12496 0.12503 0.1252 0.12548 0.1256 0.12576 0.12608 0.12617 0.1263 0.12641 0.12641 0.12655 0.12668 0.12654 0.12637 0.12629 0.12615 0.12604 0.126 0.12595 0.12581 0.12588 0.12584 0.12567 0.12551 0.12547 0.1253 0.12529 0.12518 0.12509 0.1251 0.12512 0.1251 0.12512 0.12527 0.12533 0.12555
0 0 0 0 0 0 0 0 0 0.12593 0.12783 0.12969 0.13454 0.13271 0.13061 0.12867 0.12854 0.12825 0.12818 0.12825 0.12845 0.12856 0.12856 0.12849 0.12848 0.1285 0.12827 0.12806 0.12784 0.12775 0.12734 0.12716 0.12699 0.12691 0.12685 0.12676 0.12675 0.12618 0.12568 0.12528 0.12569 0.12538 0.12496 0.12449 0.12405 0.12359 0.12057 0.11421 0 0 0.11993 0.12276 0.12246 0.12294 0.12523 0.12478 0.12425 0.12384 0.12369 0.12354 0.12342 0.12365 0.12389 0.12419 0.12447 0.12485 0.12517 0.12516 0.12514 0.12508 0.125 0.12493 0.12488 0.12495 0.12515 0.12529 0.12549 0.12572 0.12592 0.12606 0.12605 0.12613 0.12614 0.12619 0.1263 0.12621 0.12612 0.12603 0.12579 0.12568 0.12578 0.12574 0.12565 0.12557 0.12555 0.12538 0.12541 0.12539 0.12531 0.12524 0.12514 0.12506 0.12503 0.12508 0.125 0.12495 0.12509 0.12529 0.12549
0 0 0 0 0 0 0 0 0 0.12394 0.12625 0.1305 0.13391 0.13195 0.12998 0.12804 0.12796 0.12782 0.1276 0.12788 0.12824 0.12847 0.1283 0.12829 0.1283 0.12816 0.12809 0.12786 0.12769 0.1275 0.12728 0.12721 0.12707 0.12708 0.12696 0.12697 0.12689 0.12656 0.12636 0.12613 0.12618 0.1262 0.12631 0.12652 0.12669 0.12688 0.11829 0.10973 0.1011 0.1091 0.11703 0.1251 0.12482 0.12446 0.12425 0.12411 0.12397 0.12384 0.12369 0.12353 0.1234 0.1235 0.12366 0.12385 0.12404 0.12427 0.12449 0.12465 0.12474 0.12474 0.12478 0.12482 0.1249 0.125 0.12516 0.12537 0.12558 0.12573 0.12594 0.12589 0.12586 0.12579 0.12588 0.12596 0.12603 0.12587 0.12578 0.12562 0.12543 0.12534 0.12546 0.12545 0.12538 0.12544 0.12536 0.12515 0.12512 0.12515 0.12518 0.12519 0.12517 0.12512 0.12508 0.12507 0.12498 0.12493 0.12495 0.12514 0.12535
0 0 0 0 0 0 0 0 0 0.11965 0.12039 0.12253 0.1155 0.11994 0.12422 0.12833 0.12805 0.12793 0.12758 0.12783 0.12809 0.12832 0.12835 0.12843 0.12843 0.12828 0.12818 0.12811 0.12814 0.12815 0.12826 0.12833 0.12848 0.1287 0.12814 0.12762 0.127 0.12671 0.12638 0.12608 0.126 0.12587 0.12581 0.12594 0.12602 0.12612 0.12037 0 0.1089 0.11425 0.11966 0.12502 0.1248 0.12443 0.12413 0.12393 0.12389 0.12375 0.12371 0.1236 0.12354 0.12369 0.12383 0.12412 0.12427 0.12442 0.12462 0.12468 0.12466 0.12459 0.12467 0.12469 0.12479 0.12489 0.12509 0.12525 0.12535 0.12547 0.12552 0.1255 0.12547 0.12543 0.12556 0.12565 0.1256 0.12559 0.12555 0.12556 0.12552 0.12552 0.1256 0.12562 0.12552 0.1256 0.12544 0.12531 0.12533 0.12523 0.12527 0.12518 0.12518 0.12521 0.12513 0.12496 0.12475 0.12465 0.12482 0.12502 0.1253
0 0 0 0 0 0 0 0 0 0 0.10923 0.10329 0.09729 0.10797 0.11831 0.12869 0.12837 0.12796 0.12764 0.12785 0.12799 0.1282 0.12825 0.12848 0.12866 0.12849 0.12843 0.12824 0 0 0 0.12923 0.12988 0.13027 0.12921 0.12817 0.12705 0.12668 0.12625 0.1259 0.12567 0.12551 0.1254 0.1254 0.12537 0.12532 0.12238 0.11954 0.11673 0.11952 0.12221 0.12483 0.12465 0.12436 0.12406 0.12397 0.12386 0.12381 0.12384 0.12376 0.12372 0.12392 0.12412 0.12434 0.12442 0.12451 0.12471 0.1247 0.12469 0.12467 0.12469 0.12472 0.12481 0.12486 0.12498 0.12511 0.12512 0.12518 0.12533 0.12527 0.12525 0.12526 0.12524 0.12527 0.12534 0.1254 0.12545 0.12552 0.12563 0.12569 0.12576 0.12573 0.12571 0.1257 0.12559 0.12546 0.12547 0.12536 0.12527 0.12523 0.12521 0.12527 0.12518 0.12498 0.12471 0.12453 0.12476 0.12497 0.1252
0 0 0 0 0 0 0 0 0 0 0 0.08919 0.07931 0.09605 0.12091 0.12896 0.1267 0.12699 0.1279 0.12785 0.12803 0.12813 0.12827 0.12854 0.12874 0.12857 0.12859 0.1286 0 0 0 0.1297 0.13122 0.13186 0.13026 0.12868 0.12704 0.12662 0.1262 0.1259 0.12556 0.12522 0.12494 0.12482 0.12469 0.12457 0.12456 0.12452 0.12453 0.12461 0.12466 0.1247 0.12445 0.12418 0.12391 0.12387 0.12378 0.12371 0.12377 0.1238 0.12386 0.12404 0.12427 0.1245 0.12456 0.12461 0.12471 0.12471 0.12467 0.12471 0.12474 0.1247 0.12476 0.12475 0.1249 0.12492 0.12498 0.12505 0.12512 0.12503 0.12497 0.12491 0.125 0.12503 0.12511 0.12524 0.12541 0.1255 0.12556 0.12575 0.12593 0.12577 0.1258 0.12573 0.12565 0.12561 0.12554 0.12551 0.1254 0.12535 0.12531 0.12534 0.12525 0.12503 0.12483 0.12456 0.12466 0.12496 0.12525
0 0 0 0 0 0 0 0 0 0 0 0 0.09429 0.10354 0.11695 0.12385 0.125 0.12614 0.12773 0.12771 0.12791 0.12799 0.12817 0.12851 0.12877 0.1254 0.12209 0 0 0.12298 0.1286 0.12914 0.12964 0.1302 0.12915 0.12797 0.12679 0.12634 0.12604 0.12569 0.12539 0.12511 0.12477 0.12473 0.12461 0.12447 0.12447 0.12448 0.12445 0.12458 0.12462 0.12463 0.12449 0.1243 0.12413 0.12398 0.1238 0.12375 0.12385 0.12391 0.12399 0.12406 0.12421 0.12449 0.12455 0.12454 0.12463 0.12464 0.12458 0.12459 0.12461 0.12464 0.1246 0.12462 0.12464 0.12472 0.12474 0.12482 0.12495 0.12494 0.12496 0.12491 0.12497 0.12507 0.12515 0.12523 0.12536 0.12534 0.12545 0.12555 0.12577 0.12576 0.12574 0.12573 0.12571 0.12569 0.12562 0.12556 0.12551 0.12551 0.12547 0.1254 0.12525 0.12505 0.12475 0.12448 0.12463 0.12487 0.12502
0 0 0 0 0 0 0 0 0 0 0 0 0 0 0 0.11995 0.12292 0.12539 0.12746 0.12757 0.12775 0.12786 0.12816 0.1286 0.12891 0.1222 0.11555 0.10901 0.11508 0.12105 0.12719 0.12752 0.12806 0.12857 0.12793 0.12728 0.12661 0.12619 0.12588 0.12555 0.12526 0.12493 0.12463 0.12457 0.12447 0.1244 0.12442 0.12441 0.12443 0.12454 0.12456 0.12456 0.12445 0.12433 0.12416 0.12405 0.1239 0.12385 0.12393 0.12399 0.12408 0.12421 0.12435 0.12452 0.12457 0.12461 0.12466 0.12457 0.12452 0.12455 0.12454 0.12452 0.12453 0.12448 0.12455 0.12468 0.12472 0.12473 0.12476 0.12486 0.12492 0.125 0.12502 0.12516 0.12527 0.12535 0.12533 0.12526 0.1253 0.12545 0.12572 0.12579 0.12576 0.12583 0.12581 0.12581 0.12582 0.12572 0.12574 0.12567 0.12556 0.12554 0.12532 0.12516 0.12486 0.12461 0.12468 0.12484 0.12496
0 0 0 0 0 0 0 0 0 0 0 0 0 0 0 0.11914 0.1223 0.12552 0.12722 0.12733 0.12754 0.12767 0.12807 0.1286 0.12904 0.11895 0.10899 0.09909 0.10807 0 0.12572 0.12612 0.12654 0.12699 0.1269 0.12666 0.12648 0.1261 0.12577 0.12547 0.12511 0.12477 0.12449 0.12442 0.12431 0.12429 0.12432 0.12434 0.12437 0.12439 0.12441 0.12447 0.12442 0.12428 0.12412 0.12408 0.12397 0.1239 0.12404 0.12414 0.12424 0.12434 0.12445 0.12463 0.12462 0.12468 0.1246 0.1245 0.12442 0.12441 0.12444 0.1244 0.12441 0.12437 0.12443 0.12444 0.12446 0.12451 0.12458 0.1248 0.12494 0.12501 0.12506 0.12528 0.12545 0.12527 0.12525 0.12522 0.12533 0.12547 0.12562 0.12572 0.12585 0.12599 0.12598 0.12596 0.12598 0.12592 0.12589 0.12591 0.12583 0.12568 0.12556 0.12521 0.12493 0.12467 0.12473 0.12489 0.12502
0 0 0 0 0 0 0 0 0 0 0 0 0 0.11323 0.11522 0.11732 0.12039 0.1246 0.12718 0.12739 0.12752 0.12784 0.12823 0.12857 0.12892 0.12209 0.11551 0.10881 0.11484 0.12125 0.12668 0.12667 0.1268 0.12683 0.1267 0.12653 0.1264 0.12605 0.12578 0.12541 0.12516 0.12493 0.1247 0.12466 0.1246 0.12453 0.12453 0.12456 0.12454 0.1245 0.1245 0.12451 0.12444 0.12431 0.12419 0.12411 0.12406 0.12403 0.1241 0.12414 0.12431 0.12437 0.12442 0.12458 0.12459 0.12459 0.12453 0.12447 0.12441 0.12436 0.1244 0.12438 0.12446 0.12447 0.12457 0.12464 0.1246 0.12459 0.12463 0.12477 0.12487 0.12495 0.12507 0.1252 0.12529 0.12533 0.12527 0.12537 0.12546 0.12558 0.12568 0.12583 0.12597 0.12605 0.12613 0.12615 0.12621 0.12599 0.12593 0.12594 0.12583 0.1258 0.12576 0.12551 0.12522 0.12509 0.12513 0.12513 0.12516
0 0 0 0 0 0 0 0 0 0 0 0 0.10964 0.11141 0.11338 0.11518 0.11867 0.12321 0.12705 0.12738 0.12773 0.12803 0.12815 0.12833 0.12867 0.12532 0.12186 0.11857 0.1215 0.1245 0.12747 0.12723 0.12696 0.12664 0.12651 0.1264 0.12628 0.12601 0.1257 0.12535 0.12521 0.12508 0.12492 0.12486 0.12483 0.12474 0.12474 0.12472 0.12468 0.12462 0.12457 0.1246 0.12457 0.12444 0.12435 0.12424 0.12414 0.12411 0.1242 0.12424 0.12432 0.12436 0.12443 0.12448 0.12447 0.1245 0.12448 0.12445 0.1244 0.12443 0.12445 0.12455 0.12466 0.12464 0.12469 0.12478 0.12476 0.12474 0.12474 0.12487 0.12491 0.12503 0.1251 0.12524 0.1253 0.12534 0.12546 0.12562 0.12567 0.12577 0.12594 0.1259 0.12604 0.12606 0.12618 0.12627 0.12629 0.12628 0.12616 0.12612 0.12606 0.12595 0.12587 0.12572 0.12556 0.12541 0.12538 0.1253 0.12527
0 0 0 0 0 0 0 0 0.11615 0.11518 0.11301 0.10889 0.1054 0.10688 0.10823 0.10966 0.11542 0.12123 0.127 0.1274 0.12782 0.12819 0.12822 0.12834 0.12844 0.1285 0.12837 0.12828 0.1283 0.12836 0.12837 0.12777 0.12719 0.12653 0.12639 0.1263 0.12618 0.12588 0.12555 0.12525 0.12524 0.12518 0.1251 0.12507 0.12499 0.12493 0.12493 0.12487 0.12479 0.12475 0.12462 0.12459 0.12452 0.12446 0.1244 0.1243 0.12426 0.12422 0.1243 0.12429 0.12435 0.12433 0.12432 0.12432 0.12437 0.12435 0.12437 0.12439 0.12442 0.12451 0.12459 0.12467 0.12479 0.12479 0.12478 0.12484 0.12485 0.12476 0.12472 0.12491 0.12502 0.12508 0.12515 0.12508 0.1252 0.12545 0.12557 0.12582 0.12593 0.12595 0.12611 0.12607 0.12619 0.12624 0.12633 0.12646 0.12658 0.12649 0.12634 0.12632 0.12631 0.12621 0.126 0.12595 0.1259 0.12574 0.12568 0.12546 0.12532
0 0 0 0 0 0 0 0.11831 0.11781 0.11876 0.11758 0.11561 0.11372 0.11433 0.11504 0.11571 0.11967 0.12352 0.12739 0.12756 0.12784 0.12806 0.12795 0.12801 0.12795 0.12792 0.12782 0.12775 0.12775 0.12779 0.12782 0.12735 0.12694 0.12647 0.12635 0.12626 0.12614 0.12589 0.12568 0.12547 0.12547 0.12538 0.12529 0.12522 0.12514 0.12507 0.12502 0.12497 0.12489 0.12483 0.12478 0.12475 0.12469 0.12461 0.12452 0.12439 0.12428 0.12429 0.1243 0.12431 0.12433 0.12427 0.12424 0.12421 0.12422 0.12431 0.12435 0.12435 0.12442 0.12443 0.12452 0.12465 0.12475 0.12472 0.12474 0.12474 0.12477 0.12482 0.12482 0.12491 0.12495 0.12498 0.12512 0.12511 0.12506 0.12527 0.1255 0.12563 0.12577 0.12588 0.12601 0.1261 0.12623 0.12638 0.12641 0.12657 0.12669 0.12666 0.12652 0.12647 0.12638 0.12637 0.12621 0.12613 0.12613 0.12599 0.12583 0.12572 0.12548
0 0 0 0 0 0 0.11986 0.11993 0.11936 0.1191 0.12024 0.12254 0.12161 0.12176 0.12174 0.1216 0.1238 0.12574 0.12765 0.12772 0.12781 0.12786 0.12773 0.12767 0.12752 0.12741 0.1273 0.12719 0.12718 0.12719 0.12721 0.12695 0.1267 0.12648 0.12634 0.12623 0.12609 0.12592 0.12587 0.12574 0.12565 0.12556 0.12548 0.12541 0.12532 0.12524 0.12516 0.12508 0.12503 0.12498 0.12491 0.12482 0.12473 0.12467 0.12454 0.12448 0.12434 0.12432 0.12431 0.1243 0.12426 0.12422 0.12417 0.12417 0.12417 0.12421 0.12423 0.12432 0.12438 0.12443 0.12455 0.12465 0.12476 0.12472 0.12476 0.12473 0.12475 0.12476 0.12474 0.12482 0.12493 0.12485 0.12497 0.12492 0.12498 0.12514 0.12535 0.12556 0.1257 0.12588 0.1261 0.12618 0.12639 0.12647 0.12655 0.1266 0.12667 0.12665 0.12667 0.1267 0.1266 0.12653 0.12644 0.1264 0.12635 0.12625 0.12608 0.12603 0.12581
0 0 0 0 0 0 0.11986 0.11978 0.11898 0.11756 0.12156 0.12545 0.12962 0.12912 0.12857 0.12782 0.12785 0.12777 0.12789 0.12784 0.12786 0.12775 0.12749 0.12729 0.12701 0.1269 0.12677 0.1266 0.12662 0.12657 0.1265 0.12649 0.12646 0.12638 0.12627 0.12618 0.1261 0.12601 0.12603 0.12597 0.1259 0.12575 0.12566 0.12557 0.12547 0.12543 0.12535 0.12528 0.12521 0.12509 0.12503 0.12494 0.12476 0.12467 0.12466 0.12457 0.12445 0.12435 0.12432 0.12429 0.12422 0.12418 0.12415 0.12413 0.12419 0.1242 0.12428 0.12425 0.12437 0.12452 0.12462 0.12472 0.12486 0.12483 0.12483 0.12476 0.12474 0.1248 0.12477 0.12474 0.12479 0.12485 0.12494 0.12488 0.12489 0.12516 0.12521 0.12544 0.12562 0.12584 0.12608 0.12628 0.12639 0.12654 0.12661 0.12669 0.12684 0.12685 0.12691 0.12681 0.12674 0.12676 0.12677 0.1266 0.12657 0.12651 0.12643 0.12623 0.12608
0 0 0 0 0 0.11875 0.11945 0.12055 0.1218 0.12194 0.12468 0.1271 0.12982 0.12959 0.12918 0.12853 0.12834 0.12811 0.12794 0.12778 0.12762 0.12747 0.12732 0.1271 0.12685 0.12675 0.12669 0.12661 0.12662 0.1266 0.1265 0.12643 0.12643 0.12634 0.12625 0.12621 0.12616 0.12613 0.12606 0.12603 0.12594 0.12582 0.12572 0.12563 0.12557 0.12547 0.12541 0.12536 0.12535 0.12528 0.12522 0.12512 0.125 0.12492 0.12481 0.12477 0.12465 0.12457 0.12458 0.12451 0.12438 0.12436 0.12428 0.12427 0.12418 0.12424 0.12433 0.1244 0.12461 0.12475 0.12482 0.12485 0.12498 0.12496 0.12492 0.12507 0.1251 0.12504 0.12502 0.12505 0.12504 0.12503 0.12498 0.12498 0.12497 0.12506 0.12521 0.12536 0.12551 0.12569 0.1259 0.12602 0.12609 0.12628 0.12638 0.12659 0.12668 0.12669 0.12676 0.12678 0.12671 0.12669 0.12673 0.12673 0.12672 0.12664 0.12655 0.12645 0.12627
0 0 0 0 0.11769 0.11799 0.11776 0.12012 0.12454 0.12647 0.12782 0.1289 0.13003 0.12986 0.12964 0.12921 0.12888 0.12842 0.12805 0.1278 0.12754 0.12727 0.12719 0.12704 0.12682 0.12672 0.1266 0.12658 0.12661 0.12651 0.12641 0.12638 0.12635 0.12633 0.12632 0.12632 0.12629 0.12622 0.12614 0.12609 0.12601 0.12596 0.12587 0.12578 0.12573 0.12564 0.12558 0.1255 0.12545 0.12539 0.12534 0.12532 0.12522 0.12514 0.12504 0.12491 0.12485 0.12485 0.12478 0.12474 0.12464 0.12459 0.12446 0.12441 0.12442 0.12449 0.12455 0.12462 0.12474 0.12492 0.12508 0.12514 0.12527 0.12527 0.12537 0.1255 0.1254 0.1254 0.12546 0.12553 0.12543 0.12517 0.12503 0.12507 0.12507 0.12507 0.12522 0.12523 0.12539 0.12559 0.12583 0.12601 0.12612 0.12621 0.12626 0.12642 0.12658 0.12665 0.12666 0.12681 0.12672 0.12668 0.12661 0.12675 0.12684 0.12678 0.12673 0.12668 0.12666
0 0 0 0 0.11709 0.11693 0.11553 0.12045 0.12545 0.13072 0.13075 0.13058 0.13033 0.13013 0.12997 0.12972 0.12929 0.12864 0.12813 0.12778 0.12738 0.12709 0.12706 0.12694 0.12678 0.1267 0.12667 0.12665 0.12658 0.12648 0.12637 0.12633 0.12627 0.12627 0.12632 0.12632 0.12636 0.12635 0.1263 0.12623 0.12614 0.1261 0.12596 0.1259 0.12584 0.12579 0.12571 0.12568 0.12561 0.12549 0.1254 0.12539 0.12528 0.12527 0.12517 0.12507 0.12497 0.12497 0.12494 0.12481 0.12473 0.12466 0.12468 0.12464 0.12469 0.12477 0.12493 0.1249 0.12498 0.12526 0.1253 0.12546 0.12578 0.1257 0.12581 0.12587 0.12578 0.12594 0.12595 0.12577 0.12552 0.12524 0.12519 0.12511 0.12508 0.12522 0.1253 0.12534 0.12548 0.12565 0.12577 0.1258 0.12594 0.12609 0.12622 0.12629 0.12645 0.12655 0.12662 0.12674 0.12681 0.12678 0.12684 0.1269 0.12691 0.12694 0.12688 0.127 0.12702
0 0 0 0.11039 0.11509 0.1178 0.11964 0.12291 0.12634 0.1298 0.12992 0.12981 0.12973 0.12953 0.12928 0.1291 0.12872 0.12833 0.12797 0.12762 0.12739 0.12719 0.12708 0.12693 0.12675 0.12667 0.12651 0.12646 0.1264 0.12633 0.12626 0.12628 0.12626 0.12621 0.12626 0.12635 0.12641 0.12635 0.12631 0.12628 0.12624 0.12618 0.1261 0.12608 0.12606 0.12601 0.12598 0.12593 0.12588 0.1258 0.12574 0.12571 0.1256 0.12557 0.1255 0.12543 0.1253 0.12529 0.1252 0.12517 0.12511 0.12507 0.12506 0.12498 0.1251 0.12524 0.12532 0.12532 0.12536 0.12552 0.12581 0.1259 0.12607 0.12599 0.12596 0.12614 0.12618 0.12621 0.12613 0.12594 0.12583 0.12551 0.12535 0.12535 0.12533 0.12541 0.12552 0.12547 0.12554 0.12569 0.12577 0.12575 0.12584 0.12593 0.1261 0.12612 0.12631 0.12629 0.1263 0.12648 0.12648 0.12663 0.12677 0.12677 0.12682 0.12677 0.12679 0.12688 0.12701
0 0 0 0.1006 0.10875 0.11917 0.12359 0.12525 0.12712 0.12895 0.12909 0.12912 0.12924 0.12901 0.1287 0.12848 0.12838 0.12819 0.12792 0.12775 0.12749 0.12725 0.12705 0.12692 0.12676 0.1266 0.1264 0.12633 0.12632 0.12627 0.12624 0.12621 0.1262 0.12618 0.12628 0.12632 0.12635 0.12635 0.12637 0.12632 0.12631 0.12627 0.12623 0.12625 0.12626 0.1262 0.12616 0.12615 0.12615 0.12611 0.12601 0.12599 0.12589 0.12591 0.12584 0.12576 0.12568 0.12564 0.12562 0.1255 0.12545 0.12542 0.12529 0.1254 0.12556 0.12561 0.12569 0.12574 0.1258 0.12593 0.12604 0.12611 0.1263 0.12642 0.12632 0.12631 0.12635 0.12644 0.12637 0.12622 0.12609 0.12586 0.12566 0.12556 0.1256 0.12569 0.12569 0.12575 0.12573 0.1258 0.12576 0.12569 0.12575 0.12586 0.12596 0.12602 0.12603 0.1261 0.12623 0.12628 0.12634 0.12646 0.12657 0.1267 0.12663 0.12664 0.12671 0.12682 0.12692
0 0 0 0.0857 0.10015 0.11409 0.12769 0.12782 0.12795 0.12825 0.1284 0.12856 0.12879 0.12868 0.12833 0.12811 0.12806 0.128 0.12785 0.12771 0.12748 0.12733 0.12722 0.12701 0.12681 0.12665 0.12649 0.12637 0.12631 0.12623 0.12613 0.12613 0.12618 0.12618 0.12627 0.12629 0.12625 0.1263 0.12641 0.12644 0.12636 0.12635 0.12638 0.12644 0.12645 0.12646 0.12648 0.12647 0.1264 0.12638 0.12633 0.12637 0.12629 0.12629 0.12631 0.12624 0.12616 0.12609 0.12599 0.1259 0.12575 0.12573 0.12577 0.12582 0.12593 0.12608 0.12605 0.1262 0.12624 0.1264 0.12651 0.12655 0.12672 0.12674 0.12669 0.12682 0.12681 0.12679 0.12676 0.12652 0.12643 0.12617 0.12599 0.1259 0.12589 0.12583 0.12578 0.12587 0.12585 0.12583 0.12574 0.12567 0.12568 0.12563 0.12572 0.12579 0.12588 0.12592 0.12611 0.12624 0.12627 0.12633 0.12633 0.12649 0.1265 0.12663 0.12662 0.12676 0.12688
0 0 0 0.10186 0.11143 0.12072 0.12995 0.1297 0.12948 0.12928 0.12914 0.12893 0.12892 0.12865 0.12837 0.12827 0.12819 0.12805 0.12783 0.12767 0.12752 0.12738 0.12713 0.12689 0.1267 0.12652 0.12634 0.12618 0.12616 0.12609 0.12606 0.12603 0.12606 0.12607 0.12614 0.12629 0.12633 0.12637 0.1264 0.12648 0.12647 0.12647 0.12642 0.1265 0.1266 0.12665 0.12674 0.12681 0.12685 0.12677 0.12675 0.12677 0.12685 0.12688 0.12693 0.12684 0.1268 0.12677 0.12672 0.12666 0.1266 0.12654 0.12653 0.12658 0.12664 0.12674 0.12673 0.12683 0.12688 0.12696 0.12696 0.12701 0.12712 0.12718 0.12722 0.12721 0.12711 0.12702 0.12703 0.12698 0.12677 0.12662 0.12653 0.12645 0.12633 0.12627 0.1263 0.12635 0.12629 0.12624 0.12622 0.12615 0.12607 0.12596 0.12596 0.12604 0.12603 0.12605 0.12614 0.12623 0.12635 0.12648 0.12657 0.12662 0.12675 0.12681 0.1268 0.12695 0.12713
0.12935 0.13037 0.12338 0.11798 0.12328 0.1281 0.13277 0.13216 0.13149 0.13066 0.1299 0.12925 0.12892 0.12874 0.12856 0.12837 0.12827 0.12807 0.12786 0.12763 0.12744 0.12723 0.127 0.12682 0.12658 0.12643 0.12625 0.12616 0.12612 0.12602 0.12597 0.126 0.12597 0.12598 0.12605 0.12619 0.12633 0.12636 0.12641 0.12648 0.12652 0.12652 0.12658 0.12671 0.12679 0.12694 0.12699 0.12711 0.12713 0.12714 0.12718 0.12721 0.12718 0.12733 0.12746 0.12742 0.1274 0.12742 0.12737 0.12726 0.12733 0.12729 0.12721 0.12721 0.12737 0.1273 0.12735 0.12737 0.12743 0.12758 0.12763 0.12761 0.12767 0.12764 0.12766 0.12759 0.12751 0.12746 0.12745 0.12739 0.12729 0.12702 0.12698 0.12691 0.12682 0.12685 0.12682 0.12689 0.12679 0.12678 0.12674 0.12651 0.12643 0.12635 0.12623 0.12621 0.12614 0.12618 0.12627 0.12628 0.12631 0.12642 0.12656 0.12674 0.12691 0.12697 0.12705 0.12719 0.12742
0.12833 0.13037 0.13241 0.13428 0.13493 0.13468 0.13416 0.13306 0.13205 0.13137 0.13069 0.12964 0.129 0.12889 0.12874 0.1284 0.12827 0.12804 0.12783 0.1275 0.12721 0.12705 0.12691 0.12672 0.12648 0.12625 0.12615 0.12609 0.12606 0.12599 0.12593 0.12595 0.12596 0.12595 0.12605 0.12616 0.12633 0.12631 0.12633 0.12639 0.12653 0.12661 0.12672 0.12692 0.12706 0.12715 0.12717 0.12731 0.12745 0.12747 0.12755 0.1276 0.1276 0.12772 0.12784 0.12793 0.12796 0.12802 0.12802 0.12804 0.12803 0.12791 0.12784 0.12787 0.1281 0.1281 0.12806 0.12805 0.12811 0.12824 0.12825 0.12825 0.12832 0.12817 0.12811 0.12801 0.12792 0.12798 0.12796 0.12789 0.12777 0.12769 0.12754 0.12746 0.12734 0.12746 0.12746 0.12741 0.1274 0.12733 0.12727 0.12692 0.12687 0.12682 0.12663 0.12644 0.12644 0.12641 0.12637 0.12645 0.12663 0.12672 0.1268 0.12682 0.12695 0.12712 0.12728 0.12743 0.12763
0.12856 0.13025 0.13193 0.13367 0.13431 0.13421 0.134 0.13311 0.13245 0.13184 0.13098 0.13035 0.12966 0.12929 0.12894 0.12849 0.12827 0.12802 0.12765 0.12737 0.12713 0.12702 0.12687 0.1266 0.12634 0.12624 0.12614 0.12607 0.12613 0.12609 0.12604 0.12614 0.12616 0.1262 0.1263 0.12651 0.12666 0.12655 0.12663 0.12666 0.12684 0.12698 0.12713 0.12732 0.12741 0.12751 0.12755 0.12769 0.12783 0.12792 0.12805 0.12822 0.12834 0.12838 0.12849 0.12859 0.12871 0.12884 0.12883 0.12881 0.12875 0.12866 0.12857 0.12873 0.12871 0.12869 0.12876 0.12869 0.12869 0.12871 0.12874 0.12879 0.12877 0.12875 0.12867 0.12867 0.12858 0.12853 0.12854 0.12843 0.12838 0.12825 0.1282 0.12817 0.12814 0.12829 0.12849 0.12867 0.12861 0.12849 0.12843 0.128 0.1278 0.12752 0.1273 0.12711 0.12689 0.12687 0.12687 0.12694 0.12719 0.12746 0.12762 0.12757 0.12746 0.12748 0.12765 0.12777 0.12782
0.12867 0.13 0.13144 0.13272 0.13331 0.13369 0.1341 0.13345 0.13276 0.13216 0.13138 0.13075 0.1301 0.1296 0.12918 0.1286 0.12832 0.12805 0.12772 0.12743 0.12715 0.12692 0.12665 0.12641 0.12629 0.12627 0.1262 0.12613 0.12617 0.12616 0.12617 0.12624 0.12637 0.12648 0.12662 0.12674 0.12678 0.12682 0.12695 0.12697 0.12708 0.12724 0.12742 0.12766 0.12777 0.12795 0.12813 0.12822 0.12841 0.12853 0.12865 0.12884 0.12899 0.12918 0.12931 0.1294 0.12949 0.12964 0.12955 0.12952 0.12943 0.12939 0.12941 0.12941 0.12941 0.12947 0.12949 0.12937 0.12939 0.12938 0.12937 0.12938 0.12948 0.12948 0.12949 0.12938 0.12927 0.12918 0.12901 0.1289 0.12889 0.12888 0.12884 0.12883 0.1289 0.1293 0.12962 0.12994 0.12994 0.12983 0.12972 0.12913 0.12863 0.12812 0.12787 0.12765 0.12742 0.1275 0.12763 0.12773 0.12794 0.12821 0.1284 0.12831 0.12826 0.12817 0.12817 0.12814 0.12808
0.12845 0.1295 0.13055 0.13168 0.13248 0.13319 0.13394 0.13344 0.13308 0.1327 0.13186 0.13111 0.13049 0.12987 0.1292 0.12846 0.12811 0.12781 0.12751 0.12728 0.12704 0.12677 0.12659 0.1264 0.12624 0.12626 0.12624 0.12617 0.12632 0.12632 0.12635 0.12648 0.12659 0.12669 0.12674 0.12699 0.12717 0.12721 0.12731 0.12736 0.1275 0.12771 0.12789 0.12818 0.12835 0.12859 0.12884 0.12907 0.12918 0.12932 0.12946 0.12973 0.12993 0.13003 0.13019 0.13018 0.13005 0.13015 0.13012 0.13001 0.12991 0.12991 0.12984 0.12974 0.12976 0.12985 0.12988 0.12988 0.12979 0.12964 0.12971 0.1298 0.12997 0.12988 0.1299 0.12988 0.12984 0.12975 0.12962 0.12958 0.12943 0.12942 0.12947 0.12952 0.12961 0.12976 0.13047 0.13124 0.13049 0.13029 0.13099 0.13027 0.12954 0.12872 0.12848 0.12821 0.12796 0.12808 0.12829 0.12852 0.12659 0.12728 0.12931 0.12838 0.12842 0.12905 0.12904 0.12887 0.12859
0.12912 0.12999 0.1308 0.1317 0.13235 0.13293 0.1334 0.13295 0.13263 0.13245 0.13167 0.13087 0.1303 0.1297 0.12905 0.12842 0.12805 0.1278 0.1276 0.12742 0.1272 0.127 0.12691 0.12681 0.12668 0.12671 0.12674 0.12676 0.12686 0.12699 0.12707 0.12724 0.12742 0.12754 0.12759 0.12764 0.12772 0.12785 0.12804 0.12814 0.12831 0.12843 0.12855 0.12885 0.12921 0.12954 0.12983 0.13007 0.13026 0.13034 0.13045 0.1306 0.13073 0.1307 0.13069 0.13076 0.13075 0.13085 0.13087 0.13086 0.13089 0.13081 0.13078 0.13078 0.1307 0.13073 0.13074 0.1305 0.13032 0.13005 0.13006 0.12995 0.13007 0.13005 0.13006 0.13002 0.12991 0.1297 0.12965 0.12974 0.12966 0.12975 0.12995 0.13035 0.13067 0.13013 0.13037 0.13044 0.13014 0.12998 0.13018 0.12958 0.1291 0.12855 0.12511 0.12161 0.11817 0.11832 0.1185 0.11874 0.12281 0.12436 0.12636 0.12752 0.12802 0.12864 0.12965 0.12991 0.13154
0.12957 0.13024 0.13079 0.13132 0.13187 0.13227 0.13268 0.1324 0.13202 0.13187 0.13133 0.13069 0.13008 0.12956 0.12897 0.12834 0.12804 0.12788 0.12773 0.12761 0.1275 0.12733 0.12728 0.12722 0.12716 0.1272 0.12719 0.12724 0.12745 0.12767 0.12788 0.12801 0.12816 0.12831 0.12833 0.12832 0.1284 0.1286 0.12877 0.12894 0.12909 0.1292 0.12928 0.12967 0.13004 0.1305 0.13073 0.13107 0.13132 0.13139 0.13143 0.13147 0.13142 0.13131 0.13126 0.13139 0.13145 0.13163 0.13169 0.13175 0.13185 0.13183 0.13187 0.132 0.13178 0.13164 0.13168 0.13136 0.131 0.13069 0.13044 0.13025 0.13011 0.13005 0.13014 0.13014 0.13002 0.12987 0.12985 0.12999 0.13001 0.13017 0.13074 0.13135 0.13187 0.12941 0.1287 0.13023 0 0 0.12929 0.12902 0.12872 0.12845 0.1216 0.11502 0.10835 0.1086 0.10882 0 0 0.12397 0.12234 0.12469 0.12751 0.1288 0.13027 0.13236 0.13446
