ncols        109
nrows        82
xllcorner    -1.041666666667
yllcorner    37.041665395101
cellsize     0.083333333333
NODATA_value -9999
0.0 0 0 0 0 0 0 0 0 0 0 0 0 0 0 0 0 0 0 0 0 0 0 0 0 0 0 0 0 0 0 0 0 0 0 0 0 0 0 0 0 0 0 0 0 0 0 0 0 0 0 0 0 0 0 0 0 0 0 0 0 0 0 0 0 0 0 0 0 0 0 0 0 0 0 0 0 0 0 0 0 0 0 0 0 0 0 0 0 0 0 0 0 0 0 0 0 0 0 0 0 0 0 0 0 0.12947 0.12959 0.12977 0.12982
0 0 0 0 0 0 0 0 0 0 0 0 0 0 0 0 0 0 0 0 0 0 0 0 0 0 0 0 0 0 0 0 0 0 0 0 0 0 0 0 0 0 0 0 0 0 0 0 0 0 0 0 0 0 0 0 0 0 0 0 0 0 0 0 0 0 0 0 0 0 0 0 0 0 0 0 0 0 0 0 0 0 0 0 0 0 0 0 0 0 0 0 0 0 0 0 0 0 0 0 0 0.12877 0.129 0.12924 0.12953 0.12977 0.12999 0.13014 0.13035
0 0 0 0 0 0 0 0 0 0 0 0 0 0 0 0 0 0 0 0 0 0 0 0 0 0 0 0 0 0 0 0 0 0 0 0 0 0 0 0 0 0 0 0 0 0 0 0 0 0 0 0 0 0 0 0 0 0 0 0 0 0 0 0 0 0 0 0 0 0 0 0 0 0 0 0 0 0 0 0 0 0 0 0 0 0 0 0 0 0 0 0 0 0 0 0 0 0 0.12778 0.12826 0.12869 0.12896 0.12917 0.12918 0.12929 0.12932 0.12958 0.12985 0.12987
0 0 0 0 0 0 0 0 0 0 0 0 0 0 0 0 0 0 0 0 0 0 0 0 0 0 0 0 0 0 0 0 0 0 0 0 0 0 0 0 0 0 0 0 0 0 0 0 0 0 0 0 0 0 0 0 0 0 0 0 0 0 0 0 0 0 0 0 0 0 0 0 0 0 0 0 0 0 0 0 0 0 0 0 0 0 0 0 0 0 0 0 0 0 0 0 0 0.12663 0.12756 0.1282 0.12859 0.12908 0.12936 0.12901 0.12881 0.12896 0.12894 0.12889 0.1289
0 0 0 0 0 0 0 0 0 0 0 0 0 0 0 0 0 0 0 0 0 0 0 0 0 0 0 0 0 0 0 0 0 0 0 0 0 0 0 0 0 0 0 0 0 0 0 0 0 0 0 0 0 0 0 0 0 0 0.13188 0.13336 0.13391 0.1351 0 0 0 0 0 0 0 0 0 0 0 0 0 0 0 0 0 0 0 0 0 0 0 0 0 0 0 0 0 0 0 0 0 0.12564 0.12536 0.12624 0.12719 0.12811 0.12875 0.12939 0.12977 0.12922 0.12872 0.1282 0.12809 0.12797 0.12782
0 0 0 0 0 0 0 0 0 0 0 0 0 0 0 0 0 0 0 0 0 0 0 0 0 0 0 0 0 0 0 0 0 0 0 0 0 0 0 0 0 0 0 0 0 0 0 0 0 0 0 0 0 0 0 0 0.13238 0.13215 0.13271 0.13301 0.13463 0.13548 0.13615 0.13681 0.12738 0.11887 0.11025 0 0 0 0 0.11848 0 0 0 0 0 0 0 0 0 0 0 0 0 0 0 0 0 0 0 0 0 0.12648 0.12622 0.12599 0.12563 0.12626 0.12695 0.12762 0.12786 0.12819 0.12838 0.12813 0.12771 0.12733 0.12709 0.12687 0.12666
0 0 0 0 0 0 0 0 0 0 0 0 0 0 0 0 0 0 0 0 0 0 0 0 0 0 0 0 0 0 0 0 0 0 0 0 0 0 0 0 0 0 0 0 0 0 0 0 0 0 0 0 0 0 0 0.13206 0.13451 0.13538 0.13485 0.13434 0.13577 0.13568 0.13582 0.13608 0.13085 0.12565 0.12116 0.12624 0.12394 0.12284 0.12205 0.12007 0.11856 0.11539 0.10956 0.10601 0.10673 0 0 0 0 0 0 0 0 0 0 0 0 0 0 0 0.12578 0.12532 0.12618 0.12627 0.12599 0.12634 0.12666 0.12699 0.12712 0.12705 0.12697 0.12678 0.12653 0.12601 0.12576 0.12553 0.12536
0 0 0 0 0 0 0 0 0 0 0 0 0 0 0 0 0 0 0 0 0 0 0 0 0 0 0 0 0 0 0 0 0 0 0 0 0 0 0 0 0 0 0 0 0 0 0 0 0 0 0 0.12266 0.12427 0.12596 0.12836 0.13208 0.1365 0.1395 0.13805 0.137 0.13657 0.13641 0.13614 0.13538 0.13403 0.13262 0.13199 0.12849 0.12515 0.12207 0.12085 0.11973 0.11877 0.11164 0.1045 0.09732 0 0 0 0 0 0 0 0 0 0 0 0 0 0 0 0 0.12488 0.12554 0.12597 0.12624 0.12637 0.12651 0.12655 0.12652 0.12624 0.1258 0.12552 0.12532 0.12508 0.12479 0.12446 0.12419 0.1239
0 0 0 0 0 0 0 0 0 0 0 0 0 0 0 0 0 0 0 0 0 0 0 0 0 0 0 0 0 0 0 0 0 0 0 0 0 0 0 0 0 0 0 0 0 0 0 0 0 0 0.11962 0.12138 0.12234 0.1238 0.12566 0.12829 0.13099 0.13257 0.13159 0.13077 0.13013 0.13109 0.13241 0.13374 0.13563 0.13772 0.13969 0.1364 0.13335 0.13067 0.12877 0.12698 0.12501 0.1193 0.11374 0.10813 0.10911 0.11012 0.11058 0.1142 0.11786 0.12089 0 0 0 0 0 0 0 0.11743 0.12094 0.1231 0.12437 0.12606 0.12641 0.12652 0.12662 0.12643 0.1262 0.12592 0.12536 0.12479 0.12441 0.12405 0.12382 0.12358 0.12336 0.12309 0.1227
0 0 0 0 0 0 0 0 0 0 0 0 0 0 0 0 0 0 0 0 0 0 0 0 0 0 0 0 0 0 0 0 0 0 0 0 0 0 0 0 0 0 0 0 0 0 0 0 0 0.11955 0.11882 0.11874 0.12004 0.12134 0.12198 0.12324 0.12399 0.12575 0.12439 0.12306 0.12208 0.12511 0.12848 0.13187 0.13683 0.14173 0.14682 0.14395 0.1414 0.13924 0.1365 0.13374 0.13105 0.1269 0.12273 0.11879 0.11964 0.11995 0.12061 0.1253 0.12557 0.12712 0 0.12704 0.12644 0.11919 0.10621 0.09836 0.10501 0.11649 0.12232 0.12373 0.12458 0.12652 0.12656 0.12654 0.12644 0.12601 0.12539 0.12453 0.12395 0.1235 0.12299 0.12278 0.12251 0.12226 0.12213 0.12197 0.12179
0 0 0 0 0 0 0 0 0 0 0 0 0 0 0 0 0 0 0 0 0 0 0 0 0 0 0 0 0 0 0 0 0 0 0 0 0 0 0 0 0 0 0 0 0 0 0 0 0 0.11873 0.11686 0.11563 0.11672 0.11787 0.11917 0.11886 0.11891 0.1187 0.11753 0.11606 0.1148 0.11979 0.12502 0.13001 0.13785 0.14569 0.15374 0.15148 0.14946 0.14766 0.14405 0.14058 0.13705 0.13439 0.13203 0.12964 0.12984 0.13021 0.13079 0.13093 0.13101 0.13104 0.13208 0.13303 0.13436 0.11535 0.09624 0.07693 0.09367 0.11048 0.12704 0.127 0.1269 0.12684 0.12656 0.12635 0.12597 0.12495 0.12397 0.12327 0.12268 0.12224 0.12172 0.1214 0.12093 0.1207 0.12075 0.12066 0.12061
0 0 0 0 0 0 0 0 0 0 0 0 0 0 0 0 0 0 0 0 0 0 0 0 0 0 0 0 0 0 0 0 0 0 0 0 0 0 0 0 0 0 0 0 0 0 0 0 0 0.11987 0.11871 0.11683 0.11859 0.11977 0.12094 0.12164 0.12324 0.12378 0.12251 0.12119 0.12008 0.12366 0.1273 0.13079 0.13618 0.14147 0.14709 0.14572 0.14437 0.14308 0.14034 0.1376 0.13491 0.13311 0.13116 0.12943 0.12985 0.13007 0.13028 0.13051 0.1307 0.13049 0.1312 0.13188 0.13284 0.12017 0.10738 0.09442 0.10528 0.11613 0.12691 0.12671 0.12655 0.12617 0.12573 0.12513 0.12427 0.12382 0.12305 0.12219 0.12178 0.1213 0.12083 0.12048 0.12022 0.12007 0.12 0.11994 0.11995
0 0 0 0 0 0 0 0 0 0 0 0 0 0 0 0 0 0 0 0 0 0 0 0 0 0 0 0 0 0 0 0 0 0 0 0 0 0 0 0 0 0 0 0 0 0 0 0 0 0.12194 0.12177 0.1192 0.12074 0.12247 0.12395 0.12498 0.1272 0.12863 0.12754 0.12649 0.12566 0.1277 0.12976 0.13175 0.13459 0.13756 0.14066 0.14012 0.13921 0.13859 0.13687 0.1349 0.13314 0.13193 0.13073 0.12968 0.12992 0.12996 0.13011 0.13022 0.13039 0.13012 0.13037 0.1306 0.13116 0.12483 0.11836 0.11189 0.11671 0.12168 0.12674 0.12648 0.12615 0.12566 0.12492 0.12398 0.12302 0.12241 0.12176 0.12121 0.12067 0.12019 0.11974 0.11952 0.11935 0.11922 0.11915 0.11918 0.11927
0 0 0 0 0 0 0 0 0 0 0 0 0 0 0 0 0 0 0 0 0 0 0 0 0 0 0 0 0 0 0 0 0 0 0 0 0 0 0 0 0 0 0 0 0 0 0 0 0 0.12317 0.12245 0.12173 0.12313 0.12591 0.12733 0.12938 0.13164 0.1337 0.1328 0.13194 0.13117 0.1315 0.13196 0.13237 0.13286 0.13354 0.13421 0.13404 0.13406 0.13397 0.13295 0.13193 0.13099 0.13056 0.13019 0.12995 0.12984 0.1296 0.1296 0.1298 0.12987 0.12959 0.12926 0.12901 0.12913 0.12922 0.12922 0.12898 0.12796 0.12703 0.12638 0.12598 0.12553 0.12487 0.1238 0.12269 0.12182 0.12129 0.12063 0.11972 0.11948 0.11919 0.11896 0.11879 0.11866 0.11861 0.11859 0.11854 0.11845
0 0 0 0 0 0 0 0 0 0 0 0 0 0 0 0 0 0 0 0 0 0 0 0 0 0 0 0 0 0 0 0 0 0 0 0 0 0 0 0 0 0 0 0 0 0 0 0 0 0.12447 0.12395 0.12387 0.12524 0.12718 0.13095 0.13139 0.13158 0.13252 0.13183 0.13115 0.13065 0.13103 0.13153 0.13201 0.13248 0.13282 0.13317 0.13304 0.13289 0.13275 0.13183 0.13095 0.13014 0.12965 0.12916 0.12867 0.12848 0.12828 0.12811 0.12807 0.12782 0.12753 0.12754 0.12743 0.12722 0.127 0.12688 0.12667 0.12608 0.12541 0.1247 0.12416 0.12353 0.12297 0.12231 0.12137 0.12087 0.12039 0.1199 0.11922 0.11888 0.11872 0.11855 0.11852 0.11842 0.11827 0.11826 0.11833 0.11826
0 0 0 0 0 0 0 0 0 0 0 0 0 0 0 0 0 0 0 0 0 0 0 0 0 0 0 0 0 0 0 0 0 0 0 0 0 0 0 0 0 0 0 0 0 0 0 0 0 0.12519 0.12715 0.12785 0.12944 0.13169 0.13399 0.1334 0.13186 0.13127 0.13083 0.13063 0.13031 0.13081 0.1312 0.13167 0.1319 0.13216 0.1323 0.13214 0.13196 0.13171 0.13091 0.13008 0.12927 0.1287 0.12811 0.12749 0.1272 0.12688 0.12657 0.1263 0.12596 0.12566 0.12548 0.12525 0.12505 0.12472 0.12449 0.12414 0.12362 0.12308 0.12245 0.12194 0.1215 0.12112 0.12076 0.1202 0.11966 0.11931 0.11896 0.11855 0.11846 0.11829 0.11816 0.11816 0.11809 0.11798 0.11807 0.11818 0.11818
0 0 0 0 0 0 0 0 0 0 0 0 0 0 0 0 0 0 0 0 0 0 0 0 0 0 0 0 0 0 0 0 0 0 0 0 0 0 0 0 0 0 0 0 0 0 0 0 0 0 0.1302 0.13107 0.13225 0.13506 0.13681 0.13422 0.13187 0.13015 0.1301 0.12998 0.12982 0.13029 0.13085 0.13123 0.13141 0.13154 0.13164 0.13132 0.13101 0.1305 0.12978 0.12909 0.1283 0.12767 0.12709 0.12633 0.12581 0.12526 0.12486 0.12444 0.12405 0.12367 0.12342 0.12313 0.12279 0.1224 0.12203 0.12162 0.12123 0.12085 0.1204 0.12 0.11969 0.11943 0.11909 0.11874 0.11842 0.11826 0.1181 0.11789 0.11787 0.11783 0.11776 0.11781 0.11784 0.11786 0.11789 0.11792 0.11794
0 0 0 0 0 0 0 0 0 0 0 0 0 0 0 0 0 0 0 0 0 0 0 0 0 0 0 0 0 0 0 0 0 0 0 0 0 0 0 0 0 0 0 0 0 0 0 0 0 0 0.13223 0.1327 0.13282 0.13309 0.13453 0.13255 0.13071 0.12961 0.12949 0.12958 0.12948 0.13006 0.13062 0.13098 0.13109 0.13099 0.1309 0.13051 0.13014 0.12962 0.12889 0.12817 0.12737 0.12673 0.12602 0.1253 0.12485 0.12439 0.12396 0.12355 0.12325 0.12298 0.12271 0.12246 0.12218 0.12179 0.12144 0.12096 0.12055 0.12015 0.11981 0.11949 0.1192 0.11896 0.11876 0.11847 0.11813 0.11803 0.11785 0.11771 0.11773 0.11774 0.11769 0.11774 0.11776 0.11782 0.11792 0.11792 0.11788
0 0 0 0 0 0 0 0 0 0 0 0 0 0 0 0 0 0 0 0 0 0 0 0 0 0 0 0 0 0 0 0 0 0 0 0 0 0 0 0 0 0 0 0 0 0 0 0 0 0 0 0 0.1324 0.13195 0.13288 0.13106 0.12976 0.12894 0.12899 0.12906 0.12895 0.12966 0.13021 0.13045 0.13038 0.13039 0.13029 0.12983 0.1294 0.12882 0.12808 0.1272 0.12638 0.12581 0.12511 0.12442 0.12396 0.12355 0.12315 0.12278 0.12253 0.12225 0.12196 0.12172 0.12138 0.121 0.12068 0.12039 0.12002 0.11967 0.11937 0.11911 0.11873 0.11849 0.11827 0.11802 0.11786 0.11775 0.11766 0.11747 0.1175 0.11755 0.11756 0.11764 0.11774 0.11782 0.11788 0.1179 0.11797
0 0 0 0 0 0 0 0 0 0 0 0 0 0 0 0 0 0 0 0 0 0 0 0 0 0 0 0 0 0 0 0 0 0 0 0 0 0 0 0 0 0 0 0 0 0 0 0 0 0 0.13281 0.13287 0.13266 0.13214 0.13174 0.13027 0.12923 0.12851 0.12851 0.12848 0.12848 0.12917 0.12954 0.12979 0.12961 0.12963 0.12955 0.129 0.1285 0.12785 0.12705 0.12623 0.12544 0.12484 0.12417 0.12353 0.12315 0.12264 0.12232 0.12198 0.12171 0.1215 0.12118 0.12089 0.12061 0.12034 0.12014 0.11986 0.11947 0.11913 0.11884 0.11856 0.11831 0.11811 0.11782 0.11765 0.11747 0.11741 0.11726 0.11719 0.11731 0.11732 0.11738 0.11743 0.11762 0.11771 0.11788 0.11789 0.118
0 0 0 0 0 0 0 0 0 0 0 0 0 0 0 0 0 0 0 0 0 0 0 0 0 0 0 0 0 0 0 0 0 0 0 0 0 0 0 0 0 0 0 0 0 0 0 0 0 0 0.13209 0.13269 0.13263 0.13236 0.13163 0.13036 0.1293 0.12835 0.12828 0.12811 0.12814 0.12866 0.12899 0.12907 0.12904 0.12899 0.12897 0.12843 0.12786 0.12724 0.12657 0.12588 0.12512 0.1245 0.12391 0.12337 0.12296 0.12259 0.12223 0.12192 0.12164 0.12144 0.12116 0.12098 0.12072 0.1204 0.12021 0.12 0.11972 0.11943 0.11911 0.11884 0.11869 0.11837 0.11818 0.11792 0.11778 0.1177 0.11755 0.11737 0.11754 0.11748 0.11751 0.11762 0.11773 0.11775 0.11796 0.11807 0.11816
0 0 0 0 0 0 0 0 0 0 0 0 0 0 0 0 0 0 0 0 0 0 0 0 0 0 0 0 0 0 0 0 0 0 0 0 0 0 0 0 0 0 0 0 0 0 0 0 0 0 0 0.13253 0.13192 0.13158 0.13099 0.13021 0.12917 0.12827 0.12807 0.12782 0.12767 0.12821 0.12848 0.12853 0.12844 0.12834 0.12833 0.1278 0.12723 0.12665 0.12605 0.12547 0.12478 0.12417 0.12366 0.12317 0.12284 0.1225 0.12199 0.12174 0.12156 0.12126 0.12111 0.12087 0.12059 0.12035 0.1202 0.12005 0.11975 0.11949 0.1192 0.11892 0.11873 0.11848 0.11827 0.11816 0.11798 0.11784 0.11775 0.1175 0.11761 0.11765 0.11765 0.11772 0.11786 0.11793 0.11808 0.11824 0.11839
0 0 0 0 0 0 0 0 0 0 0 0 0 0 0 0 0 0 0 0 0 0 0 0 0 0 0 0 0 0 0 0 0 0 0 0 0 0 0 0 0 0 0 0 0 0 0 0 0 0 0 0.13265 0.13227 0.13169 0.13099 0.13016 0.12896 0.12814 0.12799 0.12775 0.12751 0.12772 0.12798 0.12793 0.12782 0.12768 0.12763 0.12728 0.12681 0.12629 0.12559 0.12504 0.12435 0.12387 0.12344 0.123 0.12265 0.12225 0.12189 0.12163 0.12142 0.12106 0.1209 0.12072 0.12047 0.12027 0.12004 0.11994 0.11968 0.11941 0.11914 0.11887 0.11871 0.11857 0.11843 0.11835 0.11817 0.11806 0.11788 0.11775 0.11779 0.11773 0.11764 0.11775 0.11791 0.11803 0.1182 0.11833 0.11853
0 0 0 0 0 0 0 0 0 0 0 0 0 0 0 0 0 0 0 0 0 0 0 0 0 0 0 0 0 0 0 0 0 0 0 0 0 0 0 0 0 0 0 0 0 0 0 0 0 0 0 0.13259 0.13225 0.13135 0.13055 0.12993 0.12911 0.12828 0.12797 0.1277 0.12743 0.12757 0.1278 0.1276 0.12746 0.12739 0.1274 0.12705 0.12659 0.12616 0.12554 0.12493 0.12435 0.12391 0.1234 0.12302 0.12263 0.12227 0.12199 0.1217 0.12132 0.12124 0.12091 0.12082 0.12055 0.12029 0.1201 0.11997 0.11971 0.11947 0.11918 0.11904 0.11886 0.11873 0.11867 0.11848 0.11841 0.11833 0.11816 0.11796 0.11795 0.1179 0.11771 0.11782 0.11799 0.11814 0.11839 0.11865 0.11881
0 0 0 0 0 0 0 0 0 0 0 0 0 0 0 0 0 0 0 0 0 0 0 0 0 0 0 0 0 0 0 0 0 0 0 0 0 0 0 0 0 0 0 0 0 0 0 0 0 0.1283 0.13028 0.13294 0.13212 0.13117 0.13027 0.12964 0.12903 0.12813 0.1278 0.12761 0.12722 0.12741 0.12736 0.12733 0.12713 0.12711 0.12689 0.1266 0.12633 0.12597 0.12551 0.12489 0.12439 0.12396 0.12353 0.12317 0.12279 0.12239 0.12201 0.12178 0.12152 0.12121 0.12095 0.12075 0.12052 0.12033 0.12014 0.1199 0.11976 0.11952 0.11926 0.11907 0.119 0.11888 0.11883 0.1187 0.11852 0.11842 0.11828 0.11807 0.11809 0.11793 0.11783 0.11807 0.11814 0.11821 0.11856 0.11882 0.11906
0 0 0 0 0 0 0 0 0 0 0 0 0 0 0 0 0 0 0 0 0 0 0 0 0 0 0 0 0 0 0 0 0 0 0 0 0 0 0 0 0 0 0 0 0 0 0 0 0.12373 0.1268 0.1301 0.13332 0.13207 0.13097 0.12987 0.12929 0.12874 0.12787 0.1276 0.12738 0.12711 0.12717 0.12714 0.12692 0.12678 0.12675 0.12666 0.12645 0.12616 0.12575 0.12533 0.1249 0.12447 0.12405 0.12362 0.12318 0.12272 0.12227 0.1219 0.12169 0.12161 0.12146 0.12112 0.12075 0.12055 0.12036 0.12024 0.12004 0.11978 0.11962 0.11937 0.11917 0.11908 0.11884 0.11874 0.11868 0.11859 0.11836 0.11822 0.1181 0.11813 0.11806 0.11806 0.11829 0.11836 0.11839 0.11869 0.11897 0.11926
0 0 0 0 0 0 0 0 0 0 0 0 0 0 0 0 0 0 0 0 0 0 0 0 0 0 0 0 0 0 0 0 0 0 0 0 0 0 0 0 0 0 0 0 0 0.13172 0.12995 0.12859 0.12677 0.12852 0.13047 0.13234 0.1315 0.13044 0.1297 0.12923 0.12868 0.12804 0.12772 0.12734 0.12711 0.12708 0.1269 0.12677 0.12668 0.12665 0.12656 0.12635 0.12604 0.1257 0.12528 0.12497 0.12461 0.12423 0.12377 0.1233 0.12289 0.12254 0.12209 0.12191 0.12173 0.12142 0.1212 0.12081 0.12052 0.1204 0.12026 0.12006 0.11978 0.11962 0.11952 0.11939 0.11918 0.11898 0.11883 0.1187 0.11861 0.11845 0.11829 0.11818 0.11836 0.11838 0.1184 0.11849 0.11858 0.11869 0.11892 0.11929 0.11956
0 0 0 0 0 0 0 0 0 0 0 0 0 0 0 0 0 0 0 0 0 0 0 0 0 0 0 0 0 0 0 0 0 0 0 0 0 0 0 0 0 0 0.13063 0.13159 0.13251 0.13249 0.13194 0.13154 0.13006 0.13034 0.13065 0.13115 0.13051 0.12986 0.12926 0.12884 0.12848 0.12807 0.12781 0.12739 0.12721 0.12706 0.12695 0.12675 0.1267 0.12656 0.12642 0.12625 0.12596 0.12559 0.1253 0.12504 0.1247 0.12441 0.1241 0.12366 0.12321 0.12279 0.12236 0.12205 0.12176 0.12149 0.12122 0.12085 0.12056 0.12043 0.12025 0.11993 0.11977 0.11964 0.11952 0.11942 0.11918 0.11901 0.11885 0.11876 0.11862 0.11853 0.11837 0.1184 0.11849 0.11867 0.11862 0.11873 0.11885 0.11892 0.11924 0.1196 0.11989
0 0 0 0 0 0 0 0 0 0 0 0 0 0 0 0 0 0 0 0 0 0 0 0 0 0 0 0 0 0 0 0 0 0 0 0 0 0 0 0 0.13078 0.12995 0.13054 0.1315 0.13314 0.13382 0.13347 0.1334 0.13286 0.13182 0.13095 0.13023 0.12974 0.12928 0.12875 0.12871 0.12853 0.12824 0.12798 0.12759 0.12719 0.12708 0.12674 0.12644 0.12642 0.1263 0.1262 0.1261 0.12582 0.12553 0.12532 0.12513 0.12481 0.12461 0.12423 0.12376 0.12338 0.12304 0.12255 0.12225 0.12192 0.12161 0.12132 0.12097 0.12054 0.12033 0.12021 0.11989 0.11971 0.1196 0.11941 0.11932 0.11914 0.119 0.11885 0.11878 0.11865 0.11867 0.11859 0.11864 0.11884 0.11884 0.11888 0.11905 0.11912 0.11918 0.11958 0.11999 0.12023
0 0 0 0 0 0 0 0 0 0 0 0 0 0 0 0 0 0 0 0 0 0 0 0 0 0 0 0 0 0 0 0 0 0 0 0 0 0 0 0.13146 0.13144 0.13029 0.13052 0.13081 0.1319 0.1325 0.13211 0.13173 0.13119 0.13034 0.12988 0.12954 0.12919 0.12903 0.1287 0.12844 0.12849 0.12823 0.128 0.12767 0.12731 0.12716 0.12679 0.12637 0.12629 0.12619 0.12602 0.12595 0.12574 0.12551 0.1253 0.12506 0.12476 0.12447 0.12416 0.12377 0.12347 0.12307 0.12267 0.12234 0.12202 0.12169 0.12137 0.12093 0.12058 0.12038 0.12024 0.11993 0.11985 0.11968 0.11949 0.11942 0.1193 0.11915 0.11907 0.11894 0.11877 0.11884 0.11885 0.11893 0.11914 0.11918 0.11932 0.11951 0.11966 0.11977 0.1201 0.12037 0.12057
0 0 0 0 0 0 0 0 0 0 0 0 0 0 0 0 0 0 0 0 0 0 0 0 0 0 0 0 0 0 0 0 0 0 0 0 0 0 0.13192 0.1338 0.13295 0.13105 0.13068 0.1304 0.13054 0.1309 0.13038 0.12979 0.12939 0.12932 0.12909 0.129 0.12893 0.12891 0.12869 0.12854 0.12844 0.12813 0.12794 0.12783 0.12753 0.12728 0.12691 0.12654 0.1263 0.12613 0.12597 0.12581 0.12576 0.12553 0.12517 0.12494 0.12463 0.12434 0.12401 0.1237 0.12343 0.12298 0.12268 0.12233 0.12209 0.12176 0.12145 0.12097 0.12054 0.12036 0.12026 0.12 0.1199 0.11969 0.11947 0.11945 0.11946 0.1193 0.11924 0.11917 0.119 0.11913 0.11915 0.11919 0.11936 0.11949 0.11965 0.11987 0.12009 0.12032 0.12057 0.12076 0.12085
0 0 0 0 0 0 0 0 0 0 0 0 0 0 0 0 0 0 0 0 0 0 0 0 0 0 0 0 0 0 0 0 0 0 0.13043 0.12251 0.11607 0.12343 0.13138 0.13871 0.13617 0.13375 0.13184 0.13085 0.13011 0.12946 0.12892 0.12846 0.12791 0.12822 0.1284 0.12857 0.12861 0.12879 0.12874 0.12855 0.12839 0.12817 0.12803 0.12793 0.12778 0.1274 0.12705 0.12656 0.12631 0.12603 0.12593 0.12589 0.12574 0.12551 0.1252 0.12491 0.12453 0.12416 0.12388 0.12359 0.12336 0.12311 0.12272 0.12228 0.12197 0.12173 0.12141 0.12101 0.12065 0.12043 0.12024 0.12 0.11994 0.11979 0.11958 0.11952 0.11952 0.11944 0.1194 0.11939 0.11931 0.11934 0.11936 0.1194 0.11963 0.11983 0.11994 0.12025 0.12054 0.12079 0.12103 0.12114 0.12118
0 0 0 0 0 0 0 0 0 0 0 0 0 0 0 0 0 0 0 0 0 0 0 0 0 0 0 0 0 0.14544 0.14542 0.14517 0.14238 0.1398 0.13595 0.13076 0.12476 0.12929 0.13394 0.13873 0.13657 0.13398 0.13196 0.13106 0.13033 0.12927 0.12895 0.12855 0.12807 0.12813 0.12823 0.12855 0.12868 0.12878 0.12888 0.12867 0.12852 0.12843 0.12823 0.12811 0.12804 0.12766 0.12719 0.12673 0.12652 0.12628 0.12608 0.12598 0.12572 0.12543 0.12512 0.1248 0.12437 0.12402 0.12375 0.12347 0.12321 0.12297 0.12273 0.12234 0.12209 0.1218 0.12151 0.12109 0.1208 0.12068 0.12052 0.12025 0.1201 0.11999 0.1198 0.11978 0.11975 0.11973 0.11976 0.11967 0.1196 0.11961 0.11955 0.11959 0.1199 0.12023 0.12036 0.12071 0.121 0.12121 0.1214 0.12149 0.12153
0 0 0 0 0 0 0 0 0 0 0 0 0 0 0 0 0 0 0 0 0 0 0 0 0 0.1428 0.14524 0.14553 0.14682 0.14804 0.14954 0.14821 0.14583 0.14464 0.14222 0.13957 0.13366 0.13469 0.13627 0.13815 0.13679 0.13391 0.13196 0.13073 0.13019 0.12919 0.12883 0.12847 0.12814 0.12805 0.12822 0.12837 0.12874 0.12887 0.12884 0.12879 0.12867 0.12857 0.12839 0.12821 0.12809 0.12786 0.12743 0.12711 0.12683 0.12647 0.12617 0.12601 0.12569 0.12544 0.12513 0.12472 0.12433 0.12405 0.1236 0.12328 0.12301 0.12283 0.12266 0.12231 0.1221 0.12183 0.12155 0.1213 0.12098 0.12078 0.12068 0.12045 0.12034 0.12019 0.11998 0.12003 0.12 0.11999 0.11998 0.11991 0.11971 0.11979 0.11985 0.11986 0.12027 0.12055 0.12071 0.12109 0.1214 0.1216 0.12177 0.12186 0.12188
0 0 0 0 0 0 0 0 0 0 0 0 0 0 0 0 0 0 0 0 0 0 0 0.13777 0.14021 0.14284 0.14555 0.14607 0.1489 0.1504 0.15454 0.15181 0.1498 0.1482 0.14683 0.14462 0.14255 0.14013 0.1383 0.13697 0.13584 0.13349 0.13113 0.12991 0.12951 0.12896 0.12887 0.12858 0.12828 0.12807 0.12808 0.12825 0.12854 0.12866 0.12876 0.12877 0.12877 0.12863 0.1285 0.12834 0.12818 0.12788 0.12764 0.12732 0.12702 0.12663 0.12624 0.12599 0.12571 0.1254 0.12504 0.12464 0.12425 0.12395 0.1235 0.12316 0.1229 0.12274 0.12259 0.12231 0.12208 0.12185 0.12163 0.12133 0.1211 0.12092 0.12074 0.12061 0.12055 0.12039 0.12028 0.12025 0.12016 0.12007 0.12008 0.12003 0.11988 0.1199 0.12007 0.12013 0.12053 0.12089 0.12112 0.12144 0.12176 0.12195 0.12212 0.12219 0.12228
0 0 0 0 0 0 0 0 0 0 0 0 0 0 0 0 0 0 0 0 0 0 0.13462 0.1364 0.13787 0.14002 0.14484 0.14692 0.14805 0.15008 0.15241 0.15009 0.14765 0.1453 0.14331 0.14224 0.1404 0.13876 0.13679 0.13519 0.13404 0.13248 0.13138 0.13007 0.12923 0.12874 0.12855 0.12838 0.12813 0.12789 0.12796 0.12826 0.12848 0.12862 0.12871 0.12876 0.12875 0.12861 0.12845 0.12836 0.12823 0.12793 0.12764 0.12752 0.12706 0.12669 0.12631 0.12609 0.1258 0.12542 0.12498 0.12452 0.12406 0.12377 0.12347 0.12311 0.12291 0.12268 0.12248 0.12223 0.12206 0.12175 0.12167 0.1215 0.12129 0.12119 0.12104 0.12094 0.12092 0.12084 0.12068 0.12054 0.12037 0.12027 0.12026 0.12018 0.11994 0.12008 0.12038 0.12049 0.12084 0.12123 0.12145 0.12183 0.12207 0.12224 0.12239 0.12245 0.12254
0 0 0 0 0 0 0 0 0 0 0 0 0 0 0 0 0 0 0 0 0 0.13188 0.13268 0.13389 0.13455 0.13753 0.1417 0.14681 0.14729 0.14793 0.1498 0.14709 0.14362 0.14026 0.1391 0.13891 0.13688 0.13521 0.13406 0.13289 0.13203 0.13116 0.13017 0.12925 0.12861 0.12833 0.12821 0.12792 0.12775 0.12768 0.12778 0.12805 0.12837 0.12855 0.12869 0.12871 0.12876 0.12867 0.12859 0.12843 0.12833 0.12801 0.12773 0.12754 0.12714 0.12683 0.12646 0.12609 0.12574 0.12542 0.12511 0.12454 0.12406 0.12377 0.12344 0.12313 0.12293 0.12264 0.12236 0.12218 0.12192 0.12172 0.12166 0.12162 0.12149 0.12139 0.12129 0.12119 0.12117 0.12112 0.12092 0.12077 0.12062 0.12046 0.12039 0.12028 0.12009 0.12026 0.1206 0.12073 0.12115 0.12144 0.12177 0.12205 0.12232 0.12252 0.12261 0.12271 0.12279
0 0 0 0 0 0 0 0 0 0 0 0 0 0 0 0 0 0 0 0 0 0 0 0.13254 0.13156 0.13655 0.14253 0.14937 0.14757 0.1469 0.14807 0.14345 0.1401 0.13742 0.13625 0.13584 0.13435 0.13326 0.13219 0.13117 0.1306 0.12964 0.12899 0.12829 0.12811 0.12798 0.12774 0.12764 0.12749 0.12758 0.12764 0.12789 0.12823 0.12859 0.12877 0.12873 0.12881 0.12863 0.12866 0.12855 0.12839 0.12815 0.12794 0.12766 0.12724 0.12684 0.12651 0.12619 0.12584 0.12554 0.1252 0.12468 0.12423 0.12387 0.12347 0.12314 0.12299 0.12275 0.12244 0.12214 0.12189 0.12173 0.1217 0.12162 0.12159 0.12156 0.12148 0.12137 0.12134 0.12121 0.1211 0.12092 0.1207 0.1205 0.12049 0.1204 0.12026 0.12051 0.12085 0.12104 0.12139 0.12167 0.12199 0.12235 0.12261 0.12274 0.12287 0.12296 0.12306
0 0 0 0 0 0 0 0 0 0 0 0 0 0 0 0 0 0 0 0 0 0.12546 0.12769 0.13131 0.13175 0.1364 0.14235 0.15081 0.14787 0.14589 0.14549 0.14191 0.13827 0.13573 0.13509 0.13432 0.13286 0.13179 0.13113 0.13042 0.12965 0.12884 0.12824 0.12782 0.12749 0.12737 0.12733 0.12728 0.1273 0.12724 0.12726 0.12754 0.12774 0.12802 0.12826 0.12834 0.12843 0.12844 0.1284 0.1284 0.1282 0.12803 0.12789 0.12772 0.12736 0.12701 0.12667 0.1264 0.12594 0.12565 0.1253 0.12497 0.12459 0.12423 0.12384 0.12345 0.12325 0.12293 0.12262 0.1223 0.12211 0.12194 0.12195 0.12187 0.12183 0.12179 0.12176 0.12167 0.12152 0.1214 0.12119 0.12108 0.12095 0.12076 0.12073 0.1207 0.12049 0.12083 0.12105 0.12126 0.12154 0.12179 0.12201 0.12241 0.12267 0.12284 0.12303 0.12321 0.12339
0 0 0 0 0 0 0 0 0 0 0 0 0 0 0 0 0 0 0 0.12006 0.11951 0.11927 0.12395 0.13079 0.13269 0.13668 0.14338 0.15186 0.14837 0.14514 0.14364 0.1404 0.13637 0.13397 0.13347 0.13276 0.13148 0.1306 0.13015 0.12961 0.12895 0.12829 0.12773 0.12728 0.12688 0.12674 0.12682 0.12677 0.12696 0.12694 0.12687 0.12704 0.12722 0.12739 0.12765 0.12773 0.12792 0.12807 0.12804 0.12806 0.12784 0.12778 0.12777 0.12775 0.12747 0.12713 0.12684 0.12653 0.12611 0.12573 0.12539 0.12506 0.12478 0.12441 0.1241 0.12377 0.12345 0.12315 0.12279 0.12255 0.12233 0.12212 0.12212 0.12208 0.12206 0.12214 0.12209 0.12183 0.12174 0.12167 0.12134 0.12133 0.1212 0.12099 0.12095 0.12092 0.12085 0.12112 0.12134 0.12147 0.12168 0.12187 0.12204 0.12243 0.12268 0.12277 0.1231 0.12347 0.12371
0 0 0 0 0 0 0 0 0 0 0 0 0 0 0 0 0 0 0.11599 0.11766 0.11699 0.11361 0.11947 0.12639 0.13361 0.13856 0.14479 0.15312 0.14852 0.14518 0.1423 0.13846 0.1348 0.13276 0.13199 0.13092 0.1302 0.12964 0.12891 0.12856 0.12799 0.12757 0.12715 0.12679 0.12635 0.12617 0.12628 0.12636 0.12628 0.12641 0.12644 0.12648 0.12656 0.12671 0.12693 0.12713 0.12732 0.12754 0.1276 0.1276 0.12754 0.12761 0.1276 0.12767 0.12743 0.12713 0.12678 0.12651 0.12626 0.12589 0.12552 0.1252 0.12485 0.12448 0.12419 0.12385 0.12363 0.12331 0.1229 0.12274 0.12248 0.12228 0.12231 0.12235 0.12234 0.12231 0.12223 0.12207 0.12198 0.12185 0.12159 0.12152 0.12138 0.12125 0.12126 0.12122 0.12108 0.12133 0.12159 0.12166 0.12184 0.12204 0.12206 0.12239 0.12264 0.12271 0.12318 0.12362 0.12404
0 0 0 0 0 0 0 0 0 0 0 0 0 0 0 0 0 0.11263 0.1136 0.11598 0.11892 0.11544 0.12229 0.12875 0.13658 0.1398 0.14468 0.14935 0.14588 0.14277 0.14074 0.13747 0.13362 0.13187 0.13092 0.13024 0.12964 0.12921 0.12867 0.1282 0.12786 0.12748 0.127 0.12674 0.12645 0.12634 0.1264 0.1264 0.12635 0.12642 0.12645 0.12648 0.12648 0.12646 0.12639 0.12663 0.12681 0.12708 0.12721 0.12733 0.12737 0.12739 0.12754 0.12761 0.12746 0.12721 0.12696 0.12667 0.12657 0.12629 0.12594 0.12559 0.12534 0.12498 0.12471 0.12443 0.12412 0.12379 0.12345 0.12327 0.12306 0.12287 0.12285 0.12276 0.12266 0.12267 0.12259 0.12244 0.12234 0.12219 0.12191 0.12176 0.12169 0.12154 0.12156 0.12156 0.12128 0.12159 0.1218 0.12186 0.12208 0.12225 0.12223 0.12251 0.12274 0.12287 0.12329 0.12349 0.12387
0 0 0 0 0 0 0 0 0 0 0 0 0 0 0 0 0.10892 0.10804 0.10745 0.11195 0.11707 0.11515 0.12373 0.13071 0.1377 0.13977 0.14403 0.14669 0.14356 0.14127 0.13923 0.13661 0.13312 0.13135 0.13065 0.12977 0.12922 0.12878 0.12839 0.12809 0.12767 0.12735 0.1269 0.12656 0.12632 0.12639 0.12655 0.12675 0.12668 0.12655 0.12648 0.12641 0.12632 0.12623 0.12611 0.12629 0.12637 0.12666 0.12695 0.12716 0.12734 0.12729 0.12737 0.12744 0.12739 0.12739 0.1272 0.127 0.12696 0.12669 0.12633 0.12603 0.12582 0.12548 0.12514 0.12491 0.12468 0.12439 0.12402 0.12385 0.12362 0.12339 0.12332 0.12328 0.12323 0.1232 0.12307 0.12298 0.12276 0.12249 0.12223 0.12212 0.12196 0.12182 0.12184 0.12188 0.12159 0.12186 0.12198 0.1221 0.12227 0.1223 0.12229 0.12268 0.12286 0.12299 0.12336 0.12344 0.12363
0 0 0 0 0 0 0 0 0 0 0 0 0 0 0 0.11116 0.10873 0.10404 0.09994 0.10542 0.1111 0.11684 0.126 0.13324 0.14059 0.14103 0.14301 0.14486 0.14106 0.13986 0.13836 0.13578 0.13258 0.13059 0.13032 0.12969 0.12905 0.12854 0.12816 0.12784 0.12738 0.12711 0.12686 0.12665 0.12642 0.12638 0.12666 0.12676 0.12675 0.12654 0.12646 0.12637 0.12607 0.12592 0.12577 0.1259 0.12617 0.12641 0.12635 0.12664 0.12736 0.1267 0.12686 0.12739 0.1275 0.12775 0.12781 0.12766 0.12746 0.12719 0.12688 0.12651 0.12633 0.126 0.12566 0.1253 0.12516 0.12492 0.12464 0.12448 0.12429 0.1241 0.12397 0.12381 0.12369 0.12357 0.12351 0.12336 0.1231 0.1228 0.12259 0.12242 0.12234 0.12211 0.12204 0.12204 0.12196 0.12207 0.12223 0.12214 0.12234 0.1224 0.12239 0.1229 0.12301 0.12322 0.12345 0.12341 0.12347
0 0 0 0 0 0 0 0 0 0 0 0 0 0 0.11022 0.11106 0.11063 0.10954 0.10532 0.11058 0.11597 0.12228 0.12872 0.13377 0.13825 0.13954 0.14124 0.14276 0.13955 0.13771 0.13673 0.13426 0.13143 0.12999 0.12961 0.1291 0.12851 0.12806 0.12766 0.12729 0.12693 0.12668 0.1264 0.12626 0.12617 0.12624 0.12664 0.12691 0.12689 0.12686 0.12696 0.12706 0.12662 0.12615 0.1259 0.125 0.1243 0.12353 0.12509 0.12546 0.12601 0.12563 0.1252 0.12247 0.12458 0.12677 0.12893 0.12861 0.12801 0.1276 0.12721 0.12677 0.12653 0.12618 0.12583 0.12553 0.12539 0.12523 0.12505 0.12489 0.12479 0.12458 0.12428 0.12414 0.124 0.12392 0.12379 0.12363 0.12349 0.12328 0.12304 0.12291 0.12272 0.1225 0.12246 0.12246 0.12229 0.12249 0.12255 0.12241 0.12255 0.12258 0.12265 0.12309 0.12331 0.12356 0.1239 0.12398 0.12417
0 0 0 0 0 0 0 0 0 0 0 0 0 0.11049 0.11016 0.10851 0.11165 0.11526 0.11107 0.11669 0.12274 0.12878 0.13202 0.13443 0.13606 0.13835 0.13917 0.14066 0.13799 0.13593 0.1355 0.13294 0.13063 0.12927 0.12884 0.12836 0.12806 0.12752 0.12704 0.12663 0.12644 0.12628 0.12593 0.12581 0.12576 0.12573 0.12616 0.12656 0.12691 0.1271 0.12727 0.12752 0.12708 0.12658 0.126 0.12416 0.12249 0.12072 0 0 0 0.12561 0.1227 0.11749 0.12148 0.12561 0.12969 0.12929 0.12863 0.12806 0.12755 0.12707 0.12674 0.12636 0.12608 0.12569 0.12557 0.12553 0.12546 0.12526 0.12507 0.12476 0.12453 0.12445 0.12445 0.12432 0.12412 0.12406 0.12399 0.12376 0.12356 0.12338 0.1232 0.12285 0.12286 0.12272 0.12257 0.12276 0.1228 0.12264 0.12273 0.12279 0.12276 0.1232 0.12356 0.12376 0.12419 0.12451 0.12481
0 0 0 0 0 0 0 0 0 0 0 0 0 0.11347 0.10783 0.10329 0.10747 0.1127 0.11759 0.12362 0.12963 0.13714 0.13551 0.13526 0.13468 0.13722 0.13733 0.13898 0.13644 0.13432 0.13482 0.13214 0.1298 0.12841 0.12804 0.12795 0.12758 0.12716 0.12663 0.12637 0.1263 0.12618 0.12563 0.12497 0.12498 0.12538 0.12554 0.12639 0.12659 0.126 0.12649 0.12801 0.12597 0.12489 0.12618 0.12342 0.1206 0.11781 0 0 0 0 0 0.11971 0.1185 0.12445 0.13038 0.12968 0.12908 0.12837 0.12788 0.12743 0.12697 0.12658 0.12618 0.12586 0.12577 0.12578 0.12556 0.12539 0.12523 0.12496 0.12493 0.12485 0.12466 0.12459 0.12454 0.12453 0.12436 0.1242 0.12405 0.12375 0.12355 0.12327 0.12314 0.12301 0.12286 0.12299 0.12296 0.12286 0.12291 0.12288 0.12276 0.12325 0.12361 0.12393 0.12452 0.12493 0.12532
0 0 0 0 0 0 0 0 0 0 0 0 0.11723 0.11712 0.11575 0.11452 0.1172 0.12086 0.12415 0.12799 0.13131 0.13503 0.13441 0.13447 0.1342 0.13577 0.13589 0.13729 0.13505 0.13337 0.13317 0.13079 0.12914 0.12804 0.12771 0.12759 0.12749 0.12695 0.12636 0.12624 0.12425 0.12227 0.11999 0.12338 0.12395 0.12468 0.1252 0 0 0.12636 0 0.12476 0.12283 0.12104 0.11395 0.11622 0.11845 0.1207 0.11999 0.12195 0.12324 0 0 0 0.12138 0.12563 0.12996 0.12915 0.12859 0.12789 0.12752 0.12712 0.12669 0.12632 0.12599 0.12572 0.12568 0.12565 0.12551 0.1254 0.12532 0.12515 0.12504 0.125 0.12486 0.12489 0.1249 0.12476 0.12458 0.12455 0.12432 0.12408 0.12381 0.12363 0.12345 0.12327 0.12308 0.12329 0.12321 0.12314 0.12308 0.12301 0.12291 0.12323 0.12358 0.12377 0.12431 0.12474 0.12517
0 0 0 0 0 0 0 0 0 0 0 0.11692 0.11625 0.11931 0.12576 0.12582 0.12699 0.12896 0.13026 0.13165 0.13239 0.13337 0.13306 0.13332 0.13367 0.13411 0.13445 0.13568 0.13385 0.1325 0.1312 0.12979 0.12877 0.128 0.12773 0.12757 0.12737 0.12664 0.12616 0.12593 0.12209 0.11832 0.11447 0.11802 0.12077 0 0 0 0 0 0.12225 0.11974 0.11563 0.10955 0.10173 0.10912 0.1164 0.12376 0.12215 0.1225 0.12318 0.12404 0.12424 0.12184 0.12454 0.12707 0.12964 0.12895 0.12828 0.12746 0.12718 0.12684 0.12647 0.12609 0.12584 0.12568 0.12562 0.12555 0.12544 0.12539 0.12536 0.12527 0.1253 0.1252 0.12521 0.12526 0.12518 0.12497 0.125 0.12478 0.12466 0.12433 0.12422 0.12403 0.12379 0.12355 0.12338 0.12349 0.1234 0.12336 0.12321 0.12316 0.12303 0.12327 0.12344 0.12354 0.12411 0.12459 0.12502
0 0 0 0 0 0 0 0 0 0 0.12034 0.11564 0.11187 0.11954 0.12821 0.13691 0.13723 0.13698 0.13677 0.13525 0.1334 0.13167 0.13224 0.13151 0.13198 0.13227 0.13299 0.13355 0.13212 0.13066 0.12998 0.12902 0.12845 0.12791 0.12767 0.12745 0.12712 0.12644 0.12568 0.12546 0.12298 0.11489 0.10892 0 0 0 0 0 0 0 0 0 0 0 0.08971 0.1021 0.11453 0.12688 0.12618 0.12562 0.12505 0.12554 0.12606 0.12652 0.12751 0.12845 0.12943 0.12872 0.12792 0.12703 0.1267 0.12641 0.12617 0.12587 0.12569 0.12551 0.1254 0.12537 0.12537 0.12532 0.12535 0.12536 0.12541 0.12537 0.12549 0.12544 0.12548 0.12533 0.12523 0.125 0.12479 0.12462 0.12445 0.12429 0.12407 0.12395 0.12361 0.12362 0.12359 0.12348 0.12333 0.12323 0.12308 0.12326 0.12335 0.12333 0.12389 0.12444 0.12484
0 0 0 0 0 0 0 0 0 0 0.12528 0.12235 0.12119 0.12578 0.1305 0.135 0.13487 0.13438 0.13408 0.13253 0.13116 0.13063 0.13029 0.13022 0.12981 0.13 0.13036 0.13071 0.12981 0.1293 0.12882 0.12835 0.12802 0.12771 0.12748 0.12726 0.12697 0.12628 0.12539 0.12495 0.12235 0 0 0 0 0 0 0 0 0 0 0 0 0 0.10246 0.11041 0.11832 0.12625 0.12582 0.12536 0.12489 0.12537 0.12584 0.1263 0.12714 0.12792 0.12882 0.12829 0.1275 0.12687 0.12658 0.12624 0.12597 0.12577 0.12555 0.12543 0.12541 0.12542 0.12541 0.12555 0.12555 0.12567 0.12556 0.12549 0.12558 0.12556 0.12543 0.12527 0.12511 0.12491 0.12479 0.12453 0.12446 0.12428 0.12418 0.12409 0.12382 0.12384 0.12374 0.12368 0.12351 0.12334 0.1232 0.1233 0.12329 0.12334 0.12369 0.12406 0.12441
0 0 0 0 0 0 0 0 0 0.12972 0.13139 0.13437 0.13223 0.13272 0.13282 0.13372 0.13275 0.13202 0.13147 0.13065 0.1298 0.12874 0.12869 0.12835 0.12823 0.12833 0.12854 0.12859 0.12833 0.12814 0.12775 0.12755 0.1276 0.12748 0.1272 0.12705 0.12691 0.12609 0.12512 0.12443 0.12388 0 0 0 0 0 0 0 0 0 0 0 0 0.11841 0.11508 0.11863 0.1221 0.12549 0.12517 0.12496 0.12477 0.12516 0.1256 0.12602 0.1266 0.12733 0.12801 0.12766 0.12715 0.12667 0.12639 0.12605 0.12572 0.1256 0.12554 0.12543 0.12548 0.12554 0.1256 0.12569 0.12579 0.12584 0.12579 0.12578 0.12562 0.12552 0.12538 0.12526 0.12504 0.12474 0.12457 0.1245 0.12438 0.12425 0.12416 0.12403 0.12389 0.12393 0.1239 0.12381 0.12362 0.12346 0.12327 0.12329 0.12338 0.1233 0.12345 0.12364 0.12385
0 0 0 0 0 0 0 0 0.12961 0.1318 0.13552 0.13945 0.14279 0.13927 0.13565 0.13236 0.13148 0.1305 0.12978 0.12967 0.12929 0.12877 0.12862 0.12838 0.12839 0.12832 0.12854 0.12861 0.1283 0.128 0.12762 0.12755 0.12749 0.12739 0.12713 0.127 0.12689 0.12586 0.12481 0.12401 0.12397 0.12359 0 0.12129 0.12075 0 0 0 0 0 0 0 0.12179 0.12501 0.12774 0.12672 0.12573 0.12468 0.12465 0.12466 0.12469 0.12497 0.12532 0.12577 0.12623 0.12673 0.12725 0.12696 0.12663 0.1263 0.12606 0.12572 0.12538 0.12522 0.12522 0.12513 0.12523 0.12535 0.12554 0.1256 0.1257 0.12566 0.12567 0.1257 0.12564 0.1254 0.12524 0.12499 0.12471 0.12444 0.12413 0.12414 0.12411 0.12414 0.12415 0.12399 0.12391 0.12389 0.12387 0.12382 0.12368 0.12351 0.12324 0.12321 0.12322 0.12306 0.12304 0.12305 0.12308
0 0 0 0 0 0 0 0 0.13058 0.13218 0.13425 0.13632 0.14145 0.13761 0.13434 0.1316 0.1306 0.12955 0.12908 0.12896 0.1287 0.12841 0.12831 0.12814 0.12813 0.12816 0.12811 0.12806 0.12788 0.12775 0.12751 0.12744 0.12739 0.12722 0.12709 0.12702 0.12687 0.12609 0.12537 0.12478 0.12466 0.12456 0.12349 0.12296 0.12234 0 0 0 0 0 0 0.12074 0.12229 0.12384 0.12682 0.12605 0.12533 0.1246 0.12455 0.12448 0.12449 0.12475 0.12505 0.12539 0.1258 0.12621 0.12667 0.12649 0.12631 0.12603 0.12571 0.12546 0.12521 0.12511 0.12505 0.12514 0.1252 0.12531 0.12551 0.12544 0.12536 0.12538 0.12539 0.12543 0.12542 0.12526 0.12502 0.12478 0.1246 0.12441 0.12422 0.12417 0.12405 0.12415 0.12408 0.12397 0.12388 0.12402 0.124 0.12383 0.12361 0.12342 0.12329 0.12312 0.12298 0.12285 0.12295 0.12286 0.12292
0 0 0 0 0 0 0 0 0 0.13005 0.13259 0.13408 0.13945 0.13653 0.13346 0.1306 0.12946 0.12877 0.12863 0.12829 0.12848 0.12828 0.12815 0.12807 0.12806 0.12795 0.12793 0.12782 0.12768 0.12763 0.12746 0.12742 0.12742 0.12743 0.12721 0.12708 0.12701 0.12649 0.12594 0.1255 0.12588 0.12553 0.1251 0.12461 0.12416 0.12369 0.12076 0.11451 0 0 0.12035 0.12327 0.12301 0.12359 0.12598 0.12544 0.12498 0.12453 0.1245 0.12442 0.12429 0.12454 0.12482 0.12509 0.12541 0.12578 0.12614 0.12599 0.12579 0.12566 0.12543 0.12524 0.12506 0.12501 0.12508 0.12512 0.12518 0.12527 0.12529 0.12521 0.12515 0.12509 0.12511 0.12512 0.12508 0.12494 0.12472 0.12454 0.12444 0.12433 0.12408 0.12389 0.12394 0.12398 0.12394 0.12395 0.12391 0.12411 0.12399 0.12385 0.12361 0.12335 0.12321 0.12306 0.12288 0.12265 0.12273 0.12275 0.12278
0 0 0 0 0 0 0 0 0 0.1276 0.13025 0.1345 0.138 0.13483 0.13193 0.12915 0.12841 0.12816 0.12775 0.1279 0.12799 0.12788 0.12785 0.12779 0.12774 0.12771 0.12778 0.12763 0.12759 0.12755 0.12745 0.12742 0.12739 0.12746 0.12726 0.12727 0.12713 0.12676 0.12648 0.12632 0.1263 0.12635 0.12639 0.1266 0.12686 0.12714 0.11861 0.11014 0.10164 0.10948 0.1175 0.12555 0.12539 0.12513 0.12498 0.12481 0.12474 0.12463 0.12448 0.12432 0.12419 0.12437 0.12451 0.12472 0.12495 0.12519 0.12537 0.12536 0.12533 0.12527 0.1251 0.12503 0.12493 0.12507 0.12513 0.12527 0.12521 0.12519 0.12525 0.12508 0.12495 0.12484 0.12489 0.12477 0.12477 0.12461 0.12444 0.12429 0.1242 0.12406 0.12382 0.12371 0.12375 0.12383 0.12387 0.12406 0.12413 0.12423 0.12397 0.12382 0.1237 0.12336 0.12316 0.12301 0.12285 0.12258 0.12259 0.12264 0.12267
0 0 0 0 0 0 0 0 0 0.12272 0.12382 0.12578 0.11905 0.12276 0.12611 0.12927 0.12848 0.12784 0.12747 0.12763 0.12755 0.12756 0.1276 0.1277 0.12774 0.1277 0.12779 0.12781 0.12808 0.12821 0.12826 0.12842 0.1287 0.12903 0.12837 0.12778 0.12721 0.12688 0.12644 0.12618 0.12609 0.12603 0.12592 0.12601 0.12615 0.12635 0.12064 0 0.10921 0.11462 0.12001 0.1255 0.12528 0.12499 0.12487 0.12467 0.12469 0.1246 0.12453 0.12444 0.1244 0.12457 0.12475 0.12495 0.12511 0.12528 0.12549 0.12539 0.12525 0.12522 0.12514 0.12501 0.12492 0.12496 0.12494 0.12503 0.125 0.12492 0.12488 0.12472 0.12468 0.12457 0.12457 0.12457 0.12453 0.12446 0.12442 0.12435 0.12426 0.12413 0.12405 0.12405 0.12407 0.12406 0.12409 0.12418 0.12435 0.12429 0.12414 0.12396 0.12373 0.12341 0.12316 0.12305 0.12281 0.12246 0.12259 0.12261 0.12264
0 0 0 0 0 0 0 0 0 0 0.11226 0.10631 0.10073 0.11024 0.11975 0.1293 0.1283 0.12775 0.12742 0.1274 0.12742 0.12746 0.12748 0.12766 0.12788 0.1278 0.12799 0.12802 0 0 0 0.12938 0.13005 0.13059 0.12944 0.12835 0.12731 0.12677 0.12635 0.12605 0.12583 0.1256 0.12545 0.12545 0.12546 0.12547 0.12264 0.11978 0.11696 0.11973 0.12251 0.12531 0.12506 0.12488 0.1247 0.12468 0.12464 0.12461 0.12466 0.12459 0.12463 0.12484 0.12507 0.12529 0.12532 0.12539 0.12547 0.12535 0.12525 0.12519 0.12506 0.12496 0.12486 0.12478 0.12476 0.1247 0.1247 0.12466 0.12466 0.12449 0.1244 0.1244 0.12433 0.12425 0.12424 0.1243 0.1243 0.12434 0.12437 0.12429 0.12428 0.1243 0.12437 0.12436 0.12432 0.12433 0.12438 0.12423 0.12416 0.12391 0.12363 0.12348 0.12331 0.12307 0.12271 0.12235 0.12253 0.12252 0.12252
0 0 0 0 0 0 0 0 0 0 0 0.09252 0.08302 0.09799 0.12188 0.12967 0.12653 0.12661 0.12745 0.12741 0.12745 0.12746 0.12755 0.12777 0.12806 0.1281 0.12826 0.12839 0 0 0 0.12982 0.13147 0.13225 0.1305 0.12896 0.12719 0.12678 0.1263 0.126 0.12562 0.12529 0.12494 0.12482 0.12477 0.12474 0.12474 0.12471 0.12467 0.12485 0.12506 0.12523 0.12494 0.12482 0.12463 0.1246 0.12467 0.1246 0.12458 0.1247 0.12477 0.12493 0.12516 0.12536 0.12545 0.12549 0.12553 0.12548 0.12524 0.12519 0.12511 0.12502 0.12486 0.12475 0.12465 0.12458 0.1245 0.12441 0.12434 0.1242 0.12418 0.12406 0.12411 0.12405 0.12398 0.12412 0.12426 0.12426 0.12431 0.12438 0.12449 0.12444 0.12456 0.12442 0.12449 0.12444 0.12443 0.12431 0.12399 0.12371 0.12342 0.12343 0.12327 0.12302 0.12268 0.12223 0.12235 0.12241 0.1224
0 0 0 0 0 0 0 0 0 0 0 0 0.09611 0.10445 0.11736 0.12407 0.12448 0.12548 0.1271 0.12715 0.12731 0.12743 0.12761 0.12795 0.1283 0.12499 0.12172 0 0 0.12295 0.1286 0.12917 0.12979 0.13043 0.12936 0.1281 0.12697 0.1265 0.12612 0.12576 0.1254 0.12511 0.12485 0.12475 0.12471 0.12465 0.12467 0.12471 0.12472 0.12489 0.12504 0.12516 0.12497 0.12482 0.12482 0.12466 0.1246 0.12459 0.12464 0.12467 0.12487 0.12492 0.12508 0.12529 0.12532 0.12532 0.12537 0.12531 0.12518 0.12506 0.12495 0.12486 0.1247 0.1246 0.12446 0.12443 0.12436 0.1243 0.12424 0.12412 0.12409 0.12404 0.12409 0.12409 0.12404 0.12414 0.1242 0.12417 0.1242 0.12419 0.12425 0.12426 0.12431 0.12437 0.12443 0.12442 0.12444 0.12434 0.12405 0.12382 0.12359 0.12341 0.12314 0.12281 0.12245 0.12215 0.12224 0.12224 0.12221
0 0 0 0 0 0 0 0 0 0 0 0 0 0 0 0.11932 0.12202 0.12455 0.1268 0.12689 0.12714 0.12733 0.12764 0.12807 0.12852 0.12187 0.1153 0.10885 0.11494 0.12103 0.12722 0.12762 0.12822 0.12877 0.12807 0.12738 0.12675 0.12628 0.12595 0.12565 0.12535 0.12504 0.12471 0.12465 0.1246 0.12462 0.12469 0.12474 0.12478 0.12491 0.1251 0.12516 0.12496 0.12489 0.12484 0.12471 0.12461 0.12456 0.12468 0.12477 0.12489 0.12498 0.12511 0.12525 0.12526 0.12525 0.1252 0.12512 0.12501 0.12492 0.12475 0.12467 0.12451 0.1244 0.12429 0.12419 0.12411 0.12406 0.12402 0.12395 0.12397 0.12397 0.12397 0.12405 0.1241 0.12416 0.12418 0.12405 0.124 0.12405 0.12407 0.12412 0.12414 0.12426 0.12431 0.12438 0.12444 0.12431 0.12413 0.12383 0.12351 0.12328 0.12299 0.12265 0.12231 0.12199 0.12205 0.12207 0.12205
0 0 0 0 0 0 0 0 0 0 0 0 0 0 0 0.1181 0.1214 0.12468 0.12645 0.12664 0.12693 0.12724 0.12773 0.12821 0.12874 0.11872 0.10893 0.09918 0.10804 0 0.12577 0.12617 0.12662 0.12706 0.12693 0.12667 0.12647 0.12608 0.1258 0.12554 0.12523 0.1249 0.12453 0.12458 0.12456 0.12456 0.12467 0.12477 0.1249 0.12504 0.12511 0.12517 0.12505 0.12502 0.12492 0.12476 0.12459 0.12462 0.1248 0.1249 0.125 0.12506 0.12517 0.12532 0.12525 0.1252 0.1251 0.12501 0.12496 0.12488 0.12471 0.12455 0.12439 0.12426 0.12423 0.12412 0.12405 0.12393 0.12391 0.1239 0.12397 0.12396 0.12399 0.12407 0.12411 0.12405 0.12399 0.12388 0.12389 0.12391 0.12394 0.12389 0.12405 0.12416 0.12418 0.12431 0.12439 0.1243 0.12409 0.12386 0.1235 0.12321 0.12294 0.12256 0.12218 0.12178 0.12177 0.12182 0.12181
0 0 0 0 0 0 0 0 0 0 0 0 0 0.1123 0.11421 0.11629 0.11938 0.12371 0.12623 0.12662 0.12701 0.12751 0.12793 0.12829 0.1287 0.12193 0.11535 0.10883 0.11477 0.12121 0.12658 0.12667 0.12681 0.12693 0.12675 0.12651 0.12638 0.12606 0.12573 0.12545 0.1252 0.12502 0.1248 0.12485 0.12483 0.1249 0.12494 0.12499 0.12511 0.12517 0.12517 0.1252 0.12508 0.12497 0.12495 0.12475 0.12466 0.12471 0.12478 0.1248 0.12494 0.12496 0.12499 0.12514 0.12513 0.1251 0.125 0.12493 0.1249 0.12478 0.12473 0.12461 0.12452 0.12436 0.12436 0.12422 0.12418 0.12406 0.12406 0.12405 0.12404 0.12398 0.12399 0.12405 0.12406 0.12409 0.12397 0.12395 0.12396 0.12393 0.12399 0.12401 0.12413 0.12417 0.12429 0.12429 0.12438 0.12427 0.12407 0.12393 0.12365 0.12345 0.12307 0.12278 0.12251 0.12216 0.1221 0.12199 0.1219
0 0 0 0 0 0 0 0 0 0 0 0 0.1087 0.11041 0.11234 0.1141 0.11768 0.12238 0.12634 0.12677 0.12724 0.1278 0.12798 0.1282 0.12849 0.12518 0.12173 0.11846 0.1214 0.12446 0.12747 0.12729 0.12705 0.12683 0.12669 0.12652 0.12637 0.12607 0.1257 0.12543 0.12528 0.12516 0.12504 0.12503 0.12508 0.12511 0.12511 0.12517 0.12525 0.12525 0.12525 0.12529 0.12523 0.12513 0.12509 0.12496 0.12479 0.12471 0.12479 0.12488 0.1249 0.12488 0.12495 0.12503 0.125 0.12502 0.12503 0.12497 0.12488 0.12487 0.12478 0.12473 0.12472 0.1246 0.1245 0.12439 0.12431 0.12426 0.12421 0.12421 0.12419 0.12417 0.12412 0.12408 0.12401 0.124 0.12403 0.12403 0.12403 0.12413 0.1242 0.12415 0.12416 0.12415 0.12418 0.12431 0.12438 0.12433 0.12422 0.12401 0.12378 0.12359 0.12323 0.12296 0.12272 0.12246 0.12232 0.12212 0.12193
0 0 0 0 0 0 0 0 0.11589 0.11475 0.1124 0.10818 0.10445 0.10599 0.10739 0.10895 0.11464 0.12067 0.12654 0.12699 0.12753 0.1281 0.12816 0.12825 0.12832 0.1283 0.12825 0.12824 0.12827 0.12835 0.12842 0.12791 0.12737 0.1268 0.12663 0.12647 0.12638 0.12604 0.12565 0.12535 0.12531 0.12527 0.12528 0.12535 0.12538 0.12543 0.1254 0.12539 0.12537 0.12541 0.12537 0.12534 0.12528 0.12517 0.12513 0.125 0.12493 0.12481 0.12491 0.12489 0.12491 0.12491 0.12488 0.12485 0.12486 0.12489 0.12496 0.12498 0.12495 0.12499 0.12496 0.12488 0.12488 0.12482 0.12475 0.12465 0.12452 0.1243 0.12419 0.12419 0.12419 0.12417 0.12415 0.12401 0.12398 0.12411 0.12402 0.12398 0.12407 0.12411 0.12421 0.12418 0.12415 0.12413 0.12421 0.12429 0.12435 0.12437 0.12415 0.12407 0.12388 0.12367 0.12332 0.12318 0.12298 0.12269 0.12256 0.12222 0.12186
0 0 0 0 0 0 0 0.11833 0.11781 0.11862 0.1173 0.11513 0.11294 0.11372 0.11451 0.11538 0.11934 0.12331 0.1272 0.12746 0.12771 0.12802 0.12796 0.12796 0.12794 0.12781 0.12774 0.12773 0.12775 0.12781 0.12793 0.12752 0.12714 0.12677 0.12664 0.12651 0.12639 0.1261 0.12578 0.12557 0.12557 0.12552 0.12551 0.12547 0.12545 0.12544 0.12544 0.12541 0.12541 0.1254 0.12538 0.12539 0.1253 0.1252 0.12513 0.12499 0.12492 0.1249 0.12491 0.1249 0.12488 0.12483 0.12479 0.12476 0.12479 0.12484 0.12492 0.12493 0.12498 0.12492 0.12495 0.12502 0.12503 0.12491 0.12476 0.12466 0.1246 0.12444 0.12428 0.12418 0.12411 0.12403 0.12403 0.12397 0.1238 0.12385 0.12397 0.12387 0.12396 0.12409 0.12416 0.12426 0.12423 0.12417 0.12424 0.1244 0.12442 0.12436 0.12425 0.12413 0.12392 0.12379 0.12355 0.12338 0.12327 0.12304 0.1228 0.12259 0.12231
0 0 0 0 0 0 0.11995 0.1201 0.11951 0.11923 0.12039 0.12259 0.12138 0.12152 0.12176 0.12187 0.12382 0.12581 0.12778 0.1278 0.12786 0.12793 0.12779 0.12766 0.12754 0.12743 0.12737 0.12727 0.12729 0.12732 0.12738 0.1272 0.12702 0.12685 0.12675 0.12657 0.12643 0.12618 0.12603 0.1259 0.12586 0.12579 0.12579 0.12572 0.12564 0.12557 0.12554 0.12547 0.12552 0.12548 0.12547 0.12543 0.12534 0.1253 0.12526 0.12515 0.12503 0.12496 0.12491 0.12489 0.12483 0.12479 0.12473 0.12472 0.12474 0.12478 0.12485 0.12491 0.12497 0.12496 0.12502 0.12513 0.12517 0.125 0.12485 0.12473 0.12459 0.12448 0.12425 0.12404 0.12397 0.12386 0.12385 0.12371 0.12357 0.12357 0.12369 0.12376 0.12384 0.12392 0.12409 0.12412 0.12427 0.12434 0.12434 0.12433 0.12437 0.12438 0.12432 0.12421 0.12416 0.12398 0.12366 0.1236 0.12342 0.12322 0.123 0.12282 0.12252
0 0 0 0 0 0 0.11989 0.11986 0.11909 0.11758 0.1217 0.12578 0.12984 0.12928 0.12887 0.12829 0.12837 0.12826 0.12837 0.12816 0.12805 0.12789 0.12759 0.12735 0.12712 0.12697 0.12692 0.12693 0.12687 0.1269 0.12696 0.12695 0.12691 0.12685 0.12676 0.12664 0.12651 0.12638 0.1263 0.12626 0.12619 0.12607 0.12602 0.12592 0.12583 0.12579 0.12571 0.12567 0.12566 0.12566 0.12562 0.12554 0.12542 0.12538 0.12534 0.12524 0.12511 0.12507 0.12499 0.12492 0.12486 0.12477 0.12474 0.12474 0.12481 0.12482 0.12493 0.12495 0.12499 0.125 0.12513 0.12519 0.12523 0.12502 0.12483 0.12468 0.12466 0.1245 0.12425 0.12396 0.12388 0.12368 0.12357 0.12341 0.12329 0.12344 0.12339 0.12352 0.12356 0.12377 0.12393 0.12411 0.12413 0.12423 0.12429 0.12435 0.12444 0.12439 0.12442 0.1243 0.12421 0.12411 0.12386 0.12366 0.12351 0.1234 0.12321 0.12301 0.12277
0 0 0 0 0 0.11894 0.11962 0.12065 0.1219 0.12203 0.12482 0.12746 0.13022 0.12992 0.12956 0.12904 0.12884 0.12868 0.12847 0.12823 0.12795 0.1277 0.12748 0.12726 0.1271 0.12702 0.12696 0.12689 0.12689 0.12695 0.12695 0.12689 0.1269 0.12682 0.12671 0.12664 0.12654 0.12647 0.12632 0.12629 0.12625 0.12619 0.1261 0.12599 0.1259 0.12587 0.12581 0.12578 0.12582 0.12576 0.1257 0.12569 0.12566 0.1256 0.1255 0.12544 0.12531 0.12529 0.12523 0.12514 0.12499 0.12489 0.12485 0.12484 0.12485 0.12494 0.12501 0.12504 0.12514 0.12517 0.12522 0.12527 0.12528 0.12513 0.12494 0.12491 0.12472 0.12451 0.1243 0.1241 0.12391 0.12368 0.12347 0.12341 0.12323 0.12326 0.12336 0.12346 0.12356 0.12371 0.12389 0.12397 0.1241 0.1242 0.12423 0.12429 0.12434 0.12433 0.12435 0.12432 0.12419 0.12399 0.12388 0.1238 0.12368 0.12352 0.1234 0.12323 0.12308
0 0 0 0 0.11783 0.11811 0.11787 0.12024 0.12477 0.12655 0.12799 0.12924 0.1306 0.13034 0.13006 0.12968 0.12941 0.12901 0.1286 0.12826 0.12793 0.1276 0.12743 0.12725 0.12714 0.12707 0.12698 0.12692 0.12694 0.12695 0.12694 0.12692 0.12689 0.12683 0.12677 0.12672 0.12665 0.12658 0.12649 0.12643 0.1264 0.12639 0.12626 0.12615 0.12606 0.126 0.12594 0.12593 0.12592 0.12586 0.12588 0.12587 0.12582 0.12583 0.12575 0.12559 0.12548 0.12548 0.12533 0.12527 0.12521 0.12511 0.12504 0.12506 0.12504 0.12509 0.12517 0.12523 0.12525 0.12534 0.12543 0.12544 0.12548 0.1254 0.12522 0.12518 0.12499 0.12474 0.12453 0.12431 0.12407 0.1237 0.12351 0.1235 0.12335 0.12326 0.12339 0.12332 0.12345 0.12357 0.12373 0.12386 0.12395 0.12407 0.12413 0.12422 0.12431 0.12433 0.12425 0.12424 0.12407 0.12399 0.12384 0.12391 0.12385 0.12366 0.12361 0.12349 0.12335
0 0 0 0 0.11727 0.11699 0.11544 0.12046 0.12554 0.13084 0.13096 0.13095 0.13088 0.13071 0.1305 0.1303 0.12983 0.12925 0.12871 0.12832 0.12789 0.12752 0.12742 0.12722 0.12707 0.12706 0.127 0.12696 0.12695 0.12696 0.12693 0.12688 0.12685 0.12685 0.12683 0.12685 0.12685 0.12681 0.12674 0.12666 0.1266 0.12655 0.12644 0.12636 0.12629 0.12618 0.12614 0.12611 0.12608 0.12605 0.126 0.12601 0.12591 0.12589 0.12584 0.12568 0.12554 0.12555 0.12553 0.12545 0.12541 0.12534 0.12528 0.12518 0.12518 0.12523 0.12538 0.12532 0.1254 0.12559 0.12559 0.12564 0.12572 0.12569 0.12557 0.12549 0.12523 0.12499 0.12469 0.1243 0.12405 0.1237 0.12352 0.12337 0.12329 0.1232 0.12326 0.12319 0.12325 0.12342 0.12355 0.12364 0.12366 0.1237 0.12391 0.12399 0.12409 0.12417 0.12409 0.12403 0.12404 0.12408 0.12397 0.124 0.12396 0.12373 0.12364 0.12363 0.12362
0 0 0 0.1108 0.11543 0.11804 0.11969 0.12303 0.12653 0.1301 0.13023 0.13026 0.13028 0.13012 0.12996 0.12979 0.12938 0.12901 0.12858 0.12823 0.12791 0.1276 0.12745 0.12722 0.12706 0.12704 0.12693 0.12686 0.12688 0.12685 0.12684 0.12682 0.12684 0.12687 0.12688 0.12689 0.12692 0.12688 0.12683 0.12678 0.12676 0.12672 0.12664 0.12658 0.12654 0.1265 0.12646 0.12644 0.12643 0.12642 0.12641 0.12634 0.12621 0.12615 0.12609 0.1259 0.1258 0.12581 0.12577 0.12575 0.12572 0.12571 0.12566 0.1256 0.12556 0.12557 0.1257 0.12565 0.12564 0.12571 0.12575 0.12576 0.12584 0.12576 0.1257 0.12563 0.12543 0.12526 0.12493 0.12443 0.12418 0.12384 0.12362 0.1235 0.12329 0.12336 0.12344 0.12332 0.12335 0.12334 0.1235 0.12363 0.1236 0.12351 0.12374 0.1238 0.12387 0.12385 0.12385 0.12389 0.12385 0.12392 0.12401 0.12401 0.12395 0.12376 0.12381 0.12379 0.12371
0 0 0 0.1012 0.10929 0.1198 0.12402 0.12571 0.12742 0.1292 0.12943 0.12961 0.1298 0.12962 0.12947 0.12927 0.12905 0.12882 0.12856 0.12831 0.12799 0.12766 0.12742 0.12725 0.12706 0.12698 0.12688 0.12682 0.12683 0.1268 0.12677 0.12675 0.12678 0.12682 0.12689 0.12694 0.12699 0.12695 0.12694 0.12693 0.12693 0.12691 0.12689 0.12685 0.12684 0.12683 0.12681 0.12683 0.12684 0.12677 0.12673 0.12668 0.12654 0.12647 0.12636 0.12624 0.12619 0.12614 0.12615 0.12599 0.12602 0.12601 0.12603 0.12599 0.12599 0.12597 0.12593 0.12595 0.12593 0.12599 0.12594 0.12592 0.12599 0.12595 0.1258 0.12569 0.12544 0.12525 0.12495 0.1246 0.12432 0.12393 0.12364 0.12336 0.12329 0.12343 0.12334 0.12322 0.12329 0.12335 0.12338 0.12344 0.12352 0.1235 0.12359 0.12367 0.12369 0.12373 0.12377 0.12367 0.12366 0.12367 0.12371 0.12383 0.12375 0.12367 0.12375 0.12372 0.12372
0 0 0 0.08634 0.10072 0.11462 0.12842 0.12847 0.12852 0.12863 0.12879 0.12902 0.12928 0.12922 0.12904 0.1289 0.12884 0.12863 0.12844 0.12823 0.12793 0.12769 0.12756 0.12735 0.12715 0.12704 0.12696 0.12685 0.12679 0.12675 0.1267 0.12676 0.1268 0.12685 0.12689 0.12695 0.12701 0.12706 0.12712 0.12713 0.1271 0.12709 0.12717 0.12723 0.12723 0.12721 0.12727 0.12728 0.12723 0.12723 0.12723 0.12718 0.12702 0.12691 0.12685 0.12675 0.12666 0.12654 0.12656 0.12652 0.12649 0.12656 0.12661 0.12647 0.12641 0.12631 0.12629 0.12622 0.12621 0.12629 0.12617 0.1261 0.12607 0.12589 0.12576 0.12568 0.12551 0.12526 0.12503 0.12456 0.12428 0.12392 0.12369 0.12353 0.12344 0.12333 0.12322 0.12324 0.12324 0.12327 0.12325 0.12327 0.12333 0.12326 0.12343 0.12345 0.12348 0.12351 0.12357 0.12351 0.12345 0.12349 0.12343 0.12358 0.12353 0.12352 0.12355 0.12364 0.1236
0 0 0 0.10252 0.11214 0.1214 0.13061 0.13031 0.13007 0.12975 0.12962 0.12945 0.12939 0.12919 0.12904 0.1289 0.12882 0.1287 0.12844 0.12818 0.12788 0.12757 0.1273 0.12709 0.12698 0.12688 0.12682 0.12665 0.12662 0.12655 0.12653 0.12657 0.12661 0.12669 0.12676 0.12691 0.12702 0.12708 0.12712 0.12717 0.12721 0.12719 0.1272 0.12732 0.12745 0.12753 0.12761 0.12763 0.12767 0.12767 0.1277 0.12765 0.12766 0.12761 0.12755 0.12743 0.1273 0.1273 0.1273 0.12732 0.12731 0.12721 0.12712 0.12704 0.12694 0.12675 0.1267 0.12664 0.12661 0.12659 0.12644 0.12631 0.12615 0.12607 0.12589 0.12573 0.12546 0.12523 0.12504 0.12488 0.12451 0.12426 0.12409 0.12389 0.12375 0.12369 0.12364 0.12367 0.12369 0.12364 0.12359 0.1236 0.12356 0.1235 0.12363 0.12367 0.12355 0.12355 0.12351 0.12345 0.12347 0.12356 0.1236 0.1236 0.12359 0.1236 0.12364 0.12367 0.12372
0.1299 0.13095 0.12395 0.11851 0.12385 0.12851 0.13306 0.13247 0.13178 0.13105 0.13043 0.12991 0.12947 0.12928 0.12914 0.12895 0.1288 0.1286 0.12842 0.12809 0.12775 0.12741 0.12718 0.127 0.12684 0.12674 0.12664 0.12651 0.12646 0.12644 0.12643 0.12645 0.12652 0.12662 0.12676 0.1269 0.12706 0.12715 0.12721 0.12727 0.1273 0.12739 0.12751 0.12768 0.12777 0.12796 0.12804 0.12813 0.12817 0.12818 0.12832 0.12833 0.12814 0.12815 0.12818 0.12808 0.12811 0.12809 0.12801 0.12791 0.12793 0.12783 0.12769 0.1275 0.12737 0.12718 0.12713 0.12707 0.12704 0.12691 0.12673 0.12647 0.12627 0.12613 0.12598 0.12577 0.12559 0.12541 0.12525 0.1251 0.12489 0.12455 0.12444 0.12436 0.12413 0.12401 0.12402 0.12417 0.12414 0.12408 0.12403 0.1239 0.12379 0.1238 0.12382 0.1237 0.1235 0.12352 0.12357 0.1235 0.12352 0.12356 0.12361 0.12363 0.12363 0.12354 0.12362 0.12366 0.12375
0.1289 0.13089 0.13306 0.13479 0.13551 0.13525 0.13483 0.13382 0.13282 0.1319 0.13116 0.13029 0.12954 0.12939 0.1292 0.12894 0.12873 0.12848 0.12825 0.12792 0.1276 0.1273 0.1271 0.12693 0.12675 0.12661 0.12652 0.12635 0.1263 0.12629 0.12636 0.12645 0.12653 0.12663 0.12683 0.12697 0.12714 0.12719 0.12726 0.12738 0.12751 0.12765 0.12783 0.12804 0.12825 0.12841 0.12838 0.12858 0.12874 0.12876 0.12883 0.12881 0.12866 0.12869 0.12855 0.12851 0.12853 0.12856 0.12861 0.12856 0.12853 0.12834 0.12817 0.12803 0.12788 0.12776 0.12762 0.1274 0.12729 0.12718 0.12694 0.12673 0.12658 0.12631 0.12613 0.12594 0.12577 0.12567 0.12555 0.12537 0.12514 0.12491 0.12476 0.12457 0.12444 0.1245 0.12451 0.12448 0.1245 0.12451 0.12445 0.12419 0.12417 0.1241 0.124 0.12371 0.12361 0.12355 0.12347 0.12344 0.1235 0.12361 0.12363 0.1236 0.12362 0.12354 0.12358 0.1236 0.12375
0.1291 0.13082 0.13262 0.13438 0.13498 0.13495 0.13482 0.13392 0.13322 0.13252 0.13163 0.13089 0.13013 0.1297 0.12928 0.12886 0.12864 0.12835 0.12796 0.12769 0.12739 0.12716 0.12699 0.1268 0.12662 0.12651 0.12647 0.12637 0.12636 0.12644 0.12651 0.12666 0.12675 0.12684 0.12703 0.12717 0.12731 0.1274 0.12752 0.12764 0.12784 0.12809 0.12824 0.12842 0.12865 0.12882 0.1289 0.12905 0.12924 0.12927 0.1294 0.12942 0.12946 0.12933 0.12926 0.12918 0.1291 0.12914 0.12912 0.12906 0.12902 0.12887 0.12868 0.12854 0.12833 0.12827 0.12811 0.12787 0.12766 0.12739 0.12721 0.12707 0.12685 0.12667 0.12653 0.12638 0.12628 0.12609 0.12597 0.12585 0.12572 0.12549 0.12535 0.12531 0.12519 0.12537 0.1255 0.12578 0.12567 0.12557 0.12553 0.1251 0.12483 0.12456 0.12438 0.12418 0.12395 0.12399 0.12395 0.12393 0.1241 0.12429 0.12447 0.12437 0.12423 0.12412 0.12412 0.12407 0.12398
0.1293 0.13073 0.13221 0.13367 0.13423 0.13447 0.13479 0.13424 0.13361 0.13297 0.13209 0.13134 0.13055 0.12997 0.1294 0.12881 0.12855 0.12827 0.12796 0.12762 0.12728 0.12697 0.12677 0.12659 0.12646 0.12643 0.12645 0.12636 0.12641 0.12648 0.12659 0.12675 0.12689 0.1271 0.12722 0.12743 0.12758 0.1277 0.12785 0.12795 0.12817 0.12839 0.1286 0.12889 0.12918 0.12936 0.12958 0.12974 0.12985 0.12997 0.13009 0.13013 0.13011 0.13013 0.13003 0.13002 0.1299 0.12989 0.12974 0.12967 0.12957 0.12936 0.12919 0.12897 0.12878 0.12871 0.12853 0.12829 0.12814 0.12788 0.12759 0.12746 0.12739 0.12719 0.12704 0.12678 0.12663 0.12654 0.12638 0.12642 0.12632 0.12607 0.12595 0.12581 0.12572 0.12612 0.12649 0.12682 0.12679 0.12655 0.1265 0.12603 0.12553 0.12505 0.12483 0.12458 0.12439 0.12448 0.12453 0.12458 0.12481 0.12508 0.12527 0.12514 0.12494 0.12478 0.12467 0.12451 0.12442
0.12927 0.13032 0.13145 0.13258 0.13339 0.13404 0.13461 0.13415 0.1337 0.13335 0.13239 0.13154 0.13075 0.13006 0.12942 0.12871 0.12837 0.12805 0.12767 0.12737 0.12707 0.12674 0.12662 0.12648 0.12638 0.12643 0.12643 0.12643 0.12657 0.12667 0.12685 0.12699 0.12721 0.12744 0.12758 0.12778 0.12794 0.12802 0.12814 0.12825 0.12844 0.12872 0.1291 0.12941 0.12971 0.13003 0.13022 0.13039 0.1305 0.13063 0.13072 0.1309 0.13091 0.1308 0.13081 0.13067 0.13046 0.13055 0.13034 0.1302 0.13007 0.12988 0.12972 0.12958 0.12934 0.12914 0.1289 0.12877 0.12857 0.12833 0.12808 0.12792 0.12781 0.12761 0.12744 0.12719 0.12699 0.12691 0.1268 0.12678 0.12668 0.12651 0.12648 0.1263 0.12619 0.1265 0.12735 0.12792 0.12729 0.12706 0.12768 0.12688 0.12622 0.12551 0.12532 0.12507 0.12486 0.12501 0.12513 0.12527 0.12338 0.12413 0.12605 0.12516 0.12501 0.12536 0.12528 0.12499 0.12469
0.12976 0.13067 0.13152 0.13251 0.1331 0.13357 0.13388 0.13342 0.13313 0.13284 0.13198 0.13112 0.13044 0.12983 0.12916 0.12856 0.12822 0.12793 0.12769 0.12744 0.12721 0.1269 0.12685 0.12682 0.12674 0.12689 0.12695 0.12701 0.12721 0.12741 0.12763 0.1278 0.12797 0.1282 0.12835 0.12854 0.12866 0.12874 0.12883 0.12892 0.12913 0.12934 0.1295 0.12979 0.13023 0.13063 0.13086 0.13108 0.13123 0.13125 0.1313 0.1314 0.13136 0.13119 0.13115 0.13116 0.13104 0.13107 0.13097 0.13095 0.13088 0.13082 0.13068 0.13057 0.13028 0.13012 0.12983 0.12949 0.12923 0.12882 0.12847 0.12829 0.12813 0.12802 0.12779 0.12748 0.12735 0.12715 0.127 0.12705 0.12704 0.12697 0.12721 0.12729 0.12745 0.1271 0.12732 0.12735 0.12695 0.12674 0.1268 0.12625 0.12576 0.12525 0.12195 0.1186 0.11518 0.11536 0.11554 0.11569 0.11968 0.12123 0.12314 0.12423 0.12456 0.12496 0.12572 0.12581 0.12729
0.1301 0.13086 0.13146 0.13206 0.13253 0.13284 0.13309 0.13273 0.13238 0.1321 0.13156 0.13086 0.13023 0.12965 0.12905 0.12848 0.12816 0.12795 0.12774 0.12754 0.12735 0.12713 0.12718 0.12719 0.1272 0.12733 0.12742 0.12756 0.12787 0.12814 0.12841 0.12857 0.12874 0.12899 0.12921 0.12931 0.12932 0.1295 0.12968 0.12976 0.12995 0.13003 0.13011 0.13046 0.13089 0.13133 0.13152 0.13178 0.13199 0.132 0.13196 0.13199 0.13185 0.13171 0.13162 0.13167 0.13165 0.13174 0.13175 0.13183 0.1318 0.13173 0.13162 0.13167 0.13129 0.13109 0.13082 0.13033 0.12976 0.12934 0.12886 0.12855 0.12826 0.12813 0.12808 0.1278 0.12761 0.12739 0.12724 0.1273 0.12735 0.12744 0.12779 0.12808 0.12856 0.12633 0.12568 0.12714 0 0 0.12601 0.12575 0.12543 0.12517 0.1185 0.11199 0.10539 0.10561 0.10584 0 0 0.12079 0.11911 0.12132 0.12383 0.12498 0.12609 0.12798 0.12978
