ncols        109
nrows        82
xllcorner    -1.041666666667
yllcorner    37.041665395101
cellsize     0.083333333333
NODATA_value -9999
0.0 0 0 0 0 0 0 0 0 0 0 0 0 0 0 0 0 0 0 0 0 0 0 0 0 0 0 0 0 0 0 0 0 0 0 0 0 0 0 0 0 0 0 0 0 0 0 0 0 0 0 0 0 0 0 0 0 0 0 0 0 0 0 0 0 0 0 0 0 0 0 0 0 0 0 0 0 0 0 0 0 0 0 0 0 0 0 0 0 0 0 0 0 0 0 0 0 0 0 0 0 0 0 0 0 0.12832 0.12828 0.12837 0.1284
0 0 0 0 0 0 0 0 0 0 0 0 0 0 0 0 0 0 0 0 0 0 0 0 0 0 0 0 0 0 0 0 0 0 0 0 0 0 0 0 0 0 0 0 0 0 0 0 0 0 0 0 0 0 0 0 0 0 0 0 0 0 0 0 0 0 0 0 0 0 0 0 0 0 0 0 0 0 0 0 0 0 0 0 0 0 0 0 0 0 0 0 0 0 0 0 0 0 0 0 0 0.12797 0.12814 0.12835 0.12849 0.12836 0.12849 0.12855 0.12866
0 0 0 0 0 0 0 0 0 0 0 0 0 0 0 0 0 0 0 0 0 0 0 0 0 0 0 0 0 0 0 0 0 0 0 0 0 0 0 0 0 0 0 0 0 0 0 0 0 0 0 0 0 0 0 0 0 0 0 0 0 0 0 0 0 0 0 0 0 0 0 0 0 0 0 0 0 0 0 0 0 0 0 0 0 0 0 0 0 0 0 0 0 0 0 0 0 0 0.1269 0.12739 0.12777 0.12814 0.12836 0.12835 0.12835 0.12817 0.12826 0.12818 0.12828
0 0 0 0 0 0 0 0 0 0 0 0 0 0 0 0 0 0 0 0 0 0 0 0 0 0 0 0 0 0 0 0 0 0 0 0 0 0 0 0 0 0 0 0 0 0 0 0 0 0 0 0 0 0 0 0 0 0 0 0 0 0 0 0 0 0 0 0 0 0 0 0 0 0 0 0 0 0 0 0 0 0 0 0 0 0 0 0 0 0 0 0 0 0 0 0 0 0.12597 0.12684 0.12733 0.12771 0.12829 0.12871 0.12847 0.12809 0.12802 0.12787 0.12768 0.12755
0 0 0 0 0 0 0 0 0 0 0 0 0 0 0 0 0 0 0 0 0 0 0 0 0 0 0 0 0 0 0 0 0 0 0 0 0 0 0 0 0 0 0 0 0 0 0 0 0 0 0 0 0 0 0 0 0 0 0.11124 0.10987 0.10877 0.11008 0 0 0 0 0 0 0 0 0 0 0 0 0 0 0 0 0 0 0 0 0 0 0 0 0 0 0 0 0 0 0 0 0 0.12505 0.12479 0.12571 0.12663 0.12749 0.12802 0.12869 0.12932 0.12885 0.12824 0.12747 0.12723 0.12692 0.12667
0 0 0 0 0 0 0 0 0 0 0 0 0 0 0 0 0 0 0 0 0 0 0 0 0 0 0 0 0 0 0 0 0 0 0 0 0 0 0 0 0 0 0 0 0 0 0 0 0 0 0 0 0 0 0 0 0.11292 0.11219 0.11248 0.11209 0.11159 0.1128 0.11394 0.11479 0.10933 0.10389 0.09798 0 0 0 0 0.11226 0 0 0 0 0 0 0 0 0 0 0 0 0 0 0 0 0 0 0 0 0 0.12582 0.12569 0.1255 0.12506 0.12573 0.12643 0.12712 0.12741 0.12775 0.12802 0.12766 0.12721 0.12667 0.12633 0.12606 0.12567
0 0 0 0 0 0 0 0 0 0 0 0 0 0 0 0 0 0 0 0 0 0 0 0 0 0 0 0 0 0 0 0 0 0 0 0 0 0 0 0 0 0 0 0 0 0 0 0 0 0 0 0 0 0 0 0.11273 0.11361 0.11393 0.11412 0.114 0.11308 0.1141 0.11497 0.11562 0.11403 0.11228 0.10992 0.11671 0.1159 0.11529 0.11538 0.11389 0.1124 0.10946 0.10365 0.1 0.10107 0 0 0 0 0 0 0 0 0 0 0 0 0 0 0 0.12518 0.1247 0.12569 0.12589 0.12567 0.12598 0.12632 0.12664 0.1267 0.12679 0.12675 0.12638 0.12588 0.12544 0.12527 0.12502 0.12473
0 0 0 0 0 0 0 0 0 0 0 0 0 0 0 0 0 0 0 0 0 0 0 0 0 0 0 0 0 0 0 0 0 0 0 0 0 0 0 0 0 0 0 0 0 0 0 0 0 0 0 0.10783 0.10937 0.11034 0.11135 0.11292 0.11416 0.11514 0.11467 0.11426 0.11387 0.11434 0.11453 0.11436 0.11688 0.11913 0.12073 0.1191 0.11668 0.11359 0.1134 0.11296 0.11245 0.10537 0.09802 0.09043 0 0 0 0 0 0 0 0 0 0 0 0 0 0 0 0 0.12403 0.125 0.12554 0.12597 0.12622 0.1264 0.12632 0.12619 0.126 0.12574 0.12537 0.12509 0.12477 0.12435 0.12409 0.12379 0.12348
0 0 0 0 0 0 0 0 0 0 0 0 0 0 0 0 0 0 0 0 0 0 0 0 0 0 0 0 0 0 0 0 0 0 0 0 0 0 0 0 0 0 0 0 0 0 0 0 0 0 0.10482 0.10662 0.10751 0.10871 0.10991 0.11103 0.11253 0.11243 0.11212 0.11153 0.11071 0.11271 0.11462 0.11638 0.12111 0.12549 0.1294 0.12781 0.1256 0.12299 0.12176 0.12042 0.11873 0.11329 0.10764 0.10198 0.10349 0.10489 0.10603 0.11008 0.11385 0.11701 0 0 0 0 0 0 0 0.1161 0.11962 0.12178 0.12329 0.1254 0.12593 0.12623 0.1264 0.12619 0.12594 0.12585 0.12534 0.12479 0.1243 0.12399 0.12377 0.12349 0.12336 0.12305 0.12282
0 0 0 0 0 0 0 0 0 0 0 0 0 0 0 0 0 0 0 0 0 0 0 0 0 0 0 0 0 0 0 0 0 0 0 0 0 0 0 0 0 0 0 0 0 0 0 0 0 0.10545 0.10388 0.10334 0.10496 0.10645 0.10698 0.1085 0.10941 0.10903 0.10846 0.10807 0.10704 0.11075 0.11445 0.11792 0.12476 0.13142 0.13765 0.13622 0.13435 0.1321 0.12968 0.12711 0.12455 0.12078 0.11691 0.11304 0.11412 0.11521 0.1161 0.12093 0.12135 0.12297 0 0.12382 0.12344 0.11656 0.10412 0.09658 0.10341 0.11512 0.12093 0.12251 0.12341 0.12567 0.12588 0.12608 0.12608 0.12569 0.12529 0.12458 0.12402 0.12347 0.123 0.12275 0.12249 0.12222 0.12211 0.12204 0.12193
0 0 0 0 0 0 0 0 0 0 0 0 0 0 0 0 0 0 0 0 0 0 0 0 0 0 0 0 0 0 0 0 0 0 0 0 0 0 0 0 0 0 0 0 0 0 0 0 0 0.10463 0.10136 0.09894 0.10101 0.10246 0.10303 0.10397 0.10475 0.105 0.10456 0.10394 0.10295 0.1085 0.11385 0.11899 0.12805 0.13682 0.14534 0.14412 0.14247 0.14048 0.13708 0.13356 0.12989 0.12814 0.12601 0.12388 0.12478 0.12533 0.12601 0.12637 0.12669 0.12715 0.12856 0.12987 0.13128 0.1129 0.09449 0.07551 0.0926 0.10911 0.12555 0.12554 0.12561 0.12545 0.12555 0.12556 0.1255 0.12482 0.12391 0.12315 0.12255 0.12199 0.12126 0.12112 0.12084 0.12066 0.12076 0.12082 0.12083
0 0 0 0 0 0 0 0 0 0 0 0 0 0 0 0 0 0 0 0 0 0 0 0 0 0 0 0 0 0 0 0 0 0 0 0 0 0 0 0 0 0 0 0 0 0 0 0 0 0.10611 0.10461 0.10124 0.10391 0.10628 0.10785 0.10935 0.11115 0.11225 0.11188 0.11134 0.11061 0.11455 0.11809 0.12168 0.12804 0.1341 0.13991 0.13906 0.138 0.13666 0.13417 0.13153 0.12891 0.12765 0.12636 0.12484 0.12542 0.12584 0.12631 0.12675 0.12702 0.12699 0.12795 0.12898 0.13005 0.1178 0.10542 0.09286 0.10393 0.11481 0.12557 0.12548 0.12529 0.12499 0.12462 0.12415 0.1237 0.12344 0.12276 0.12198 0.12154 0.1209 0.1203 0.12022 0.12011 0.12002 0.12008 0.12021 0.12025
0 0 0 0 0 0 0 0 0 0 0 0 0 0 0 0 0 0 0 0 0 0 0 0 0 0 0 0 0 0 0 0 0 0 0 0 0 0 0 0 0 0 0 0 0 0 0 0 0 0.10844 0.10756 0.10291 0.10655 0.10995 0.1128 0.115 0.11693 0.11875 0.11859 0.11826 0.11766 0.11977 0.122 0.12422 0.12771 0.13099 0.13408 0.13379 0.13336 0.13279 0.13112 0.12942 0.12757 0.12687 0.12617 0.12528 0.12567 0.12621 0.12671 0.12706 0.12712 0.12676 0.12724 0.12779 0.12858 0.12236 0.11619 0.10992 0.11518 0.1203 0.12546 0.1252 0.12492 0.12447 0.12389 0.12315 0.12253 0.1221 0.12139 0.12077 0.12035 0.11993 0.1195 0.11944 0.1194 0.11933 0.11938 0.1196 0.11977
0 0 0 0 0 0 0 0 0 0 0 0 0 0 0 0 0 0 0 0 0 0 0 0 0 0 0 0 0 0 0 0 0 0 0 0 0 0 0 0 0 0 0 0 0 0 0 0 0 0.10927 0.10678 0.10428 0.10878 0.11541 0.11736 0.12022 0.12239 0.12457 0.12475 0.12446 0.12405 0.12486 0.12551 0.12608 0.12701 0.12767 0.1282 0.12834 0.12862 0.12846 0.12773 0.12694 0.12614 0.12605 0.12579 0.12546 0.12554 0.12607 0.12657 0.12693 0.12698 0.12651 0.12621 0.12621 0.12658 0.12674 0.1267 0.12676 0.12623 0.12561 0.12509 0.12476 0.12435 0.12378 0.12308 0.12207 0.12139 0.12076 0.1201 0.11936 0.11917 0.11883 0.11861 0.11863 0.11863 0.11867 0.11885 0.119 0.11916
0 0 0 0 0 0 0 0 0 0 0 0 0 0 0 0 0 0 0 0 0 0 0 0 0 0 0 0 0 0 0 0 0 0 0 0 0 0 0 0 0 0 0 0 0 0 0 0 0 0.11169 0.11021 0.10995 0.11324 0.11682 0.12105 0.12229 0.12314 0.12412 0.12413 0.12383 0.12358 0.12428 0.1251 0.12563 0.1263 0.12681 0.12738 0.12764 0.12761 0.12743 0.12678 0.12601 0.12549 0.12524 0.12497 0.12469 0.12484 0.12499 0.12498 0.12525 0.12514 0.12486 0.12495 0.12495 0.12498 0.12488 0.12491 0.12494 0.12451 0.12402 0.12357 0.12316 0.1227 0.12234 0.12176 0.12103 0.12027 0.1197 0.11922 0.11875 0.11852 0.1184 0.1184 0.11845 0.1185 0.11852 0.11871 0.11892 0.11904
0 0 0 0 0 0 0 0 0 0 0 0 0 0 0 0 0 0 0 0 0 0 0 0 0 0 0 0 0 0 0 0 0 0 0 0 0 0 0 0 0 0 0 0 0 0 0 0 0 0.1127 0.11621 0.11715 0.1194 0.12202 0.12438 0.12438 0.12383 0.12333 0.12332 0.12324 0.1232 0.12413 0.12472 0.12516 0.12561 0.12612 0.1267 0.12668 0.12663 0.12631 0.12578 0.12538 0.12473 0.12442 0.12415 0.12387 0.12386 0.12382 0.12371 0.1237 0.12353 0.12326 0.12311 0.12296 0.12277 0.12263 0.12255 0.12248 0.1222 0.12193 0.12167 0.1213 0.12097 0.12065 0.12018 0.1196 0.11916 0.11888 0.11856 0.1182 0.11818 0.11806 0.11791 0.11803 0.11812 0.1183 0.11857 0.11883 0.11897
0 0 0 0 0 0 0 0 0 0 0 0 0 0 0 0 0 0 0 0 0 0 0 0 0 0 0 0 0 0 0 0 0 0 0 0 0 0 0 0 0 0 0 0 0 0 0 0 0 0 0.12035 0.12162 0.12324 0.12584 0.12732 0.12604 0.12409 0.12234 0.12258 0.12275 0.12275 0.12363 0.12441 0.12488 0.12524 0.12562 0.12593 0.12577 0.12568 0.12537 0.12497 0.12446 0.12398 0.12378 0.12331 0.12282 0.12253 0.12235 0.12226 0.12204 0.12177 0.12134 0.1211 0.12076 0.12047 0.12028 0.12019 0.12007 0.11993 0.1197 0.11947 0.11938 0.11913 0.11872 0.11848 0.11821 0.11792 0.11787 0.11771 0.11756 0.11758 0.11763 0.11756 0.11769 0.11784 0.11805 0.11823 0.11853 0.11884
0 0 0 0 0 0 0 0 0 0 0 0 0 0 0 0 0 0 0 0 0 0 0 0 0 0 0 0 0 0 0 0 0 0 0 0 0 0 0 0 0 0 0 0 0 0 0 0 0 0 0.12304 0.12373 0.12432 0.12519 0.1267 0.12571 0.12382 0.12228 0.12251 0.12271 0.12267 0.12355 0.12444 0.12491 0.12509 0.12541 0.12557 0.12535 0.1251 0.12486 0.12446 0.1239 0.1234 0.12321 0.12287 0.12248 0.12229 0.12197 0.1217 0.12147 0.12132 0.12109 0.12078 0.12044 0.1201 0.11983 0.1196 0.11945 0.11925 0.11903 0.11878 0.11865 0.11835 0.11813 0.11797 0.11779 0.11762 0.11752 0.11742 0.1173 0.11745 0.11752 0.11756 0.11773 0.11776 0.11799 0.11821 0.11848 0.11874
0 0 0 0 0 0 0 0 0 0 0 0 0 0 0 0 0 0 0 0 0 0 0 0 0 0 0 0 0 0 0 0 0 0 0 0 0 0 0 0 0 0 0 0 0 0 0 0 0 0 0 0 0.1241 0.12473 0.12604 0.12481 0.12344 0.12217 0.12233 0.12244 0.12236 0.12334 0.12426 0.1247 0.12491 0.12519 0.1251 0.12493 0.12458 0.1242 0.12373 0.12331 0.12296 0.12263 0.12221 0.12181 0.12163 0.12139 0.12105 0.12093 0.12063 0.1203 0.12005 0.11978 0.1195 0.11924 0.11904 0.11881 0.11849 0.1182 0.11803 0.1179 0.11767 0.1175 0.11735 0.11718 0.11715 0.11712 0.11716 0.11709 0.11724 0.11739 0.11748 0.11769 0.11784 0.11797 0.1182 0.11838 0.11864
0 0 0 0 0 0 0 0 0 0 0 0 0 0 0 0 0 0 0 0 0 0 0 0 0 0 0 0 0 0 0 0 0 0 0 0 0 0 0 0 0 0 0 0 0 0 0 0 0 0 0.12374 0.12362 0.12423 0.12468 0.12479 0.12395 0.12307 0.12191 0.12197 0.12202 0.12206 0.12308 0.12396 0.12431 0.12438 0.12451 0.12444 0.12416 0.12377 0.12341 0.12296 0.12244 0.12205 0.12184 0.12148 0.12098 0.12079 0.12052 0.12027 0.12016 0.12003 0.11982 0.11948 0.11925 0.119 0.11874 0.11857 0.11838 0.11806 0.11775 0.11751 0.11731 0.11708 0.11689 0.11674 0.1167 0.11658 0.11669 0.11671 0.11675 0.11698 0.11716 0.11736 0.11746 0.11775 0.11794 0.11819 0.11832 0.11856
0 0 0 0 0 0 0 0 0 0 0 0 0 0 0 0 0 0 0 0 0 0 0 0 0 0 0 0 0 0 0 0 0 0 0 0 0 0 0 0 0 0 0 0 0 0 0 0 0 0 0.12447 0.12449 0.12477 0.12489 0.12484 0.12395 0.12314 0.12217 0.12217 0.12209 0.1221 0.12286 0.12357 0.12388 0.12396 0.12403 0.12405 0.12368 0.12334 0.12302 0.1226 0.12213 0.12169 0.12148 0.12119 0.12085 0.12066 0.12037 0.12018 0.12018 0.11998 0.11985 0.11967 0.11943 0.11921 0.11892 0.11867 0.11845 0.11824 0.118 0.11772 0.11751 0.11733 0.11713 0.11706 0.11692 0.11685 0.11689 0.11686 0.11684 0.11713 0.11722 0.11737 0.1176 0.11782 0.1179 0.11813 0.11832 0.11847
0 0 0 0 0 0 0 0 0 0 0 0 0 0 0 0 0 0 0 0 0 0 0 0 0 0 0 0 0 0 0 0 0 0 0 0 0 0 0 0 0 0 0 0 0 0 0 0 0 0 0 0.12524 0.12517 0.12497 0.12467 0.12396 0.12331 0.12227 0.12203 0.12209 0.12197 0.12268 0.12333 0.12354 0.12359 0.12362 0.12353 0.12324 0.12296 0.12254 0.12217 0.12179 0.12151 0.12119 0.12093 0.12059 0.12043 0.12021 0.11998 0.11989 0.11985 0.11971 0.11963 0.11943 0.11914 0.11894 0.11872 0.11854 0.11828 0.11804 0.11778 0.11756 0.11747 0.11728 0.11716 0.11713 0.11705 0.11704 0.11703 0.11694 0.11721 0.1173 0.11736 0.11751 0.11776 0.11789 0.11817 0.11835 0.1185
0 0 0 0 0 0 0 0 0 0 0 0 0 0 0 0 0 0 0 0 0 0 0 0 0 0 0 0 0 0 0 0 0 0 0 0 0 0 0 0 0 0 0 0 0 0 0 0 0 0 0 0.1259 0.12559 0.12511 0.12467 0.12391 0.12314 0.12227 0.12223 0.12218 0.12213 0.1227 0.12311 0.12318 0.12323 0.12324 0.12314 0.12295 0.1225 0.12213 0.12179 0.12142 0.12101 0.12075 0.12052 0.12025 0.12014 0.12007 0.11981 0.11968 0.11964 0.1195 0.11944 0.11928 0.11919 0.11899 0.11867 0.11849 0.11829 0.11806 0.11783 0.1176 0.11751 0.11741 0.11736 0.11724 0.11716 0.1172 0.11717 0.11714 0.11726 0.11731 0.11735 0.1175 0.11773 0.11772 0.11797 0.11811 0.11834
0 0 0 0 0 0 0 0 0 0 0 0 0 0 0 0 0 0 0 0 0 0 0 0 0 0 0 0 0 0 0 0 0 0 0 0 0 0 0 0 0 0 0 0 0 0 0 0 0 0 0 0.12653 0.12601 0.12542 0.12477 0.12428 0.12326 0.12261 0.12253 0.12238 0.12236 0.12275 0.12307 0.12312 0.1231 0.12311 0.12292 0.12273 0.12244 0.12211 0.12174 0.12143 0.12105 0.1208 0.12052 0.12028 0.12024 0.1201 0.11994 0.11977 0.11972 0.11956 0.11947 0.1194 0.11924 0.11906 0.11882 0.11857 0.11837 0.11814 0.11787 0.11774 0.11765 0.11755 0.11752 0.11732 0.11737 0.1175 0.11742 0.11729 0.11733 0.11742 0.11743 0.11761 0.11778 0.11786 0.11803 0.11812 0.11836
0 0 0 0 0 0 0 0 0 0 0 0 0 0 0 0 0 0 0 0 0 0 0 0 0 0 0 0 0 0 0 0 0 0 0 0 0 0 0 0 0 0 0 0 0 0 0 0 0 0.12296 0.12497 0.12697 0.12641 0.12567 0.1249 0.12436 0.12354 0.12295 0.12275 0.12256 0.1225 0.12285 0.12312 0.12309 0.12297 0.12299 0.12278 0.12246 0.12228 0.12201 0.12172 0.12146 0.12112 0.12084 0.1205 0.12032 0.12019 0.12008 0.12001 0.11998 0.11979 0.11963 0.11955 0.11936 0.11917 0.119 0.11881 0.11858 0.11845 0.11824 0.11805 0.11787 0.11781 0.11768 0.11767 0.11758 0.11745 0.11747 0.11739 0.11735 0.11747 0.11734 0.11736 0.11771 0.11778 0.11782 0.11807 0.1182 0.11841
0 0 0 0 0 0 0 0 0 0 0 0 0 0 0 0 0 0 0 0 0 0 0 0 0 0 0 0 0 0 0 0 0 0 0 0 0 0 0 0 0 0 0 0 0 0 0 0 0.11795 0.12113 0.12423 0.12702 0.1263 0.12523 0.12428 0.12392 0.12341 0.12274 0.12251 0.1225 0.12244 0.12262 0.12276 0.12284 0.12279 0.12266 0.12257 0.12237 0.1221 0.12176 0.12152 0.12132 0.12106 0.12079 0.1205 0.12028 0.12018 0.12012 0.11995 0.11989 0.11975 0.1197 0.1196 0.11936 0.11915 0.11904 0.1189 0.11873 0.11858 0.1184 0.11817 0.11801 0.11787 0.11763 0.11765 0.11758 0.11747 0.11736 0.11733 0.11735 0.11738 0.1174 0.11752 0.11771 0.1177 0.11774 0.11799 0.11825 0.11836
0 0 0 0 0 0 0 0 0 0 0 0 0 0 0 0 0 0 0 0 0 0 0 0 0 0 0 0 0 0 0 0 0 0 0 0 0 0 0 0 0 0 0 0 0 0.12449 0.12306 0.12193 0.12033 0.12247 0.12426 0.12613 0.12544 0.12476 0.12381 0.12373 0.1234 0.12279 0.12264 0.12255 0.12234 0.12244 0.1226 0.12257 0.12264 0.12247 0.12238 0.1222 0.12202 0.12185 0.12168 0.12151 0.12123 0.12102 0.12079 0.12057 0.12047 0.1203 0.12017 0.12009 0.11986 0.11968 0.11969 0.11943 0.11916 0.11904 0.11894 0.11883 0.11864 0.11848 0.11837 0.11821 0.11788 0.11773 0.1177 0.11763 0.11762 0.11743 0.1174 0.11733 0.11755 0.11773 0.11778 0.11787 0.11788 0.11796 0.11813 0.11836 0.11847
0 0 0 0 0 0 0 0 0 0 0 0 0 0 0 0 0 0 0 0 0 0 0 0 0 0 0 0 0 0 0 0 0 0 0 0 0 0 0 0 0 0 0.12322 0.1241 0.12513 0.12513 0.12463 0.12436 0.1228 0.12358 0.12447 0.12515 0.1245 0.12421 0.12351 0.12341 0.12315 0.12277 0.12272 0.12252 0.1224 0.12248 0.12254 0.12249 0.12239 0.12241 0.12223 0.12219 0.12206 0.12183 0.12175 0.12158 0.1214 0.12122 0.12106 0.12084 0.12084 0.12059 0.1204 0.12027 0.12002 0.11974 0.11963 0.11941 0.11915 0.11907 0.11896 0.11873 0.11866 0.11853 0.11832 0.11823 0.11796 0.11782 0.11769 0.1177 0.11765 0.11758 0.1174 0.11745 0.1177 0.11798 0.11784 0.11796 0.11806 0.1181 0.11834 0.11862 0.11873
0 0 0 0 0 0 0 0 0 0 0 0 0 0 0 0 0 0 0 0 0 0 0 0 0 0 0 0 0 0 0 0 0 0 0 0 0 0 0 0 0.12241 0.12271 0.12343 0.12427 0.12568 0.126 0.12575 0.1256 0.12544 0.12507 0.12452 0.12416 0.12396 0.1238 0.12328 0.12331 0.12307 0.12265 0.12287 0.12277 0.12243 0.12236 0.12249 0.12237 0.12234 0.12238 0.12222 0.12213 0.122 0.12185 0.12182 0.12168 0.1216 0.12144 0.12127 0.12116 0.12106 0.12087 0.12062 0.12047 0.12015 0.11981 0.11965 0.11937 0.11909 0.11904 0.11898 0.11861 0.11856 0.11844 0.11832 0.11817 0.11802 0.11788 0.11768 0.11772 0.11764 0.1177 0.11764 0.11767 0.11797 0.11797 0.11794 0.11803 0.11816 0.11819 0.1185 0.11884 0.1189
0 0 0 0 0 0 0 0 0 0 0 0 0 0 0 0 0 0 0 0 0 0 0 0 0 0 0 0 0 0 0 0 0 0 0 0 0 0 0 0.12158 0.12241 0.12293 0.12352 0.12396 0.12503 0.12522 0.12508 0.1248 0.12462 0.12448 0.12415 0.12393 0.12404 0.12378 0.12371 0.1236 0.12335 0.12296 0.12323 0.1231 0.12286 0.12273 0.1227 0.12251 0.12248 0.12233 0.12218 0.12217 0.12214 0.12201 0.12189 0.12172 0.12156 0.12146 0.12132 0.1211 0.12105 0.12091 0.12069 0.12046 0.12025 0.11993 0.11969 0.11948 0.11916 0.11908 0.11898 0.11873 0.11876 0.11848 0.11842 0.11839 0.11825 0.11804 0.11798 0.11796 0.11778 0.11798 0.11794 0.11805 0.11816 0.11813 0.1183 0.11841 0.11858 0.11865 0.11892 0.11901 0.11907
0 0 0 0 0 0 0 0 0 0 0 0 0 0 0 0 0 0 0 0 0 0 0 0 0 0 0 0 0 0 0 0 0 0 0 0 0 0 0.11986 0.1232 0.12353 0.12328 0.12361 0.12367 0.12428 0.12445 0.12424 0.12411 0.12387 0.1237 0.12376 0.12349 0.12367 0.12376 0.12359 0.12358 0.12361 0.12336 0.12343 0.12325 0.12325 0.12305 0.12283 0.12264 0.12246 0.12232 0.12208 0.12208 0.12213 0.12201 0.12188 0.1217 0.12152 0.12137 0.12121 0.12095 0.12085 0.12072 0.12058 0.12041 0.12026 0.11998 0.11974 0.11962 0.1194 0.11925 0.11903 0.11873 0.11874 0.11856 0.11842 0.11847 0.11834 0.1181 0.1182 0.11821 0.11807 0.11818 0.11819 0.11828 0.11835 0.1183 0.11846 0.11869 0.11888 0.11905 0.11921 0.11921 0.11923
0 0 0 0 0 0 0 0 0 0 0 0 0 0 0 0 0 0 0 0 0 0 0 0 0 0 0 0 0 0 0 0 0 0 0.11444 0.10602 0.09882 0.10815 0.11721 0.12602 0.12564 0.12492 0.12414 0.12375 0.12342 0.12333 0.12336 0.12314 0.12268 0.12276 0.12294 0.12301 0.12338 0.12358 0.12341 0.12343 0.12356 0.12342 0.12349 0.12346 0.12324 0.123 0.12287 0.12257 0.12243 0.12221 0.12205 0.12204 0.12196 0.12194 0.12184 0.12165 0.12141 0.12128 0.12109 0.12086 0.12086 0.12074 0.12059 0.12041 0.12027 0.12006 0.11989 0.11968 0.11944 0.11928 0.11902 0.11884 0.11877 0.11873 0.11863 0.11857 0.11844 0.11834 0.11836 0.11839 0.11836 0.11831 0.11834 0.11836 0.11849 0.11867 0.11867 0.11896 0.11923 0.11939 0.11953 0.11949 0.11939
0 0 0 0 0 0 0 0 0 0 0 0 0 0 0 0 0 0 0 0 0 0 0 0 0 0 0 0 0 0.12348 0.12479 0.12582 0.12525 0.12357 0.12019 0.11519 0.10899 0.11449 0.12021 0.12587 0.12568 0.12516 0.12439 0.12402 0.12372 0.12348 0.12348 0.12316 0.12288 0.12289 0.12301 0.12323 0.12357 0.12377 0.12377 0.1239 0.12394 0.12365 0.12366 0.12347 0.12344 0.1233 0.12312 0.12285 0.12264 0.12243 0.1223 0.12223 0.12207 0.12196 0.12178 0.12151 0.12116 0.12109 0.12102 0.12089 0.12083 0.12065 0.12043 0.12027 0.12026 0.12015 0.11992 0.11965 0.11936 0.11932 0.11914 0.11901 0.11896 0.11891 0.11882 0.11884 0.1187 0.11862 0.11873 0.11866 0.11844 0.11853 0.1184 0.11841 0.11869 0.11893 0.119 0.11934 0.11956 0.11966 0.11981 0.11972 0.11962
0 0 0 0 0 0 0 0 0 0 0 0 0 0 0 0 0 0 0 0 0 0 0 0 0 0.11667 0.11765 0.11757 0.12062 0.12495 0.12777 0.12812 0.12801 0.12814 0.12644 0.12453 0.11854 0.12086 0.12303 0.12555 0.12528 0.12503 0.12453 0.12434 0.12393 0.12342 0.12348 0.12328 0.12306 0.12323 0.12327 0.12347 0.12379 0.12397 0.12408 0.12428 0.12421 0.12385 0.12378 0.12363 0.1235 0.12333 0.12318 0.12297 0.12278 0.12257 0.12241 0.12234 0.1221 0.12195 0.12175 0.1214 0.1211 0.12104 0.12085 0.12088 0.12069 0.12058 0.1204 0.12018 0.12018 0.12002 0.11984 0.11969 0.11946 0.1193 0.11929 0.11914 0.11918 0.11914 0.11895 0.11908 0.11895 0.11885 0.11885 0.11877 0.11856 0.11852 0.11853 0.11854 0.11885 0.11913 0.11926 0.11962 0.11977 0.11993 0.11993 0.11993 0.11983
0 0 0 0 0 0 0 0 0 0 0 0 0 0 0 0 0 0 0 0 0 0 0 0.11335 0.11499 0.11597 0.11586 0.11409 0.11982 0.12492 0.13141 0.13125 0.13111 0.13062 0.1303 0.12865 0.12739 0.12647 0.12536 0.12458 0.12444 0.12437 0.12418 0.12408 0.124 0.12344 0.12332 0.12313 0.12304 0.12335 0.1234 0.12353 0.12393 0.12411 0.12403 0.12409 0.12416 0.12393 0.12395 0.12379 0.12359 0.12343 0.12323 0.12299 0.12283 0.12257 0.12245 0.12237 0.12217 0.12196 0.12163 0.12129 0.12099 0.12087 0.12063 0.1206 0.12065 0.12052 0.12038 0.12014 0.12008 0.11985 0.11968 0.11955 0.11949 0.11941 0.11933 0.11919 0.11933 0.11931 0.11911 0.11914 0.11904 0.11891 0.11887 0.11882 0.11865 0.11869 0.11872 0.11861 0.11899 0.11933 0.11948 0.11979 0.11997 0.12009 0.12013 0.12008 0.12008
0 0 0 0 0 0 0 0 0 0 0 0 0 0 0 0 0 0 0 0 0 0 0.10939 0.11147 0.11296 0.11459 0.11745 0.11679 0.12096 0.12564 0.12996 0.12995 0.12992 0.1297 0.12917 0.12785 0.12683 0.12597 0.12504 0.12424 0.12404 0.12396 0.12398 0.12418 0.12405 0.12364 0.12346 0.12328 0.12313 0.12351 0.12357 0.12374 0.12398 0.12419 0.12419 0.12423 0.12412 0.12404 0.12398 0.12381 0.12364 0.12353 0.12337 0.12326 0.123 0.12283 0.12262 0.1225 0.12227 0.12196 0.12155 0.12123 0.12088 0.12069 0.12056 0.12053 0.12058 0.12054 0.12031 0.12005 0.11987 0.11975 0.11973 0.11958 0.11951 0.11953 0.11942 0.11935 0.11947 0.11942 0.11933 0.11927 0.11923 0.11901 0.11899 0.11886 0.11869 0.11881 0.11892 0.11889 0.11927 0.11956 0.11972 0.12003 0.12027 0.12033 0.12038 0.12028 0.12026
0 0 0 0 0 0 0 0 0 0 0 0 0 0 0 0 0 0 0 0 0 0.10646 0.10726 0.10808 0.10873 0.11243 0.11704 0.11932 0.1222 0.12524 0.1286 0.12838 0.12796 0.12742 0.1271 0.12663 0.12547 0.12442 0.12385 0.12349 0.12352 0.12362 0.1236 0.12382 0.12376 0.12362 0.12347 0.12323 0.12317 0.12352 0.12353 0.12375 0.12406 0.12422 0.12434 0.12417 0.12414 0.12404 0.12397 0.1238 0.12371 0.1236 0.12343 0.12338 0.12324 0.12298 0.12268 0.12249 0.12216 0.12182 0.12149 0.12114 0.12086 0.12067 0.12052 0.12031 0.12039 0.12037 0.12024 0.11996 0.11979 0.11971 0.11958 0.11949 0.11947 0.1195 0.11954 0.11949 0.11957 0.11961 0.11953 0.11942 0.11931 0.11917 0.11906 0.11881 0.11867 0.11883 0.11899 0.11915 0.11953 0.11968 0.11988 0.12018 0.12044 0.12054 0.12057 0.12058 0.12051
0 0 0 0 0 0 0 0 0 0 0 0 0 0 0 0 0 0 0 0 0 0 0 0.10556 0.10393 0.11019 0.11637 0.12261 0.1237 0.12531 0.12769 0.12652 0.12612 0.12604 0.12537 0.12531 0.12445 0.12357 0.12323 0.12268 0.12267 0.12261 0.12277 0.12317 0.12346 0.12341 0.12326 0.12324 0.12316 0.12346 0.12353 0.12357 0.12388 0.12409 0.12413 0.12416 0.12413 0.12411 0.12409 0.12387 0.12368 0.12358 0.12351 0.12341 0.12323 0.12296 0.12251 0.12239 0.12221 0.12183 0.12156 0.12118 0.12087 0.12059 0.1204 0.1202 0.12022 0.12015 0.12 0.11981 0.11966 0.11956 0.1195 0.11947 0.11944 0.11957 0.11962 0.11949 0.11962 0.11967 0.1196 0.11943 0.11924 0.11905 0.11893 0.11884 0.11862 0.11885 0.11916 0.11936 0.11966 0.11986 0.12012 0.12043 0.12063 0.12077 0.12079 0.12077 0.12076
0 0 0 0 0 0 0 0 0 0 0 0 0 0 0 0 0 0 0 0 0 0.09597 0.09994 0.1047 0.10449 0.11102 0.11791 0.1252 0.12515 0.12564 0.12666 0.12619 0.12561 0.12544 0.12553 0.1251 0.12405 0.12336 0.12301 0.12271 0.12265 0.12248 0.12263 0.123 0.12336 0.1235 0.12338 0.12331 0.12314 0.12327 0.12338 0.12356 0.12378 0.12394 0.12395 0.12409 0.12418 0.12412 0.12412 0.12401 0.12387 0.1238 0.12374 0.12367 0.12341 0.1231 0.1228 0.12259 0.12228 0.12192 0.12167 0.12146 0.12122 0.12099 0.12068 0.1204 0.12039 0.12024 0.12006 0.11991 0.11975 0.11967 0.1196 0.11959 0.11968 0.11982 0.11976 0.1197 0.11985 0.1197 0.11954 0.11946 0.11931 0.11909 0.11907 0.11894 0.11869 0.11907 0.11937 0.11951 0.1198 0.11996 0.12008 0.12036 0.1207 0.12078 0.12098 0.12113 0.1212
0 0 0 0 0 0 0 0 0 0 0 0 0 0 0 0 0 0 0 0.08926 0.08638 0.08519 0.09242 0.102 0.10541 0.1121 0.11979 0.12758 0.12665 0.12602 0.12587 0.1256 0.12491 0.12472 0.12494 0.1244 0.12354 0.12319 0.12283 0.1226 0.12261 0.12242 0.1225 0.12286 0.12308 0.12313 0.12314 0.12312 0.12295 0.12315 0.12342 0.12343 0.12354 0.12366 0.12382 0.12397 0.12412 0.12407 0.12401 0.12391 0.12378 0.12375 0.12369 0.12368 0.12349 0.12317 0.12291 0.12272 0.12242 0.12205 0.12183 0.12165 0.12144 0.12121 0.12095 0.12059 0.12058 0.12036 0.12024 0.12013 0.11988 0.11971 0.11968 0.11968 0.11981 0.11998 0.11998 0.11987 0.11991 0.11983 0.1196 0.11956 0.11942 0.11917 0.11906 0.11904 0.11898 0.11932 0.11945 0.11963 0.11978 0.11991 0.11999 0.12033 0.12057 0.12062 0.12102 0.12136 0.12148
0 0 0 0 0 0 0 0 0 0 0 0 0 0 0 0 0 0 0.08726 0.08588 0.08056 0.07342 0.08379 0.09469 0.10577 0.11378 0.12165 0.12979 0.12787 0.12645 0.12518 0.12469 0.12448 0.12443 0.12416 0.12344 0.12307 0.12265 0.12219 0.12213 0.12211 0.12221 0.12242 0.12265 0.12284 0.12291 0.12284 0.12275 0.1228 0.12294 0.12315 0.12313 0.12325 0.12327 0.12344 0.1236 0.12384 0.12392 0.12379 0.12363 0.12357 0.12357 0.12355 0.12356 0.1233 0.12309 0.12285 0.1227 0.12248 0.12224 0.12205 0.1219 0.12166 0.12136 0.12114 0.12083 0.12078 0.12062 0.12035 0.12028 0.11999 0.11981 0.11978 0.11986 0.11999 0.12012 0.12006 0.12011 0.12004 0.11992 0.1196 0.11955 0.11943 0.11922 0.11923 0.11923 0.11907 0.11939 0.11966 0.11974 0.11986 0.11999 0.11984 0.12017 0.12044 0.12049 0.12099 0.12144 0.12166
0 0 0 0 0 0 0 0 0 0 0 0 0 0 0 0 0 0.08707 0.08689 0.08721 0.08715 0.0806 0.09064 0.10022 0.11016 0.11591 0.12193 0.12743 0.12621 0.12517 0.12449 0.12442 0.12397 0.12398 0.12333 0.12298 0.12277 0.12256 0.12225 0.12207 0.12218 0.1223 0.12245 0.12271 0.12301 0.12296 0.12285 0.12298 0.12305 0.12303 0.12313 0.12319 0.12327 0.12312 0.1231 0.12333 0.12341 0.12354 0.12354 0.12352 0.12361 0.12358 0.12366 0.12354 0.12343 0.12323 0.12303 0.12289 0.12259 0.1224 0.12225 0.12208 0.12198 0.12181 0.12162 0.12133 0.12115 0.1209 0.12069 0.12061 0.12038 0.12013 0.12016 0.12014 0.12026 0.12037 0.12043 0.12037 0.12025 0.12014 0.11979 0.11961 0.11967 0.11955 0.11949 0.11947 0.11919 0.11954 0.11979 0.11986 0.11997 0.12011 0.1199 0.12015 0.12047 0.12061 0.12104 0.1212 0.12144
0 0 0 0 0 0 0 0 0 0 0 0 0 0 0 0 0.0837 0.08217 0.08107 0.08621 0.0916 0.08738 0.09671 0.10546 0.11444 0.11797 0.12224 0.12532 0.12465 0.12417 0.12361 0.12376 0.12375 0.12336 0.12317 0.12285 0.12256 0.12226 0.12214 0.12212 0.12212 0.1223 0.12243 0.12266 0.12287 0.12292 0.12292 0.12294 0.12299 0.12297 0.12301 0.12296 0.12291 0.12287 0.12279 0.12293 0.12292 0.12319 0.12335 0.12341 0.12357 0.1235 0.12343 0.12345 0.12349 0.12336 0.12323 0.12307 0.12279 0.12255 0.12244 0.12228 0.12212 0.12204 0.12186 0.12154 0.12139 0.12116 0.12096 0.12081 0.12059 0.12038 0.1204 0.12046 0.12054 0.12063 0.1206 0.12067 0.12057 0.12037 0.12007 0.11986 0.11985 0.11974 0.11965 0.11968 0.11939 0.11965 0.11983 0.1199 0.11998 0.11999 0.11989 0.12025 0.12046 0.1207 0.12103 0.12107 0.12113
0 0 0 0 0 0 0 0 0 0 0 0 0 0 0 0.08766 0.08416 0.07743 0.07116 0.07914 0.0865 0.09351 0.10237 0.11091 0.11925 0.12067 0.12249 0.12357 0.12293 0.12291 0.123 0.12309 0.12328 0.12282 0.12313 0.12287 0.12237 0.12235 0.12223 0.12216 0.1221 0.12233 0.12244 0.12272 0.12281 0.12283 0.12287 0.12286 0.12287 0.1228 0.1227 0.12261 0.12256 0.12234 0.12231 0.12243 0.12253 0.12263 0.12268 0.12289 0.12343 0.12287 0.12284 0.12326 0.12332 0.12325 0.12322 0.12307 0.1229 0.12264 0.12252 0.12245 0.12249 0.12227 0.1221 0.12165 0.12156 0.12136 0.12106 0.12091 0.12074 0.12055 0.12058 0.12055 0.1206 0.12072 0.12079 0.12079 0.12071 0.1205 0.12019 0.12001 0.11999 0.11974 0.11971 0.11973 0.11964 0.11974 0.11988 0.11978 0.11993 0.11995 0.1199 0.12032 0.12051 0.12078 0.12106 0.12099 0.12096
0 0 0 0 0 0 0 0 0 0 0 0 0 0 0.08604 0.08776 0.08701 0.08579 0.08025 0.08767 0.09491 0.10201 0.10801 0.1137 0.11916 0.12069 0.12207 0.12303 0.12263 0.12253 0.12268 0.12281 0.12285 0.12272 0.12276 0.12255 0.12226 0.12242 0.12228 0.12219 0.12224 0.12234 0.12237 0.12261 0.12278 0.12266 0.12281 0.12281 0.12294 0.12317 0.12326 0.12336 0.12313 0.12282 0.12246 0.12161 0.12079 0.11992 0.12151 0.12178 0.12213 0.12172 0.12119 0.1183 0.12014 0.12195 0.12387 0.12365 0.12323 0.12289 0.12277 0.12263 0.12264 0.12236 0.12206 0.1218 0.12163 0.12146 0.12133 0.12119 0.12098 0.12076 0.12081 0.1209 0.12093 0.12098 0.12097 0.12101 0.12103 0.12096 0.1206 0.12054 0.12029 0.12002 0.12003 0.12005 0.11985 0.12002 0.12009 0.12001 0.12007 0.12005 0.11999 0.12042 0.12067 0.12094 0.12134 0.12145 0.12163
0 0 0 0 0 0 0 0 0 0 0 0 0 0.08585 0.0857 0.08306 0.08823 0.09389 0.08902 0.09624 0.10344 0.11062 0.11368 0.1166 0.11932 0.12088 0.12178 0.12261 0.12233 0.12221 0.12239 0.1226 0.12253 0.12229 0.12233 0.12235 0.1223 0.12227 0.12217 0.12205 0.12222 0.12237 0.12232 0.12244 0.12248 0.12249 0.12272 0.12288 0.12307 0.12342 0.12387 0.12411 0.12367 0.12319 0.12272 0.12093 0.11905 0.11716 0 0 0 0.12168 0.1186 0.1132 0.11688 0.12074 0.12448 0.12423 0.12373 0.12323 0.12305 0.12289 0.12265 0.12248 0.12223 0.12192 0.12171 0.12155 0.12144 0.12137 0.12122 0.12101 0.12107 0.12116 0.12122 0.12129 0.12129 0.12133 0.12138 0.12126 0.12103 0.12094 0.12073 0.12033 0.12038 0.12023 0.12001 0.12022 0.12027 0.12016 0.12018 0.12018 0.12006 0.12052 0.1208 0.12102 0.12156 0.1219 0.12225
0 0 0 0 0 0 0 0 0 0 0 0 0 0.09048 0.08137 0.07361 0.08191 0.0901 0.09757 0.10489 0.1122 0.11943 0.11948 0.11955 0.11933 0.12077 0.12145 0.12215 0.12206 0.12192 0.12243 0.12237 0.12225 0.12196 0.12209 0.12228 0.12225 0.12221 0.12223 0.12209 0.1221 0.12211 0.12207 0.12163 0.12177 0.12208 0.12211 0.12265 0.12291 0.12263 0.12327 0.12462 0.12265 0.12142 0.12275 0.11988 0.11698 0.11397 0 0 0 0 0 0.11526 0.11391 0.11951 0.12495 0.12452 0.12407 0.12345 0.12335 0.12316 0.12274 0.12259 0.12231 0.12191 0.12163 0.12158 0.1214 0.12146 0.12133 0.12115 0.12131 0.12146 0.12143 0.12153 0.12162 0.12167 0.1216 0.12148 0.12138 0.12116 0.12092 0.12057 0.12055 0.12041 0.12014 0.12036 0.12041 0.12027 0.12029 0.12023 0.12004 0.12058 0.12094 0.12119 0.12178 0.12228 0.1228
0 0 0 0 0 0 0 0 0 0 0 0 0.09862 0.0973 0.09373 0.09039 0.09607 0.10161 0.10671 0.11143 0.11593 0.12042 0.12047 0.12048 0.12027 0.12125 0.12159 0.12221 0.12211 0.12205 0.12242 0.12235 0.12219 0.12204 0.12205 0.12221 0.12225 0.12217 0.12197 0.12192 0.12012 0.1183 0.11637 0.11991 0.12056 0.12129 0.12166 0 0 0.12294 0 0.12141 0.11948 0.11777 0.11068 0.11291 0.1151 0.11725 0.11665 0.11869 0.11989 0 0 0 0.11705 0.121 0.1248 0.12429 0.12379 0.12325 0.12307 0.12282 0.12259 0.12233 0.12212 0.12184 0.12185 0.12181 0.12158 0.12165 0.12157 0.12144 0.12161 0.12176 0.12178 0.12191 0.12187 0.12187 0.12186 0.12185 0.12161 0.12146 0.12122 0.12097 0.12086 0.12064 0.1204 0.12058 0.12059 0.12051 0.12045 0.12037 0.12021 0.12057 0.12092 0.12113 0.1217 0.12225 0.12272
0 0 0 0 0 0 0 0 0 0 0 0.09803 0.09699 0.10135 0.109 0.10686 0.1099 0.1129 0.1157 0.11772 0.11955 0.12144 0.12142 0.12134 0.1211 0.12163 0.12192 0.12229 0.12226 0.12233 0.12229 0.12234 0.12227 0.1221 0.1222 0.12226 0.12222 0.12188 0.12174 0.12168 0.11805 0.11429 0.11041 0.11426 0.1172 0 0 0 0 0 0.11895 0.1165 0.11234 0.10624 0.09834 0.10564 0.11309 0.12029 0.11897 0.11922 0.11991 0.12055 0.1205 0.11799 0.12036 0.1225 0.12459 0.12405 0.12345 0.12277 0.1227 0.12248 0.1222 0.12201 0.12186 0.12176 0.12167 0.12167 0.12165 0.12165 0.12161 0.12161 0.12183 0.12194 0.12196 0.12215 0.12221 0.12203 0.12213 0.12201 0.12189 0.12175 0.12154 0.1214 0.12114 0.12097 0.12071 0.12081 0.12076 0.12065 0.12055 0.1205 0.1203 0.12062 0.12082 0.12099 0.12158 0.12214 0.12253
0 0 0 0 0 0 0 0 0 0 0.10253 0.09567 0.08972 0.10086 0.11193 0.1226 0.1233 0.12388 0.12438 0.12391 0.12316 0.12237 0.1224 0.12202 0.12173 0.12207 0.12235 0.12255 0.12249 0.12235 0.12223 0.12222 0.12221 0.1221 0.12224 0.12226 0.12203 0.12179 0.12148 0.12123 0.11886 0.11074 0.1044 0 0 0 0 0 0 0 0 0 0 0 0.08594 0.09849 0.11091 0.12317 0.1227 0.12214 0.12153 0.12195 0.12233 0.12266 0.12337 0.12391 0.12437 0.12387 0.12316 0.12237 0.12239 0.12209 0.12179 0.12164 0.12153 0.12139 0.12153 0.12159 0.12158 0.12179 0.12194 0.12194 0.122 0.12195 0.12207 0.12223 0.12217 0.12222 0.12228 0.12218 0.12197 0.122 0.12175 0.12159 0.12141 0.12132 0.12094 0.12099 0.12094 0.12075 0.12062 0.12052 0.12033 0.12061 0.12076 0.12083 0.12146 0.12204 0.12236
0 0 0 0 0 0 0 0 0 0 0.10836 0.10491 0.10258 0.10946 0.11633 0.12287 0.12338 0.12382 0.12424 0.12376 0.12325 0.12282 0.12264 0.12244 0.12221 0.12246 0.12256 0.12268 0.12255 0.12238 0.12221 0.12223 0.12222 0.12212 0.12221 0.12207 0.12188 0.12163 0.1212 0.12073 0.11817 0 0 0 0 0 0 0 0 0 0 0 0 0 0.09867 0.10668 0.1146 0.12241 0.12211 0.1217 0.12129 0.12162 0.12196 0.12229 0.12294 0.12354 0.1238 0.12353 0.12298 0.12236 0.1222 0.12199 0.12173 0.12172 0.12168 0.12164 0.12162 0.12169 0.12186 0.12208 0.12211 0.12214 0.12213 0.12212 0.12215 0.12229 0.12226 0.12223 0.12219 0.12214 0.12206 0.12187 0.1218 0.1216 0.12149 0.12142 0.12115 0.12115 0.12107 0.12097 0.12085 0.12069 0.12048 0.12068 0.12082 0.12085 0.12137 0.12175 0.12205
0 0 0 0 0 0 0 0 0 0.1143 0.11569 0.11885 0.11517 0.11799 0.12052 0.12308 0.12344 0.12374 0.12395 0.12372 0.12339 0.1231 0.12307 0.12294 0.12281 0.12287 0.12289 0.12283 0.1226 0.12246 0.12228 0.12224 0.12219 0.1221 0.12204 0.12195 0.12191 0.12143 0.12094 0.12028 0.11976 0 0 0 0 0 0 0 0 0 0 0 0 0.1146 0.11134 0.11483 0.11829 0.12171 0.12151 0.12129 0.12094 0.12129 0.12149 0.12174 0.12255 0.12301 0.12335 0.12306 0.12269 0.12233 0.12213 0.122 0.12162 0.12162 0.12166 0.1216 0.12169 0.12188 0.12203 0.12217 0.12214 0.12219 0.12235 0.12242 0.12241 0.12238 0.12231 0.12222 0.12217 0.12204 0.12189 0.12183 0.12171 0.12158 0.12152 0.1214 0.12123 0.12124 0.12119 0.12112 0.12101 0.12087 0.1206 0.12075 0.12089 0.12078 0.12111 0.12132 0.12155
0 0 0 0 0 0 0 0 0.11523 0.11704 0.1208 0.12439 0.12721 0.12591 0.12454 0.12313 0.12338 0.12355 0.12359 0.12352 0.12346 0.12334 0.12336 0.12334 0.12327 0.12327 0.12319 0.12313 0.12292 0.12265 0.12244 0.1223 0.12223 0.12208 0.12212 0.12204 0.12188 0.12126 0.12063 0.11977 0.11998 0.11965 0 0.11777 0.11735 0 0 0 0 0 0 0 0.11827 0.12111 0.1236 0.1228 0.12194 0.12091 0.12088 0.1208 0.12059 0.12088 0.12106 0.12138 0.12196 0.1224 0.12263 0.12249 0.12221 0.12203 0.12182 0.12145 0.12108 0.12118 0.12138 0.12139 0.12159 0.12175 0.12188 0.1221 0.12222 0.12222 0.12231 0.12242 0.12239 0.12232 0.12224 0.12197 0.12189 0.12177 0.12154 0.12153 0.12151 0.12147 0.12155 0.12141 0.12122 0.12117 0.12114 0.12117 0.12114 0.12099 0.12078 0.12085 0.12081 0.12067 0.12089 0.12101 0.121
0 0 0 0 0 0 0 0 0.11748 0.1189 0.12062 0.12258 0.12686 0.12546 0.12401 0.1226 0.12283 0.12298 0.12306 0.1231 0.12316 0.12311 0.12318 0.12321 0.12313 0.12321 0.12316 0.12297 0.12293 0.12274 0.1225 0.12245 0.1224 0.12221 0.12224 0.1222 0.12205 0.12166 0.12117 0.12059 0.12065 0.12082 0.11993 0.11948 0.11884 0 0 0 0 0 0 0.11738 0.11874 0.1202 0.12292 0.12235 0.12172 0.12103 0.12095 0.1208 0.12059 0.12082 0.12112 0.12139 0.1218 0.12206 0.12223 0.12218 0.12204 0.12186 0.12165 0.12136 0.12116 0.12127 0.12143 0.12153 0.12163 0.12177 0.12192 0.12205 0.12216 0.12216 0.12223 0.12234 0.12228 0.12221 0.1221 0.12191 0.1219 0.12176 0.12158 0.12161 0.12143 0.12145 0.12154 0.12147 0.12139 0.12136 0.12131 0.12131 0.1212 0.12105 0.12097 0.12103 0.12092 0.12085 0.12099 0.12101 0.12104
0 0 0 0 0 0 0 0 0 0.11803 0.11979 0.12164 0.12619 0.12498 0.12353 0.12207 0.12224 0.12242 0.12255 0.12269 0.12288 0.12297 0.12305 0.12301 0.1229 0.12298 0.12302 0.12285 0.12277 0.12268 0.12243 0.1224 0.12243 0.12251 0.12249 0.12237 0.12228 0.12197 0.12171 0.12134 0.12204 0.12186 0.12145 0.12098 0.12052 0.12011 0.11718 0.11084 0 0 0.11678 0.11966 0.11949 0.12001 0.12219 0.12189 0.12145 0.1211 0.12099 0.12077 0.12052 0.12076 0.12098 0.12117 0.12138 0.12159 0.12173 0.12169 0.12158 0.12149 0.1215 0.12139 0.12122 0.12125 0.12143 0.12147 0.12152 0.12175 0.12178 0.12202 0.12207 0.12207 0.12223 0.12212 0.12217 0.12214 0.12206 0.12188 0.12175 0.12151 0.12137 0.12128 0.12138 0.12134 0.12146 0.12138 0.12144 0.12148 0.12143 0.12134 0.12119 0.12117 0.12101 0.12109 0.12102 0.12085 0.12097 0.12106 0.12106
0 0 0 0 0 0 0 0 0 0.11612 0.11833 0.12233 0.12562 0.12431 0.12303 0.12151 0.1217 0.12189 0.12198 0.12233 0.12266 0.12287 0.12282 0.1228 0.12268 0.12275 0.12288 0.12276 0.12259 0.1225 0.1223 0.1224 0.12246 0.12251 0.12245 0.1224 0.12231 0.12225 0.12223 0.12207 0.12235 0.12251 0.12261 0.12283 0.12298 0.12308 0.11469 0.10602 0.09711 0.10563 0.11381 0.12177 0.12162 0.12145 0.12128 0.12123 0.12121 0.12108 0.12097 0.12076 0.12051 0.12068 0.12081 0.12091 0.12102 0.12101 0.121 0.121 0.12102 0.12108 0.12117 0.12121 0.12116 0.1214 0.12147 0.12148 0.1217 0.12178 0.12183 0.12195 0.12197 0.12177 0.1221 0.12208 0.12203 0.12192 0.1219 0.12176 0.12149 0.12121 0.12106 0.12115 0.12119 0.12137 0.12152 0.12137 0.12133 0.12153 0.12138 0.12129 0.12125 0.12115 0.12101 0.12104 0.12107 0.12087 0.12093 0.12102 0.12102
0 0 0 0 0 0 0 0 0 0.11181 0.11253 0.11474 0.1075 0.11238 0.11711 0.1217 0.12183 0.12191 0.12199 0.1224 0.1227 0.12296 0.12304 0.12306 0.12308 0.12322 0.12335 0.12337 0.12339 0.12339 0.12356 0.12374 0.12396 0.12414 0.12362 0.12313 0.1225 0.12244 0.12229 0.12209 0.12217 0.12221 0.12221 0.12229 0.12239 0.12249 0.11685 0 0.10534 0.11093 0.11635 0.12161 0.12154 0.12131 0.12111 0.12108 0.12108 0.12092 0.12087 0.12073 0.12065 0.12083 0.12095 0.12109 0.12118 0.12126 0.12131 0.12126 0.12126 0.12114 0.12137 0.1214 0.12135 0.12156 0.12167 0.12162 0.12181 0.12194 0.12193 0.12201 0.12198 0.12182 0.12199 0.12206 0.12195 0.12189 0.12176 0.12177 0.12172 0.12149 0.12144 0.12149 0.12162 0.12175 0.12171 0.12161 0.12161 0.12173 0.12166 0.12137 0.12132 0.12127 0.12112 0.12106 0.12093 0.12079 0.12096 0.12107 0.12122
0 0 0 0 0 0 0 0 0 0 0.10152 0.09554 0.08926 0.10022 0.11115 0.12179 0.12188 0.12193 0.12199 0.12236 0.12269 0.12295 0.1231 0.12328 0.12337 0.12358 0.12373 0.1238 0 0 0 0.12463 0.12532 0.12562 0.1247 0.12376 0.12271 0.12252 0.12225 0.12196 0.1219 0.12184 0.12178 0.12177 0.12181 0.12183 0.11903 0.11615 0.11333 0.11611 0.11887 0.12144 0.1214 0.12116 0.12098 0.12096 0.12089 0.12082 0.12087 0.1208 0.12075 0.12091 0.12111 0.12127 0.12137 0.12144 0.1215 0.12151 0.12144 0.12131 0.12142 0.12143 0.12146 0.12158 0.12163 0.12179 0.12186 0.12191 0.12202 0.12208 0.12206 0.122 0.12193 0.12188 0.12185 0.12179 0.12172 0.12164 0.12172 0.12177 0.12174 0.12186 0.12187 0.12185 0.12189 0.12193 0.12194 0.1219 0.12174 0.1215 0.12146 0.12139 0.12117 0.12111 0.12091 0.12077 0.12094 0.12117 0.12139
0 0 0 0 0 0 0 0 0 0 0 0.08125 0.07066 0.08803 0.11365 0.12181 0.12009 0.12088 0.122 0.12234 0.12263 0.12296 0.12317 0.1234 0.12355 0.12379 0.12402 0.12421 0 0 0 0.12526 0.12658 0.12711 0.12573 0.12433 0.1228 0.12252 0.12228 0.12193 0.12179 0.12157 0.12129 0.1212 0.12109 0.12103 0.12109 0.1211 0.12114 0.12124 0.1213 0.12129 0.12114 0.12097 0.12078 0.12075 0.12068 0.12059 0.1207 0.12078 0.12079 0.12099 0.12117 0.12137 0.12148 0.12148 0.12147 0.12154 0.1215 0.1214 0.12146 0.12148 0.12153 0.12159 0.12161 0.12164 0.12168 0.12187 0.12192 0.12195 0.12194 0.12189 0.12187 0.12177 0.12161 0.12161 0.12171 0.12175 0.12176 0.12175 0.12189 0.1218 0.12191 0.12183 0.12193 0.12198 0.12188 0.12186 0.12169 0.12163 0.12158 0.12144 0.12109 0.121 0.12087 0.12067 0.12095 0.12116 0.12131
0 0 0 0 0 0 0 0 0 0 0 0 0.0863 0.09608 0.10986 0.11701 0.11845 0.12007 0.12191 0.12232 0.1227 0.12307 0.12332 0.12363 0.12387 0.12066 0.11741 0 0 0.11858 0.12435 0.12482 0.12525 0.12574 0.12489 0.12377 0.12266 0.12242 0.12217 0.12188 0.12175 0.1215 0.12119 0.1212 0.12113 0.12103 0.1211 0.12118 0.12119 0.12128 0.12135 0.12135 0.12128 0.1212 0.12108 0.12099 0.12092 0.12085 0.12099 0.12099 0.12102 0.12115 0.12124 0.12145 0.12156 0.12153 0.12164 0.12181 0.12169 0.12148 0.12151 0.12146 0.12153 0.12155 0.12155 0.12157 0.1216 0.12176 0.12192 0.12203 0.12202 0.122 0.12193 0.12198 0.12193 0.12192 0.12189 0.12181 0.12185 0.1218 0.12192 0.12197 0.12201 0.12197 0.12209 0.12206 0.12203 0.12203 0.12194 0.1218 0.12169 0.1215 0.12121 0.12111 0.12094 0.12066 0.12089 0.12109 0.12111
0 0 0 0 0 0 0 0 0 0 0 0 0 0 0 0.11347 0.11644 0.1194 0.12176 0.12228 0.12272 0.12318 0.12361 0.12399 0.12433 0.1176 0.11088 0.10397 0.1103 0.11666 0.12299 0.12343 0.12387 0.12433 0.12384 0.12326 0.12261 0.12232 0.12206 0.12174 0.12164 0.12141 0.12113 0.12115 0.12112 0.12105 0.12114 0.12117 0.12116 0.12131 0.12141 0.1214 0.12139 0.12135 0.12125 0.12122 0.12117 0.12104 0.12109 0.12113 0.12116 0.12133 0.12146 0.1216 0.12172 0.12175 0.12171 0.12173 0.12167 0.12156 0.12154 0.12153 0.12144 0.12147 0.1216 0.12179 0.12188 0.12192 0.12188 0.12207 0.12202 0.122 0.12202 0.12205 0.12204 0.12203 0.12197 0.12183 0.12178 0.12188 0.12196 0.12209 0.12203 0.12213 0.1222 0.12221 0.12218 0.12213 0.12207 0.12185 0.12171 0.12158 0.12132 0.12116 0.12092 0.12066 0.12084 0.12099 0.12105
0 0 0 0 0 0 0 0 0 0 0 0 0 0 0 0.11293 0.11631 0.11974 0.12154 0.12211 0.12274 0.12328 0.12377 0.12425 0.12466 0.11447 0.10416 0.09365 0.10299 0 0.12152 0.12194 0.12239 0.12279 0.12282 0.12267 0.12243 0.12214 0.12188 0.12161 0.12146 0.12123 0.12095 0.121 0.12097 0.12091 0.12105 0.12111 0.12115 0.12132 0.12141 0.1214 0.12145 0.12138 0.12128 0.12126 0.12122 0.12113 0.1212 0.12127 0.12125 0.12139 0.12156 0.12172 0.12183 0.12183 0.12178 0.12177 0.12166 0.1215 0.12146 0.12138 0.12126 0.12129 0.12135 0.12132 0.12147 0.12163 0.12162 0.12185 0.12193 0.12199 0.12196 0.12204 0.12199 0.12184 0.12177 0.12175 0.1218 0.1219 0.12198 0.12197 0.12205 0.12215 0.12226 0.12236 0.1223 0.12219 0.12205 0.12193 0.12182 0.12164 0.12141 0.1211 0.12081 0.1205 0.12067 0.1208 0.12078
0 0 0 0 0 0 0 0 0 0 0 0 0 0.10636 0.10883 0.1113 0.11452 0.11908 0.12166 0.12236 0.123 0.12368 0.12403 0.12436 0.12464 0.11784 0.11102 0.10404 0.11025 0.11694 0.12255 0.12268 0.12275 0.12278 0.12272 0.12264 0.12248 0.12226 0.12205 0.12175 0.12165 0.12154 0.1214 0.12144 0.1214 0.12136 0.12142 0.12146 0.12144 0.12154 0.12156 0.12159 0.12164 0.12156 0.12153 0.1215 0.1215 0.12146 0.1215 0.12155 0.1216 0.12171 0.12173 0.12189 0.12197 0.12199 0.12201 0.12198 0.12186 0.1217 0.1217 0.12167 0.12166 0.12172 0.12179 0.12171 0.12181 0.1218 0.12172 0.12185 0.12196 0.12197 0.12203 0.12208 0.12214 0.12211 0.12206 0.12202 0.12203 0.12206 0.12209 0.12214 0.12227 0.12228 0.12236 0.12237 0.12241 0.12228 0.12219 0.12209 0.122 0.12191 0.1217 0.12146 0.12121 0.12091 0.121 0.121 0.12096
0 0 0 0 0 0 0 0 0 0 0 0 0.10188 0.10408 0.1066 0.10859 0.11252 0.11761 0.12167 0.12242 0.12321 0.1239 0.1241 0.12427 0.12449 0.1211 0.11769 0.11418 0.11737 0.12044 0.12346 0.12325 0.12295 0.12268 0.12259 0.12251 0.12242 0.1223 0.12201 0.1218 0.12171 0.12172 0.12161 0.12163 0.12165 0.12159 0.12162 0.12161 0.12158 0.12165 0.12168 0.12169 0.12179 0.1218 0.12179 0.12183 0.12179 0.12171 0.12184 0.12189 0.12186 0.12192 0.12196 0.122 0.12206 0.12213 0.12207 0.12204 0.12199 0.1219 0.12189 0.12189 0.1219 0.12194 0.12203 0.12202 0.12201 0.12201 0.12198 0.12202 0.12203 0.12209 0.12216 0.12223 0.12221 0.12221 0.12221 0.12222 0.12219 0.12217 0.1222 0.12223 0.12229 0.1223 0.12232 0.12241 0.12238 0.12237 0.12229 0.1222 0.12212 0.12199 0.12191 0.1217 0.12149 0.12126 0.1212 0.1211 0.12101
0 0 0 0 0 0 0 0 0.10934 0.1082 0.10567 0.10121 0.09722 0.09909 0.10085 0.10259 0.10899 0.11536 0.12164 0.12252 0.12335 0.12411 0.12422 0.12429 0.12433 0.12433 0.12423 0.12414 0.12423 0.1243 0.1243 0.1237 0.12314 0.12247 0.1224 0.12233 0.12228 0.12213 0.12191 0.12169 0.12177 0.12174 0.12172 0.12182 0.12181 0.12178 0.12181 0.12175 0.12169 0.12169 0.12169 0.12171 0.12179 0.12175 0.12178 0.12185 0.12188 0.12184 0.12196 0.12195 0.122 0.12203 0.12199 0.12196 0.12201 0.12202 0.12201 0.1221 0.12211 0.12211 0.12211 0.12207 0.1221 0.1221 0.1221 0.12211 0.12209 0.12203 0.12197 0.12212 0.12217 0.12207 0.12216 0.12211 0.12211 0.12227 0.12225 0.12227 0.12233 0.12229 0.12231 0.12224 0.12219 0.12223 0.1223 0.12239 0.1224 0.12244 0.12232 0.12221 0.12222 0.12212 0.12191 0.12193 0.12177 0.12157 0.12141 0.12117 0.1209
0 0 0 0 0 0 0 0.11187 0.11139 0.11217 0.11089 0.10867 0.10628 0.10725 0.10834 0.10942 0.11382 0.11813 0.12238 0.12299 0.12351 0.12402 0.124 0.12393 0.12385 0.1238 0.12376 0.12368 0.12373 0.12383 0.12386 0.12347 0.12302 0.12257 0.12251 0.12248 0.12238 0.12222 0.12212 0.12196 0.12203 0.122 0.12204 0.12204 0.12205 0.12202 0.122 0.12193 0.1219 0.12189 0.12192 0.12193 0.12198 0.12196 0.12197 0.12203 0.12205 0.122 0.12205 0.12207 0.12208 0.12211 0.12206 0.12205 0.12208 0.12214 0.12217 0.12227 0.12227 0.12219 0.12222 0.12216 0.12222 0.12226 0.12228 0.12217 0.12209 0.1221 0.12216 0.12221 0.1222 0.12209 0.12226 0.12224 0.12209 0.12217 0.12218 0.12217 0.12225 0.12225 0.1222 0.12227 0.1223 0.12233 0.1224 0.12257 0.12254 0.12252 0.12246 0.12243 0.12234 0.12241 0.12224 0.12219 0.12209 0.12187 0.12174 0.12162 0.12137
0 0 0 0 0 0 0.1135 0.11367 0.11306 0.11281 0.11414 0.11635 0.11507 0.11543 0.11575 0.11616 0.11852 0.12083 0.12312 0.12343 0.12367 0.12388 0.12374 0.12359 0.1234 0.12334 0.12329 0.12319 0.12325 0.1233 0.12336 0.12313 0.12286 0.12261 0.12257 0.1225 0.12239 0.12227 0.12223 0.12216 0.12223 0.12224 0.12228 0.1223 0.12228 0.12224 0.12223 0.12214 0.12207 0.1221 0.12203 0.122 0.12202 0.12209 0.12208 0.12214 0.12213 0.12206 0.12211 0.12215 0.12213 0.1221 0.12204 0.12206 0.12214 0.12217 0.12218 0.12227 0.12227 0.12221 0.12225 0.12227 0.12231 0.12237 0.12232 0.12227 0.12231 0.12231 0.1222 0.12221 0.12223 0.1221 0.12214 0.12207 0.12201 0.12201 0.12203 0.12207 0.12216 0.12221 0.12229 0.12233 0.12249 0.12256 0.12256 0.1226 0.12263 0.12263 0.12267 0.12263 0.1226 0.12257 0.12241 0.12237 0.12234 0.12216 0.12209 0.12202 0.12183
0 0 0 0 0 0 0.11344 0.1134 0.11258 0.11099 0.11528 0.11948 0.12366 0.12332 0.123 0.12267 0.12307 0.12342 0.12378 0.12383 0.1238 0.12372 0.12348 0.12321 0.12291 0.12286 0.12278 0.12267 0.12271 0.12271 0.12272 0.12273 0.12266 0.12256 0.1225 0.1224 0.12232 0.12231 0.1223 0.12226 0.12238 0.1224 0.1224 0.12241 0.12243 0.12235 0.12234 0.12228 0.12217 0.12218 0.12215 0.1221 0.12215 0.12217 0.12219 0.12218 0.12213 0.12209 0.12218 0.12218 0.12212 0.12208 0.12206 0.12201 0.12208 0.12212 0.1222 0.12221 0.12228 0.12223 0.1223 0.12232 0.1223 0.12234 0.12236 0.12223 0.12225 0.1223 0.12211 0.12207 0.12201 0.12191 0.12197 0.12186 0.12167 0.12186 0.12184 0.12196 0.12203 0.12216 0.12224 0.12239 0.12247 0.1226 0.12269 0.12269 0.12271 0.12272 0.12276 0.12266 0.12267 0.12269 0.12259 0.12252 0.12252 0.12246 0.12242 0.12227 0.12215
0 0 0 0 0 0.11246 0.11324 0.11422 0.11554 0.11557 0.11853 0.12142 0.1243 0.12404 0.12383 0.1236 0.12372 0.12378 0.12387 0.12375 0.12362 0.12348 0.12332 0.12312 0.12293 0.12285 0.12281 0.12277 0.12276 0.12278 0.12275 0.12273 0.1227 0.1226 0.1226 0.12256 0.12248 0.12249 0.12249 0.12252 0.12258 0.1226 0.12259 0.12261 0.12261 0.12255 0.12254 0.12248 0.12239 0.12238 0.12236 0.12234 0.12238 0.12235 0.12235 0.12241 0.12238 0.12235 0.12235 0.12236 0.12228 0.12224 0.12218 0.12215 0.12217 0.12218 0.12224 0.12231 0.12248 0.12246 0.12247 0.12244 0.12235 0.1224 0.12229 0.12229 0.12232 0.12232 0.12231 0.1223 0.12218 0.12197 0.12196 0.12187 0.12176 0.12171 0.12176 0.1218 0.12191 0.12202 0.12213 0.12227 0.12236 0.12242 0.12246 0.12261 0.12261 0.12262 0.12268 0.12265 0.12265 0.12262 0.12253 0.12256 0.12263 0.1226 0.12258 0.1225 0.1224
0 0 0 0 0.11124 0.1116 0.1114 0.11401 0.11859 0.12021 0.1218 0.12328 0.12477 0.12467 0.1246 0.12445 0.1243 0.1241 0.12392 0.1237 0.12344 0.1232 0.12313 0.12302 0.12289 0.12285 0.12279 0.12274 0.12277 0.12276 0.12273 0.12276 0.12275 0.12271 0.12267 0.12265 0.12259 0.12263 0.12263 0.12261 0.12267 0.12274 0.12274 0.12276 0.12275 0.12268 0.12266 0.12257 0.12251 0.12251 0.12251 0.1225 0.12252 0.12252 0.12254 0.12254 0.12257 0.12251 0.12246 0.12245 0.1224 0.12228 0.12223 0.12215 0.1222 0.1222 0.12231 0.1224 0.12254 0.12261 0.12263 0.12259 0.12247 0.12238 0.12228 0.1223 0.12236 0.12233 0.12232 0.12226 0.12211 0.12194 0.12184 0.12175 0.12167 0.12168 0.12167 0.12163 0.12172 0.12183 0.12189 0.12202 0.12213 0.12219 0.12227 0.12235 0.12243 0.1225 0.12253 0.12257 0.12253 0.12254 0.12246 0.12256 0.1226 0.12256 0.12254 0.12256 0.12249
0 0 0 0 0.11066 0.11023 0.10853 0.11401 0.11933 0.12476 0.12496 0.12511 0.12524 0.12526 0.12526 0.12524 0.12482 0.12437 0.12387 0.12357 0.12326 0.12293 0.12295 0.1229 0.12281 0.12277 0.12276 0.12271 0.12271 0.12265 0.12261 0.12263 0.12264 0.12262 0.12263 0.12263 0.12263 0.1227 0.12267 0.1227 0.12278 0.12279 0.12276 0.12278 0.12277 0.12275 0.12274 0.12269 0.12263 0.1226 0.12261 0.12261 0.12265 0.12266 0.12262 0.12259 0.1226 0.12254 0.12254 0.12241 0.12235 0.12229 0.12233 0.12225 0.12229 0.12229 0.12243 0.12241 0.12259 0.12269 0.12274 0.12271 0.12264 0.12256 0.12254 0.12252 0.12246 0.12247 0.12242 0.12224 0.12202 0.1217 0.12169 0.12157 0.12146 0.12153 0.12149 0.12146 0.12154 0.12163 0.12161 0.12169 0.1218 0.12187 0.12204 0.12208 0.12222 0.12229 0.12228 0.12229 0.12239 0.12243 0.12243 0.12251 0.1225 0.12245 0.12242 0.12258 0.12258
0 0 0 0.10394 0.10878 0.11139 0.11306 0.11673 0.1205 0.1242 0.12452 0.12472 0.12493 0.12487 0.12483 0.12476 0.12443 0.12411 0.12371 0.12346 0.12326 0.12299 0.12297 0.12291 0.12284 0.12281 0.12273 0.12269 0.12269 0.12265 0.1226 0.12264 0.12266 0.12263 0.12269 0.12269 0.12275 0.12276 0.12279 0.12283 0.1229 0.1229 0.12292 0.12294 0.123 0.123 0.12298 0.12297 0.12295 0.12297 0.12296 0.12293 0.12296 0.12296 0.1229 0.12294 0.12289 0.1229 0.12284 0.12275 0.12264 0.12257 0.1226 0.12257 0.12255 0.12263 0.12277 0.12274 0.12279 0.12284 0.12293 0.12296 0.12287 0.12273 0.12267 0.12273 0.12264 0.12262 0.12245 0.12226 0.12212 0.12187 0.12175 0.12172 0.12157 0.12154 0.12153 0.12149 0.12156 0.12164 0.12163 0.12171 0.12168 0.12168 0.12184 0.12188 0.12199 0.12202 0.12204 0.12206 0.12212 0.12221 0.1223 0.12234 0.12234 0.12225 0.12236 0.12246 0.12256
0 0 0 0.09408 0.10223 0.11289 0.11742 0.11942 0.12156 0.12368 0.12406 0.12434 0.12457 0.12448 0.1244 0.12424 0.12401 0.1238 0.1235 0.12335 0.12315 0.12301 0.12293 0.12293 0.12287 0.12281 0.12272 0.12261 0.1226 0.12255 0.12251 0.12253 0.12257 0.12258 0.12261 0.12263 0.12268 0.12275 0.1228 0.12285 0.12293 0.12295 0.12298 0.12306 0.12314 0.1231 0.12313 0.12319 0.12321 0.12323 0.12323 0.12322 0.12318 0.1232 0.12311 0.12314 0.12316 0.12312 0.12308 0.12297 0.12289 0.12283 0.1228 0.12277 0.12284 0.12286 0.12304 0.12311 0.12309 0.12308 0.12306 0.12304 0.12304 0.12301 0.12287 0.12277 0.12266 0.12267 0.12251 0.12231 0.12213 0.12192 0.12182 0.12174 0.12164 0.12162 0.12156 0.12156 0.12164 0.12154 0.12152 0.12157 0.1216 0.12162 0.12165 0.12168 0.1217 0.12176 0.12185 0.12176 0.1218 0.12182 0.12189 0.12206 0.12206 0.12203 0.12215 0.12224 0.12233
0 0 0 0.0789 0.0935 0.10777 0.12185 0.12227 0.12267 0.12311 0.12355 0.12387 0.12412 0.12399 0.12384 0.1237 0.12362 0.12351 0.12335 0.12325 0.12309 0.12298 0.12299 0.1229 0.12282 0.12272 0.12257 0.12246 0.1224 0.12233 0.12232 0.12239 0.12247 0.1225 0.12256 0.1226 0.12258 0.12265 0.12274 0.12279 0.1228 0.12286 0.12291 0.12306 0.12318 0.12323 0.12335 0.12335 0.12334 0.12335 0.12342 0.12343 0.12345 0.12337 0.12345 0.1234 0.12342 0.12339 0.12333 0.12325 0.12315 0.12307 0.12304 0.12299 0.12305 0.12308 0.12319 0.12333 0.12334 0.1233 0.12326 0.12323 0.12319 0.12319 0.123 0.12285 0.12277 0.12272 0.12263 0.12239 0.12217 0.12196 0.12187 0.12182 0.1217 0.12164 0.12155 0.1216 0.1216 0.12155 0.12144 0.12145 0.12146 0.1214 0.12149 0.12152 0.12155 0.12154 0.12154 0.12154 0.12153 0.1216 0.1216 0.12175 0.12172 0.12181 0.12194 0.12204 0.12209
0 0 0 0.09547 0.10523 0.11482 0.12421 0.12413 0.12415 0.12409 0.12418 0.12419 0.12408 0.12389 0.12367 0.12351 0.12352 0.12343 0.12323 0.12314 0.12302 0.12293 0.12285 0.12274 0.12263 0.12252 0.12241 0.12231 0.12227 0.12226 0.12222 0.12223 0.12229 0.12235 0.12248 0.12261 0.1227 0.12281 0.12288 0.1229 0.12299 0.12306 0.12311 0.12327 0.12342 0.12348 0.12365 0.12376 0.1238 0.12376 0.12378 0.12385 0.12397 0.12401 0.12409 0.12408 0.12398 0.12388 0.1238 0.12369 0.12361 0.12356 0.1235 0.12339 0.12341 0.12346 0.12355 0.12363 0.1237 0.12365 0.12363 0.12357 0.12349 0.12343 0.12324 0.12309 0.12302 0.12293 0.12285 0.12271 0.12253 0.1224 0.12239 0.1223 0.12216 0.1221 0.12211 0.12214 0.12215 0.12206 0.12198 0.12194 0.12186 0.1217 0.12171 0.12174 0.12166 0.12169 0.12167 0.12166 0.1217 0.12172 0.12179 0.12184 0.1219 0.12192 0.12204 0.12217 0.12225
0.12311 0.12411 0.11707 0.11178 0.11695 0.12176 0.12634 0.12587 0.12554 0.12509 0.1248 0.12451 0.124 0.1238 0.12364 0.1234 0.12334 0.12327 0.12319 0.12309 0.12298 0.12284 0.12274 0.12257 0.12241 0.12232 0.12225 0.12214 0.12212 0.1221 0.1221 0.1221 0.12216 0.12226 0.12244 0.12255 0.12268 0.12276 0.12283 0.12295 0.12307 0.12316 0.12325 0.12348 0.12367 0.12379 0.12385 0.12395 0.12404 0.12414 0.12415 0.12418 0.12424 0.12438 0.1245 0.12454 0.12446 0.1244 0.1243 0.12411 0.12409 0.12405 0.12394 0.12379 0.12374 0.12378 0.12385 0.1239 0.12395 0.12401 0.1239 0.1238 0.12372 0.12369 0.12356 0.12338 0.1233 0.1232 0.1231 0.123 0.12291 0.12275 0.12272 0.12267 0.12255 0.12252 0.12249 0.12253 0.12252 0.12247 0.12239 0.12222 0.12209 0.12196 0.12197 0.12193 0.12175 0.12179 0.12182 0.12179 0.12182 0.12188 0.12192 0.12201 0.12206 0.12202 0.12216 0.12231 0.12238
0.12207 0.12416 0.12612 0.12784 0.1283 0.1285 0.12843 0.12767 0.12686 0.12601 0.12544 0.12473 0.12393 0.12375 0.12354 0.12321 0.12315 0.12312 0.1231 0.12295 0.12276 0.12252 0.12252 0.12239 0.12224 0.12214 0.122 0.12189 0.12192 0.12193 0.12191 0.122 0.12208 0.12213 0.12231 0.12247 0.12263 0.12273 0.12287 0.12299 0.12318 0.12331 0.12347 0.12368 0.12389 0.12397 0.12399 0.12412 0.12426 0.12437 0.12441 0.12448 0.12457 0.12464 0.12476 0.12484 0.1249 0.12491 0.12479 0.12469 0.12465 0.12458 0.12454 0.1244 0.12428 0.12424 0.12418 0.12409 0.1242 0.12423 0.12417 0.12405 0.12395 0.12384 0.12365 0.12355 0.12343 0.12337 0.12331 0.12327 0.1231 0.12298 0.12297 0.12298 0.12289 0.123 0.12298 0.12303 0.12297 0.1229 0.12272 0.1225 0.12239 0.1222 0.12211 0.12195 0.12186 0.12184 0.12181 0.12179 0.12191 0.12199 0.12206 0.1221 0.12217 0.1222 0.12238 0.12242 0.12254
0.12264 0.12429 0.12582 0.12729 0.12785 0.12817 0.12838 0.12774 0.12713 0.12649 0.12589 0.12516 0.12436 0.12402 0.12364 0.12319 0.12313 0.12305 0.12286 0.12272 0.12254 0.12238 0.12228 0.12216 0.12205 0.12197 0.1219 0.12182 0.12194 0.12206 0.12205 0.12225 0.12237 0.12245 0.12262 0.1228 0.12292 0.12302 0.12319 0.12333 0.1235 0.12368 0.12388 0.12409 0.12427 0.12435 0.1244 0.12462 0.12473 0.12484 0.12499 0.1251 0.12519 0.12532 0.12543 0.12551 0.12555 0.12556 0.12553 0.12545 0.12541 0.12531 0.12515 0.12503 0.12491 0.12478 0.12471 0.12463 0.12461 0.12459 0.12452 0.12445 0.12434 0.12428 0.12412 0.12392 0.12387 0.12381 0.12374 0.1237 0.12362 0.12351 0.12357 0.12361 0.12365 0.12388 0.12405 0.12428 0.12421 0.12408 0.12395 0.12359 0.12324 0.1229 0.12275 0.12255 0.12236 0.12247 0.12254 0.12258 0.12277 0.12295 0.12307 0.12306 0.12303 0.12304 0.12305 0.12305 0.12303
0.12293 0.12424 0.12552 0.12671 0.12731 0.12775 0.12822 0.12779 0.12732 0.12695 0.12627 0.12549 0.12473 0.12424 0.12373 0.12326 0.12311 0.12287 0.12265 0.12249 0.12231 0.12214 0.12205 0.12194 0.1218 0.12183 0.12183 0.12177 0.12193 0.12209 0.12224 0.12237 0.12253 0.12265 0.12286 0.12304 0.12319 0.12334 0.12347 0.12365 0.12384 0.12405 0.12417 0.12442 0.12465 0.12483 0.12502 0.12512 0.12522 0.12538 0.12547 0.12568 0.12581 0.126 0.12607 0.12614 0.12622 0.12625 0.12613 0.1261 0.12605 0.12597 0.12584 0.12569 0.12551 0.12535 0.12523 0.12511 0.125 0.12494 0.12486 0.1248 0.12473 0.12471 0.12455 0.12434 0.12432 0.12431 0.12427 0.12427 0.12414 0.12404 0.12414 0.12424 0.12432 0.12467 0.12503 0.12533 0.12525 0.12513 0.12504 0.1245 0.12401 0.12348 0.12328 0.12304 0.12287 0.12306 0.12323 0.12332 0.12356 0.12385 0.12412 0.12402 0.12397 0.1239 0.12382 0.12374 0.12365
0.12282 0.12382 0.12479 0.12584 0.12666 0.12738 0.12799 0.12777 0.12756 0.12736 0.12664 0.12591 0.12509 0.12449 0.12387 0.12321 0.12295 0.12268 0.12235 0.12215 0.12202 0.12182 0.12178 0.12171 0.12158 0.12166 0.12171 0.12168 0.12184 0.12206 0.12222 0.12246 0.12261 0.12277 0.12296 0.12321 0.12332 0.1235 0.12375 0.12393 0.12412 0.12432 0.12453 0.12483 0.12512 0.12534 0.12553 0.12566 0.12575 0.12582 0.12598 0.12615 0.12636 0.12651 0.12668 0.12678 0.1267 0.12669 0.12663 0.12654 0.12648 0.12645 0.12635 0.12619 0.126 0.12576 0.1256 0.12548 0.12532 0.12517 0.12513 0.12508 0.12508 0.12502 0.12489 0.12478 0.12475 0.12469 0.12455 0.12458 0.12457 0.12446 0.12463 0.12474 0.12487 0.1251 0.12584 0.12642 0.12581 0.12556 0.12612 0.12541 0.12472 0.12399 0.12368 0.12352 0.12325 0.12346 0.12364 0.12383 0.12208 0.12292 0.12489 0.12403 0.12402 0.12451 0.12449 0.12427 0.12388
0.12346 0.12423 0.12497 0.12578 0.12645 0.12699 0.12749 0.12724 0.12711 0.12689 0.12625 0.12556 0.12487 0.12427 0.12375 0.1232 0.12297 0.12274 0.12249 0.12233 0.12218 0.12203 0.12204 0.12199 0.12194 0.12211 0.12216 0.1222 0.12248 0.12279 0.12298 0.12319 0.12338 0.12352 0.12371 0.12383 0.12392 0.12419 0.12436 0.12456 0.12477 0.12492 0.12505 0.12553 0.12599 0.12623 0.12639 0.12649 0.1266 0.12669 0.12673 0.12681 0.12696 0.12705 0.12713 0.12728 0.12723 0.12728 0.12732 0.12735 0.1274 0.12738 0.12732 0.12721 0.127 0.12681 0.12657 0.1263 0.12598 0.1256 0.12558 0.12541 0.12532 0.1253 0.12517 0.12498 0.12491 0.12483 0.12477 0.12489 0.12495 0.12494 0.12527 0.12557 0.1258 0.12544 0.12572 0.12584 0.12557 0.12532 0.12537 0.12481 0.12432 0.12384 0.12047 0.11709 0.11368 0.11385 0.11403 0.11423 0.11838 0.12002 0.12197 0.12312 0.12359 0.12409 0.12496 0.12509 0.12658
0.12398 0.12459 0.1252 0.12575 0.12614 0.12648 0.12673 0.12652 0.1264 0.12624 0.12576 0.12518 0.12465 0.12418 0.12362 0.12311 0.12291 0.12281 0.12261 0.12247 0.12233 0.12215 0.1222 0.12226 0.12224 0.12235 0.12249 0.12266 0.12302 0.12336 0.12361 0.12378 0.12391 0.12402 0.12412 0.12426 0.12433 0.12466 0.12487 0.12514 0.12534 0.12555 0.12579 0.12617 0.12659 0.12696 0.12706 0.12738 0.1276 0.1276 0.12757 0.12763 0.12761 0.12756 0.12757 0.12781 0.12785 0.12796 0.12809 0.12816 0.12824 0.12825 0.12826 0.12831 0.12802 0.12773 0.12753 0.12717 0.12668 0.12618 0.12591 0.12564 0.1254 0.12539 0.12541 0.12523 0.12517 0.12505 0.12498 0.1252 0.12526 0.12538 0.12583 0.12631 0.12676 0.12455 0.12397 0.12558 0 0 0.12462 0.12429 0.12397 0.12362 0.11709 0.1106 0.10404 0.10424 0.10444 0 0 0.11958 0.11795 0.12028 0.12288 0.12414 0.12539 0.12733 0.12922
