ncols        109
nrows        82
xllcorner    -1.041666666667
yllcorner    37.041665395101
cellsize     0.083333333333
NODATA_value -9999
0.0 0 0 0 0 0 0 0 0 0 0 0 0 0 0 0 0 0 0 0 0 0 0 0 0 0 0 0 0 0 0 0 0 0 0 0 0 0 0 0 0 0 0 0 0 0 0 0 0 0 0 0 0 0 0 0 0 0 0 0 0 0 0 0 0 0 0 0 0 0 0 0 0 0 0 0 0 0 0 0 0 0 0 0 0 0 0 0 0 0 0 0 0 0 0 0 0 0 0 0 0 0 0 0 0 0.14033 0.14041 0.14071 0.14095
0 0 0 0 0 0 0 0 0 0 0 0 0 0 0 0 0 0 0 0 0 0 0 0 0 0 0 0 0 0 0 0 0 0 0 0 0 0 0 0 0 0 0 0 0 0 0 0 0 0 0 0 0 0 0 0 0 0 0 0 0 0 0 0 0 0 0 0 0 0 0 0 0 0 0 0 0 0 0 0 0 0 0 0 0 0 0 0 0 0 0 0 0 0 0 0 0 0 0 0 0 0.13859 0.13877 0.13906 0.14016 0.14136 0.14163 0.14172 0.14165
0 0 0 0 0 0 0 0 0 0 0 0 0 0 0 0 0 0 0 0 0 0 0 0 0 0 0 0 0 0 0 0 0 0 0 0 0 0 0 0 0 0 0 0 0 0 0 0 0 0 0 0 0 0 0 0 0 0 0 0 0 0 0 0 0 0 0 0 0 0 0 0 0 0 0 0 0 0 0 0 0 0 0 0 0 0 0 0 0 0 0 0 0 0 0 0 0 0 0.13769 0.13817 0.13855 0.1387 0.13891 0.13894 0.13921 0.13978 0.14047 0.14093 0.14101
0 0 0 0 0 0 0 0 0 0 0 0 0 0 0 0 0 0 0 0 0 0 0 0 0 0 0 0 0 0 0 0 0 0 0 0 0 0 0 0 0 0 0 0 0 0 0 0 0 0 0 0 0 0 0 0 0 0 0 0 0 0 0 0 0 0 0 0 0 0 0 0 0 0 0 0 0 0 0 0 0 0 0 0 0 0 0 0 0 0 0 0 0 0 0 0 0 0.13693 0.13776 0.13837 0.13855 0.13895 0.13932 0.13903 0.13896 0.13932 0.13957 0.13977 0.14004
0 0 0 0 0 0 0 0 0 0 0 0 0 0 0 0 0 0 0 0 0 0 0 0 0 0 0 0 0 0 0 0 0 0 0 0 0 0 0 0 0 0 0 0 0 0 0 0 0 0 0 0 0 0 0 0 0 0 0.13613 0.13685 0.13733 0.13912 0 0 0 0 0 0 0 0 0 0 0 0 0 0 0 0 0 0 0 0 0 0 0 0 0 0 0 0 0 0 0 0 0 0.13611 0.13638 0.13706 0.13781 0.13883 0.13926 0.13953 0.14008 0.13945 0.13911 0.13869 0.13871 0.13872 0.13868
0 0 0 0 0 0 0 0 0 0 0 0 0 0 0 0 0 0 0 0 0 0 0 0 0 0 0 0 0 0 0 0 0 0 0 0 0 0 0 0 0 0 0 0 0 0 0 0 0 0 0 0 0 0 0 0 0.13578 0.13534 0.13603 0.13671 0.13813 0.13857 0.13951 0.14012 0.13121 0.1226 0.1145 0 0 0 0 0.12423 0 0 0 0 0 0 0 0 0 0 0 0 0 0 0 0 0 0 0 0 0 0.13593 0.1359 0.1356 0.13588 0.13621 0.1366 0.13725 0.1376 0.13811 0.13852 0.13814 0.13792 0.13777 0.13773 0.13769 0.13764
0 0 0 0 0 0 0 0 0 0 0 0 0 0 0 0 0 0 0 0 0 0 0 0 0 0 0 0 0 0 0 0 0 0 0 0 0 0 0 0 0 0 0 0 0 0 0 0 0 0 0 0 0 0 0 0.13543 0.13751 0.13861 0.13805 0.13732 0.13835 0.13844 0.13881 0.13934 0.13445 0.12989 0.12566 0.13111 0.12883 0.12799 0.12768 0.12609 0.12488 0.122 0.11658 0.11333 0.114 0 0 0 0 0 0 0 0 0 0 0 0 0 0 0 0.13552 0.13487 0.13561 0.13531 0.13545 0.1353 0.13579 0.1362 0.13647 0.13675 0.13698 0.13694 0.13688 0.13674 0.13676 0.1368 0.13668
0 0 0 0 0 0 0 0 0 0 0 0 0 0 0 0 0 0 0 0 0 0 0 0 0 0 0 0 0 0 0 0 0 0 0 0 0 0 0 0 0 0 0 0 0 0 0 0 0 0 0 0.12776 0.12897 0.13016 0.13228 0.13539 0.13919 0.14187 0.14117 0.14041 0.13979 0.13987 0.13961 0.13871 0.13737 0.13713 0.13702 0.13317 0.12957 0.12687 0.12623 0.12587 0.1255 0.11856 0.11159 0.10458 0 0 0 0 0 0 0 0 0 0 0 0 0 0 0 0 0.13437 0.13574 0.13551 0.13517 0.13487 0.1347 0.135 0.13557 0.13573 0.1357 0.13555 0.13559 0.13575 0.13597 0.13596 0.13605 0.13603
0 0 0 0 0 0 0 0 0 0 0 0 0 0 0 0 0 0 0 0 0 0 0 0 0 0 0 0 0 0 0 0 0 0 0 0 0 0 0 0 0 0 0 0 0 0 0 0 0 0 0.12617 0.12703 0.12727 0.12816 0.12978 0.13169 0.13436 0.1358 0.13473 0.13402 0.13372 0.13491 0.13609 0.13708 0.13902 0.14171 0.14453 0.14125 0.13824 0.13575 0.13438 0.13321 0.132 0.12661 0.12118 0.11558 0.11675 0.11796 0.11884 0.12206 0.12605 0.12917 0 0 0 0 0 0 0 0.1258 0.12961 0.13203 0.13344 0.13576 0.13532 0.13489 0.13431 0.13403 0.13389 0.13397 0.13392 0.13397 0.13404 0.13401 0.13426 0.13414 0.13414 0.13433 0.13451
0 0 0 0 0 0 0 0 0 0 0 0 0 0 0 0 0 0 0 0 0 0 0 0 0 0 0 0 0 0 0 0 0 0 0 0 0 0 0 0 0 0 0 0 0 0 0 0 0 0.12667 0.12573 0.12524 0.12567 0.12675 0.12683 0.12748 0.12849 0.12996 0.12867 0.12764 0.12693 0.12987 0.13316 0.13668 0.14169 0.14687 0.15213 0.14931 0.14698 0.14473 0.1427 0.14065 0.13864 0.13457 0.13044 0.12661 0.12797 0.1286 0.1292 0.13394 0.13438 0.13611 0 0.13729 0.13718 0.12917 0.11491 0.10634 0.11285 0.12513 0.13153 0.13282 0.13325 0.13577 0.1352 0.13447 0.1341 0.13365 0.13365 0.13355 0.13341 0.13321 0.13303 0.13273 0.13263 0.13279 0.13304 0.13329 0.13355
0 0 0 0 0 0 0 0 0 0 0 0 0 0 0 0 0 0 0 0 0 0 0 0 0 0 0 0 0 0 0 0 0 0 0 0 0 0 0 0 0 0 0 0 0 0 0 0 0 0.1265 0.12478 0.12374 0.12395 0.12475 0.12591 0.12517 0.12383 0.1238 0.12313 0.12208 0.12085 0.12588 0.13103 0.13642 0.14437 0.15199 0.16012 0.15775 0.15575 0.15414 0.15105 0.14828 0.14531 0.14291 0.14052 0.13813 0.13902 0.13941 0.14009 0.14032 0.14065 0.14072 0.14252 0.14475 0.14702 0.12626 0.10534 0.08496 0.10139 0.11909 0.13725 0.13678 0.13627 0.13582 0.13516 0.13465 0.13465 0.13388 0.13363 0.13345 0.13282 0.13216 0.13183 0.13175 0.13184 0.13195 0.13195 0.13189 0.13194
0 0 0 0 0 0 0 0 0 0 0 0 0 0 0 0 0 0 0 0 0 0 0 0 0 0 0 0 0 0 0 0 0 0 0 0 0 0 0 0 0 0 0 0 0 0 0 0 0 0.12799 0.12695 0.12554 0.12662 0.12764 0.1292 0.12918 0.12923 0.13021 0.12933 0.12831 0.12753 0.13091 0.13424 0.13785 0.14311 0.14873 0.15414 0.15245 0.15106 0.14994 0.14771 0.14547 0.14341 0.14157 0.13956 0.13777 0.1379 0.13814 0.13887 0.13909 0.13944 0.13948 0.1408 0.14248 0.14399 0.13014 0.11613 0.10204 0.11282 0.12469 0.13652 0.13583 0.13513 0.1349 0.13426 0.13397 0.1339 0.13315 0.13288 0.13222 0.13186 0.13154 0.1312 0.13106 0.13096 0.13081 0.13115 0.13116 0.13122
0 0 0 0 0 0 0 0 0 0 0 0 0 0 0 0 0 0 0 0 0 0 0 0 0 0 0 0 0 0 0 0 0 0 0 0 0 0 0 0 0 0 0 0 0 0 0 0 0 0.13086 0.13084 0.12859 0.12947 0.13101 0.13247 0.13331 0.13477 0.13631 0.13554 0.13453 0.13378 0.13596 0.13755 0.13933 0.14237 0.14545 0.14785 0.14707 0.14636 0.14589 0.14434 0.1429 0.14137 0.14001 0.13856 0.13742 0.13771 0.13776 0.13811 0.13819 0.13845 0.13845 0.13916 0.14002 0.14083 0.13395 0.12703 0.11984 0.12482 0.13004 0.13548 0.13481 0.13437 0.13415 0.13365 0.1334 0.13318 0.13222 0.13174 0.13137 0.13104 0.13066 0.13025 0.12993 0.12964 0.12966 0.12996 0.1304 0.13073
0 0 0 0 0 0 0 0 0 0 0 0 0 0 0 0 0 0 0 0 0 0 0 0 0 0 0 0 0 0 0 0 0 0 0 0 0 0 0 0 0 0 0 0 0 0 0 0 0 0.13255 0.13229 0.13164 0.13259 0.13457 0.13649 0.13869 0.14065 0.14266 0.14159 0.14074 0.13988 0.14057 0.14092 0.14132 0.14145 0.1419 0.14239 0.14237 0.14229 0.14224 0.14139 0.14022 0.13927 0.13889 0.13857 0.13815 0.13779 0.13741 0.13743 0.13746 0.13763 0.13749 0.13763 0.13814 0.13831 0.13834 0.13836 0.13804 0.13683 0.13572 0.13483 0.13421 0.13381 0.13372 0.13332 0.13285 0.13193 0.13147 0.13084 0.13045 0.13011 0.1297 0.12917 0.12889 0.12892 0.12911 0.12933 0.12955 0.12977
0 0 0 0 0 0 0 0 0 0 0 0 0 0 0 0 0 0 0 0 0 0 0 0 0 0 0 0 0 0 0 0 0 0 0 0 0 0 0 0 0 0 0 0 0 0 0 0 0 0.13387 0.13344 0.13341 0.13475 0.136 0.13977 0.14061 0.14172 0.14242 0.14138 0.14076 0.14 0.14 0.1403 0.14065 0.14045 0.14055 0.14105 0.14086 0.14062 0.14066 0.13984 0.13906 0.13836 0.13772 0.137 0.13651 0.13625 0.13596 0.13577 0.13568 0.13555 0.13543 0.13557 0.13585 0.13603 0.13601 0.13581 0.13556 0.13477 0.13397 0.13324 0.13274 0.13242 0.13225 0.13154 0.13092 0.13048 0.12999 0.12959 0.12929 0.12911 0.12878 0.12851 0.12854 0.12864 0.12892 0.12911 0.12937 0.12957
0 0 0 0 0 0 0 0 0 0 0 0 0 0 0 0 0 0 0 0 0 0 0 0 0 0 0 0 0 0 0 0 0 0 0 0 0 0 0 0 0 0 0 0 0 0 0 0 0 0.13462 0.13655 0.13736 0.1391 0.14155 0.1448 0.14303 0.14329 0.14227 0.14125 0.14068 0.14008 0.14014 0.13989 0.13954 0.13969 0.13952 0.14001 0.13985 0.13939 0.13945 0.1385 0.13778 0.13689 0.1363 0.13578 0.13526 0.13489 0.1346 0.13434 0.13414 0.13403 0.13393 0.13379 0.13396 0.13407 0.13392 0.1338 0.13354 0.13294 0.13234 0.13169 0.13129 0.13081 0.13044 0.12994 0.12954 0.1291 0.12881 0.12853 0.12829 0.12833 0.12834 0.12828 0.12844 0.12863 0.12889 0.1291 0.12932 0.12949
0 0 0 0 0 0 0 0 0 0 0 0 0 0 0 0 0 0 0 0 0 0 0 0 0 0 0 0 0 0 0 0 0 0 0 0 0 0 0 0 0 0 0 0 0 0 0 0 0 0 0.13993 0.14114 0.14279 0.14634 0.149 0.1461 0.14472 0.14191 0.14112 0.14048 0.13997 0.13973 0.13926 0.13903 0.139 0.13884 0.13917 0.13883 0.13847 0.1382 0.13744 0.13654 0.13601 0.13551 0.13484 0.1342 0.13374 0.13329 0.13305 0.13273 0.13257 0.13262 0.13239 0.13203 0.13181 0.13167 0.13145 0.13114 0.13069 0.13046 0.13029 0.12994 0.12962 0.12933 0.12894 0.12853 0.12831 0.12812 0.12789 0.12783 0.128 0.12797 0.12809 0.12829 0.12858 0.12889 0.12911 0.12934 0.12964
0 0 0 0 0 0 0 0 0 0 0 0 0 0 0 0 0 0 0 0 0 0 0 0 0 0 0 0 0 0 0 0 0 0 0 0 0 0 0 0 0 0 0 0 0 0 0 0 0 0 0.14181 0.14278 0.14352 0.14487 0.14764 0.14561 0.14473 0.1419 0.14074 0.13964 0.1393 0.13897 0.13847 0.13839 0.13815 0.13813 0.13826 0.13768 0.13726 0.1368 0.13612 0.13547 0.13485 0.1344 0.13385 0.13318 0.13281 0.13238 0.132 0.13171 0.13154 0.13136 0.13129 0.13111 0.13093 0.13067 0.13062 0.13037 0.13011 0.12991 0.12965 0.12936 0.12917 0.12895 0.12871 0.12857 0.12843 0.12827 0.12821 0.12818 0.12819 0.12811 0.12811 0.12837 0.12871 0.12895 0.12919 0.12931 0.12956
0 0 0 0 0 0 0 0 0 0 0 0 0 0 0 0 0 0 0 0 0 0 0 0 0 0 0 0 0 0 0 0 0 0 0 0 0 0 0 0 0 0 0 0 0 0 0 0 0 0 0 0 0.14312 0.14326 0.14594 0.14488 0.14412 0.14168 0.14038 0.13951 0.13889 0.13833 0.13788 0.13777 0.1376 0.13742 0.13744 0.13696 0.13647 0.1359 0.13524 0.13452 0.1339 0.13342 0.13286 0.1322 0.13192 0.13166 0.13132 0.13103 0.13087 0.13086 0.13062 0.13062 0.13054 0.13037 0.13036 0.13023 0.13008 0.12984 0.12957 0.1293 0.12915 0.1291 0.12884 0.12851 0.12851 0.12851 0.12844 0.1285 0.1283 0.12813 0.12805 0.12829 0.12857 0.12893 0.1291 0.12933 0.12944
0 0 0 0 0 0 0 0 0 0 0 0 0 0 0 0 0 0 0 0 0 0 0 0 0 0 0 0 0 0 0 0 0 0 0 0 0 0 0 0 0 0 0 0 0 0 0 0 0 0 0.14366 0.14417 0.14382 0.14343 0.14396 0.14404 0.14262 0.14116 0.14012 0.13925 0.13836 0.13791 0.13718 0.13704 0.13677 0.13725 0.13705 0.1363 0.13576 0.1352 0.13434 0.13362 0.13312 0.1326 0.13208 0.13154 0.13116 0.13094 0.1304 0.1302 0.13018 0.13024 0.13021 0.13014 0.13008 0.13004 0.1302 0.13011 0.12983 0.12967 0.12955 0.12946 0.12934 0.12928 0.12902 0.12886 0.12889 0.12889 0.12893 0.12883 0.12843 0.12826 0.12819 0.12836 0.12851 0.12881 0.12899 0.1292 0.12938
0 0 0 0 0 0 0 0 0 0 0 0 0 0 0 0 0 0 0 0 0 0 0 0 0 0 0 0 0 0 0 0 0 0 0 0 0 0 0 0 0 0 0 0 0 0 0 0 0 0 0.14234 0.14421 0.14355 0.14281 0.14283 0.1423 0.14147 0.13963 0.13909 0.13822 0.13742 0.13709 0.1364 0.13626 0.1363 0.1367 0.13671 0.13582 0.13519 0.13465 0.13395 0.13344 0.13296 0.13252 0.132 0.13155 0.13126 0.13097 0.13069 0.13048 0.13033 0.13023 0.13007 0.1301 0.13011 0.13006 0.13028 0.1304 0.13016 0.12992 0.12971 0.12951 0.12941 0.12938 0.12935 0.12928 0.12907 0.12902 0.12898 0.12905 0.12859 0.1283 0.12829 0.12845 0.12851 0.12872 0.12885 0.12907 0.12933
0 0 0 0 0 0 0 0 0 0 0 0 0 0 0 0 0 0 0 0 0 0 0 0 0 0 0 0 0 0 0 0 0 0 0 0 0 0 0 0 0 0 0 0 0 0 0 0 0 0 0 0.14256 0.14226 0.14194 0.14152 0.14027 0.14007 0.13861 0.13818 0.13736 0.13657 0.13628 0.13556 0.13575 0.13582 0.13614 0.13614 0.13541 0.13465 0.13411 0.13369 0.13326 0.13276 0.13223 0.13172 0.13156 0.13124 0.13093 0.13074 0.1305 0.13038 0.1303 0.13024 0.13008 0.13012 0.13021 0.13042 0.13053 0.13047 0.13022 0.12994 0.12962 0.12949 0.12946 0.12948 0.12925 0.12918 0.12885 0.12875 0.12868 0.12866 0.12848 0.12847 0.12852 0.12853 0.12868 0.12886 0.12912 0.12935
0 0 0 0 0 0 0 0 0 0 0 0 0 0 0 0 0 0 0 0 0 0 0 0 0 0 0 0 0 0 0 0 0 0 0 0 0 0 0 0 0 0 0 0 0 0 0 0 0 0 0 0.14162 0.14101 0.1404 0.13945 0.13807 0.1385 0.13745 0.13693 0.13627 0.13599 0.13538 0.135 0.13527 0.13553 0.13552 0.13546 0.13492 0.1344 0.13394 0.13353 0.13305 0.13253 0.13213 0.13195 0.1316 0.13142 0.13121 0.13102 0.13073 0.13078 0.13063 0.13053 0.13051 0.13056 0.13061 0.13075 0.13074 0.13057 0.13057 0.1305 0.13027 0.13007 0.13008 0.12985 0.1296 0.12943 0.12923 0.12895 0.12881 0.12863 0.12843 0.12829 0.12836 0.12838 0.12847 0.12871 0.12897 0.12921
0 0 0 0 0 0 0 0 0 0 0 0 0 0 0 0 0 0 0 0 0 0 0 0 0 0 0 0 0 0 0 0 0 0 0 0 0 0 0 0 0 0 0 0 0 0 0 0 0 0 0 0.14127 0.14046 0.13948 0.1385 0.13697 0.13686 0.13585 0.13541 0.13503 0.13488 0.13453 0.13462 0.13479 0.13476 0.13474 0.1348 0.13438 0.13396 0.1339 0.13337 0.13297 0.13273 0.13235 0.13205 0.13171 0.13154 0.1314 0.13115 0.13078 0.13067 0.13075 0.13065 0.13063 0.13071 0.13075 0.13081 0.13068 0.13054 0.13045 0.13054 0.1305 0.13021 0.12999 0.1298 0.12972 0.12965 0.12934 0.12887 0.12855 0.12829 0.12804 0.12776 0.12795 0.12801 0.12821 0.1285 0.12883 0.12902
0 0 0 0 0 0 0 0 0 0 0 0 0 0 0 0 0 0 0 0 0 0 0 0 0 0 0 0 0 0 0 0 0 0 0 0 0 0 0 0 0 0 0 0 0 0 0 0 0 0.13703 0.13885 0.14166 0.14014 0.13888 0.13773 0.13673 0.13563 0.13483 0.13434 0.13421 0.13373 0.1338 0.1339 0.13415 0.13407 0.13409 0.13421 0.13398 0.13381 0.13387 0.13348 0.13314 0.13276 0.13246 0.13215 0.13191 0.13177 0.13165 0.13137 0.13092 0.13072 0.1308 0.13069 0.13073 0.1307 0.1307 0.13078 0.13084 0.13067 0.13064 0.13055 0.13033 0.13044 0.13022 0.13001 0.12991 0.12968 0.12952 0.12889 0.12844 0.12811 0.12799 0.12774 0.12778 0.12796 0.12831 0.12862 0.12883 0.12914
0 0 0 0 0 0 0 0 0 0 0 0 0 0 0 0 0 0 0 0 0 0 0 0 0 0 0 0 0 0 0 0 0 0 0 0 0 0 0 0 0 0 0 0 0 0 0 0 0.13241 0.1355 0.13873 0.1414 0.13969 0.13823 0.13715 0.13614 0.13515 0.13425 0.13385 0.13372 0.13357 0.13358 0.13353 0.13354 0.13355 0.13366 0.13371 0.13375 0.13367 0.13348 0.13333 0.13309 0.13286 0.13242 0.13217 0.13208 0.13194 0.1316 0.13138 0.13109 0.13088 0.13089 0.13077 0.13074 0.13067 0.13062 0.13065 0.13065 0.1307 0.13063 0.13065 0.13055 0.13037 0.13039 0.13017 0.13003 0.13 0.1296 0.12905 0.12869 0.12831 0.12817 0.12784 0.12793 0.12809 0.12823 0.12869 0.12905 0.1293
0 0 0 0 0 0 0 0 0 0 0 0 0 0 0 0 0 0 0 0 0 0 0 0 0 0 0 0 0 0 0 0 0 0 0 0 0 0 0 0 0 0 0 0 0 0.13838 0.13748 0.1361 0.1348 0.1367 0.13863 0.14 0.13851 0.13726 0.13627 0.13538 0.13445 0.13368 0.13365 0.13341 0.13328 0.13319 0.13309 0.13321 0.13319 0.13324 0.1334 0.13341 0.13345 0.1335 0.13333 0.13289 0.13288 0.13268 0.1324 0.13224 0.13182 0.1315 0.13119 0.13099 0.131 0.13072 0.13066 0.13063 0.13057 0.13051 0.1305 0.1305 0.1305 0.13053 0.13053 0.13037 0.13024 0.13026 0.13003 0.13007 0.13013 0.12975 0.12915 0.12887 0.12848 0.12834 0.12785 0.12794 0.1281 0.1283 0.12864 0.12919 0.12937
0 0 0 0 0 0 0 0 0 0 0 0 0 0 0 0 0 0 0 0 0 0 0 0 0 0 0 0 0 0 0 0 0 0 0 0 0 0 0 0 0 0 0.13596 0.13716 0.1384 0.1391 0.13856 0.13875 0.13758 0.13752 0.13757 0.13834 0.1373 0.13625 0.13538 0.13443 0.13371 0.13342 0.13322 0.133 0.13292 0.13281 0.13289 0.13279 0.13273 0.13279 0.13305 0.13301 0.13312 0.1332 0.13293 0.13274 0.13294 0.13276 0.13249 0.13234 0.13206 0.1317 0.13131 0.13086 0.13079 0.13064 0.13041 0.1304 0.13041 0.1304 0.1304 0.1303 0.13027 0.13023 0.13031 0.13035 0.13028 0.13016 0.13006 0.12984 0.12993 0.12972 0.12927 0.1291 0.12878 0.12842 0.12819 0.1281 0.12824 0.12842 0.12871 0.1291 0.12945
0 0 0 0 0 0 0 0 0 0 0 0 0 0 0 0 0 0 0 0 0 0 0 0 0 0 0 0 0 0 0 0 0 0 0 0 0 0 0 0 0.13567 0.13531 0.13566 0.13682 0.13885 0.14021 0.13982 0.14004 0.13961 0.13804 0.13685 0.13673 0.13567 0.1349 0.13422 0.13368 0.1331 0.13304 0.13288 0.13245 0.13233 0.1324 0.13216 0.13206 0.1322 0.13236 0.13263 0.13275 0.13288 0.1329 0.13277 0.13269 0.13275 0.13275 0.13269 0.13261 0.1321 0.13163 0.13136 0.13097 0.13082 0.13059 0.13049 0.13031 0.13032 0.13017 0.13039 0.13062 0.1305 0.13035 0.13029 0.13042 0.13043 0.13029 0.13015 0.12998 0.12988 0.12966 0.12952 0.12943 0.12914 0.12863 0.12837 0.12839 0.12842 0.12847 0.12888 0.12913 0.12959
0 0 0 0 0 0 0 0 0 0 0 0 0 0 0 0 0 0 0 0 0 0 0 0 0 0 0 0 0 0 0 0 0 0 0 0 0 0 0 0.13544 0.13621 0.13571 0.13585 0.1358 0.13659 0.13739 0.13735 0.13756 0.13686 0.13557 0.13462 0.13445 0.13391 0.13367 0.1333 0.13291 0.13238 0.13226 0.13214 0.13195 0.13174 0.13179 0.13174 0.13187 0.13197 0.13214 0.13231 0.13249 0.13253 0.13266 0.13265 0.13249 0.13264 0.1327 0.13261 0.13255 0.13206 0.13163 0.13109 0.13084 0.13056 0.13037 0.13023 0.13018 0.13006 0.13002 0.13019 0.13036 0.13035 0.13039 0.13043 0.13033 0.13038 0.13052 0.13037 0.13027 0.12996 0.12984 0.1296 0.12925 0.12895 0.12851 0.1283 0.12847 0.12868 0.12883 0.12904 0.12922 0.12965
0 0 0 0 0 0 0 0 0 0 0 0 0 0 0 0 0 0 0 0 0 0 0 0 0 0 0 0 0 0 0 0 0 0 0 0 0 0 0.13536 0.13772 0.1374 0.13634 0.13629 0.13571 0.13557 0.13579 0.13507 0.13469 0.1341 0.13387 0.13341 0.13335 0.13316 0.13298 0.13279 0.13246 0.13213 0.13204 0.13194 0.13188 0.13182 0.13183 0.13184 0.13177 0.13187 0.13205 0.13228 0.1324 0.13249 0.1326 0.13244 0.13249 0.13256 0.13261 0.13261 0.13251 0.13199 0.13155 0.13116 0.1308 0.13054 0.13036 0.13018 0.13006 0.12993 0.13004 0.13005 0.13013 0.13021 0.1307 0.13084 0.13054 0.13045 0.13054 0.13038 0.13039 0.13015 0.12983 0.12936 0.12913 0.1285 0.12831 0.1283 0.12859 0.1289 0.1291 0.12931 0.12946 0.12979
0 0 0 0 0 0 0 0 0 0 0 0 0 0 0 0 0 0 0 0 0 0 0 0 0 0 0 0 0 0 0 0 0 0 0.13106 0.12346 0.1173 0.12545 0.13385 0.14209 0.14046 0.13873 0.13726 0.13642 0.13531 0.13411 0.13322 0.13279 0.13235 0.13226 0.13245 0.1329 0.13283 0.13284 0.1327 0.13246 0.13227 0.1322 0.1321 0.13202 0.13201 0.13206 0.13201 0.13197 0.13209 0.13215 0.1323 0.13249 0.13259 0.13274 0.13256 0.13247 0.1326 0.13272 0.1327 0.13257 0.13222 0.13178 0.13133 0.13087 0.13067 0.13038 0.13025 0.13015 0.13002 0.12999 0.12998 0.12988 0.13026 0.13081 0.13087 0.13074 0.13078 0.13071 0.13045 0.13039 0.13022 0.12978 0.12925 0.12906 0.12874 0.12857 0.12838 0.12875 0.12917 0.12936 0.12956 0.12971 0.12994
0 0 0 0 0 0 0 0 0 0 0 0 0 0 0 0 0 0 0 0 0 0 0 0 0 0 0 0 0 0.1476 0.14679 0.14583 0.14319 0.14069 0.13655 0.13167 0.12585 0.13126 0.13637 0.14143 0.1398 0.13792 0.13648 0.1353 0.13432 0.13325 0.13292 0.13251 0.13209 0.13213 0.13213 0.13248 0.13263 0.13278 0.13264 0.13238 0.13237 0.13225 0.13212 0.13209 0.13225 0.13228 0.13231 0.13238 0.13238 0.13244 0.13247 0.13265 0.13267 0.13263 0.13248 0.13246 0.13255 0.13269 0.13253 0.13236 0.13192 0.13154 0.13114 0.13082 0.13066 0.13047 0.13031 0.13014 0.13009 0.1299 0.12975 0.12984 0.13009 0.13048 0.13063 0.13061 0.13054 0.13063 0.1303 0.13024 0.13046 0.12971 0.12913 0.1289 0.12871 0.12866 0.12856 0.1289 0.12922 0.12944 0.12962 0.12986 0.13016
0 0 0 0 0 0 0 0 0 0 0 0 0 0 0 0 0 0 0 0 0 0 0 0 0 0.14609 0.14777 0.14748 0.1486 0.15025 0.15035 0.14829 0.14565 0.14444 0.14271 0.14029 0.1351 0.13703 0.1392 0.14134 0.13997 0.13735 0.13527 0.13426 0.13357 0.13254 0.13246 0.13209 0.1322 0.132 0.13196 0.13233 0.1326 0.13281 0.13276 0.13268 0.13251 0.13262 0.13239 0.1324 0.13257 0.1325 0.13261 0.13271 0.13272 0.13273 0.13275 0.13286 0.13274 0.13268 0.13259 0.13251 0.13246 0.13255 0.13228 0.1321 0.13175 0.13137 0.13093 0.13073 0.13051 0.13035 0.13023 0.13015 0.13002 0.12986 0.12989 0.13002 0.13039 0.13048 0.13065 0.13052 0.1304 0.13041 0.13039 0.13023 0.13024 0.12956 0.12904 0.12885 0.12877 0.12869 0.12866 0.12892 0.12938 0.12965 0.12984 0.13009 0.13044
0 0 0 0 0 0 0 0 0 0 0 0 0 0 0 0 0 0 0 0 0 0 0 0.14237 0.14445 0.14671 0.14831 0.14748 0.15116 0.15248 0.15461 0.15094 0.14784 0.14626 0.14615 0.14481 0.14407 0.14295 0.14219 0.14063 0.13918 0.13679 0.1342 0.13245 0.132 0.13195 0.13212 0.13208 0.1322 0.13213 0.13188 0.13222 0.13231 0.13264 0.13285 0.13283 0.13274 0.13282 0.1328 0.13282 0.1328 0.13275 0.13296 0.13308 0.13308 0.13304 0.13306 0.133 0.13287 0.13273 0.13262 0.1324 0.13234 0.13218 0.13193 0.13161 0.13126 0.1309 0.13066 0.13048 0.13055 0.13042 0.1301 0.12997 0.12997 0.12991 0.13003 0.13021 0.13041 0.13064 0.13085 0.13064 0.13055 0.13048 0.13045 0.13032 0.13031 0.12988 0.12917 0.12881 0.12876 0.12873 0.12889 0.12913 0.12954 0.12973 0.13005 0.13047 0.13083
0 0 0 0 0 0 0 0 0 0 0 0 0 0 0 0 0 0 0 0 0 0 0.13922 0.14118 0.14243 0.14525 0.14955 0.14969 0.1508 0.15208 0.15362 0.15046 0.14667 0.14391 0.14373 0.14302 0.14152 0.14102 0.14016 0.13869 0.13719 0.13569 0.13381 0.13263 0.13139 0.1311 0.13127 0.13148 0.13162 0.13159 0.13156 0.13199 0.13213 0.13235 0.1328 0.13285 0.13273 0.13284 0.13295 0.13286 0.13307 0.13301 0.13308 0.13335 0.13321 0.13321 0.13318 0.13299 0.13289 0.13266 0.13246 0.13225 0.13215 0.13193 0.13156 0.13135 0.13095 0.13065 0.13047 0.13014 0.13006 0.13004 0.12996 0.12985 0.12976 0.12966 0.12992 0.1302 0.13037 0.13058 0.13078 0.1306 0.13055 0.13046 0.13049 0.13043 0.13034 0.12973 0.12924 0.12889 0.12877 0.12878 0.12892 0.12918 0.12954 0.1299 0.13021 0.13047 0.13076
0 0 0 0 0 0 0 0 0 0 0 0 0 0 0 0 0 0 0 0 0 0.13774 0.13815 0.13876 0.13915 0.14218 0.14675 0.15053 0.15007 0.14963 0.15015 0.14729 0.1431 0.13994 0.13953 0.13959 0.13817 0.13724 0.13679 0.13572 0.13464 0.13374 0.13246 0.13122 0.13042 0.13042 0.13075 0.13086 0.13095 0.13128 0.1313 0.13182 0.13212 0.13244 0.13288 0.13301 0.1331 0.13321 0.13318 0.13342 0.13336 0.13331 0.13323 0.13342 0.13337 0.1334 0.1333 0.13308 0.133 0.13278 0.13257 0.13227 0.13207 0.13182 0.13151 0.13118 0.13081 0.13047 0.13018 0.12987 0.12978 0.12984 0.12984 0.1298 0.12972 0.12969 0.12988 0.13021 0.13041 0.13062 0.13081 0.13063 0.13053 0.13068 0.13051 0.1304 0.13031 0.12966 0.12925 0.12884 0.12886 0.12884 0.12905 0.12929 0.12964 0.12994 0.13025 0.13052 0.13089
0 0 0 0 0 0 0 0 0 0 0 0 0 0 0 0 0 0 0 0 0 0 0 0.13793 0.13555 0.14039 0.14466 0.15197 0.1498 0.14799 0.14765 0.14355 0.13966 0.13711 0.13637 0.13638 0.1354 0.13494 0.13471 0.1338 0.13292 0.1318 0.13092 0.13015 0.12983 0.1301 0.13023 0.13055 0.13069 0.13109 0.13124 0.13174 0.13204 0.13251 0.133 0.13307 0.13322 0.13348 0.13366 0.13365 0.13377 0.13366 0.13363 0.1337 0.13365 0.13344 0.13337 0.13315 0.13309 0.13303 0.13279 0.13239 0.13216 0.13191 0.13148 0.13106 0.13064 0.13029 0.13002 0.1297 0.12963 0.12965 0.1297 0.12969 0.12978 0.12973 0.12996 0.13015 0.13027 0.1305 0.13072 0.13057 0.13055 0.13067 0.13038 0.13031 0.1301 0.12955 0.12919 0.12896 0.12894 0.129 0.12916 0.12944 0.12967 0.13007 0.13026 0.13057 0.13083
0 0 0 0 0 0 0 0 0 0 0 0 0 0 0 0 0 0 0 0 0 0.13387 0.13629 0.13866 0.13675 0.14061 0.14506 0.15326 0.14982 0.14658 0.14499 0.14162 0.13798 0.13542 0.13532 0.1351 0.13404 0.13353 0.13334 0.13258 0.13167 0.13084 0.13004 0.12952 0.12917 0.1293 0.12966 0.12996 0.13036 0.13048 0.13068 0.13109 0.13141 0.13173 0.1322 0.1323 0.13264 0.13297 0.13298 0.13306 0.13319 0.13324 0.13332 0.13344 0.13325 0.13324 0.13322 0.13313 0.13305 0.13296 0.13267 0.13242 0.13217 0.13177 0.13131 0.13094 0.13052 0.13028 0.12991 0.12957 0.12964 0.12968 0.12973 0.12968 0.1298 0.12977 0.13005 0.13017 0.13023 0.13043 0.13063 0.13054 0.13059 0.13063 0.13034 0.12998 0.12984 0.12943 0.12918 0.12884 0.12886 0.12889 0.12899 0.12915 0.12944 0.12981 0.13014 0.13055 0.1309
0 0 0 0 0 0 0 0 0 0 0 0 0 0 0 0 0 0 0 0.12877 0.1292 0.12953 0.13408 0.13866 0.13824 0.14149 0.14654 0.1541 0.15007 0.14574 0.14294 0.13992 0.13601 0.13374 0.13406 0.13353 0.13261 0.13224 0.13202 0.13147 0.13085 0.13007 0.12952 0.12908 0.1286 0.12869 0.12907 0.12922 0.1297 0.12989 0.13002 0.13041 0.13075 0.13102 0.13142 0.13171 0.13211 0.13248 0.13271 0.13284 0.13295 0.13306 0.1332 0.1334 0.13338 0.13332 0.13329 0.13308 0.13289 0.13272 0.13247 0.13219 0.1321 0.13168 0.13122 0.13083 0.13051 0.13019 0.12991 0.1297 0.12967 0.12968 0.12974 0.12976 0.12984 0.12985 0.13 0.13017 0.1302 0.13043 0.13068 0.13064 0.13065 0.13074 0.13031 0.12982 0.12974 0.12945 0.12914 0.12889 0.12878 0.12882 0.12886 0.12897 0.12917 0.12954 0.13003 0.13062 0.13098
0 0 0 0 0 0 0 0 0 0 0 0 0 0 0 0 0 0 0.12362 0.12705 0.12726 0.12322 0.13066 0.13451 0.13888 0.14288 0.1485 0.15523 0.14994 0.14521 0.14121 0.1378 0.13443 0.13253 0.13235 0.13148 0.13113 0.13078 0.13032 0.13017 0.12973 0.12939 0.12896 0.12856 0.12816 0.12817 0.12846 0.12889 0.12913 0.12929 0.12947 0.12975 0.1301 0.13037 0.13083 0.13119 0.13171 0.13219 0.13245 0.13256 0.13284 0.13302 0.13329 0.13348 0.13341 0.1333 0.13327 0.1331 0.13287 0.13266 0.13239 0.13216 0.13205 0.13154 0.13118 0.13085 0.13059 0.13026 0.12995 0.1298 0.12969 0.12979 0.12984 0.12995 0.12991 0.12989 0.13014 0.13019 0.13025 0.13044 0.13069 0.13065 0.13074 0.1309 0.13033 0.13011 0.12989 0.12953 0.12902 0.12883 0.12878 0.12884 0.12872 0.12883 0.12894 0.12926 0.12982 0.13042 0.13092
0 0 0 0 0 0 0 0 0 0 0 0 0 0 0 0 0 0.11698 0.1202 0.12512 0.1299 0.12659 0.13222 0.13836 0.14459 0.14742 0.14994 0.15142 0.14694 0.14283 0.13939 0.13662 0.13333 0.13158 0.13085 0.13037 0.13025 0.13006 0.12984 0.12962 0.12941 0.12901 0.12875 0.1285 0.1282 0.12823 0.1285 0.12869 0.12887 0.12906 0.12934 0.12973 0.12993 0.13 0.13018 0.13064 0.131 0.13132 0.13155 0.1321 0.13242 0.1326 0.13287 0.13307 0.1331 0.13334 0.13343 0.13316 0.13299 0.13271 0.13236 0.13218 0.13207 0.13165 0.13135 0.13108 0.13088 0.13057 0.13033 0.13011 0.13006 0.13001 0.13005 0.13007 0.1301 0.13007 0.1302 0.13019 0.13045 0.13049 0.13073 0.13067 0.13053 0.13065 0.13022 0.12989 0.12962 0.12926 0.12877 0.12867 0.12854 0.1286 0.1285 0.12866 0.12881 0.12915 0.12969 0.1301 0.13073
0 0 0 0 0 0 0 0 0 0 0 0 0 0 0 0 0.10965 0.1095 0.11004 0.11728 0.12503 0.12316 0.13296 0.13923 0.14557 0.14637 0.14758 0.14736 0.14383 0.14073 0.13773 0.13524 0.13243 0.13048 0.13018 0.12986 0.12962 0.12939 0.12954 0.12928 0.12897 0.12877 0.12863 0.12824 0.12809 0.12827 0.12868 0.12898 0.1291 0.12918 0.12924 0.12945 0.12953 0.12964 0.12975 0.13017 0.13049 0.13091 0.13132 0.13168 0.13207 0.1323 0.13257 0.13284 0.13305 0.13332 0.13347 0.13333 0.13317 0.13297 0.13264 0.13249 0.13224 0.13184 0.13155 0.13125 0.13101 0.1307 0.13048 0.13024 0.13035 0.13038 0.13027 0.13031 0.13037 0.13031 0.13029 0.13052 0.1306 0.13062 0.13074 0.13049 0.13054 0.13064 0.13002 0.12975 0.12936 0.129 0.12865 0.12842 0.12831 0.12828 0.12831 0.12845 0.12862 0.12901 0.12948 0.12994 0.13036
0 0 0 0 0 0 0 0 0 0 0 0 0 0 0 0.1108 0.10806 0.10292 0.09819 0.1059 0.1137 0.12058 0.13361 0.1401 0.14681 0.14603 0.14526 0.14376 0.14053 0.13846 0.1361 0.13371 0.13154 0.12948 0.12971 0.12952 0.12922 0.1291 0.12916 0.12892 0.1287 0.12856 0.12847 0.12825 0.12807 0.12827 0.12874 0.12901 0.12925 0.12918 0.12921 0.12936 0.12931 0.12927 0.1294 0.12973 0.13017 0.13056 0.13048 0.13101 0.13192 0.13136 0.13194 0.1326 0.1329 0.13336 0.13367 0.13353 0.13345 0.13338 0.13317 0.13275 0.13261 0.13211 0.13178 0.13141 0.13117 0.1311 0.13105 0.13088 0.13079 0.13069 0.13061 0.13056 0.13043 0.13048 0.13064 0.13078 0.13066 0.13057 0.1307 0.13056 0.13056 0.13035 0.12991 0.12955 0.12905 0.12856 0.1283 0.12809 0.12805 0.12806 0.12812 0.12835 0.12849 0.1289 0.1293 0.12968 0.13005
0 0 0 0 0 0 0 0 0 0 0 0 0 0 0.10871 0.10975 0.10939 0.10853 0.10353 0.11091 0.11782 0.12488 0.13484 0.13914 0.14312 0.14273 0.14218 0.14126 0.13865 0.13653 0.13458 0.13251 0.13048 0.12881 0.12891 0.12873 0.12845 0.12841 0.12827 0.12816 0.12799 0.12785 0.12772 0.12778 0.12767 0.12785 0.12843 0.12889 0.12917 0.1293 0.12959 0.12987 0.12967 0.12939 0.12928 0.1286 0.12793 0.12736 0.12901 0.12961 0.13027 0.13 0.12992 0.12739 0.1296 0.13192 0.13417 0.13384 0.13349 0.13318 0.13291 0.13256 0.13238 0.13186 0.13155 0.13126 0.13125 0.13124 0.13121 0.13102 0.13074 0.13059 0.13048 0.13039 0.13035 0.13041 0.13053 0.13078 0.13059 0.13058 0.13065 0.13056 0.13045 0.13024 0.12973 0.12921 0.12875 0.12832 0.12807 0.12796 0.12785 0.1278 0.12776 0.12813 0.12847 0.12885 0.1293 0.12972 0.13022
0 0 0 0 0 0 0 0 0 0 0 0 0 0.10825 0.10818 0.10612 0.10994 0.11491 0.1106 0.1179 0.12497 0.13171 0.13619 0.13798 0.13923 0.13959 0.13918 0.13868 0.13661 0.1348 0.13304 0.13135 0.12941 0.12794 0.12798 0.1279 0.1279 0.12769 0.12758 0.1275 0.12743 0.12736 0.12712 0.12711 0.12708 0.12714 0.1278 0.12845 0.12907 0.12946 0.12986 0.13038 0.13004 0.12968 0.12934 0.12764 0.12601 0.12436 0 0 0 0.13007 0.12738 0.12221 0.12631 0.13062 0.13484 0.13424 0.13373 0.13321 0.13279 0.13241 0.13222 0.13172 0.13146 0.13122 0.13121 0.13122 0.13118 0.13094 0.13079 0.13065 0.13052 0.13039 0.13043 0.13044 0.13047 0.13067 0.13062 0.13061 0.13085 0.1306 0.13022 0.13006 0.12963 0.12907 0.12856 0.12818 0.12794 0.12784 0.12772 0.12759 0.12754 0.12796 0.12845 0.12876 0.12936 0.12993 0.1304
0 0 0 0 0 0 0 0 0 0 0 0 0 0.11175 0.10481 0.09871 0.10442 0.11129 0.11833 0.12507 0.13185 0.13918 0.13826 0.13731 0.13621 0.13664 0.13642 0.1362 0.13474 0.13307 0.13203 0.13048 0.12875 0.12738 0.12723 0.12748 0.12737 0.12727 0.12717 0.12709 0.12711 0.12722 0.12687 0.12623 0.12624 0.12663 0.12701 0.12831 0.1288 0.12846 0.12905 0.1307 0.12872 0.12777 0.12945 0.12668 0.12403 0.12132 0 0 0 0 0 0.12426 0.12306 0.12934 0.13549 0.13461 0.13377 0.13314 0.13271 0.13239 0.13215 0.1317 0.13134 0.13122 0.13118 0.13117 0.13109 0.13091 0.13083 0.13062 0.13053 0.13046 0.13032 0.13036 0.13037 0.13057 0.13054 0.13069 0.13093 0.13053 0.12998 0.12967 0.12933 0.12881 0.12831 0.12806 0.12792 0.1278 0.12753 0.12743 0.12735 0.12788 0.12832 0.12878 0.1295 0.13023 0.13087
0 0 0 0 0 0 0 0 0 0 0 0 0.11752 0.11678 0.11426 0.11216 0.1156 0.12018 0.12466 0.12884 0.13313 0.13738 0.13664 0.13585 0.13489 0.1352 0.13487 0.13479 0.13364 0.13231 0.13125 0.12987 0.12836 0.12733 0.12728 0.12738 0.12746 0.12722 0.12699 0.12701 0.12512 0.12336 0.12123 0.12466 0.12525 0.1261 0.12676 0 0 0.12877 0 0.12736 0.1255 0.12388 0.11699 0.11924 0.12153 0.12387 0.12307 0.12465 0.12582 0 0 0 0.12545 0.13001 0.13453 0.13371 0.13281 0.13208 0.13171 0.13147 0.13119 0.1309 0.13055 0.13037 0.13045 0.13051 0.13053 0.13057 0.13048 0.13033 0.13025 0.13015 0.13016 0.13016 0.13036 0.13029 0.13041 0.13053 0.13078 0.1303 0.12971 0.12934 0.12906 0.12858 0.12804 0.12802 0.12798 0.12772 0.12754 0.12742 0.1273 0.12764 0.12812 0.12842 0.12912 0.12987 0.13057
0 0 0 0 0 0 0 0 0 0 0 0.11635 0.1156 0.1193 0.12595 0.12467 0.12644 0.12879 0.13091 0.13274 0.13425 0.13573 0.13503 0.13449 0.13383 0.1338 0.13352 0.13344 0.13243 0.13148 0.13041 0.12941 0.12819 0.12739 0.12748 0.12755 0.12753 0.12706 0.12692 0.12677 0.12311 0.11942 0.11556 0.11921 0.12211 0 0 0 0 0 0.12484 0.12232 0.11821 0.11225 0.10471 0.11191 0.11919 0.12651 0.12477 0.12505 0.12571 0.1267 0.1271 0.12496 0.12789 0.1307 0.1337 0.13281 0.13197 0.1312 0.13097 0.13068 0.13051 0.1302 0.12989 0.1298 0.12983 0.12992 0.13004 0.13016 0.13016 0.13013 0.13002 0.12994 0.1299 0.1299 0.13006 0.13001 0.13016 0.13026 0.13048 0.13016 0.12967 0.12933 0.12889 0.12841 0.12812 0.128 0.12785 0.1278 0.12754 0.12741 0.12722 0.12749 0.12777 0.12808 0.12868 0.12957 0.13034
0 0 0 0 0 0 0 0 0 0 0.11969 0.11389 0.10856 0.11783 0.12729 0.13599 0.13729 0.13744 0.13736 0.13655 0.13533 0.13416 0.13373 0.13298 0.13256 0.13239 0.13233 0.13215 0.13142 0.13063 0.12979 0.12892 0.12808 0.12744 0.1276 0.12765 0.12742 0.12702 0.12653 0.12659 0.12415 0.11605 0.11012 0 0 0 0 0 0 0 0 0 0 0 0.09242 0.10465 0.11712 0.12958 0.12874 0.12803 0.12745 0.12791 0.12855 0.12927 0.1304 0.13165 0.13298 0.13201 0.13129 0.13043 0.13019 0.13005 0.12991 0.12969 0.12945 0.12933 0.12933 0.12947 0.12965 0.12971 0.1298 0.12982 0.12978 0.12965 0.12974 0.12977 0.12978 0.12997 0.12994 0.12996 0.13006 0.1299 0.12959 0.12922 0.12874 0.1284 0.12809 0.12803 0.12787 0.12777 0.12752 0.1273 0.12708 0.12736 0.12754 0.12772 0.12838 0.12926 0.13017
0 0 0 0 0 0 0 0 0 0 0.12472 0.12113 0.11907 0.12401 0.1292 0.13452 0.13546 0.13531 0.13515 0.13407 0.13299 0.13225 0.13183 0.13146 0.131 0.13097 0.13103 0.13103 0.13043 0.12983 0.12909 0.12847 0.12801 0.12755 0.12759 0.1276 0.12746 0.12702 0.12636 0.12613 0.12357 0 0 0 0 0 0 0 0 0 0 0 0 0 0.1049 0.11281 0.12073 0.12866 0.12802 0.12751 0.12716 0.12762 0.12819 0.12879 0.12973 0.13065 0.13171 0.13098 0.13043 0.1299 0.12961 0.12942 0.12917 0.12907 0.12883 0.12884 0.12885 0.12892 0.12914 0.12935 0.12942 0.1295 0.12924 0.12916 0.12936 0.12926 0.12916 0.12919 0.12917 0.12924 0.12927 0.12901 0.12894 0.12873 0.12849 0.12827 0.12799 0.12797 0.12775 0.1276 0.12742 0.12722 0.12702 0.12726 0.12736 0.12757 0.12808 0.12881 0.12963
0 0 0 0 0 0 0 0 0 0.12958 0.13096 0.13341 0.1297 0.13097 0.13215 0.13383 0.13362 0.13317 0.13272 0.13192 0.13107 0.13014 0.13002 0.12978 0.12959 0.12965 0.12981 0.12987 0.12939 0.12907 0.12841 0.12808 0.12782 0.12754 0.12755 0.12757 0.12754 0.12697 0.12625 0.12565 0.12512 0 0 0 0 0 0 0 0 0 0 0 0 0.12072 0.11742 0.12084 0.12422 0.12766 0.1273 0.12706 0.12693 0.12742 0.12788 0.12838 0.12915 0.12995 0.13076 0.13026 0.12977 0.12936 0.1291 0.12888 0.12865 0.12859 0.12851 0.12839 0.12845 0.1286 0.1288 0.12895 0.12893 0.12901 0.12898 0.12897 0.12894 0.12876 0.12863 0.12868 0.12864 0.12856 0.12848 0.12846 0.12841 0.12832 0.1282 0.12797 0.12779 0.12771 0.12752 0.12734 0.12724 0.12711 0.12688 0.1271 0.12735 0.12732 0.12775 0.12824 0.12892
0 0 0 0 0 0 0 0 0.1294 0.13152 0.13485 0.138 0.14034 0.13815 0.13576 0.13337 0.1329 0.13241 0.13189 0.13142 0.13092 0.13039 0.13027 0.13007 0.13004 0.12998 0.1301 0.13005 0.12958 0.12914 0.12858 0.12821 0.1279 0.12772 0.12769 0.12773 0.12767 0.12692 0.1261 0.12517 0.12523 0.12495 0 0.12294 0.12246 0 0 0 0 0 0 0 0.12389 0.12727 0.13012 0.12894 0.12784 0.12675 0.12673 0.12674 0.12678 0.1271 0.12739 0.12798 0.12848 0.12908 0.12975 0.12939 0.1291 0.12901 0.12868 0.12834 0.12814 0.12797 0.12804 0.12801 0.12816 0.12833 0.12853 0.12866 0.12864 0.12865 0.12878 0.12876 0.12871 0.12842 0.12836 0.1283 0.12832 0.12822 0.12806 0.12815 0.12818 0.12808 0.12806 0.12782 0.12771 0.12755 0.12741 0.12736 0.12725 0.12703 0.12691 0.12706 0.12714 0.12723 0.12752 0.12779 0.12815
0 0 0 0 0 0 0 0 0.13049 0.13197 0.13384 0.13542 0.1394 0.13708 0.13475 0.13256 0.13206 0.13155 0.13115 0.13083 0.13049 0.13018 0.13004 0.12996 0.1299 0.12989 0.12982 0.12979 0.12947 0.12915 0.12876 0.12839 0.12809 0.12791 0.12792 0.12791 0.1279 0.1273 0.12676 0.1261 0.12606 0.12615 0.12523 0.12471 0.12413 0 0 0 0 0 0 0.12291 0.12442 0.12596 0.12902 0.12822 0.12741 0.12659 0.12657 0.12647 0.12648 0.12668 0.12686 0.12715 0.12763 0.12815 0.12867 0.12837 0.12823 0.12814 0.1279 0.12774 0.12771 0.12761 0.1277 0.12788 0.12794 0.12799 0.12819 0.12808 0.12811 0.12819 0.12819 0.12828 0.12834 0.1281 0.1281 0.12805 0.12799 0.12794 0.12796 0.12801 0.12778 0.12788 0.12781 0.12769 0.12759 0.12758 0.12742 0.12732 0.12722 0.12701 0.12707 0.12715 0.12718 0.12734 0.12748 0.12761 0.12798
0 0 0 0 0 0 0 0 0 0.13016 0.13245 0.13378 0.13812 0.13603 0.13388 0.13167 0.13118 0.13073 0.13048 0.13027 0.13021 0.1301 0.13002 0.12992 0.12995 0.12973 0.12977 0.12974 0.12945 0.12923 0.12898 0.12871 0.12844 0.12828 0.12823 0.12826 0.12825 0.12786 0.12748 0.12712 0.12758 0.12737 0.127 0.12657 0.12616 0.1258 0.12279 0.11659 0 0 0.12251 0.1254 0.1251 0.12557 0.12796 0.12744 0.12693 0.12645 0.12635 0.12632 0.12628 0.12648 0.1266 0.12679 0.12705 0.12734 0.12767 0.12764 0.12746 0.12748 0.12736 0.12731 0.12733 0.12746 0.12753 0.12765 0.12769 0.12774 0.12766 0.12766 0.1276 0.12773 0.12785 0.12791 0.12805 0.12795 0.1279 0.1278 0.12765 0.12756 0.12753 0.12748 0.12748 0.12762 0.12756 0.12748 0.12739 0.12748 0.12747 0.12736 0.12713 0.12701 0.127 0.12708 0.12709 0.12714 0.12732 0.12757 0.12784
0 0 0 0 0 0 0 0 0 0.1276 0.13036 0.134 0.13699 0.13486 0.13278 0.13064 0.13031 0.13007 0.12974 0.12984 0.1299 0.13006 0.12993 0.12982 0.12977 0.1297 0.12975 0.12974 0.1296 0.12943 0.12917 0.12899 0.12873 0.12857 0.12854 0.12857 0.12857 0.12839 0.12822 0.1281 0.12823 0.12828 0.12838 0.12867 0.12897 0.1292 0.1207 0.11228 0.10391 0.11181 0.11972 0.12773 0.12743 0.12706 0.12675 0.12658 0.12653 0.12642 0.12622 0.12613 0.12602 0.12614 0.12624 0.12637 0.12648 0.12667 0.12686 0.1269 0.12687 0.12694 0.12687 0.12693 0.127 0.12725 0.12721 0.12742 0.12748 0.12749 0.12749 0.12738 0.12737 0.12733 0.12748 0.12764 0.12774 0.12756 0.12754 0.12745 0.12725 0.12714 0.12709 0.12713 0.12721 0.12732 0.12738 0.12733 0.12729 0.12727 0.12731 0.12726 0.12723 0.12711 0.12701 0.12713 0.12717 0.12709 0.12721 0.12752 0.12775
0 0 0 0 0 0 0 0 0 0.12317 0.12395 0.12571 0.1182 0.12239 0.12652 0.13058 0.13026 0.12995 0.12971 0.12989 0.12994 0.13014 0.13012 0.13004 0.13009 0.13009 0.13013 0.13017 0.13031 0.13032 0.13017 0.13021 0.13027 0.13036 0.1298 0.12931 0.12878 0.12862 0.12839 0.12821 0.12816 0.12802 0.12793 0.12808 0.12826 0.12847 0.12283 0 0.11153 0.11689 0.12229 0.12771 0.12736 0.12696 0.12667 0.12637 0.12632 0.12622 0.12609 0.1261 0.126 0.12612 0.1263 0.12637 0.12644 0.12653 0.12668 0.12664 0.1266 0.12662 0.12665 0.12664 0.12672 0.12683 0.12692 0.12697 0.12701 0.127 0.12705 0.12699 0.12695 0.12689 0.12705 0.1272 0.12719 0.12724 0.12724 0.12725 0.12719 0.12716 0.1272 0.12732 0.12736 0.12751 0.12746 0.12743 0.12742 0.12735 0.12741 0.12726 0.12728 0.12728 0.12719 0.12706 0.1269 0.12683 0.12702 0.12728 0.12765
0 0 0 0 0 0 0 0 0 0 0.11271 0.10644 0.09973 0.10985 0.12016 0.13056 0.13029 0.1299 0.12983 0.12995 0.13001 0.1301 0.13013 0.13017 0.1303 0.1303 0.13042 0.13053 0 0 0 0.13112 0.13179 0.13214 0.13108 0.13 0.12894 0.12865 0.12839 0.1281 0.12789 0.12768 0.12748 0.12754 0.12756 0.12763 0.12491 0.12207 0.11926 0.12201 0.12476 0.12745 0.12718 0.12689 0.12665 0.12646 0.12633 0.12627 0.12627 0.12616 0.12604 0.12612 0.1263 0.12649 0.12654 0.12665 0.1267 0.12659 0.12648 0.1265 0.1265 0.12647 0.12657 0.12654 0.12659 0.12666 0.1267 0.12665 0.12675 0.12668 0.12671 0.12674 0.12671 0.12677 0.12689 0.12694 0.12702 0.12714 0.12735 0.12737 0.1274 0.12751 0.12758 0.12764 0.12764 0.12757 0.12755 0.12747 0.12741 0.12734 0.12736 0.12732 0.12721 0.12701 0.12674 0.12661 0.12684 0.1272 0.12757
0 0 0 0 0 0 0 0 0 0 0 0.09185 0.08115 0.09765 0.1229 0.13091 0.12858 0.12895 0.12999 0.13004 0.13011 0.13019 0.13016 0.13033 0.13051 0.13053 0.1307 0.13086 0 0 0 0.1317 0.13315 0.1338 0.13219 0.13062 0.12895 0.12864 0.12836 0.12804 0.12765 0.12728 0.12696 0.12688 0.12685 0.1269 0.12692 0.12694 0.12694 0.12709 0.12723 0.12734 0.12701 0.12675 0.12657 0.12646 0.12637 0.12638 0.12619 0.12616 0.12616 0.12625 0.12641 0.12661 0.1266 0.12665 0.12669 0.12659 0.12643 0.12644 0.12642 0.12644 0.12642 0.12642 0.12645 0.1264 0.12638 0.12642 0.12646 0.12636 0.12635 0.12639 0.12644 0.12653 0.12659 0.12672 0.12698 0.12726 0.12739 0.12748 0.12771 0.12767 0.1277 0.12764 0.12766 0.12763 0.12759 0.12754 0.12737 0.12737 0.12737 0.12743 0.12722 0.127 0.12678 0.12651 0.12673 0.12712 0.12747
0 0 0 0 0 0 0 0 0 0 0 0 0.09598 0.10537 0.11887 0.12576 0.12673 0.12803 0.12975 0.12986 0.13007 0.13022 0.13035 0.13056 0.13079 0.12744 0.12422 0 0 0.12525 0.13074 0.13117 0.13165 0.13216 0.13108 0.12993 0.12883 0.1285 0.12822 0.12785 0.12748 0.12713 0.12681 0.12679 0.12677 0.12678 0.12681 0.12686 0.12686 0.12699 0.12709 0.12716 0.12698 0.12678 0.12658 0.1265 0.12636 0.12624 0.12628 0.12619 0.12624 0.12632 0.12643 0.12659 0.12652 0.12647 0.12655 0.12644 0.12636 0.12624 0.12629 0.12625 0.12621 0.12612 0.12612 0.12618 0.12609 0.12611 0.12618 0.12614 0.12619 0.12626 0.12629 0.12644 0.12657 0.12673 0.12692 0.1271 0.12725 0.12737 0.12761 0.12769 0.12771 0.12769 0.1277 0.12767 0.12765 0.12759 0.12754 0.12754 0.12741 0.12735 0.12719 0.12696 0.12667 0.1264 0.12663 0.12695 0.12712
0 0 0 0 0 0 0 0 0 0 0 0 0 0 0 0.12185 0.12475 0.12733 0.12957 0.12976 0.13001 0.13025 0.1305 0.13082 0.13113 0.12443 0.11789 0.11125 0.11734 0.12338 0.12951 0.1298 0.13018 0.13063 0.12998 0.12929 0.12876 0.1284 0.12804 0.12774 0.12748 0.12708 0.12679 0.12676 0.12671 0.12671 0.12677 0.12682 0.12685 0.12693 0.12709 0.12707 0.12696 0.12685 0.12671 0.12665 0.12653 0.12636 0.12639 0.12631 0.12637 0.1264 0.12645 0.12652 0.1265 0.12647 0.12645 0.12635 0.12625 0.12618 0.12615 0.12613 0.12609 0.12591 0.12597 0.12606 0.12605 0.12601 0.12594 0.12601 0.12609 0.12622 0.12626 0.12637 0.12654 0.12669 0.12682 0.12692 0.12708 0.12728 0.12752 0.12768 0.12766 0.12774 0.1278 0.12783 0.12789 0.12777 0.12776 0.12766 0.12745 0.12736 0.12714 0.12699 0.12673 0.12644 0.12661 0.12676 0.12688
0 0 0 0 0 0 0 0 0 0 0 0 0 0 0 0.12122 0.12442 0.12766 0.12936 0.12963 0.12992 0.13029 0.13067 0.13106 0.13145 0.12141 0.11149 0.10143 0.11037 0 0.12812 0.12837 0.12875 0.12915 0.12898 0.12877 0.12868 0.12829 0.12796 0.12759 0.12735 0.12704 0.12678 0.12677 0.12671 0.12666 0.12671 0.12681 0.12687 0.12689 0.12699 0.12707 0.12711 0.12704 0.12694 0.12682 0.12662 0.12642 0.12648 0.12648 0.12655 0.12654 0.12651 0.12666 0.12663 0.12652 0.12636 0.12618 0.1261 0.12607 0.12599 0.12591 0.12586 0.12576 0.12572 0.12576 0.12577 0.12572 0.1257 0.12583 0.12598 0.12612 0.12615 0.12637 0.12652 0.12649 0.12662 0.1268 0.12696 0.12721 0.12745 0.12757 0.12766 0.12785 0.1279 0.12801 0.12803 0.12796 0.12782 0.12778 0.12771 0.12746 0.1273 0.12697 0.12668 0.12637 0.1265 0.12665 0.12669
0 0 0 0 0 0 0 0 0 0 0 0 0 0.11491 0.11717 0.1195 0.12261 0.12694 0.12936 0.12982 0.13015 0.13059 0.13093 0.13123 0.13141 0.12467 0.11811 0.11132 0.11725 0.12369 0.12907 0.12905 0.12913 0.12909 0.12891 0.12869 0.12852 0.12819 0.12785 0.12756 0.12731 0.12712 0.12698 0.12697 0.12692 0.12694 0.12693 0.12698 0.12704 0.12708 0.12712 0.12721 0.12714 0.12705 0.12694 0.12683 0.12671 0.12655 0.12646 0.12635 0.12636 0.12635 0.12634 0.12648 0.12641 0.12636 0.12628 0.12613 0.12606 0.12599 0.12601 0.12598 0.12598 0.12586 0.12591 0.12597 0.12592 0.12583 0.1258 0.12585 0.12592 0.12604 0.12618 0.12633 0.12646 0.12658 0.12666 0.12678 0.12699 0.12718 0.1274 0.12759 0.12773 0.12784 0.12796 0.128 0.12817 0.12802 0.12786 0.12775 0.12763 0.12755 0.12743 0.12722 0.12694 0.12671 0.12677 0.12677 0.12676
0 0 0 0 0 0 0 0 0 0 0 0 0.11102 0.11294 0.11517 0.11708 0.12071 0.12539 0.12932 0.12977 0.13031 0.1307 0.13086 0.13109 0.13128 0.12795 0.12459 0.12114 0.12409 0.12704 0.1299 0.12963 0.12924 0.12894 0.12878 0.12862 0.12841 0.12809 0.12773 0.12751 0.12738 0.12729 0.12725 0.12722 0.12715 0.12709 0.12706 0.12713 0.12718 0.1272 0.12718 0.1272 0.12717 0.12707 0.12699 0.12693 0.1268 0.12668 0.12658 0.12646 0.12636 0.12631 0.12629 0.12637 0.12628 0.12626 0.12623 0.12614 0.12608 0.12608 0.12604 0.12606 0.12614 0.12607 0.12605 0.12603 0.12598 0.12591 0.12593 0.12597 0.12599 0.12613 0.12622 0.12639 0.12647 0.12659 0.12675 0.12689 0.12704 0.12725 0.12748 0.12758 0.12767 0.12772 0.12783 0.12792 0.12795 0.12793 0.12785 0.12776 0.12765 0.12753 0.12739 0.1272 0.12699 0.12684 0.1268 0.12669 0.12656
0 0 0 0 0 0 0 0 0.11833 0.11714 0.11474 0.1104 0.10652 0.10815 0.1097 0.11131 0.11734 0.12326 0.12918 0.1298 0.1304 0.13091 0.131 0.13108 0.13119 0.13116 0.13102 0.1309 0.13084 0.13086 0.1308 0.13017 0.12948 0.12884 0.12869 0.12857 0.12832 0.12797 0.12765 0.12745 0.1274 0.12736 0.12733 0.12731 0.12738 0.12743 0.12737 0.12732 0.12729 0.12735 0.12728 0.12722 0.12714 0.12712 0.12708 0.12702 0.12698 0.12672 0.12668 0.12649 0.12648 0.12642 0.12631 0.12623 0.12615 0.12616 0.12617 0.1261 0.12611 0.12617 0.12617 0.12617 0.12627 0.12621 0.12612 0.12607 0.12605 0.12591 0.12587 0.12592 0.126 0.12608 0.12621 0.12627 0.12643 0.12667 0.12677 0.12699 0.12717 0.12731 0.12748 0.12758 0.12767 0.12775 0.12783 0.12788 0.12794 0.12795 0.1278 0.12769 0.12767 0.12753 0.12733 0.12727 0.12714 0.12688 0.1268 0.12657 0.12634
0 0 0 0 0 0 0 0.12082 0.12028 0.12108 0.11976 0.11755 0.11528 0.11608 0.1169 0.11774 0.12179 0.12588 0.12981 0.13008 0.13036 0.13079 0.13075 0.13078 0.13073 0.13061 0.13053 0.13044 0.13033 0.13031 0.13031 0.12978 0.12923 0.12878 0.12865 0.12853 0.12832 0.12804 0.12772 0.12757 0.12751 0.12747 0.12739 0.12741 0.12747 0.12749 0.12747 0.12738 0.12737 0.12739 0.12734 0.12725 0.12714 0.12699 0.12696 0.12686 0.12682 0.12678 0.12664 0.12652 0.12647 0.12636 0.12625 0.12613 0.1261 0.12613 0.12611 0.12605 0.12607 0.12609 0.12614 0.12623 0.12627 0.12621 0.12612 0.12602 0.12598 0.12593 0.12587 0.12586 0.12591 0.12596 0.12608 0.12615 0.1262 0.12638 0.12667 0.12685 0.12701 0.12722 0.12744 0.12757 0.12767 0.12775 0.12784 0.128 0.12806 0.12797 0.12787 0.12778 0.12762 0.12759 0.12739 0.12728 0.12716 0.12694 0.12677 0.12665 0.1265
0 0 0 0 0 0 0.12256 0.12263 0.12205 0.12178 0.12298 0.12511 0.12372 0.12387 0.12398 0.12408 0.12623 0.12833 0.13033 0.13041 0.13051 0.13069 0.13055 0.13038 0.1302 0.13005 0.12997 0.12988 0.12982 0.12974 0.12967 0.12937 0.12907 0.12883 0.12869 0.12852 0.12841 0.12818 0.12796 0.12776 0.12768 0.12756 0.12757 0.12764 0.12769 0.12764 0.12767 0.12759 0.12753 0.12748 0.12741 0.1273 0.12713 0.12716 0.12706 0.12694 0.12674 0.12659 0.12656 0.12655 0.12638 0.12629 0.12615 0.12604 0.12605 0.12605 0.12603 0.12602 0.12606 0.12611 0.12615 0.12625 0.12633 0.12625 0.12616 0.12609 0.12603 0.12598 0.12585 0.12577 0.12582 0.12584 0.12594 0.12595 0.12596 0.12615 0.12641 0.12661 0.12682 0.12704 0.12729 0.12745 0.1276 0.12778 0.12787 0.12792 0.12803 0.12799 0.12788 0.12776 0.12768 0.12754 0.1274 0.12729 0.12715 0.12695 0.12681 0.12661 0.1264
0 0 0 0 0 0 0.12255 0.12251 0.12167 0.1201 0.12423 0.1282 0.13212 0.13157 0.13099 0.1304 0.13058 0.13062 0.13078 0.13068 0.1306 0.1305 0.1302 0.12998 0.12965 0.12949 0.12939 0.12927 0.12925 0.12911 0.12903 0.12898 0.12887 0.12875 0.12865 0.12852 0.12841 0.12829 0.12813 0.128 0.12793 0.12783 0.1279 0.12793 0.12797 0.12788 0.12781 0.1279 0.12789 0.12768 0.1275 0.12736 0.12722 0.12711 0.12709 0.12704 0.1268 0.12674 0.12665 0.12647 0.12633 0.12618 0.12613 0.12612 0.12607 0.12605 0.12612 0.12606 0.12611 0.12621 0.12627 0.12632 0.12635 0.12624 0.12614 0.12605 0.12604 0.12598 0.12586 0.12577 0.12577 0.12578 0.12578 0.12579 0.12582 0.12607 0.12627 0.12641 0.12661 0.12682 0.12718 0.12741 0.12757 0.12772 0.12779 0.12792 0.12804 0.12802 0.12799 0.12777 0.1276 0.12752 0.12739 0.1273 0.12719 0.12703 0.12682 0.12662 0.12644
0 0 0 0 0 0.12158 0.12223 0.12331 0.12456 0.12466 0.12744 0.13001 0.13264 0.13224 0.1318 0.13121 0.13114 0.13102 0.13089 0.1307 0.13051 0.13032 0.13008 0.12987 0.12962 0.12946 0.12939 0.12933 0.12924 0.12916 0.12906 0.129 0.12891 0.1288 0.12866 0.12852 0.12843 0.12834 0.12815 0.12804 0.12792 0.12782 0.12784 0.12785 0.12781 0.12775 0.12779 0.12785 0.12783 0.12776 0.12761 0.12746 0.12735 0.12724 0.12725 0.12716 0.12704 0.12699 0.12691 0.1267 0.12647 0.12635 0.12625 0.1262 0.12617 0.12616 0.12617 0.12617 0.12632 0.12644 0.1265 0.12655 0.12655 0.12643 0.12632 0.12632 0.12624 0.12613 0.12606 0.12597 0.12588 0.12586 0.12583 0.12594 0.12594 0.12608 0.1263 0.12641 0.12657 0.12681 0.12705 0.12718 0.12733 0.12747 0.12757 0.12771 0.12782 0.12783 0.12781 0.12775 0.12759 0.12743 0.12729 0.12723 0.12718 0.12707 0.12695 0.1268 0.12667
0 0 0 0 0.12067 0.12093 0.12058 0.12289 0.12743 0.1292 0.13061 0.13174 0.13303 0.13272 0.13237 0.13197 0.1317 0.13131 0.131 0.13074 0.13044 0.13015 0.12996 0.12974 0.12956 0.12949 0.12934 0.12926 0.12923 0.12914 0.12906 0.12897 0.12884 0.12873 0.12869 0.12858 0.12851 0.12839 0.12825 0.12814 0.12803 0.12794 0.12788 0.12783 0.12777 0.12775 0.12779 0.1278 0.1277 0.12773 0.12772 0.12764 0.12753 0.12745 0.12739 0.1273 0.12719 0.12707 0.12693 0.12685 0.12669 0.12651 0.1264 0.12632 0.12631 0.12641 0.1264 0.12641 0.12648 0.12663 0.12676 0.12682 0.12687 0.12674 0.12671 0.12668 0.12657 0.12646 0.12641 0.12628 0.12616 0.12602 0.12599 0.12608 0.12611 0.12613 0.12633 0.12632 0.12645 0.1267 0.12692 0.12711 0.1272 0.12731 0.12745 0.12756 0.12771 0.12772 0.12768 0.12772 0.1276 0.12752 0.12737 0.12734 0.12725 0.12718 0.12711 0.12701 0.12695
0 0 0 0 0.12022 0.11996 0.11828 0.12326 0.12817 0.13342 0.13356 0.13347 0.13328 0.13308 0.13284 0.13259 0.13212 0.13154 0.13106 0.1307 0.13035 0.13001 0.12989 0.12966 0.1295 0.12946 0.1294 0.12931 0.12922 0.12914 0.12906 0.12898 0.12886 0.12877 0.12873 0.12864 0.12857 0.12846 0.12838 0.12829 0.12815 0.12805 0.12793 0.12786 0.12782 0.12775 0.12782 0.12778 0.12773 0.12771 0.12769 0.12769 0.12766 0.12759 0.12747 0.12741 0.12728 0.12722 0.12714 0.12697 0.12683 0.12673 0.12667 0.12659 0.12658 0.12666 0.1268 0.12676 0.12683 0.12699 0.12707 0.1271 0.12723 0.12719 0.12721 0.12715 0.12696 0.12683 0.12673 0.12647 0.12638 0.12608 0.12613 0.1261 0.12607 0.12614 0.12624 0.12626 0.1264 0.1266 0.12679 0.12696 0.12702 0.12713 0.1273 0.12741 0.12756 0.12762 0.12761 0.12754 0.12754 0.12741 0.12735 0.12732 0.12726 0.12723 0.12721 0.12721 0.12717
0 0 0 0.11378 0.11853 0.12102 0.12259 0.12578 0.12917 0.13265 0.13285 0.13284 0.13272 0.13253 0.1323 0.13205 0.13162 0.13126 0.13088 0.1306 0.13037 0.13014 0.12994 0.12974 0.12955 0.12948 0.12935 0.12924 0.12919 0.12912 0.12901 0.12895 0.12886 0.12877 0.12865 0.12857 0.12853 0.12847 0.12835 0.12832 0.12829 0.12817 0.12809 0.12809 0.12806 0.12811 0.12809 0.12802 0.12797 0.12797 0.128 0.12797 0.12792 0.12782 0.1278 0.12767 0.12758 0.12752 0.12738 0.12733 0.12721 0.12717 0.12718 0.12709 0.12714 0.12713 0.12718 0.12722 0.12723 0.12733 0.1274 0.12743 0.12752 0.12749 0.12747 0.12746 0.12734 0.12725 0.12708 0.12679 0.12663 0.12642 0.12632 0.12632 0.12623 0.12626 0.12641 0.12642 0.12649 0.12658 0.12678 0.12691 0.12694 0.12697 0.12712 0.12714 0.12726 0.12732 0.12733 0.12733 0.12728 0.12721 0.12717 0.12713 0.12715 0.12715 0.12712 0.12712 0.12712
0 0 0 0.10409 0.11229 0.12263 0.12677 0.12829 0.13001 0.13184 0.13206 0.13219 0.13223 0.13196 0.13167 0.13141 0.13124 0.13101 0.13082 0.13068 0.13047 0.13027 0.12999 0.12978 0.1296 0.12946 0.1293 0.12917 0.12909 0.12901 0.12887 0.12881 0.12876 0.12863 0.12862 0.12857 0.12852 0.12847 0.12852 0.12842 0.12842 0.12838 0.12832 0.12832 0.1283 0.12828 0.1284 0.1285 0.12846 0.12839 0.12839 0.12833 0.12828 0.1281 0.12806 0.12794 0.12783 0.12783 0.12777 0.12768 0.12764 0.12763 0.12765 0.12768 0.12766 0.12768 0.12775 0.12774 0.12774 0.12773 0.12778 0.12782 0.12793 0.12799 0.12789 0.12775 0.12759 0.12744 0.12727 0.12706 0.12687 0.12666 0.12652 0.12643 0.12643 0.12655 0.12654 0.12656 0.12668 0.12672 0.1268 0.12684 0.12687 0.12692 0.12691 0.12698 0.12702 0.12708 0.12711 0.12706 0.127 0.12696 0.12691 0.12691 0.12692 0.12696 0.12705 0.12698 0.12708
0 0 0 0.08889 0.10361 0.1176 0.13099 0.13117 0.13121 0.13132 0.13138 0.13151 0.13166 0.13148 0.13123 0.13097 0.1309 0.13086 0.13074 0.13065 0.13048 0.13035 0.13013 0.12989 0.12964 0.1295 0.12937 0.12923 0.12914 0.12903 0.12885 0.12872 0.12862 0.12858 0.12858 0.12856 0.12857 0.12856 0.12858 0.12857 0.12855 0.12857 0.12867 0.12865 0.12873 0.12869 0.12868 0.12866 0.12862 0.1286 0.12855 0.1286 0.12858 0.12855 0.1285 0.12838 0.12827 0.12815 0.12818 0.12823 0.1282 0.12821 0.1282 0.12818 0.12811 0.12813 0.12823 0.12825 0.12821 0.12824 0.12822 0.12817 0.12826 0.12824 0.12813 0.12805 0.12789 0.12777 0.12756 0.12725 0.1271 0.12688 0.12673 0.12668 0.12661 0.12668 0.12666 0.12667 0.12673 0.12675 0.12683 0.12684 0.12679 0.12675 0.12686 0.12682 0.12681 0.12681 0.12681 0.12676 0.12671 0.12671 0.12669 0.12668 0.1267 0.1268 0.12685 0.12692 0.127
0 0 0 0.10534 0.11525 0.12451 0.13362 0.13328 0.13288 0.13251 0.1323 0.13203 0.13187 0.13163 0.13138 0.13113 0.13102 0.13096 0.13085 0.13074 0.1306 0.1304 0.1301 0.12982 0.12963 0.12946 0.12934 0.12907 0.12904 0.12889 0.12881 0.12876 0.12867 0.12854 0.12852 0.12846 0.12844 0.12845 0.12848 0.12853 0.12852 0.1285 0.12856 0.12868 0.12889 0.12904 0.12903 0.12906 0.12916 0.12916 0.12909 0.12903 0.12902 0.12903 0.12903 0.12889 0.12887 0.12888 0.1289 0.12886 0.12886 0.12878 0.12879 0.12874 0.12867 0.12873 0.12882 0.12883 0.12885 0.12886 0.12876 0.1287 0.12867 0.12863 0.12857 0.1285 0.12826 0.12806 0.12794 0.12775 0.12752 0.12735 0.12724 0.12715 0.1271 0.12708 0.1271 0.12712 0.12715 0.12719 0.12728 0.12725 0.12716 0.12709 0.12705 0.12697 0.12693 0.12693 0.1269 0.12686 0.12682 0.1268 0.12682 0.12678 0.12678 0.12679 0.12688 0.12694 0.12701
0.13236 0.13357 0.12688 0.12158 0.12688 0.13152 0.13593 0.13522 0.13456 0.13375 0.13313 0.13247 0.13201 0.13183 0.13166 0.13136 0.13127 0.1312 0.1311 0.13093 0.13064 0.13039 0.13005 0.12981 0.12955 0.12941 0.12921 0.12907 0.12896 0.12878 0.12865 0.12861 0.12851 0.12849 0.12849 0.12853 0.12853 0.12854 0.12852 0.12854 0.12856 0.12861 0.12874 0.12899 0.12925 0.12945 0.12947 0.12956 0.12963 0.12963 0.12967 0.12968 0.1296 0.12962 0.12958 0.1295 0.12951 0.12961 0.12957 0.12955 0.12955 0.12952 0.12942 0.12929 0.12926 0.12929 0.12935 0.12938 0.12945 0.12945 0.12938 0.12925 0.12915 0.12904 0.12893 0.12877 0.12864 0.12843 0.12822 0.12805 0.12792 0.12773 0.12768 0.12759 0.12751 0.12754 0.12758 0.12763 0.12762 0.12765 0.12768 0.12755 0.12746 0.12732 0.12725 0.12714 0.12699 0.12699 0.12695 0.12689 0.12686 0.12686 0.12687 0.12685 0.12683 0.12681 0.12694 0.12702 0.12704
0.1311 0.13362 0.136 0.13785 0.13833 0.13811 0.13747 0.13646 0.13552 0.13465 0.1339 0.13283 0.13218 0.13208 0.13188 0.1316 0.13149 0.13131 0.13111 0.13085 0.13046 0.1303 0.13004 0.12974 0.12945 0.12922 0.12907 0.12896 0.1289 0.12873 0.12854 0.12846 0.12837 0.12831 0.12841 0.12842 0.12851 0.12856 0.12864 0.12866 0.12877 0.12879 0.129 0.12933 0.12962 0.12976 0.12982 0.13002 0.13024 0.13021 0.13016 0.13014 0.13019 0.13017 0.13015 0.13018 0.13025 0.13032 0.13031 0.13025 0.13027 0.13019 0.13002 0.12998 0.12994 0.13003 0.13003 0.13 0.12989 0.12987 0.1298 0.12977 0.12968 0.12948 0.12933 0.12919 0.12904 0.12888 0.12868 0.12848 0.12835 0.12821 0.12817 0.12808 0.12794 0.12804 0.12813 0.12814 0.12818 0.1282 0.12817 0.12794 0.12779 0.12759 0.12744 0.12727 0.12712 0.12702 0.12695 0.12689 0.12695 0.12697 0.12699 0.12692 0.12687 0.12684 0.12702 0.12713 0.12716
0.13173 0.13369 0.13572 0.13762 0.13813 0.13802 0.13768 0.13687 0.13615 0.13538 0.13447 0.13359 0.13282 0.13249 0.13219 0.13181 0.13153 0.13127 0.13103 0.1307 0.13039 0.13026 0.13001 0.12967 0.12935 0.12916 0.1291 0.129 0.12887 0.12873 0.12856 0.12858 0.12862 0.12854 0.12862 0.12872 0.12877 0.12879 0.12891 0.12895 0.12906 0.12918 0.12934 0.12966 0.12993 0.13014 0.13028 0.13047 0.13068 0.13071 0.13077 0.13084 0.13089 0.13089 0.13092 0.13098 0.13102 0.13101 0.131 0.13093 0.1308 0.13071 0.13063 0.13061 0.13059 0.1306 0.13052 0.13045 0.13044 0.13038 0.13032 0.13015 0.13006 0.13001 0.12988 0.12972 0.12955 0.12943 0.12921 0.12908 0.12892 0.12873 0.12873 0.12878 0.12872 0.12891 0.12918 0.12939 0.12936 0.12933 0.12933 0.12893 0.12863 0.12823 0.12804 0.12781 0.12761 0.12764 0.12764 0.12767 0.12779 0.12784 0.12792 0.12788 0.12776 0.12763 0.12764 0.12763 0.12766
0.1321 0.13362 0.13531 0.13682 0.13744 0.13774 0.13797 0.13736 0.13668 0.13594 0.13511 0.1343 0.1334 0.13291 0.13251 0.13195 0.13159 0.13137 0.1311 0.13082 0.13046 0.13019 0.12989 0.12958 0.12926 0.12912 0.12899 0.12891 0.12874 0.12867 0.12862 0.12866 0.12879 0.1288 0.12889 0.12895 0.12903 0.12909 0.12914 0.12923 0.12934 0.12949 0.12974 0.13005 0.13036 0.13062 0.13081 0.13101 0.13118 0.13131 0.13133 0.13144 0.13152 0.13167 0.13171 0.13177 0.13182 0.13184 0.13174 0.13167 0.13164 0.13145 0.13135 0.1313 0.13122 0.13122 0.13112 0.13104 0.131 0.13085 0.13076 0.13069 0.13062 0.13054 0.13045 0.13022 0.13007 0.12996 0.12972 0.12962 0.12942 0.12931 0.1294 0.12952 0.12951 0.12983 0.13028 0.13061 0.13058 0.13048 0.13039 0.12993 0.12938 0.12879 0.12856 0.12832 0.12809 0.12822 0.1283 0.12835 0.12851 0.12869 0.12887 0.12869 0.12851 0.12835 0.12822 0.12813 0.12799
0.13216 0.13334 0.13455 0.1357 0.13654 0.13724 0.13771 0.13731 0.13685 0.13635 0.13548 0.13463 0.13387 0.13325 0.13258 0.13197 0.13154 0.1312 0.13084 0.13058 0.13031 0.13004 0.1298 0.12945 0.12911 0.12905 0.12892 0.12866 0.1287 0.12862 0.12862 0.12875 0.1288 0.12884 0.12892 0.1291 0.12928 0.12929 0.12941 0.12947 0.12963 0.12985 0.13013 0.13049 0.13077 0.13104 0.13128 0.13152 0.13176 0.13189 0.13204 0.1322 0.13226 0.13231 0.13246 0.13246 0.13233 0.13238 0.13231 0.13225 0.13211 0.13202 0.13189 0.1318 0.13169 0.13158 0.13154 0.13146 0.1313 0.13112 0.131 0.13104 0.13107 0.13091 0.13087 0.1307 0.13056 0.13037 0.13015 0.13008 0.13003 0.12993 0.13008 0.13019 0.13024 0.13037 0.13113 0.13185 0.13123 0.13103 0.13164 0.13095 0.13023 0.12944 0.12913 0.12883 0.12854 0.12873 0.12886 0.12895 0.12701 0.12773 0.12972 0.12883 0.1287 0.12919 0.12913 0.12883 0.12845
0.13288 0.13389 0.13471 0.13568 0.13632 0.13683 0.13718 0.13671 0.13633 0.13607 0.13525 0.13443 0.13381 0.1332 0.1326 0.13193 0.13161 0.13126 0.13095 0.13077 0.13055 0.13035 0.13013 0.12987 0.12956 0.12941 0.12926 0.12909 0.12913 0.12918 0.12921 0.12933 0.12938 0.12942 0.12948 0.12964 0.12972 0.12982 0.12984 0.12994 0.13018 0.13039 0.13061 0.131 0.13142 0.13179 0.13202 0.13216 0.13241 0.13258 0.13272 0.13288 0.13292 0.13293 0.13298 0.13303 0.13296 0.13303 0.13301 0.13301 0.13302 0.13304 0.13285 0.1328 0.13262 0.13254 0.13243 0.13215 0.1319 0.13154 0.13144 0.13126 0.1312 0.13109 0.13109 0.13094 0.13075 0.13053 0.13041 0.13043 0.13042 0.13047 0.13072 0.13103 0.13125 0.13076 0.13104 0.13121 0.13091 0.13072 0.13081 0.13026 0.12978 0.12922 0.12569 0.12218 0.1187 0.11887 0.11904 0.11923 0.12332 0.12488 0.12685 0.12797 0.12836 0.12886 0.12978 0.1299 0.13144
0.13354 0.13429 0.13476 0.13531 0.1358 0.13612 0.13641 0.13616 0.13571 0.1355 0.13499 0.1343 0.13372 0.13323 0.1326 0.13202 0.13177 0.13149 0.13125 0.13106 0.13086 0.13065 0.13049 0.13027 0.13006 0.12992 0.12964 0.12947 0.12963 0.12981 0.12992 0.12995 0.12999 0.13005 0.1301 0.1302 0.13021 0.13031 0.13043 0.13059 0.13086 0.13105 0.1312 0.13167 0.13209 0.13258 0.13277 0.13304 0.13328 0.13342 0.1335 0.1336 0.13357 0.13353 0.1335 0.1336 0.1336 0.1337 0.13375 0.13387 0.13398 0.13393 0.13393 0.13401 0.13373 0.13353 0.13341 0.133 0.13261 0.13215 0.13177 0.13154 0.13133 0.13125 0.13131 0.13116 0.13103 0.13083 0.13075 0.13082 0.13092 0.13102 0.13151 0.13191 0.1322 0.12991 0.12929 0.13098 0 0 0.12998 0.12966 0.12931 0.12899 0.12224 0.11556 0.10889 0.1091 0.10929 0 0 0.12446 0.12278 0.12512 0.12772 0.12898 0.13039 0.13236 0.13421
