ncols        109
nrows        82
xllcorner    -1.041666666667
yllcorner    37.041665395101
cellsize     0.083333333333
NODATA_value -9999
0.0 0 0 0 0 0 0 0 0 0 0 0 0 0 0 0 0 0 0 0 0 0 0 0 0 0 0 0 0 0 0 0 0 0 0 0 0 0 0 0 0 0 0 0 0 0 0 0 0 0 0 0 0 0 0 0 0 0 0 0 0 0 0 0 0 0 0 0 0 0 0 0 0 0 0 0 0 0 0 0 0 0 0 0 0 0 0 0 0 0 0 0 0 0 0 0 0 0 0 0 0 0 0 0 0 0.13402 0.13393 0.13414 0.13425
0 0 0 0 0 0 0 0 0 0 0 0 0 0 0 0 0 0 0 0 0 0 0 0 0 0 0 0 0 0 0 0 0 0 0 0 0 0 0 0 0 0 0 0 0 0 0 0 0 0 0 0 0 0 0 0 0 0 0 0 0 0 0 0 0 0 0 0 0 0 0 0 0 0 0 0 0 0 0 0 0 0 0 0 0 0 0 0 0 0 0 0 0 0 0 0 0 0 0 0 0 0.13306 0.13318 0.13349 0.13407 0.13468 0.13461 0.13453 0.13457
0 0 0 0 0 0 0 0 0 0 0 0 0 0 0 0 0 0 0 0 0 0 0 0 0 0 0 0 0 0 0 0 0 0 0 0 0 0 0 0 0 0 0 0 0 0 0 0 0 0 0 0 0 0 0 0 0 0 0 0 0 0 0 0 0 0 0 0 0 0 0 0 0 0 0 0 0 0 0 0 0 0 0 0 0 0 0 0 0 0 0 0 0 0 0 0 0 0 0.13271 0.13294 0.13309 0.13312 0.13321 0.13326 0.13356 0.13378 0.1338 0.13387 0.13388
0 0 0 0 0 0 0 0 0 0 0 0 0 0 0 0 0 0 0 0 0 0 0 0 0 0 0 0 0 0 0 0 0 0 0 0 0 0 0 0 0 0 0 0 0 0 0 0 0 0 0 0 0 0 0 0 0 0 0 0 0 0 0 0 0 0 0 0 0 0 0 0 0 0 0 0 0 0 0 0 0 0 0 0 0 0 0 0 0 0 0 0 0 0 0 0 0 0.13236 0.13298 0.13321 0.13326 0.13345 0.13372 0.13348 0.13319 0.13338 0.13334 0.13324 0.13323
0 0 0 0 0 0 0 0 0 0 0 0 0 0 0 0 0 0 0 0 0 0 0 0 0 0 0 0 0 0 0 0 0 0 0 0 0 0 0 0 0 0 0 0 0 0 0 0 0 0 0 0 0 0 0 0 0 0 0.13161 0.13319 0.13378 0.1352 0 0 0 0 0 0 0 0 0 0 0 0 0 0 0 0 0 0 0 0 0 0 0 0 0 0 0 0 0 0 0 0 0 0.13202 0.1319 0.13252 0.13331 0.13406 0.13424 0.13445 0.13488 0.13418 0.13367 0.13305 0.13288 0.13259 0.13235
0 0 0 0 0 0 0 0 0 0 0 0 0 0 0 0 0 0 0 0 0 0 0 0 0 0 0 0 0 0 0 0 0 0 0 0 0 0 0 0 0 0 0 0 0 0 0 0 0 0 0 0 0 0 0 0 0.13113 0.13085 0.13151 0.13206 0.13402 0.1346 0.13556 0.13599 0.12674 0.11819 0.10982 0 0 0 0 0.11854 0 0 0 0 0 0 0 0 0 0 0 0 0 0 0 0 0 0 0 0 0 0.13221 0.13217 0.13188 0.1319 0.1322 0.1326 0.13324 0.13341 0.13377 0.13387 0.13325 0.1328 0.13233 0.13211 0.13187 0.13164
0 0 0 0 0 0 0 0 0 0 0 0 0 0 0 0 0 0 0 0 0 0 0 0 0 0 0 0 0 0 0 0 0 0 0 0 0 0 0 0 0 0 0 0 0 0 0 0 0 0 0 0 0 0 0 0.13031 0.13247 0.13365 0.13326 0.1329 0.13421 0.13446 0.13457 0.13519 0.12987 0.12547 0.1209 0.12602 0.12357 0.1225 0.12209 0.12018 0.11879 0.11585 0.11062 0.10743 0.10831 0 0 0 0 0 0 0 0 0 0 0 0 0 0 0 0.13193 0.13121 0.1319 0.13175 0.13176 0.13179 0.13226 0.1327 0.13271 0.13281 0.13287 0.13238 0.13199 0.13164 0.13149 0.1313 0.13099
0 0 0 0 0 0 0 0 0 0 0 0 0 0 0 0 0 0 0 0 0 0 0 0 0 0 0 0 0 0 0 0 0 0 0 0 0 0 0 0 0 0 0 0 0 0 0 0 0 0 0 0.12255 0.12377 0.12491 0.12676 0.1298 0.13384 0.13666 0.13615 0.1357 0.13519 0.13516 0.13473 0.13401 0.13277 0.13241 0.13243 0.12848 0.12473 0.12177 0.12075 0.1199 0.11934 0.1122 0.10559 0.09885 0 0 0 0 0 0 0 0 0 0 0 0 0 0 0 0 0.1313 0.13237 0.13185 0.1317 0.13151 0.13147 0.13177 0.13204 0.13212 0.13187 0.13162 0.13131 0.13112 0.13108 0.13091 0.13079 0.13055
0 0 0 0 0 0 0 0 0 0 0 0 0 0 0 0 0 0 0 0 0 0 0 0 0 0 0 0 0 0 0 0 0 0 0 0 0 0 0 0 0 0 0 0 0 0 0 0 0 0 0.12108 0.12177 0.12213 0.12293 0.12408 0.12612 0.1288 0.13047 0.12945 0.12876 0.12839 0.12959 0.13105 0.13217 0.13417 0.13679 0.13949 0.13629 0.13308 0.13042 0.12871 0.12739 0.12614 0.12065 0.11537 0.10996 0.11132 0.11275 0.11415 0.11756 0.12206 0.12536 0 0 0 0 0 0 0 0.12364 0.12733 0.12955 0.13077 0.13261 0.13199 0.13152 0.13111 0.13084 0.13066 0.13072 0.13056 0.13042 0.13032 0.13021 0.13017 0.12982 0.12964 0.12966 0.12954
0 0 0 0 0 0 0 0 0 0 0 0 0 0 0 0 0 0 0 0 0 0 0 0 0 0 0 0 0 0 0 0 0 0 0 0 0 0 0 0 0 0 0 0 0 0 0 0 0 0.12164 0.12075 0.12016 0.12059 0.12143 0.12144 0.12193 0.12249 0.12444 0.12313 0.1221 0.12132 0.12437 0.1276 0.1312 0.13641 0.1416 0.147 0.14416 0.14166 0.13939 0.13717 0.13503 0.13301 0.12895 0.12513 0.1214 0.1231 0.12388 0.12473 0.12984 0.13056 0.13242 0 0.13391 0.13394 0.12617 0.11212 0.10368 0.11065 0.12316 0.12945 0.1307 0.13088 0.13311 0.13237 0.13161 0.13105 0.1307 0.13053 0.13034 0.13009 0.12986 0.12955 0.12924 0.129 0.12892 0.12906 0.12915 0.12919
0 0 0 0 0 0 0 0 0 0 0 0 0 0 0 0 0 0 0 0 0 0 0 0 0 0 0 0 0 0 0 0 0 0 0 0 0 0 0 0 0 0 0 0 0 0 0 0 0 0.12149 0.11995 0.11883 0.11899 0.11938 0.12049 0.11963 0.11811 0.11794 0.11704 0.11606 0.11477 0.11974 0.12495 0.13035 0.1386 0.14663 0.15501 0.15267 0.15056 0.14897 0.14583 0.14296 0.13997 0.13741 0.13533 0.13299 0.13418 0.13475 0.13591 0.13622 0.13668 0.13698 0.1391 0.14135 0.14375 0.12324 0.10245 0.08237 0.09932 0.11721 0.13509 0.13473 0.13418 0.13362 0.13283 0.132 0.13185 0.131 0.13052 0.13015 0.12962 0.12907 0.12872 0.12863 0.12843 0.12837 0.12835 0.12823 0.12821
0 0 0 0 0 0 0 0 0 0 0 0 0 0 0 0 0 0 0 0 0 0 0 0 0 0 0 0 0 0 0 0 0 0 0 0 0 0 0 0 0 0 0 0 0 0 0 0 0 0.12292 0.12195 0.12048 0.1216 0.1222 0.12367 0.12381 0.12341 0.1242 0.12309 0.12203 0.12116 0.12452 0.12802 0.13177 0.13719 0.14293 0.14864 0.1472 0.14588 0.14472 0.14254 0.14021 0.13787 0.13592 0.13423 0.13274 0.13322 0.13383 0.13459 0.13492 0.13534 0.13581 0.13764 0.13924 0.1409 0.12727 0.11349 0.09972 0.11108 0.12286 0.13459 0.13397 0.13339 0.13307 0.13234 0.13198 0.13156 0.13035 0.12996 0.12937 0.12899 0.12876 0.12828 0.12808 0.12796 0.12783 0.12815 0.12812 0.12807
0 0 0 0 0 0 0 0 0 0 0 0 0 0 0 0 0 0 0 0 0 0 0 0 0 0 0 0 0 0 0 0 0 0 0 0 0 0 0 0 0 0 0 0 0 0 0 0 0 0.12556 0.12557 0.12376 0.1244 0.12557 0.12706 0.12775 0.12893 0.1304 0.12935 0.12814 0.12742 0.12949 0.13125 0.13336 0.13638 0.13957 0.14255 0.14204 0.14116 0.14048 0.13899 0.13737 0.13573 0.13437 0.1333 0.13246 0.13302 0.1335 0.13385 0.13396 0.13429 0.13472 0.13596 0.13724 0.13821 0.13149 0.12472 0.1178 0.123 0.12835 0.13371 0.13318 0.13287 0.13255 0.13191 0.13135 0.13078 0.12956 0.12911 0.12876 0.12856 0.12815 0.12766 0.12753 0.12733 0.12732 0.12748 0.12776 0.12802
0 0 0 0 0 0 0 0 0 0 0 0 0 0 0 0 0 0 0 0 0 0 0 0 0 0 0 0 0 0 0 0 0 0 0 0 0 0 0 0 0 0 0 0 0 0 0 0 0 0.12699 0.1271 0.12701 0.12722 0.12885 0.13063 0.13291 0.13518 0.13736 0.13617 0.1353 0.13449 0.13467 0.13503 0.13552 0.13574 0.13619 0.13674 0.13665 0.13669 0.13675 0.13575 0.13467 0.13375 0.13333 0.13312 0.13306 0.13322 0.13331 0.13324 0.1332 0.13348 0.13389 0.13472 0.13554 0.136 0.13599 0.136 0.13587 0.13489 0.13404 0.1332 0.13264 0.13228 0.13203 0.13135 0.13057 0.12964 0.12927 0.12868 0.12811 0.12773 0.12723 0.12682 0.12663 0.12668 0.12682 0.12708 0.12727 0.12755
0 0 0 0 0 0 0 0 0 0 0 0 0 0 0 0 0 0 0 0 0 0 0 0 0 0 0 0 0 0 0 0 0 0 0 0 0 0 0 0 0 0 0 0 0 0 0 0 0 0.12803 0.1278 0.12782 0.12875 0.13011 0.13411 0.13462 0.13557 0.13664 0.13579 0.13526 0.13426 0.13431 0.13464 0.13514 0.13541 0.13548 0.13576 0.13577 0.13566 0.13567 0.13482 0.13398 0.13322 0.13262 0.13205 0.1317 0.13167 0.1318 0.1318 0.1319 0.13206 0.13227 0.13272 0.13328 0.13373 0.13387 0.13375 0.13362 0.13296 0.13224 0.13161 0.13102 0.13063 0.13029 0.12971 0.12904 0.12865 0.12826 0.12773 0.12716 0.12689 0.12662 0.12636 0.12652 0.12652 0.12663 0.1268 0.12711 0.12736
0 0 0 0 0 0 0 0 0 0 0 0 0 0 0 0 0 0 0 0 0 0 0 0 0 0 0 0 0 0 0 0 0 0 0 0 0 0 0 0 0 0 0 0 0 0 0 0 0 0.12868 0.13022 0.13091 0.13251 0.13485 0.13799 0.13683 0.13669 0.13617 0.1353 0.13476 0.13407 0.13427 0.13427 0.13441 0.13456 0.13456 0.13498 0.13506 0.13488 0.13489 0.13403 0.13314 0.13248 0.13193 0.13146 0.13104 0.13086 0.13077 0.1307 0.13073 0.1309 0.13102 0.13118 0.13158 0.13181 0.13185 0.13178 0.13165 0.13107 0.13058 0.12997 0.12952 0.12907 0.12883 0.12829 0.1278 0.12727 0.12699 0.12659 0.12617 0.12617 0.12612 0.12606 0.12616 0.12628 0.12642 0.12674 0.12711 0.12733
0 0 0 0 0 0 0 0 0 0 0 0 0 0 0 0 0 0 0 0 0 0 0 0 0 0 0 0 0 0 0 0 0 0 0 0 0 0 0 0 0 0 0 0 0 0 0 0 0 0 0.13338 0.13411 0.13557 0.13915 0.14162 0.13906 0.13735 0.13483 0.13446 0.13401 0.13348 0.13341 0.13368 0.13391 0.13394 0.13406 0.13447 0.1343 0.13401 0.13391 0.13319 0.13233 0.13187 0.13157 0.13117 0.13075 0.13047 0.13015 0.1299 0.12984 0.12989 0.13003 0.1301 0.1299 0.12991 0.12979 0.12971 0.12946 0.12908 0.12883 0.12869 0.12835 0.12806 0.12773 0.12734 0.12688 0.12654 0.12626 0.12588 0.12563 0.12572 0.12567 0.12579 0.126 0.12621 0.12658 0.12686 0.12723 0.1277
0 0 0 0 0 0 0 0 0 0 0 0 0 0 0 0 0 0 0 0 0 0 0 0 0 0 0 0 0 0 0 0 0 0 0 0 0 0 0 0 0 0 0 0 0 0 0 0 0 0 0.13553 0.13614 0.1368 0.13789 0.14024 0.13799 0.13646 0.13458 0.13382 0.13339 0.13291 0.13285 0.13296 0.13309 0.13321 0.1334 0.13369 0.13347 0.13331 0.13297 0.13219 0.13171 0.13124 0.13089 0.13055 0.13018 0.12997 0.12976 0.12953 0.12943 0.12938 0.12933 0.1294 0.12925 0.12918 0.12907 0.12908 0.12893 0.12876 0.12861 0.12838 0.12811 0.12785 0.12757 0.12723 0.1269 0.1266 0.12633 0.12612 0.12598 0.12601 0.12591 0.12596 0.12629 0.12659 0.12686 0.12708 0.12734 0.12771
0 0 0 0 0 0 0 0 0 0 0 0 0 0 0 0 0 0 0 0 0 0 0 0 0 0 0 0 0 0 0 0 0 0 0 0 0 0 0 0 0 0 0 0 0 0 0 0 0 0 0 0 0.13697 0.13687 0.13883 0.13736 0.13576 0.13419 0.13334 0.13293 0.13224 0.13231 0.13227 0.13257 0.13257 0.13293 0.13314 0.13295 0.13272 0.13224 0.13168 0.13121 0.13079 0.13048 0.1302 0.12974 0.1296 0.12949 0.12926 0.12923 0.1292 0.12919 0.12912 0.12919 0.12917 0.12908 0.1291 0.12903 0.12883 0.12865 0.12846 0.12827 0.12806 0.12776 0.12733 0.12695 0.12672 0.12665 0.12649 0.12654 0.12634 0.12621 0.12614 0.12644 0.12674 0.12707 0.12739 0.12773 0.12799
0 0 0 0 0 0 0 0 0 0 0 0 0 0 0 0 0 0 0 0 0 0 0 0 0 0 0 0 0 0 0 0 0 0 0 0 0 0 0 0 0 0 0 0 0 0 0 0 0 0 0.13715 0.13806 0.13769 0.13731 0.13772 0.13655 0.13495 0.13359 0.133 0.13235 0.13175 0.13176 0.13156 0.13201 0.13219 0.13271 0.13276 0.13233 0.13195 0.13152 0.13099 0.13061 0.13031 0.13002 0.12965 0.12935 0.12907 0.12896 0.12863 0.12858 0.12859 0.12869 0.12884 0.12889 0.129 0.12889 0.12888 0.12878 0.12851 0.12852 0.12851 0.12829 0.12806 0.1278 0.12736 0.12705 0.12688 0.12683 0.12688 0.12673 0.1264 0.12618 0.12616 0.12644 0.12668 0.12701 0.12735 0.12763 0.12792
0 0 0 0 0 0 0 0 0 0 0 0 0 0 0 0 0 0 0 0 0 0 0 0 0 0 0 0 0 0 0 0 0 0 0 0 0 0 0 0 0 0 0 0 0 0 0 0 0 0 0.13558 0.13749 0.13706 0.13657 0.13699 0.13578 0.13429 0.13288 0.13257 0.13197 0.13138 0.13119 0.1312 0.1316 0.13187 0.13231 0.13245 0.132 0.13156 0.13118 0.13076 0.13044 0.13009 0.12989 0.12958 0.1292 0.12912 0.12896 0.12883 0.12873 0.12871 0.12874 0.12868 0.12873 0.12872 0.1287 0.12879 0.12886 0.12876 0.12867 0.12851 0.12819 0.12788 0.12764 0.12738 0.12712 0.12675 0.12664 0.12662 0.12662 0.12625 0.1261 0.12607 0.1264 0.12654 0.12674 0.12695 0.12729 0.12762
0 0 0 0 0 0 0 0 0 0 0 0 0 0 0 0 0 0 0 0 0 0 0 0 0 0 0 0 0 0 0 0 0 0 0 0 0 0 0 0 0 0 0 0 0 0 0 0 0 0 0 0.13566 0.13553 0.13578 0.13539 0.13439 0.13346 0.13228 0.1319 0.13137 0.13079 0.13074 0.13065 0.13124 0.13135 0.13174 0.13188 0.13157 0.1312 0.1308 0.13053 0.13026 0.12994 0.1297 0.12928 0.12911 0.12899 0.12888 0.12891 0.12886 0.12881 0.12883 0.12875 0.12871 0.12873 0.12872 0.1288 0.12892 0.12899 0.12874 0.12862 0.12822 0.12785 0.12769 0.12746 0.12699 0.1267 0.1263 0.1262 0.12615 0.12614 0.12604 0.12606 0.12622 0.12632 0.12656 0.12678 0.12708 0.12739
0 0 0 0 0 0 0 0 0 0 0 0 0 0 0 0 0 0 0 0 0 0 0 0 0 0 0 0 0 0 0 0 0 0 0 0 0 0 0 0 0 0 0 0 0 0 0 0 0 0 0 0.1348 0.1344 0.13431 0.13388 0.13284 0.13257 0.1314 0.13116 0.13065 0.13037 0.13025 0.13025 0.13064 0.131 0.13115 0.13152 0.13127 0.13101 0.13069 0.13029 0.13007 0.12993 0.12965 0.12956 0.12926 0.12929 0.12926 0.12925 0.12912 0.12926 0.12917 0.1292 0.12927 0.12931 0.12929 0.12927 0.12925 0.129 0.12898 0.12889 0.12856 0.12822 0.12797 0.12756 0.12711 0.12676 0.12645 0.12627 0.12621 0.12606 0.12597 0.12588 0.12599 0.12606 0.12623 0.12647 0.12683 0.1272
0 0 0 0 0 0 0 0 0 0 0 0 0 0 0 0 0 0 0 0 0 0 0 0 0 0 0 0 0 0 0 0 0 0 0 0 0 0 0 0 0 0 0 0 0 0 0 0 0 0 0 0.13417 0.13364 0.13342 0.13293 0.1322 0.13167 0.13046 0.13042 0.13015 0.13001 0.12994 0.1301 0.1304 0.13054 0.13081 0.13115 0.1311 0.13085 0.13068 0.13026 0.13019 0.1301 0.12988 0.1297 0.12942 0.12933 0.1294 0.12934 0.12916 0.12913 0.12928 0.12928 0.12934 0.12937 0.1294 0.1293 0.12904 0.12888 0.12867 0.12868 0.12852 0.12807 0.12772 0.12737 0.12719 0.12697 0.12666 0.12612 0.12593 0.12575 0.12562 0.12558 0.12571 0.12572 0.12588 0.12622 0.12658 0.12692
0 0 0 0 0 0 0 0 0 0 0 0 0 0 0 0 0 0 0 0 0 0 0 0 0 0 0 0 0 0 0 0 0 0 0 0 0 0 0 0 0 0 0 0 0 0 0 0 0 0.12981 0.13155 0.13447 0.13352 0.13285 0.13238 0.1318 0.13089 0.13013 0.12979 0.12975 0.12961 0.12975 0.12983 0.13018 0.13029 0.13046 0.1309 0.1309 0.13083 0.13075 0.1305 0.13027 0.13014 0.12999 0.12973 0.12962 0.12957 0.12957 0.1295 0.12932 0.12917 0.1293 0.12928 0.12943 0.12932 0.1293 0.1292 0.12913 0.12893 0.1288 0.12862 0.12822 0.12816 0.12779 0.12745 0.12717 0.12688 0.12669 0.12627 0.12584 0.12557 0.12552 0.1254 0.12554 0.12557 0.1258 0.12615 0.12646 0.12689
0 0 0 0 0 0 0 0 0 0 0 0 0 0 0 0 0 0 0 0 0 0 0 0 0 0 0 0 0 0 0 0 0 0 0 0 0 0 0 0 0 0 0 0 0 0 0 0 0.12506 0.12806 0.13128 0.13423 0.13315 0.13247 0.13178 0.13136 0.13074 0.13 0.12975 0.12974 0.12964 0.1296 0.12969 0.12979 0.12994 0.1301 0.13033 0.13057 0.13073 0.13064 0.13054 0.13036 0.13024 0.12996 0.12987 0.12984 0.12976 0.12959 0.1296 0.12961 0.12939 0.12939 0.12936 0.1293 0.12928 0.12922 0.12909 0.12896 0.12883 0.12861 0.12854 0.12825 0.12792 0.12779 0.1274 0.1271 0.12687 0.12646 0.1262 0.12591 0.12551 0.12537 0.12511 0.12521 0.12526 0.12542 0.12591 0.12633 0.12671
0 0 0 0 0 0 0 0 0 0 0 0 0 0 0 0 0 0 0 0 0 0 0 0 0 0 0 0 0 0 0 0 0 0 0 0 0 0 0 0 0 0 0 0 0 0.12998 0.12911 0.12815 0.12736 0.12952 0.13138 0.13311 0.13228 0.13181 0.13125 0.13089 0.13047 0.1299 0.12983 0.12963 0.12961 0.12955 0.12945 0.12964 0.12967 0.1299 0.13016 0.13017 0.13044 0.1307 0.13061 0.13032 0.13037 0.13016 0.13009 0.13008 0.12982 0.12974 0.12956 0.12932 0.12942 0.12919 0.12928 0.12926 0.12922 0.12912 0.12894 0.12874 0.12853 0.12824 0.12814 0.12783 0.12752 0.12741 0.12715 0.12687 0.12667 0.12635 0.12606 0.12578 0.1253 0.12514 0.12494 0.12501 0.12493 0.1253 0.12576 0.12631 0.12662
0 0 0 0 0 0 0 0 0 0 0 0 0 0 0 0 0 0 0 0 0 0 0 0 0 0 0 0 0 0 0 0 0 0 0 0 0 0 0 0 0 0 0.12782 0.12889 0.13015 0.13053 0.13014 0.13018 0.12948 0.13024 0.13072 0.13155 0.13126 0.13096 0.13058 0.13034 0.13019 0.12984 0.12982 0.12969 0.12957 0.12938 0.12944 0.1294 0.12956 0.12988 0.13005 0.13019 0.13043 0.13059 0.13056 0.13043 0.13052 0.13043 0.13025 0.13028 0.12997 0.1299 0.12981 0.12937 0.12906 0.12892 0.12889 0.12904 0.12917 0.12907 0.12876 0.12839 0.1282 0.12798 0.12769 0.12758 0.12751 0.1273 0.12706 0.12671 0.12643 0.12613 0.12582 0.1257 0.12523 0.12491 0.12488 0.1249 0.12476 0.12513 0.12559 0.12604 0.12644
0 0 0 0 0 0 0 0 0 0 0 0 0 0 0 0 0 0 0 0 0 0 0 0 0 0 0 0 0 0 0 0 0 0 0 0 0 0 0 0 0.12569 0.12643 0.12723 0.12852 0.13017 0.13099 0.13123 0.13132 0.13149 0.1312 0.13064 0.13033 0.13017 0.13015 0.1299 0.12988 0.1299 0.1298 0.12977 0.12961 0.12951 0.12942 0.12928 0.12919 0.12947 0.12966 0.12992 0.13011 0.13036 0.13051 0.13046 0.13042 0.13047 0.13039 0.13042 0.13033 0.13004 0.12991 0.1299 0.12946 0.12912 0.12893 0.12904 0.12906 0.12914 0.12898 0.12876 0.12847 0.12812 0.12785 0.12744 0.12735 0.12732 0.12707 0.12678 0.1265 0.12615 0.12593 0.12578 0.12565 0.12514 0.12465 0.12482 0.12477 0.12474 0.12493 0.12558 0.12584 0.1263
0 0 0 0 0 0 0 0 0 0 0 0 0 0 0 0 0 0 0 0 0 0 0 0 0 0 0 0 0 0 0 0 0 0 0 0 0 0 0 0.1246 0.12561 0.12614 0.12675 0.1274 0.1287 0.12922 0.12953 0.12981 0.12991 0.12965 0.12938 0.12935 0.12922 0.12949 0.12931 0.12946 0.12956 0.12949 0.12959 0.12947 0.12936 0.12938 0.12916 0.12917 0.12935 0.12955 0.12979 0.13003 0.1302 0.13036 0.1304 0.13024 0.13044 0.1304 0.13032 0.13034 0.13002 0.1297 0.12955 0.12925 0.12889 0.12877 0.1289 0.12896 0.12901 0.12889 0.12874 0.12852 0.12803 0.12749 0.12723 0.12705 0.12698 0.12707 0.12679 0.12661 0.12606 0.12587 0.12567 0.12523 0.12506 0.12467 0.12464 0.12478 0.1249 0.12512 0.12569 0.12591 0.12624
0 0 0 0 0 0 0 0 0 0 0 0 0 0 0 0 0 0 0 0 0 0 0 0 0 0 0 0 0 0 0 0 0 0 0 0 0 0 0.12293 0.12608 0.12654 0.12638 0.1266 0.12673 0.12739 0.12782 0.12797 0.12795 0.12805 0.12835 0.12859 0.12888 0.12892 0.1291 0.12921 0.12924 0.12935 0.12942 0.12944 0.12942 0.12937 0.12942 0.12931 0.12923 0.12931 0.12943 0.12973 0.1299 0.13005 0.13021 0.13006 0.13018 0.13021 0.13031 0.13026 0.13028 0.12988 0.12946 0.12921 0.12894 0.12863 0.12862 0.12862 0.1287 0.12876 0.1287 0.12853 0.12838 0.12794 0.12774 0.12749 0.12703 0.12686 0.12689 0.12662 0.12656 0.12621 0.12597 0.12533 0.125 0.12469 0.12454 0.12461 0.12485 0.12503 0.12536 0.12587 0.12611 0.12648
0 0 0 0 0 0 0 0 0 0 0 0 0 0 0 0 0 0 0 0 0 0 0 0 0 0 0 0 0 0 0 0 0 0 0.11736 0.10984 0.1031 0.11161 0.12014 0.12917 0.12852 0.12775 0.12706 0.12671 0.12657 0.1262 0.12642 0.1266 0.12662 0.12729 0.12777 0.12833 0.12852 0.12893 0.12905 0.12927 0.1293 0.12939 0.12947 0.12946 0.12948 0.12946 0.12942 0.12935 0.12943 0.12944 0.1295 0.12973 0.12993 0.13009 0.13007 0.13005 0.1301 0.13012 0.13003 0.12999 0.12979 0.12939 0.12906 0.12878 0.12866 0.12851 0.12844 0.12838 0.12856 0.12846 0.12821 0.12796 0.12772 0.12765 0.12734 0.12697 0.12689 0.12684 0.12658 0.12642 0.12636 0.12587 0.12513 0.12483 0.1247 0.12458 0.12457 0.12497 0.12532 0.1256 0.12599 0.12619 0.12652
0 0 0 0 0 0 0 0 0 0 0 0 0 0 0 0 0 0 0 0 0 0 0 0 0 0 0 0 0 0.1268 0.12763 0.12814 0.12744 0.12574 0.12241 0.11817 0.11209 0.11723 0.12264 0.12837 0.12781 0.12719 0.12645 0.12622 0.12637 0.12589 0.12612 0.12647 0.1266 0.12718 0.12766 0.12806 0.12841 0.12874 0.12908 0.12929 0.12931 0.12937 0.12948 0.12952 0.12974 0.12976 0.12968 0.12951 0.12953 0.12955 0.12966 0.12977 0.12982 0.1298 0.12976 0.12975 0.12967 0.12972 0.12966 0.1295 0.1292 0.12902 0.12876 0.12851 0.12831 0.12819 0.12807 0.1279 0.12806 0.12783 0.1275 0.12725 0.12709 0.12699 0.12681 0.12651 0.12635 0.12652 0.1262 0.12601 0.1259 0.12544 0.12489 0.12457 0.12459 0.12462 0.1247 0.12511 0.12537 0.12569 0.12592 0.12624 0.12655
0 0 0 0 0 0 0 0 0 0 0 0 0 0 0 0 0 0 0 0 0 0 0 0 0 0.12069 0.12169 0.12154 0.12423 0.12849 0.1309 0.13065 0.13004 0.12981 0.12819 0.12653 0.12087 0.12267 0.12504 0.12766 0.12717 0.12647 0.12581 0.12554 0.12553 0.1255 0.12595 0.12627 0.12658 0.12709 0.12755 0.12806 0.12836 0.12883 0.12912 0.12929 0.12933 0.12953 0.12954 0.1296 0.12981 0.12992 0.12998 0.12996 0.12989 0.1298 0.12981 0.12986 0.12975 0.12967 0.12967 0.12964 0.1295 0.12947 0.12922 0.12908 0.12885 0.12864 0.12845 0.12832 0.12802 0.12786 0.12769 0.12761 0.12746 0.12722 0.12704 0.12687 0.12673 0.12643 0.12633 0.12611 0.12596 0.12601 0.12581 0.12554 0.12542 0.12502 0.12471 0.12443 0.12458 0.12462 0.12474 0.12513 0.12542 0.12581 0.12597 0.12634 0.12665
0 0 0 0 0 0 0 0 0 0 0 0 0 0 0 0 0 0 0 0 0 0 0 0.11836 0.11944 0.12023 0.12026 0.11841 0.12413 0.12948 0.13481 0.13405 0.1332 0.13273 0.13166 0.13043 0.12893 0.12811 0.12744 0.12685 0.12643 0.12585 0.12519 0.12491 0.12485 0.12507 0.12551 0.12596 0.12635 0.127 0.12753 0.12787 0.12841 0.12888 0.12937 0.12946 0.12946 0.12955 0.12959 0.12977 0.1299 0.12994 0.13021 0.1302 0.13014 0.13007 0.12993 0.12988 0.12981 0.12969 0.12953 0.12935 0.12927 0.12917 0.12894 0.1288 0.12846 0.12822 0.12803 0.12793 0.12789 0.12769 0.12742 0.12723 0.12707 0.12676 0.12662 0.1265 0.12637 0.12619 0.12618 0.12589 0.12574 0.12566 0.12545 0.12527 0.12515 0.12483 0.1246 0.12433 0.12442 0.12461 0.12477 0.12508 0.12545 0.12579 0.12606 0.12643 0.12696
0 0 0 0 0 0 0 0 0 0 0 0 0 0 0 0 0 0 0 0 0 0 0.11428 0.11592 0.11737 0.11966 0.12215 0.12126 0.12543 0.12944 0.13371 0.13303 0.13226 0.13119 0.13031 0.12919 0.12818 0.1276 0.12703 0.12629 0.1259 0.12539 0.12493 0.1248 0.12465 0.12482 0.1253 0.1257 0.12623 0.12686 0.12742 0.12773 0.12817 0.12862 0.12918 0.1294 0.12931 0.12944 0.12952 0.12969 0.12993 0.12998 0.1301 0.13022 0.13011 0.13003 0.1299 0.12982 0.12975 0.12957 0.12934 0.12917 0.12889 0.12869 0.12844 0.12827 0.12793 0.12767 0.12747 0.12729 0.12713 0.12707 0.12695 0.12684 0.1267 0.12651 0.12636 0.12628 0.12597 0.12584 0.12583 0.12551 0.12552 0.12539 0.12518 0.12492 0.12485 0.12463 0.12447 0.12431 0.12442 0.12463 0.12481 0.12502 0.12536 0.12573 0.12597 0.12628 0.12669
0 0 0 0 0 0 0 0 0 0 0 0 0 0 0 0 0 0 0 0 0 0.11092 0.112 0.11302 0.11349 0.11633 0.12176 0.12447 0.12708 0.12921 0.13196 0.13134 0.13076 0.12982 0.12888 0.12794 0.1269 0.12635 0.12594 0.12537 0.1252 0.12488 0.1245 0.12441 0.12427 0.12449 0.12491 0.12535 0.1258 0.12651 0.12697 0.12735 0.12789 0.12843 0.12886 0.12915 0.12928 0.12946 0.12957 0.12985 0.12998 0.13008 0.13007 0.13022 0.1302 0.13019 0.12992 0.12978 0.12968 0.12944 0.12918 0.12894 0.1287 0.12844 0.12812 0.12778 0.12749 0.12727 0.12703 0.12687 0.12672 0.1266 0.12659 0.12657 0.12647 0.12634 0.12619 0.12612 0.12585 0.12574 0.12564 0.12548 0.12539 0.12535 0.12499 0.12472 0.12474 0.12443 0.12434 0.12425 0.12444 0.12452 0.12472 0.12502 0.12539 0.12573 0.126 0.1263 0.12671
0 0 0 0 0 0 0 0 0 0 0 0 0 0 0 0 0 0 0 0 0 0 0 0.11055 0.10968 0.11497 0.1204 0.12603 0.12841 0.12935 0.13033 0.12971 0.12889 0.12814 0.12721 0.12639 0.12522 0.12512 0.12471 0.12426 0.12418 0.12403 0.12382 0.12385 0.12386 0.12408 0.12456 0.12502 0.12541 0.12597 0.12637 0.12688 0.1275 0.12819 0.12876 0.12897 0.12922 0.12961 0.12977 0.12989 0.13018 0.13022 0.13032 0.13036 0.13038 0.13009 0.12997 0.12978 0.12962 0.12942 0.12915 0.12883 0.12857 0.12832 0.12799 0.12757 0.12727 0.12697 0.12669 0.12646 0.12637 0.12629 0.12626 0.12626 0.12634 0.12623 0.12611 0.12607 0.12588 0.12573 0.12556 0.12541 0.12525 0.12525 0.12482 0.12454 0.12449 0.12433 0.12423 0.12417 0.12433 0.12445 0.12469 0.12504 0.12536 0.12577 0.12593 0.12622 0.12658
0 0 0 0 0 0 0 0 0 0 0 0 0 0 0 0 0 0 0 0 0 0.10163 0.105 0.10929 0.10934 0.11576 0.12172 0.12816 0.12891 0.12948 0.12949 0.12871 0.12804 0.12732 0.12657 0.12584 0.12487 0.12459 0.12427 0.12401 0.12388 0.12375 0.12351 0.12351 0.12352 0.1238 0.12424 0.1246 0.125 0.12536 0.12572 0.12608 0.12668 0.12741 0.12801 0.12835 0.12872 0.12907 0.12924 0.12932 0.12962 0.12982 0.12999 0.13018 0.13001 0.12989 0.12979 0.12962 0.12945 0.12927 0.12898 0.12871 0.12845 0.12813 0.12771 0.12737 0.127 0.12677 0.1265 0.12633 0.12626 0.12617 0.12612 0.12597 0.12607 0.126 0.126 0.12591 0.12571 0.12552 0.12542 0.12524 0.12512 0.12506 0.12466 0.12439 0.12428 0.12423 0.1241 0.12409 0.12415 0.12429 0.12448 0.12473 0.12503 0.12532 0.12565 0.1261 0.12658
0 0 0 0 0 0 0 0 0 0 0 0 0 0 0 0 0 0 0 0.09541 0.09284 0.0918 0.09882 0.10675 0.10965 0.11648 0.12341 0.13042 0.12988 0.12952 0.12864 0.12756 0.12721 0.12661 0.12597 0.12521 0.12455 0.1242 0.12392 0.12365 0.12354 0.12334 0.12306 0.12301 0.12304 0.1233 0.12377 0.12408 0.12439 0.12476 0.12512 0.12549 0.12588 0.12642 0.12705 0.12757 0.12806 0.12855 0.12875 0.12893 0.12917 0.12938 0.12967 0.13001 0.12997 0.12982 0.12971 0.12954 0.12937 0.12917 0.12894 0.12869 0.12843 0.1281 0.12763 0.12723 0.12691 0.12663 0.12626 0.12612 0.126 0.1259 0.12585 0.12577 0.12575 0.12572 0.12573 0.12569 0.12555 0.1254 0.12536 0.12509 0.12493 0.12483 0.12454 0.12428 0.12413 0.12403 0.12402 0.12393 0.12399 0.12411 0.1243 0.12446 0.12468 0.12496 0.12543 0.12602 0.12657
0 0 0 0 0 0 0 0 0 0 0 0 0 0 0 0 0 0 0.09288 0.0921 0.08724 0.08073 0.09059 0.10091 0.11064 0.11768 0.12509 0.1327 0.13081 0.12928 0.12732 0.12661 0.12623 0.12573 0.12533 0.12473 0.12418 0.12387 0.12361 0.12333 0.12309 0.12284 0.12246 0.12247 0.12242 0.12259 0.12304 0.12345 0.12381 0.12426 0.1246 0.12494 0.12524 0.12569 0.12622 0.12678 0.12746 0.12796 0.12816 0.12839 0.12868 0.12891 0.12924 0.12972 0.12964 0.12962 0.12955 0.1293 0.12914 0.12896 0.12883 0.12854 0.12838 0.12797 0.12749 0.12714 0.12689 0.12652 0.12622 0.12601 0.12585 0.12577 0.12569 0.12566 0.12556 0.1255 0.12562 0.12557 0.12545 0.12525 0.12522 0.12501 0.12479 0.12477 0.1245 0.12421 0.12405 0.12393 0.12386 0.12375 0.12378 0.12393 0.12404 0.1242 0.12433 0.12452 0.12511 0.12579 0.12642
0 0 0 0 0 0 0 0 0 0 0 0 0 0 0 0 0 0.09212 0.09194 0.09281 0.09328 0.08723 0.09644 0.10608 0.11513 0.11991 0.12504 0.1303 0.12909 0.12792 0.1266 0.12625 0.12588 0.12566 0.12509 0.1245 0.12404 0.12382 0.12352 0.12328 0.12316 0.12288 0.12258 0.12251 0.12247 0.12264 0.12296 0.12342 0.1238 0.12406 0.12436 0.1247 0.12495 0.12519 0.12555 0.12622 0.12692 0.12731 0.12757 0.12812 0.12858 0.12875 0.12892 0.12914 0.12924 0.12949 0.12963 0.12951 0.12927 0.12909 0.12888 0.12862 0.12846 0.12805 0.12761 0.12727 0.12703 0.12673 0.12645 0.12621 0.12599 0.12585 0.12583 0.12568 0.12562 0.1256 0.12562 0.12551 0.12546 0.12523 0.12517 0.12491 0.12466 0.1246 0.12434 0.12412 0.12394 0.1238 0.12369 0.12356 0.12356 0.12361 0.1237 0.12392 0.12419 0.12443 0.12493 0.1254 0.12595
0 0 0 0 0 0 0 0 0 0 0 0 0 0 0 0 0.08959 0.08795 0.08645 0.09135 0.0969 0.09329 0.10223 0.11088 0.11947 0.12248 0.12543 0.12837 0.12773 0.12714 0.12641 0.12614 0.12575 0.12533 0.12495 0.12442 0.12408 0.12366 0.12344 0.12325 0.12308 0.12285 0.12264 0.12254 0.12247 0.12255 0.12288 0.12321 0.12354 0.1238 0.12406 0.12436 0.12459 0.12477 0.12507 0.12555 0.12627 0.12672 0.12713 0.12754 0.12803 0.12842 0.12881 0.12901 0.1292 0.12952 0.1298 0.12974 0.1294 0.12937 0.12914 0.1289 0.12864 0.12826 0.12789 0.12754 0.1273 0.127 0.12667 0.12648 0.12619 0.126 0.12583 0.12578 0.12575 0.12565 0.12556 0.1256 0.12548 0.12529 0.12513 0.12485 0.12458 0.12452 0.12421 0.12405 0.12385 0.12373 0.12358 0.1234 0.12339 0.12341 0.12347 0.12373 0.12401 0.12435 0.12475 0.12509 0.12554
0 0 0 0 0 0 0 0 0 0 0 0 0 0 0 0.09361 0.0903 0.08398 0.07811 0.08506 0.09219 0.09927 0.10766 0.11566 0.12379 0.12488 0.12635 0.12726 0.1267 0.12675 0.12638 0.12607 0.12568 0.12502 0.12495 0.12449 0.1239 0.12357 0.12332 0.12308 0.12296 0.12288 0.12273 0.12255 0.12246 0.12258 0.12277 0.12299 0.1233 0.12346 0.12367 0.12394 0.12404 0.12417 0.12439 0.12493 0.12558 0.12599 0.126 0.1266 0.12758 0.12721 0.12788 0.12868 0.12895 0.12942 0.12967 0.12949 0.12953 0.12952 0.12935 0.12909 0.12888 0.12853 0.12816 0.12765 0.12744 0.1272 0.12697 0.12668 0.1264 0.12617 0.126 0.1259 0.12579 0.12571 0.12565 0.1256 0.12541 0.12528 0.12514 0.12484 0.12457 0.12438 0.12413 0.12391 0.12374 0.1236 0.12341 0.12322 0.12325 0.12321 0.12326 0.12359 0.12387 0.12432 0.12458 0.12485 0.12518
0 0 0 0 0 0 0 0 0 0 0 0 0 0 0.09274 0.094 0.09302 0.09172 0.0862 0.09324 0.10011 0.10707 0.11279 0.11826 0.12357 0.12475 0.12618 0.12697 0.12651 0.12643 0.12603 0.12582 0.12545 0.12491 0.12473 0.12428 0.12384 0.12356 0.12325 0.12311 0.123 0.12286 0.12267 0.12258 0.12247 0.12258 0.12285 0.1231 0.1234 0.12375 0.12404 0.12438 0.12436 0.12443 0.12442 0.12382 0.12319 0.12262 0.12443 0.12505 0.12574 0.12562 0.12575 0.12315 0.12552 0.1278 0.12993 0.12969 0.12954 0.12931 0.12903 0.12879 0.1286 0.12822 0.12786 0.12747 0.12722 0.12701 0.1268 0.12654 0.12628 0.12603 0.12591 0.1258 0.12572 0.1256 0.12556 0.12559 0.12532 0.12513 0.1251 0.12483 0.12452 0.12434 0.12402 0.12382 0.12361 0.1235 0.12333 0.12316 0.12313 0.12307 0.12304 0.12343 0.12389 0.12432 0.12476 0.12514 0.12559
0 0 0 0 0 0 0 0 0 0 0 0 0 0.09306 0.09288 0.09048 0.09493 0.09949 0.09451 0.10137 0.10823 0.11501 0.11787 0.12071 0.12324 0.12495 0.12589 0.12683 0.12637 0.12613 0.12584 0.12561 0.12522 0.12471 0.12444 0.12413 0.12386 0.12351 0.12323 0.12313 0.12296 0.12274 0.12248 0.12244 0.12242 0.12243 0.12276 0.12309 0.12337 0.12389 0.1245 0.12502 0.12482 0.12456 0.12435 0.12284 0.12115 0.11941 0 0 0 0.1257 0.12313 0.118 0.12207 0.1264 0.13051 0.13006 0.12959 0.1291 0.12879 0.12856 0.12831 0.128 0.12774 0.1273 0.12709 0.12691 0.12663 0.1263 0.12611 0.1259 0.1258 0.12574 0.12568 0.1256 0.12555 0.12563 0.12544 0.12525 0.12517 0.12483 0.12457 0.12427 0.12402 0.12381 0.12358 0.12344 0.12322 0.12309 0.12302 0.12297 0.12284 0.12331 0.12382 0.12436 0.12492 0.12536 0.1259
0 0 0 0 0 0 0 0 0 0 0 0 0 0.09706 0.08924 0.08259 0.08964 0.09653 0.10259 0.1096 0.11645 0.1235 0.12316 0.12323 0.1233 0.12488 0.12563 0.12653 0.12628 0.12572 0.12591 0.12553 0.12501 0.12446 0.12416 0.12416 0.12381 0.12345 0.12327 0.12319 0.12302 0.12284 0.12246 0.12176 0.12179 0.12225 0.12229 0.12306 0.12357 0.12321 0.1239 0.12547 0.12369 0.1228 0.12456 0.12189 0.11915 0.11648 0 0 0 0 0 0.12007 0.1188 0.12502 0.13109 0.13033 0.12965 0.12904 0.12867 0.12852 0.12826 0.12795 0.12756 0.12717 0.12699 0.12681 0.1265 0.12613 0.12594 0.12571 0.1257 0.12566 0.1255 0.12555 0.12555 0.12565 0.12539 0.12518 0.1251 0.12485 0.12467 0.12441 0.12413 0.12387 0.12361 0.12341 0.12321 0.12307 0.12299 0.12285 0.12266 0.12326 0.12386 0.12445 0.12507 0.12568 0.12635
0 0 0 0 0 0 0 0 0 0 0 0 0.10383 0.10281 0.09995 0.09752 0.10234 0.10689 0.11117 0.11561 0.11977 0.12406 0.12385 0.12404 0.12408 0.12527 0.12577 0.1267 0.12621 0.12563 0.12578 0.12534 0.12484 0.12443 0.12421 0.12404 0.12387 0.12349 0.12311 0.12306 0.12108 0.11915 0.11699 0.12026 0.12083 0.12154 0.12196 0 0 0.12356 0 0.12232 0.12051 0.11907 0.11227 0.11477 0.11709 0.11939 0.1188 0.12075 0.12212 0 0 0 0.12144 0.12596 0.13046 0.12974 0.12902 0.12834 0.128 0.12769 0.12744 0.12723 0.1269 0.12659 0.12643 0.12627 0.12608 0.12595 0.1258 0.12566 0.12568 0.12553 0.12552 0.12546 0.12546 0.1255 0.12545 0.1253 0.12519 0.12499 0.1247 0.12451 0.12423 0.12401 0.12367 0.12348 0.12331 0.12314 0.12305 0.12284 0.12267 0.12315 0.12371 0.12423 0.12486 0.12553 0.12617
0 0 0 0 0 0 0 0 0 0 0 0.10299 0.10208 0.10616 0.11332 0.11199 0.11467 0.11716 0.11957 0.12141 0.12308 0.12475 0.12464 0.12476 0.12495 0.12564 0.12605 0.12673 0.12604 0.12575 0.12553 0.12522 0.12487 0.12456 0.12438 0.12422 0.12396 0.12337 0.12297 0.12285 0.11908 0.11538 0.11157 0.115 0.11777 0 0 0 0 0 0.11984 0.11736 0.11338 0.10753 0.09987 0.10734 0.11485 0.12226 0.12091 0.12121 0.12207 0.12307 0.12343 0.12124 0.12409 0.12681 0.12967 0.129 0.12818 0.12748 0.12716 0.1269 0.12678 0.12661 0.1263 0.12595 0.12583 0.12584 0.12571 0.12567 0.12568 0.12572 0.12563 0.12553 0.12559 0.12546 0.12549 0.1256 0.12553 0.12533 0.12524 0.12494 0.12478 0.12455 0.12424 0.124 0.1237 0.12353 0.12335 0.12328 0.12314 0.12293 0.12266 0.12311 0.12355 0.12399 0.1247 0.12535 0.1261
0 0 0 0 0 0 0 0 0 0 0.10703 0.1009 0.09563 0.10598 0.11619 0.12632 0.12693 0.12741 0.12785 0.12713 0.12624 0.12547 0.12565 0.12544 0.12558 0.12587 0.12627 0.12669 0.12612 0.12582 0.12554 0.12514 0.12486 0.12463 0.12455 0.12434 0.12391 0.12326 0.12286 0.12267 0.12013 0.11213 0.10613 0 0 0 0 0 0 0 0 0 0 0 0.08755 0.09993 0.11261 0.12504 0.12467 0.12421 0.12364 0.12419 0.12474 0.12533 0.12652 0.12773 0.12874 0.12816 0.12743 0.1267 0.12648 0.1262 0.126 0.12577 0.12546 0.12531 0.12532 0.12531 0.12528 0.12536 0.12547 0.12549 0.12548 0.1255 0.12552 0.12548 0.12554 0.12561 0.12558 0.12539 0.12536 0.12508 0.12481 0.1245 0.12428 0.12399 0.12368 0.12356 0.12348 0.12344 0.12326 0.12299 0.12272 0.12305 0.1234 0.12379 0.12453 0.12523 0.126
0 0 0 0 0 0 0 0 0 0 0.11216 0.10913 0.10733 0.11383 0.12019 0.1263 0.12667 0.12703 0.12733 0.12671 0.12612 0.12585 0.12578 0.12582 0.12567 0.12592 0.12638 0.12678 0.12626 0.12586 0.12544 0.12506 0.12489 0.12464 0.12447 0.12425 0.12387 0.12327 0.12269 0.1223 0.11958 0 0 0 0 0 0 0 0 0 0 0 0 0 0.10004 0.10814 0.11614 0.12408 0.12395 0.12365 0.12335 0.1237 0.12415 0.12469 0.1257 0.12667 0.12755 0.12714 0.12678 0.12625 0.12605 0.12575 0.12552 0.12538 0.12504 0.12496 0.12501 0.12512 0.12526 0.12533 0.12533 0.12543 0.12524 0.12527 0.12533 0.12529 0.12532 0.12528 0.12514 0.12504 0.12501 0.12476 0.12455 0.1243 0.12415 0.12397 0.12377 0.12366 0.12352 0.12349 0.12331 0.1231 0.1229 0.12311 0.12335 0.12366 0.1243 0.12494 0.12556
0 0 0 0 0 0 0 0 0 0.11731 0.11873 0.12201 0.119 0.12154 0.12405 0.12629 0.12642 0.12661 0.12682 0.12656 0.12628 0.12601 0.12605 0.12595 0.12597 0.12622 0.12664 0.12692 0.12642 0.12597 0.12538 0.12503 0.12489 0.12465 0.12441 0.12421 0.12398 0.12326 0.1225 0.12187 0.1213 0 0 0 0 0 0 0 0 0 0 0 0 0.11612 0.11284 0.11629 0.11979 0.12341 0.12324 0.12314 0.12298 0.1234 0.12365 0.12408 0.12501 0.12591 0.12669 0.12639 0.12597 0.12552 0.12522 0.12505 0.12482 0.12481 0.12473 0.12461 0.12465 0.12481 0.12499 0.12504 0.12514 0.1253 0.12519 0.12519 0.12514 0.12503 0.1249 0.12488 0.12477 0.12468 0.12453 0.12441 0.12427 0.12418 0.12405 0.12396 0.12386 0.12377 0.12363 0.12357 0.12337 0.12318 0.12301 0.12319 0.12334 0.12357 0.12409 0.12461 0.12506
0 0 0 0 0 0 0 0 0.11809 0.11996 0.12362 0.12739 0.13048 0.12905 0.12747 0.12598 0.12608 0.12609 0.12613 0.12615 0.12617 0.12623 0.12623 0.12614 0.12626 0.12638 0.12664 0.12676 0.12625 0.12581 0.12519 0.12491 0.12475 0.12454 0.1243 0.12415 0.124 0.12312 0.1223 0.12147 0.12151 0.12108 0 0.11896 0.11847 0 0 0 0 0 0 0 0.11959 0.12271 0.1254 0.1245 0.1235 0.12257 0.12253 0.1226 0.12261 0.12297 0.12334 0.12377 0.12434 0.12502 0.12572 0.12554 0.12528 0.12512 0.12499 0.12479 0.12457 0.12438 0.12447 0.12432 0.12442 0.12457 0.12475 0.12496 0.12515 0.12527 0.12515 0.12509 0.12498 0.12485 0.12476 0.12467 0.12454 0.12434 0.1242 0.12415 0.12411 0.12407 0.12403 0.12399 0.12396 0.1239 0.12377 0.12372 0.12353 0.12333 0.12319 0.12335 0.12345 0.12361 0.12399 0.12429 0.12461
0 0 0 0 0 0 0 0 0.12003 0.12147 0.12323 0.12532 0.12988 0.12841 0.12685 0.1253 0.12542 0.12545 0.12546 0.12555 0.12562 0.12579 0.12588 0.12588 0.12594 0.126 0.12609 0.12613 0.12581 0.12557 0.12514 0.12483 0.12463 0.12438 0.12427 0.12416 0.1241 0.12349 0.1229 0.12235 0.12222 0.12228 0.12136 0.12083 0.12021 0 0 0 0 0 0 0.11863 0.12016 0.12169 0.1246 0.12394 0.1232 0.12258 0.12255 0.12256 0.12262 0.12298 0.12326 0.12365 0.12414 0.1246 0.12507 0.12498 0.12498 0.12488 0.12468 0.12454 0.12439 0.12435 0.12435 0.12435 0.12441 0.12457 0.12474 0.12481 0.12492 0.12496 0.12483 0.12489 0.12478 0.12469 0.12457 0.12447 0.12438 0.12424 0.1241 0.1241 0.12412 0.1241 0.1241 0.12403 0.12397 0.12394 0.12389 0.12381 0.12368 0.12345 0.12334 0.12344 0.12357 0.12364 0.12397 0.12432 0.1246
0 0 0 0 0 0 0 0 0 0.12054 0.12227 0.12423 0.12906 0.12771 0.12621 0.12473 0.12477 0.12482 0.12479 0.12499 0.12524 0.12552 0.12564 0.12568 0.12577 0.12569 0.12574 0.1258 0.12557 0.1254 0.12517 0.12493 0.12466 0.12444 0.12437 0.12437 0.12429 0.12387 0.12346 0.12313 0.12364 0.12338 0.12296 0.12252 0.12209 0.12162 0.11862 0.11226 0 0 0.11824 0.12114 0.12089 0.1214 0.12366 0.12334 0.12285 0.12255 0.12256 0.12261 0.12263 0.12299 0.12337 0.1236 0.12394 0.12424 0.12453 0.12462 0.12457 0.12458 0.12448 0.12439 0.12432 0.12427 0.12429 0.12432 0.12442 0.12463 0.12484 0.12476 0.12474 0.12467 0.12458 0.12452 0.12449 0.12439 0.1243 0.12422 0.12417 0.12407 0.12407 0.12411 0.12412 0.12406 0.1241 0.12401 0.12402 0.12401 0.124 0.12392 0.12379 0.12372 0.12358 0.12364 0.12363 0.12366 0.12399 0.12438 0.1247
0 0 0 0 0 0 0 0 0 0.11833 0.12065 0.12483 0.12829 0.127 0.12566 0.12418 0.12421 0.1242 0.12419 0.12454 0.12491 0.12534 0.12534 0.1253 0.12527 0.12532 0.12538 0.12547 0.12531 0.12527 0.12503 0.12484 0.12464 0.12446 0.12446 0.12449 0.12445 0.12422 0.12408 0.12391 0.12408 0.12417 0.12428 0.12451 0.12473 0.12494 0.11631 0.10779 0.09923 0.10724 0.11528 0.12337 0.12318 0.1231 0.12286 0.12281 0.12256 0.12258 0.1226 0.1226 0.12254 0.12286 0.1232 0.12345 0.12365 0.12391 0.12408 0.12411 0.12418 0.12424 0.12411 0.12414 0.12405 0.12412 0.12429 0.12445 0.12448 0.12464 0.12483 0.12467 0.12452 0.12434 0.12435 0.12436 0.12426 0.12421 0.12409 0.12395 0.12387 0.12391 0.12392 0.12401 0.1241 0.12423 0.12419 0.12409 0.12399 0.12402 0.124 0.12393 0.12388 0.1239 0.12381 0.12382 0.12378 0.12376 0.12402 0.12439 0.12472
0 0 0 0 0 0 0 0 0 0.11384 0.11462 0.11692 0.10991 0.1147 0.11957 0.12435 0.12436 0.12437 0.12427 0.12456 0.12493 0.12528 0.12533 0.1254 0.12539 0.12538 0.12543 0.12548 0.12555 0.12567 0.12575 0.1258 0.12587 0.12599 0.12553 0.12505 0.12449 0.12426 0.1241 0.12388 0.12388 0.12387 0.12378 0.12389 0.12406 0.12417 0.11849 0 0.10704 0.11246 0.11788 0.12325 0.12314 0.12296 0.12283 0.12267 0.12258 0.12259 0.12266 0.12274 0.12279 0.12305 0.12339 0.12362 0.12382 0.12394 0.12415 0.12423 0.1243 0.1243 0.12429 0.12413 0.12403 0.12408 0.12419 0.12425 0.12439 0.12441 0.12446 0.12439 0.12427 0.12419 0.1242 0.12417 0.12413 0.12408 0.12405 0.12403 0.12404 0.12413 0.12419 0.12422 0.12427 0.12445 0.12435 0.12424 0.12419 0.12416 0.12413 0.12403 0.12402 0.12405 0.12398 0.12387 0.12373 0.12363 0.12395 0.12433 0.12468
0 0 0 0 0 0 0 0 0 0 0.10349 0.09752 0.09133 0.10239 0.11358 0.12448 0.12441 0.12437 0.1243 0.1245 0.1248 0.12514 0.12526 0.1254 0.12548 0.12549 0.12556 0.12567 0 0 0 0.12662 0.1272 0.12758 0.12662 0.12562 0.12452 0.12431 0.12403 0.12369 0.12364 0.12351 0.12337 0.12342 0.12343 0.12343 0.12061 0.11777 0.11488 0.11768 0.12043 0.1231 0.12301 0.12282 0.12267 0.12271 0.12266 0.12266 0.12284 0.12293 0.12297 0.12326 0.12355 0.12385 0.12401 0.12414 0.1243 0.12438 0.12436 0.12423 0.12419 0.1242 0.12411 0.12417 0.12412 0.12413 0.1241 0.12411 0.12426 0.12415 0.12407 0.12402 0.12401 0.12404 0.12397 0.12404 0.12407 0.12413 0.12424 0.12434 0.12444 0.12448 0.1245 0.12463 0.12454 0.1245 0.12443 0.12433 0.12423 0.12418 0.1242 0.12416 0.1241 0.12391 0.12369 0.12353 0.12383 0.12425 0.12469
0 0 0 0 0 0 0 0 0 0 0 0.08311 0.07278 0.09013 0.11601 0.12442 0.12248 0.12315 0.12416 0.12441 0.12466 0.12489 0.12512 0.12535 0.12542 0.12552 0.12576 0.12593 0 0 0 0.12701 0.12846 0.12915 0.12767 0.12616 0.12461 0.12427 0.12402 0.12373 0.12346 0.12323 0.12294 0.12287 0.12279 0.12267 0.12273 0.12279 0.12282 0.12293 0.12303 0.12313 0.12293 0.12289 0.12276 0.12277 0.12272 0.12267 0.12284 0.12302 0.12315 0.12349 0.12382 0.12414 0.12428 0.12441 0.12451 0.1245 0.12439 0.12429 0.12427 0.12423 0.12425 0.12418 0.12417 0.12409 0.12409 0.12408 0.12414 0.12397 0.12388 0.12372 0.1238 0.12377 0.12379 0.12393 0.12408 0.1242 0.12436 0.12458 0.12474 0.12465 0.12469 0.12474 0.12469 0.12465 0.12456 0.12447 0.12434 0.12437 0.12433 0.12431 0.1242 0.12394 0.12369 0.12353 0.12378 0.12418 0.12465
0 0 0 0 0 0 0 0 0 0 0 0 0.08811 0.09801 0.11195 0.11911 0.12071 0.12218 0.12383 0.12413 0.12437 0.12465 0.12502 0.12533 0.12552 0.12226 0.11906 0 0 0.12023 0.12601 0.12648 0.12692 0.12751 0.12653 0.12547 0.12436 0.12404 0.12384 0.12355 0.12331 0.12307 0.12282 0.12282 0.12274 0.12271 0.12276 0.12285 0.1229 0.12303 0.12311 0.12319 0.12317 0.12314 0.12311 0.12303 0.12295 0.12293 0.1231 0.12328 0.12341 0.12369 0.12398 0.12427 0.12435 0.12439 0.1245 0.12437 0.12432 0.1243 0.12425 0.12417 0.12416 0.12418 0.12409 0.12408 0.12404 0.12399 0.12402 0.12396 0.12393 0.12386 0.1239 0.12382 0.12386 0.12394 0.12405 0.12423 0.12436 0.12446 0.12459 0.12462 0.12472 0.12479 0.12475 0.12471 0.12471 0.12463 0.12457 0.12454 0.12449 0.12441 0.12435 0.12406 0.12379 0.12361 0.12385 0.12408 0.12431
0 0 0 0 0 0 0 0 0 0 0 0 0 0 0 0.11531 0.11858 0.1213 0.1235 0.12381 0.12413 0.12442 0.12487 0.1253 0.12563 0.119 0.11247 0.1059 0.11205 0.11829 0.12455 0.12503 0.12538 0.12585 0.1253 0.12475 0.12415 0.12391 0.12365 0.12337 0.12317 0.12295 0.12275 0.12275 0.12268 0.12267 0.12274 0.12287 0.12294 0.12304 0.12315 0.12325 0.12325 0.12329 0.12328 0.12328 0.12324 0.12326 0.12337 0.12349 0.12367 0.12386 0.12408 0.12431 0.12436 0.12436 0.12438 0.12429 0.12422 0.12428 0.1242 0.12421 0.12423 0.12418 0.12412 0.12403 0.12398 0.12391 0.12385 0.12391 0.12392 0.12393 0.12397 0.12407 0.12416 0.12419 0.12423 0.1243 0.12431 0.12441 0.12461 0.12464 0.12474 0.12483 0.12489 0.12491 0.12492 0.12485 0.12481 0.12479 0.12472 0.12465 0.12444 0.12426 0.12405 0.12379 0.12391 0.124 0.12413
0 0 0 0 0 0 0 0 0 0 0 0 0 0 0 0.11473 0.11818 0.12148 0.12314 0.12345 0.1238 0.12416 0.12474 0.12526 0.12572 0.11569 0.10575 0.09566 0.10486 0 0.12307 0.12347 0.12383 0.12424 0.12421 0.12407 0.12399 0.12378 0.12348 0.12324 0.12304 0.12284 0.12266 0.12265 0.12263 0.12262 0.12274 0.1229 0.123 0.1231 0.12319 0.12333 0.12344 0.12343 0.12339 0.12348 0.12347 0.12349 0.12363 0.12382 0.12404 0.12413 0.12416 0.12434 0.12429 0.12428 0.12428 0.12432 0.12426 0.12429 0.12425 0.12427 0.12417 0.12408 0.12413 0.12401 0.12391 0.12386 0.1239 0.12391 0.12402 0.12404 0.1241 0.12429 0.12446 0.12436 0.12437 0.12431 0.12437 0.12445 0.12455 0.12464 0.12477 0.12492 0.12498 0.12506 0.12518 0.12514 0.12506 0.12506 0.12497 0.12481 0.12465 0.12444 0.12421 0.12395 0.12401 0.12397 0.124
0 0 0 0 0 0 0 0 0 0 0 0 0 0.10769 0.11037 0.11298 0.11617 0.12059 0.12304 0.12348 0.12391 0.12437 0.12486 0.12524 0.12564 0.11894 0.11232 0.10556 0.11181 0.11843 0.124 0.1241 0.12415 0.12418 0.12416 0.12407 0.12397 0.12373 0.12347 0.12326 0.12315 0.12306 0.12296 0.123 0.12305 0.12308 0.12312 0.1232 0.12328 0.12336 0.12344 0.12352 0.12358 0.12363 0.1236 0.12366 0.12373 0.12366 0.12376 0.12392 0.12404 0.1241 0.12416 0.12425 0.12421 0.1242 0.12424 0.12422 0.12423 0.12427 0.12428 0.12429 0.12429 0.12423 0.12425 0.12421 0.12408 0.12393 0.1239 0.12391 0.12401 0.12407 0.12421 0.12431 0.12444 0.12446 0.12447 0.12454 0.12453 0.12459 0.12471 0.12481 0.12497 0.12512 0.12521 0.12524 0.12539 0.12523 0.12513 0.12517 0.12501 0.12492 0.12485 0.1247 0.12446 0.12426 0.1243 0.12422 0.12416
0 0 0 0 0 0 0 0 0 0 0 0 0.10273 0.10508 0.10793 0.11003 0.11384 0.11886 0.12285 0.12346 0.12408 0.12468 0.12506 0.12526 0.12551 0.12227 0.11896 0.11561 0.11867 0.12175 0.12482 0.12464 0.12435 0.12412 0.12406 0.12401 0.12389 0.1237 0.1235 0.1233 0.12325 0.12322 0.1232 0.12326 0.12333 0.12335 0.12337 0.12343 0.1235 0.12355 0.12361 0.12365 0.12368 0.12375 0.12374 0.12374 0.12373 0.12372 0.12388 0.12395 0.12399 0.12402 0.12408 0.12414 0.12416 0.12423 0.1243 0.12426 0.12429 0.12435 0.12441 0.12447 0.12447 0.12445 0.1244 0.12435 0.12427 0.12418 0.1241 0.12411 0.12412 0.12417 0.12422 0.12435 0.1245 0.12451 0.12459 0.12468 0.12473 0.12483 0.12498 0.12493 0.12506 0.12514 0.12521 0.12527 0.12527 0.12529 0.12526 0.12526 0.12516 0.12507 0.12506 0.12488 0.12471 0.12452 0.12451 0.12446 0.12435
0 0 0 0 0 0 0 0 0.10938 0.10821 0.10566 0.10131 0.09769 0.09974 0.10178 0.1038 0.11013 0.11641 0.12265 0.12342 0.12418 0.12497 0.12514 0.12532 0.12543 0.12548 0.12548 0.12545 0.12552 0.12557 0.12562 0.1251 0.12456 0.12398 0.12393 0.1239 0.12382 0.12365 0.12336 0.12319 0.12322 0.12329 0.12332 0.12338 0.12349 0.12356 0.12363 0.12363 0.12371 0.12374 0.12375 0.12377 0.12372 0.12381 0.12384 0.12388 0.12387 0.12377 0.1239 0.12399 0.12409 0.12407 0.12403 0.12402 0.1241 0.12415 0.12423 0.1243 0.12442 0.12448 0.12455 0.12458 0.12462 0.12461 0.12459 0.12458 0.12444 0.12431 0.1242 0.12419 0.12427 0.12428 0.12432 0.12433 0.1245 0.12474 0.12482 0.12497 0.12512 0.1252 0.1253 0.12517 0.12528 0.12523 0.12526 0.12533 0.12537 0.12536 0.12541 0.12537 0.12529 0.12525 0.12522 0.12513 0.12494 0.12477 0.12471 0.1246 0.12447
0 0 0 0 0 0 0 0.11164 0.11121 0.11199 0.1107 0.10853 0.10628 0.1076 0.1088 0.10996 0.11462 0.11893 0.12319 0.12374 0.12429 0.12481 0.1249 0.12493 0.1249 0.12497 0.12499 0.12503 0.12506 0.1251 0.12514 0.1248 0.12443 0.12407 0.12405 0.12401 0.12391 0.12376 0.12358 0.12343 0.12351 0.12355 0.12355 0.1236 0.12365 0.12369 0.12373 0.12376 0.12384 0.12389 0.12387 0.12394 0.12395 0.12393 0.1239 0.12396 0.12391 0.12396 0.124 0.12402 0.12401 0.12399 0.124 0.12406 0.12413 0.12423 0.12432 0.12437 0.12448 0.12449 0.12456 0.12468 0.12475 0.12465 0.12467 0.12463 0.12447 0.1244 0.12428 0.12426 0.12426 0.12429 0.12429 0.12434 0.12433 0.1245 0.12464 0.12482 0.12501 0.12518 0.1253 0.1253 0.1253 0.12532 0.12532 0.12542 0.12546 0.12543 0.12549 0.1255 0.1255 0.12553 0.12544 0.12531 0.12515 0.12501 0.12486 0.12474 0.12469
0 0 0 0 0 0 0.11302 0.11332 0.11266 0.11237 0.11373 0.11624 0.11493 0.11553 0.1161 0.11658 0.11915 0.1215 0.12381 0.12413 0.1244 0.12462 0.1246 0.12453 0.12445 0.12447 0.12449 0.12453 0.12458 0.12463 0.12465 0.12447 0.12429 0.12408 0.12408 0.12403 0.12396 0.12384 0.12382 0.12372 0.12375 0.12374 0.12376 0.1238 0.12381 0.12383 0.12386 0.12387 0.12395 0.12398 0.12398 0.12398 0.124 0.1241 0.1241 0.12413 0.12406 0.12399 0.12401 0.12406 0.124 0.12399 0.12403 0.12409 0.12415 0.12424 0.12432 0.12444 0.12455 0.12457 0.12469 0.12474 0.12478 0.1247 0.12469 0.12468 0.12458 0.12451 0.12435 0.12428 0.12426 0.12421 0.12426 0.12422 0.12423 0.12439 0.12452 0.12479 0.125 0.12523 0.12545 0.12545 0.12545 0.12545 0.12548 0.12547 0.12558 0.12557 0.12562 0.12572 0.12575 0.12576 0.12562 0.12549 0.12534 0.12525 0.1251 0.12494 0.12486
0 0 0 0 0 0 0.11284 0.11289 0.11205 0.11034 0.11477 0.11914 0.12357 0.12351 0.12334 0.1231 0.12363 0.124 0.12439 0.12448 0.1245 0.12446 0.12428 0.12407 0.12386 0.12392 0.12394 0.12393 0.12404 0.12404 0.12408 0.12408 0.12409 0.12402 0.12402 0.124 0.12394 0.12388 0.12386 0.12388 0.12399 0.12401 0.12398 0.124 0.12403 0.12402 0.12405 0.12405 0.12404 0.12409 0.12412 0.12412 0.12414 0.12417 0.12414 0.12415 0.12412 0.12414 0.12412 0.12402 0.12402 0.12405 0.12406 0.12409 0.12423 0.12433 0.12453 0.12459 0.12465 0.1248 0.12486 0.12493 0.12504 0.12492 0.12484 0.12475 0.12469 0.12458 0.12442 0.12427 0.12429 0.12423 0.12423 0.12418 0.12419 0.12444 0.12449 0.12474 0.12499 0.1252 0.12546 0.12561 0.12554 0.12568 0.12562 0.12562 0.12568 0.12572 0.12581 0.12583 0.12591 0.12596 0.12588 0.12575 0.12562 0.12555 0.12538 0.12525 0.12513
0 0 0 0 0 0.11169 0.11246 0.11355 0.11501 0.11512 0.11812 0.1212 0.12424 0.12418 0.12411 0.124 0.12421 0.1243 0.12448 0.12441 0.12432 0.12425 0.12415 0.12404 0.12391 0.12395 0.12398 0.12403 0.1241 0.12414 0.12417 0.12417 0.12419 0.12417 0.12414 0.12412 0.12407 0.12402 0.124 0.12406 0.12411 0.1241 0.12412 0.12412 0.12415 0.12414 0.12416 0.12416 0.12423 0.12426 0.1243 0.12434 0.12437 0.1244 0.12435 0.12435 0.12432 0.12436 0.12441 0.12428 0.12418 0.12421 0.12425 0.12431 0.12435 0.12449 0.1246 0.1247 0.12491 0.12502 0.12507 0.12519 0.12522 0.12513 0.125 0.12498 0.12487 0.12467 0.1245 0.12439 0.1243 0.12426 0.12426 0.12422 0.12423 0.12434 0.12447 0.1246 0.12477 0.12496 0.12514 0.12525 0.12533 0.12541 0.1253 0.12538 0.12549 0.1255 0.1256 0.12569 0.12573 0.12579 0.12576 0.1257 0.12563 0.12554 0.12536 0.12534 0.12531
0 0 0 0 0.10998 0.11036 0.11007 0.11302 0.11807 0.11983 0.12147 0.12312 0.12478 0.12485 0.12487 0.12484 0.12478 0.12463 0.12446 0.12429 0.12415 0.12402 0.12402 0.12399 0.12396 0.12403 0.12402 0.12412 0.12417 0.12418 0.12419 0.12423 0.12422 0.12421 0.12425 0.12424 0.12417 0.12417 0.12415 0.12416 0.12418 0.12424 0.12424 0.12428 0.12432 0.12433 0.12432 0.12432 0.12435 0.12443 0.12446 0.12449 0.12451 0.12457 0.12461 0.12453 0.12449 0.1245 0.12444 0.12441 0.12439 0.1244 0.12444 0.12448 0.12456 0.12475 0.12483 0.12493 0.12505 0.12516 0.1253 0.12537 0.12542 0.12528 0.1252 0.12517 0.12506 0.12489 0.12478 0.12463 0.12449 0.12432 0.12424 0.12422 0.1242 0.12428 0.12433 0.12439 0.12457 0.1247 0.1248 0.12496 0.12506 0.12515 0.12507 0.12514 0.12523 0.12533 0.12543 0.12554 0.12556 0.12555 0.12555 0.12557 0.12559 0.12556 0.12546 0.12545 0.12548
0 0 0 0 0.10938 0.10851 0.10647 0.11255 0.11854 0.12436 0.12471 0.12505 0.12525 0.12541 0.12554 0.12563 0.12529 0.12484 0.12435 0.12418 0.12398 0.12375 0.12382 0.12388 0.1239 0.12397 0.12402 0.12409 0.12415 0.12415 0.12415 0.12415 0.12416 0.12418 0.12423 0.12428 0.12425 0.12426 0.12425 0.12429 0.12431 0.12434 0.12434 0.1244 0.12444 0.12445 0.12449 0.1245 0.12448 0.12451 0.12454 0.12465 0.12463 0.12468 0.12471 0.12465 0.12458 0.1246 0.1246 0.12455 0.1245 0.12454 0.12463 0.12466 0.1248 0.1249 0.12513 0.12527 0.12538 0.12546 0.1255 0.12546 0.12553 0.12542 0.12551 0.12549 0.12525 0.12511 0.12501 0.12476 0.12454 0.12428 0.12422 0.12408 0.12408 0.12411 0.12426 0.12434 0.12446 0.12456 0.12457 0.1247 0.12478 0.12489 0.12492 0.12497 0.12507 0.12516 0.12525 0.12533 0.12532 0.1253 0.1253 0.12537 0.12545 0.12558 0.12559 0.12567 0.12567
0 0 0 0.10247 0.1074 0.10999 0.11144 0.11566 0.11979 0.12382 0.12424 0.12461 0.12493 0.12504 0.12511 0.12513 0.12486 0.12453 0.12425 0.12414 0.12398 0.12377 0.12381 0.12387 0.12391 0.12399 0.12405 0.12411 0.12415 0.12417 0.12416 0.12419 0.12421 0.12422 0.12425 0.12425 0.12429 0.12429 0.12433 0.1244 0.12444 0.12449 0.12449 0.12455 0.1246 0.12467 0.12473 0.12472 0.12479 0.12483 0.12485 0.12493 0.12495 0.12498 0.125 0.12498 0.12496 0.12496 0.12494 0.12497 0.12496 0.12506 0.12504 0.12505 0.12522 0.12535 0.12544 0.12564 0.12566 0.12569 0.12562 0.12561 0.12563 0.12555 0.12557 0.12555 0.12541 0.12526 0.12512 0.12488 0.1247 0.1244 0.12428 0.1243 0.12417 0.1242 0.12425 0.12429 0.12437 0.1245 0.12451 0.1245 0.12454 0.12459 0.12465 0.12467 0.12473 0.12478 0.12487 0.12497 0.12496 0.12492 0.12492 0.12495 0.12506 0.1252 0.12525 0.12535 0.12539
0 0 0 0.09229 0.10079 0.11191 0.11631 0.11872 0.12105 0.12326 0.1237 0.12412 0.12449 0.12456 0.12454 0.1245 0.12439 0.12421 0.12407 0.12405 0.12394 0.12378 0.12382 0.12388 0.12396 0.124 0.12402 0.12409 0.12411 0.1241 0.12412 0.12412 0.12411 0.12412 0.12418 0.12421 0.12424 0.12429 0.12434 0.12438 0.12448 0.12452 0.12454 0.12463 0.12476 0.12484 0.12492 0.12497 0.12504 0.12513 0.12514 0.12521 0.12522 0.1253 0.12535 0.12539 0.12542 0.12538 0.12541 0.12536 0.12542 0.1255 0.12551 0.12558 0.12572 0.12591 0.12594 0.12597 0.12597 0.12588 0.12585 0.12587 0.12586 0.12594 0.12584 0.1257 0.12555 0.12547 0.12526 0.12495 0.12475 0.12459 0.1245 0.12449 0.1244 0.12434 0.12436 0.12434 0.12429 0.12434 0.12436 0.1243 0.1243 0.12435 0.12437 0.12443 0.12444 0.12448 0.12451 0.12456 0.12454 0.12453 0.12459 0.12463 0.12475 0.1248 0.12496 0.12504 0.12515
0 0 0 0.07644 0.09167 0.10652 0.12088 0.12164 0.12221 0.1227 0.12315 0.12357 0.12394 0.12398 0.12396 0.12388 0.12391 0.12389 0.12384 0.1239 0.12385 0.12375 0.12384 0.12391 0.12397 0.12402 0.12402 0.12403 0.12401 0.12397 0.12395 0.12398 0.12407 0.12409 0.12411 0.12414 0.1242 0.12424 0.12431 0.12443 0.12447 0.12454 0.12462 0.12475 0.12484 0.12495 0.12511 0.12523 0.12536 0.12541 0.12546 0.12554 0.12559 0.12564 0.12573 0.12579 0.12582 0.12582 0.12583 0.12581 0.12586 0.12596 0.12599 0.12602 0.12615 0.12636 0.12637 0.12643 0.12636 0.1263 0.12634 0.12634 0.12632 0.1262 0.12611 0.126 0.12576 0.1256 0.12537 0.12508 0.12494 0.12476 0.12472 0.12461 0.12451 0.12451 0.12448 0.12436 0.12433 0.12427 0.12422 0.12419 0.12424 0.12423 0.12425 0.12421 0.12421 0.12422 0.12422 0.1242 0.12422 0.12422 0.12418 0.12433 0.12441 0.12451 0.12466 0.12479 0.12491
0 0 0 0.09383 0.10392 0.11379 0.12343 0.12368 0.12388 0.12385 0.12395 0.12405 0.12409 0.12407 0.12398 0.12385 0.1239 0.12389 0.12388 0.12389 0.12388 0.12383 0.12385 0.12392 0.12395 0.12395 0.12393 0.12389 0.1239 0.12388 0.12388 0.12393 0.124 0.12403 0.12411 0.12419 0.12427 0.12436 0.12442 0.12448 0.12458 0.12466 0.12471 0.12489 0.12501 0.12518 0.12538 0.12552 0.12567 0.12571 0.12581 0.12589 0.12605 0.12619 0.12625 0.1263 0.12635 0.12642 0.12644 0.12637 0.12644 0.12643 0.12647 0.12652 0.12657 0.12676 0.12692 0.12706 0.12698 0.12693 0.12685 0.12683 0.12677 0.12669 0.12656 0.12643 0.12618 0.1259 0.1257 0.12545 0.12524 0.12512 0.12507 0.12499 0.12488 0.1248 0.12479 0.12477 0.12473 0.12474 0.12469 0.12457 0.1245 0.1245 0.12439 0.12435 0.1243 0.12425 0.12423 0.12425 0.12432 0.12435 0.12438 0.12445 0.12458 0.12464 0.1248 0.12489 0.12502
0.12386 0.1247 0.1168 0.11112 0.11602 0.12098 0.12576 0.12552 0.12526 0.12488 0.1247 0.12448 0.12417 0.12413 0.124 0.12381 0.12385 0.12389 0.12393 0.12395 0.12394 0.12388 0.12389 0.12389 0.12383 0.1238 0.12381 0.12377 0.12377 0.12377 0.12381 0.12388 0.12393 0.124 0.12413 0.1242 0.12429 0.12437 0.12444 0.1245 0.12464 0.12474 0.12479 0.12497 0.12515 0.12542 0.12565 0.12584 0.12601 0.12609 0.12618 0.12632 0.1264 0.12656 0.12669 0.12672 0.12682 0.12698 0.12696 0.12702 0.12708 0.12706 0.12702 0.12699 0.12702 0.12715 0.12735 0.12746 0.12744 0.12734 0.12724 0.12713 0.12717 0.12706 0.12688 0.12675 0.12642 0.12621 0.12593 0.12573 0.12555 0.12533 0.12523 0.12515 0.12507 0.12514 0.1252 0.12518 0.12515 0.12516 0.12513 0.12494 0.12485 0.1247 0.12459 0.1245 0.12437 0.1244 0.12438 0.12437 0.12441 0.1245 0.12452 0.12459 0.12476 0.12481 0.1249 0.12499 0.12517
0.12299 0.12473 0.12637 0.12797 0.12793 0.128 0.12778 0.12722 0.12656 0.12582 0.12535 0.12481 0.12423 0.1242 0.12399 0.12377 0.12385 0.12392 0.12396 0.12399 0.1239 0.1238 0.12381 0.12375 0.12364 0.12363 0.12358 0.12352 0.1236 0.12361 0.12364 0.12378 0.12389 0.12399 0.12411 0.1242 0.12428 0.12438 0.12445 0.12454 0.1247 0.12484 0.12497 0.12522 0.12544 0.12573 0.12595 0.12614 0.12628 0.12641 0.12652 0.12669 0.12681 0.12688 0.12706 0.12729 0.12736 0.12745 0.12751 0.12762 0.12771 0.12761 0.12757 0.12748 0.12749 0.12762 0.1278 0.12784 0.12785 0.12791 0.12776 0.12756 0.12746 0.1272 0.12704 0.12686 0.1266 0.12636 0.12615 0.12594 0.12576 0.12562 0.12555 0.12551 0.12554 0.12554 0.12556 0.12563 0.12564 0.1256 0.12559 0.12538 0.12519 0.12495 0.12479 0.12469 0.12457 0.1245 0.12442 0.12441 0.12451 0.12459 0.12471 0.12484 0.12494 0.125 0.12507 0.12514 0.1253
0.12366 0.12495 0.1263 0.12773 0.12791 0.12818 0.12829 0.12783 0.12734 0.12668 0.12617 0.12549 0.12479 0.12458 0.12435 0.12403 0.124 0.12396 0.1239 0.12388 0.12384 0.12376 0.12371 0.1236 0.12353 0.12352 0.12354 0.12352 0.1236 0.12372 0.1238 0.12399 0.12411 0.12426 0.12439 0.12446 0.12454 0.12462 0.12472 0.12482 0.12501 0.12519 0.12536 0.12562 0.12587 0.12612 0.12631 0.12659 0.12681 0.12693 0.12704 0.12726 0.12742 0.12759 0.12779 0.12796 0.12801 0.12814 0.1281 0.12814 0.12822 0.12817 0.12804 0.12797 0.12788 0.12791 0.12814 0.12816 0.12808 0.12814 0.12804 0.12791 0.12778 0.12762 0.12738 0.12723 0.127 0.12674 0.12654 0.12638 0.12623 0.12607 0.12608 0.12616 0.12622 0.12639 0.12658 0.12683 0.1268 0.12677 0.12672 0.12636 0.12599 0.12566 0.1254 0.12523 0.12505 0.12505 0.12506 0.12513 0.12528 0.12543 0.12554 0.12562 0.12561 0.12559 0.1256 0.12566 0.1257
0.12409 0.12511 0.12607 0.12709 0.12769 0.12824 0.12862 0.12832 0.12787 0.12735 0.1268 0.12609 0.1253 0.12495 0.12456 0.12413 0.12404 0.12388 0.12378 0.12374 0.12367 0.1236 0.12353 0.12345 0.12337 0.1234 0.12344 0.12344 0.12363 0.12382 0.12398 0.12415 0.12431 0.12448 0.12459 0.12472 0.12482 0.12495 0.12506 0.12514 0.12527 0.12546 0.12571 0.12602 0.12629 0.12651 0.12677 0.12708 0.12725 0.12743 0.12757 0.12785 0.12802 0.1282 0.12838 0.12861 0.12876 0.12884 0.12883 0.12883 0.12881 0.12863 0.12855 0.12854 0.12851 0.12847 0.12846 0.1285 0.12851 0.12836 0.12824 0.12821 0.12822 0.12801 0.12784 0.12761 0.12739 0.12716 0.12692 0.12682 0.12676 0.12667 0.12677 0.12688 0.12693 0.12728 0.12761 0.128 0.128 0.12798 0.12792 0.12737 0.12685 0.12632 0.12603 0.12577 0.12554 0.12564 0.12571 0.12579 0.12599 0.12622 0.12636 0.12629 0.12618 0.12614 0.12612 0.12599 0.12589
0.12416 0.12504 0.12579 0.12658 0.12736 0.12813 0.12879 0.12862 0.1283 0.12784 0.12727 0.12657 0.12577 0.12532 0.12481 0.12422 0.12406 0.12385 0.12363 0.12356 0.12351 0.12338 0.12335 0.12329 0.12318 0.12329 0.12339 0.12343 0.12364 0.12389 0.12412 0.12436 0.12454 0.1247 0.12483 0.12494 0.12509 0.1252 0.12536 0.12543 0.12564 0.12579 0.12596 0.12631 0.12659 0.12694 0.12726 0.12753 0.12784 0.12795 0.12817 0.12845 0.12862 0.12879 0.129 0.12919 0.12932 0.12942 0.12935 0.12941 0.1294 0.12928 0.12925 0.12913 0.12902 0.12899 0.12898 0.12894 0.12886 0.12871 0.12866 0.12854 0.12846 0.12829 0.12821 0.12809 0.12788 0.12768 0.12745 0.12737 0.12739 0.12741 0.12746 0.12763 0.12781 0.12789 0.12859 0.12934 0.12867 0.12854 0.12915 0.12846 0.12775 0.12708 0.12667 0.12636 0.12606 0.12617 0.1263 0.12644 0.12459 0.12527 0.12728 0.12634 0.12631 0.12682 0.12683 0.12661 0.12622
0.12531 0.12588 0.12641 0.12696 0.12749 0.12802 0.12855 0.12835 0.12813 0.12775 0.12724 0.12662 0.12594 0.12552 0.12499 0.12442 0.12429 0.12415 0.12397 0.12391 0.12382 0.1237 0.12371 0.12369 0.12366 0.12383 0.12392 0.12402 0.12435 0.12467 0.12491 0.1251 0.12528 0.12543 0.12546 0.12552 0.12564 0.12582 0.12594 0.12603 0.12622 0.12632 0.12643 0.12669 0.12715 0.12757 0.12787 0.12815 0.12841 0.12861 0.12877 0.12894 0.12913 0.12921 0.1294 0.12956 0.12968 0.12987 0.13 0.13009 0.13026 0.13025 0.13022 0.1302 0.13006 0.13005 0.12989 0.12959 0.12936 0.12907 0.12891 0.12871 0.12855 0.12842 0.1283 0.1282 0.12804 0.12784 0.12772 0.12775 0.12784 0.12789 0.12819 0.1285 0.12882 0.12829 0.12853 0.12866 0.12844 0.12826 0.12845 0.12792 0.12741 0.12681 0.12326 0.11974 0.11625 0.11641 0.11661 0.11676 0.12086 0.1224 0.12434 0.12545 0.12588 0.12643 0.12737 0.12748 0.12902
0.12643 0.12679 0.12708 0.12726 0.12756 0.12791 0.12817 0.12808 0.12786 0.12758 0.12709 0.12662 0.12605 0.12561 0.12511 0.12462 0.12446 0.12434 0.12421 0.12415 0.12405 0.12396 0.12402 0.12405 0.12409 0.12426 0.12446 0.12461 0.12501 0.12534 0.12563 0.12582 0.126 0.12609 0.12616 0.12621 0.12627 0.12644 0.12657 0.12667 0.12682 0.12687 0.12691 0.12721 0.12763 0.12812 0.12843 0.1288 0.12915 0.12925 0.12936 0.12947 0.12957 0.12966 0.12977 0.13005 0.1302 0.13043 0.13068 0.13087 0.13113 0.13117 0.13128 0.13137 0.1312 0.1311 0.13102 0.13053 0.1301 0.12966 0.12939 0.12904 0.12876 0.12861 0.12856 0.12843 0.12832 0.12822 0.12808 0.12818 0.12837 0.12847 0.12889 0.1293 0.12978 0.12745 0.12687 0.1285 0 0 0.12765 0.12734 0.12696 0.12659 0.11985 0.11312 0.1064 0.1066 0.10678 0 0 0.12197 0.12027 0.1226 0.12518 0.12652 0.12789 0.12992 0.13189
