ncols        109
nrows        82
xllcorner    -1.041666666667
yllcorner    37.041665395101
cellsize     0.083333333333
NODATA_value -9999
0.0 0 0 0 0 0 0 0 0 0 0 0 0 0 0 0 0 0 0 0 0 0 0 0 0 0 0 0 0 0 0 0 0 0 0 0 0 0 0 0 0 0 0 0 0 0 0 0 0 0 0 0 0 0 0 0 0 0 0 0 0 0 0 0 0 0 0 0 0 0 0 0 0 0 0 0 0 0 0 0 0 0 0 0 0 0 0 0 0 0 0 0 0 0 0 0 0 0 0 0 0 0 0 0 0 0.13705 0.13677 0.1368 0.13693
0 0 0 0 0 0 0 0 0 0 0 0 0 0 0 0 0 0 0 0 0 0 0 0 0 0 0 0 0 0 0 0 0 0 0 0 0 0 0 0 0 0 0 0 0 0 0 0 0 0 0 0 0 0 0 0 0 0 0 0 0 0 0 0 0 0 0 0 0 0 0 0 0 0 0 0 0 0 0 0 0 0 0 0 0 0 0 0 0 0 0 0 0 0 0 0 0 0 0 0 0 0.13617 0.13625 0.13661 0.13733 0.13804 0.13777 0.13747 0.13731
0 0 0 0 0 0 0 0 0 0 0 0 0 0 0 0 0 0 0 0 0 0 0 0 0 0 0 0 0 0 0 0 0 0 0 0 0 0 0 0 0 0 0 0 0 0 0 0 0 0 0 0 0 0 0 0 0 0 0 0 0 0 0 0 0 0 0 0 0 0 0 0 0 0 0 0 0 0 0 0 0 0 0 0 0 0 0 0 0 0 0 0 0 0 0 0 0 0 0.13648 0.1364 0.13637 0.13616 0.13622 0.13628 0.13655 0.13666 0.13652 0.13648 0.13635
0 0 0 0 0 0 0 0 0 0 0 0 0 0 0 0 0 0 0 0 0 0 0 0 0 0 0 0 0 0 0 0 0 0 0 0 0 0 0 0 0 0 0 0 0 0 0 0 0 0 0 0 0 0 0 0 0 0 0 0 0 0 0 0 0 0 0 0 0 0 0 0 0 0 0 0 0 0 0 0 0 0 0 0 0 0 0 0 0 0 0 0 0 0 0 0 0 0.13646 0.13688 0.13712 0.1368 0.13649 0.13658 0.13623 0.13573 0.13596 0.13588 0.13583 0.13587
0 0 0 0 0 0 0 0 0 0 0 0 0 0 0 0 0 0 0 0 0 0 0 0 0 0 0 0 0 0 0 0 0 0 0 0 0 0 0 0 0 0 0 0 0 0 0 0 0 0 0 0 0 0 0 0 0 0 0.15128 0.15435 0.15632 0.15759 0 0 0 0 0 0 0 0 0 0 0 0 0 0 0 0 0 0 0 0 0 0 0 0 0 0 0 0 0 0 0 0 0 0.13698 0.13707 0.13709 0.1376 0.13821 0.138 0.13788 0.13806 0.13711 0.1364 0.13588 0.13576 0.13554 0.13532
0 0 0 0 0 0 0 0 0 0 0 0 0 0 0 0 0 0 0 0 0 0 0 0 0 0 0 0 0 0 0 0 0 0 0 0 0 0 0 0 0 0 0 0 0 0 0 0 0 0 0 0 0 0 0 0 0.14963 0.14944 0.1504 0.15183 0.15534 0.15562 0.15634 0.1569 0.14484 0.13431 0.12434 0 0 0 0 0.13043 0 0 0 0 0 0 0 0 0 0 0 0 0 0 0 0 0 0 0 0 0 0.13743 0.13717 0.13669 0.13701 0.13698 0.13676 0.13706 0.13686 0.1372 0.13742 0.13648 0.13606 0.13572 0.13557 0.13536 0.13507
0 0 0 0 0 0 0 0 0 0 0 0 0 0 0 0 0 0 0 0 0 0 0 0 0 0 0 0 0 0 0 0 0 0 0 0 0 0 0 0 0 0 0 0 0 0 0 0 0 0 0 0 0 0 0 0.14921 0.15232 0.15367 0.15292 0.15244 0.15549 0.15483 0.15457 0.15524 0.14759 0.14135 0.13541 0.14011 0.13647 0.13499 0.13428 0.1322 0.13112 0.12824 0.12338 0.12023 0.1205 0 0 0 0 0 0 0 0 0 0 0 0 0 0 0 0.13738 0.13652 0.13704 0.13657 0.13675 0.13631 0.1365 0.13654 0.1365 0.13631 0.13632 0.1356 0.1354 0.13505 0.13498 0.13492 0.13464
0 0 0 0 0 0 0 0 0 0 0 0 0 0 0 0 0 0 0 0 0 0 0 0 0 0 0 0 0 0 0 0 0 0 0 0 0 0 0 0 0 0 0 0 0 0 0 0 0 0 0 0.13834 0.13948 0.1414 0.14462 0.14927 0.15502 0.15908 0.15775 0.15703 0.15704 0.15677 0.15592 0.15437 0.15061 0.14873 0.14786 0.14273 0.13812 0.13507 0.13337 0.13236 0.13228 0.12564 0.11922 0.11245 0 0 0 0 0 0 0 0 0 0 0 0 0 0 0 0 0.13702 0.1382 0.1372 0.13661 0.13615 0.13583 0.13607 0.13622 0.13598 0.13539 0.13503 0.13474 0.13492 0.1351 0.13498 0.13497 0.13483
0 0 0 0 0 0 0 0 0 0 0 0 0 0 0 0 0 0 0 0 0 0 0 0 0 0 0 0 0 0 0 0 0 0 0 0 0 0 0 0 0 0 0 0 0 0 0 0 0 0 0.13624 0.13755 0.13799 0.13908 0.14153 0.14456 0.14811 0.15073 0.14927 0.14868 0.14877 0.14899 0.14983 0.15061 0.15095 0.15237 0.15407 0.14999 0.14606 0.14345 0.14158 0.14043 0.13937 0.13398 0.12901 0.12296 0.12347 0.1245 0.12522 0.12773 0.13159 0.13444 0 0 0 0 0 0 0 0.12935 0.13306 0.1354 0.13663 0.13835 0.1374 0.13638 0.13544 0.13512 0.13466 0.13446 0.13407 0.13387 0.13395 0.13385 0.13401 0.13377 0.13374 0.1338 0.13379
0 0 0 0 0 0 0 0 0 0 0 0 0 0 0 0 0 0 0 0 0 0 0 0 0 0 0 0 0 0 0 0 0 0 0 0 0 0 0 0 0 0 0 0 0 0 0 0 0 0.13619 0.13558 0.13563 0.13646 0.13753 0.13784 0.13842 0.13927 0.14227 0.14038 0.13914 0.13847 0.1409 0.14407 0.14777 0.15151 0.15592 0.16057 0.15696 0.15395 0.15165 0.14944 0.14748 0.14584 0.1414 0.13769 0.13345 0.1347 0.13496 0.1353 0.13954 0.14001 0.14186 0 0.1425 0.1425 0.13391 0.11897 0.11024 0.1166 0.12918 0.13575 0.13681 0.1367 0.13891 0.13777 0.13644 0.13572 0.13549 0.13513 0.13482 0.13458 0.13435 0.13409 0.13359 0.13332 0.13332 0.13354 0.13375 0.13402
0 0 0 0 0 0 0 0 0 0 0 0 0 0 0 0 0 0 0 0 0 0 0 0 0 0 0 0 0 0 0 0 0 0 0 0 0 0 0 0 0 0 0 0 0 0 0 0 0 0.13551 0.13462 0.1339 0.13457 0.13528 0.13742 0.13602 0.13446 0.13391 0.13259 0.13113 0.12978 0.13443 0.13962 0.14489 0.15223 0.15961 0.16789 0.16497 0.16249 0.16096 0.15776 0.15524 0.15242 0.14955 0.14691 0.14432 0.14586 0.14573 0.14629 0.14635 0.14646 0.14659 0.14828 0.15067 0.15302 0.13107 0.10938 0.08885 0.10534 0.12332 0.1418 0.14117 0.14044 0.13949 0.13848 0.13745 0.13725 0.13623 0.13594 0.13592 0.13519 0.13431 0.13387 0.13369 0.13371 0.13378 0.13377 0.13351 0.13345
0 0 0 0 0 0 0 0 0 0 0 0 0 0 0 0 0 0 0 0 0 0 0 0 0 0 0 0 0 0 0 0 0 0 0 0 0 0 0 0 0 0 0 0 0 0 0 0 0 0.13628 0.13544 0.13464 0.13601 0.13673 0.13834 0.13788 0.13831 0.13812 0.1365 0.13535 0.1346 0.13767 0.14079 0.14458 0.14953 0.15488 0.16038 0.15817 0.15619 0.15525 0.15271 0.15044 0.14853 0.14659 0.1446 0.14289 0.14264 0.14264 0.14341 0.1433 0.14362 0.14403 0.1457 0.14733 0.14889 0.13426 0.1197 0.10547 0.11694 0.12901 0.14107 0.14013 0.13934 0.13915 0.13834 0.13784 0.13766 0.1361 0.13596 0.13521 0.13492 0.13458 0.1341 0.13387 0.13372 0.13353 0.13388 0.13381 0.13369
0 0 0 0 0 0 0 0 0 0 0 0 0 0 0 0 0 0 0 0 0 0 0 0 0 0 0 0 0 0 0 0 0 0 0 0 0 0 0 0 0 0 0 0 0 0 0 0 0 0.13859 0.13884 0.1378 0.13798 0.13903 0.14023 0.14069 0.14228 0.14337 0.14207 0.14076 0.13966 0.14135 0.14272 0.14462 0.14737 0.1502 0.1527 0.1514 0.15066 0.14968 0.14811 0.14665 0.14522 0.14368 0.14163 0.14099 0.14146 0.14135 0.14102 0.14082 0.14136 0.14199 0.14311 0.14385 0.14445 0.13718 0.13029 0.12325 0.12879 0.1344 0.13981 0.13912 0.13866 0.13862 0.13793 0.13748 0.13735 0.13567 0.1353 0.1351 0.13471 0.13426 0.13375 0.13337 0.13306 0.13317 0.13346 0.13395 0.13432
0 0 0 0 0 0 0 0 0 0 0 0 0 0 0 0 0 0 0 0 0 0 0 0 0 0 0 0 0 0 0 0 0 0 0 0 0 0 0 0 0 0 0 0 0 0 0 0 0 0.14022 0.141 0.14138 0.14104 0.14142 0.14383 0.14569 0.14766 0.14935 0.14753 0.14607 0.14489 0.1452 0.14539 0.14554 0.1454 0.14567 0.14629 0.14604 0.14586 0.14553 0.14437 0.14313 0.14204 0.14129 0.14104 0.14139 0.14144 0.1407 0.14002 0.1397 0.14018 0.14097 0.14162 0.14166 0.14144 0.14117 0.14147 0.14171 0.14112 0.14022 0.13911 0.13839 0.13811 0.1381 0.1378 0.1372 0.13603 0.13573 0.13519 0.13483 0.1344 0.1339 0.13343 0.13308 0.13322 0.13354 0.13385 0.13399 0.13432
0 0 0 0 0 0 0 0 0 0 0 0 0 0 0 0 0 0 0 0 0 0 0 0 0 0 0 0 0 0 0 0 0 0 0 0 0 0 0 0 0 0 0 0 0 0 0 0 0 0.14095 0.14098 0.14128 0.1418 0.1425 0.14646 0.14733 0.14752 0.14798 0.14648 0.14538 0.14441 0.14398 0.14421 0.14439 0.14407 0.1441 0.14448 0.14463 0.14425 0.1442 0.1432 0.14218 0.14149 0.14053 0.13971 0.13934 0.13921 0.1389 0.13861 0.13845 0.13844 0.13861 0.13885 0.13915 0.13932 0.13942 0.13951 0.13958 0.13892 0.13828 0.13792 0.13759 0.1372 0.1371 0.13643 0.13578 0.13547 0.13509 0.13477 0.13445 0.1342 0.13389 0.1336 0.13368 0.13378 0.13413 0.13439 0.13463 0.13486
0 0 0 0 0 0 0 0 0 0 0 0 0 0 0 0 0 0 0 0 0 0 0 0 0 0 0 0 0 0 0 0 0 0 0 0 0 0 0 0 0 0 0 0 0 0 0 0 0 0.14149 0.14255 0.14327 0.1447 0.14733 0.15082 0.14879 0.14792 0.14651 0.14524 0.14469 0.1438 0.14371 0.14347 0.14313 0.14329 0.14317 0.1439 0.14383 0.14346 0.14352 0.14224 0.14123 0.14022 0.13959 0.13932 0.139 0.13862 0.13835 0.13797 0.13787 0.13795 0.13799 0.13805 0.13824 0.1383 0.13843 0.13859 0.13846 0.13805 0.1376 0.13711 0.13699 0.1366 0.13634 0.13566 0.13517 0.13469 0.13448 0.13435 0.13406 0.1342 0.1342 0.13423 0.13436 0.13453 0.13482 0.13509 0.13538 0.13557
0 0 0 0 0 0 0 0 0 0 0 0 0 0 0 0 0 0 0 0 0 0 0 0 0 0 0 0 0 0 0 0 0 0 0 0 0 0 0 0 0 0 0 0 0 0 0 0 0 0 0.14517 0.14636 0.14789 0.15145 0.15414 0.15007 0.14812 0.14485 0.14409 0.1437 0.14314 0.1429 0.14283 0.14262 0.14277 0.14272 0.14342 0.1431 0.14278 0.14281 0.14159 0.14048 0.14025 0.13984 0.13927 0.13883 0.13848 0.13798 0.13774 0.13754 0.13753 0.13759 0.13776 0.13766 0.13768 0.13755 0.13751 0.13725 0.13683 0.13661 0.1366 0.13631 0.13607 0.13584 0.13555 0.1352 0.13494 0.13478 0.13467 0.13471 0.13497 0.13499 0.13532 0.13552 0.13583 0.13615 0.13629 0.13651 0.13677
0 0 0 0 0 0 0 0 0 0 0 0 0 0 0 0 0 0 0 0 0 0 0 0 0 0 0 0 0 0 0 0 0 0 0 0 0 0 0 0 0 0 0 0 0 0 0 0 0 0 0.14632 0.14736 0.14764 0.14861 0.15099 0.14839 0.1468 0.14412 0.1431 0.14223 0.1419 0.1418 0.14171 0.14184 0.14195 0.14209 0.14255 0.14225 0.14213 0.14186 0.14088 0.14025 0.13982 0.13949 0.13897 0.13842 0.13825 0.13796 0.13768 0.13739 0.13726 0.13709 0.13732 0.13735 0.13738 0.13733 0.13738 0.13726 0.137 0.13685 0.13668 0.13652 0.13642 0.1363 0.13613 0.13602 0.13607 0.13605 0.13622 0.13643 0.1366 0.13646 0.13661 0.13688 0.13713 0.13732 0.13747 0.13758 0.13774
0 0 0 0 0 0 0 0 0 0 0 0 0 0 0 0 0 0 0 0 0 0 0 0 0 0 0 0 0 0 0 0 0 0 0 0 0 0 0 0 0 0 0 0 0 0 0 0 0 0 0 0 0.14681 0.14627 0.14836 0.14641 0.14537 0.1432 0.1421 0.14157 0.14111 0.14087 0.14082 0.14105 0.14116 0.14143 0.14196 0.14199 0.14181 0.14139 0.14076 0.14041 0.14002 0.13957 0.13906 0.13854 0.13827 0.1381 0.13763 0.1375 0.1375 0.13768 0.13762 0.13779 0.13778 0.13776 0.13797 0.13795 0.13775 0.1374 0.13726 0.13723 0.13732 0.13746 0.13734 0.13721 0.13744 0.13768 0.13786 0.13807 0.13785 0.13765 0.13757 0.13775 0.13803 0.13836 0.13844 0.13856 0.13861
0 0 0 0 0 0 0 0 0 0 0 0 0 0 0 0 0 0 0 0 0 0 0 0 0 0 0 0 0 0 0 0 0 0 0 0 0 0 0 0 0 0 0 0 0 0 0 0 0 0 0.14565 0.14658 0.14617 0.14545 0.14611 0.14532 0.1435 0.14225 0.14161 0.14108 0.14047 0.14033 0.14 0.14025 0.14065 0.14151 0.14185 0.14157 0.1413 0.14088 0.14039 0.14008 0.13982 0.13949 0.1391 0.13864 0.13805 0.13781 0.13729 0.13716 0.13726 0.13745 0.13782 0.13811 0.13837 0.13835 0.13863 0.13861 0.13839 0.13826 0.13827 0.1384 0.13856 0.13866 0.13857 0.13862 0.13889 0.1391 0.13928 0.13931 0.13881 0.13854 0.13846 0.13857 0.13867 0.13892 0.13905 0.1391 0.13915
0 0 0 0 0 0 0 0 0 0 0 0 0 0 0 0 0 0 0 0 0 0 0 0 0 0 0 0 0 0 0 0 0 0 0 0 0 0 0 0 0 0 0 0 0 0 0 0 0 0 0.14318 0.14522 0.14484 0.1443 0.14455 0.14408 0.14264 0.1412 0.14082 0.14021 0.13966 0.13956 0.13927 0.13959 0.14013 0.14108 0.14147 0.14111 0.14086 0.14064 0.14026 0.14014 0.1399 0.13963 0.13926 0.13881 0.13859 0.13828 0.1381 0.13805 0.13803 0.13812 0.13807 0.13831 0.13864 0.13878 0.13917 0.13939 0.13927 0.13909 0.13888 0.13895 0.13914 0.13934 0.13953 0.13968 0.13964 0.13965 0.13974 0.13982 0.13942 0.13911 0.13904 0.13914 0.13912 0.13916 0.13925 0.13938 0.13952
0 0 0 0 0 0 0 0 0 0 0 0 0 0 0 0 0 0 0 0 0 0 0 0 0 0 0 0 0 0 0 0 0 0 0 0 0 0 0 0 0 0 0 0 0 0 0 0 0 0 0 0.14323 0.1427 0.14283 0.14253 0.14174 0.14127 0.14034 0.14009 0.13942 0.13887 0.13884 0.13848 0.13918 0.13964 0.1406 0.14098 0.14069 0.14043 0.14025 0.14012 0.1401 0.13986 0.13966 0.13932 0.13917 0.13896 0.13874 0.13872 0.13861 0.13861 0.13869 0.13881 0.1389 0.13916 0.13938 0.13969 0.13988 0.13997 0.13971 0.13946 0.1394 0.13944 0.1397 0.13982 0.13996 0.14019 0.13986 0.13966 0.13971 0.13996 0.1397 0.13968 0.13961 0.13955 0.13959 0.13974 0.13988 0.13992
0 0 0 0 0 0 0 0 0 0 0 0 0 0 0 0 0 0 0 0 0 0 0 0 0 0 0 0 0 0 0 0 0 0 0 0 0 0 0 0 0 0 0 0 0 0 0 0 0 0 0 0.1416 0.14115 0.14101 0.14062 0.13956 0.13999 0.13942 0.13933 0.13865 0.1384 0.13808 0.13801 0.1386 0.13925 0.13995 0.14032 0.14025 0.14004 0.14003 0.14 0.13993 0.1398 0.13965 0.1398 0.13955 0.13961 0.13982 0.13971 0.13951 0.13975 0.13973 0.13977 0.13987 0.14022 0.14043 0.14055 0.14068 0.14073 0.14069 0.14065 0.14059 0.14058 0.14096 0.14098 0.14103 0.14105 0.14097 0.14047 0.14031 0.14026 0.14004 0.13992 0.13988 0.1398 0.13974 0.1399 0.14006 0.14015
0 0 0 0 0 0 0 0 0 0 0 0 0 0 0 0 0 0 0 0 0 0 0 0 0 0 0 0 0 0 0 0 0 0 0 0 0 0 0 0 0 0 0 0 0 0 0 0 0 0 0 0.14103 0.14023 0.13947 0.13912 0.13828 0.13859 0.13828 0.1382 0.13792 0.13764 0.13733 0.13763 0.13817 0.13861 0.13919 0.13963 0.13964 0.13966 0.1399 0.14 0.13997 0.14009 0.13998 0.13995 0.13999 0.14011 0.14036 0.14037 0.13995 0.13994 0.14037 0.14036 0.14044 0.14064 0.14087 0.14118 0.14122 0.14106 0.14115 0.14136 0.14134 0.1414 0.14152 0.14152 0.1417 0.142 0.14187 0.14108 0.14061 0.14025 0.13991 0.1394 0.1395 0.13956 0.13972 0.13994 0.14019 0.14031
0 0 0 0 0 0 0 0 0 0 0 0 0 0 0 0 0 0 0 0 0 0 0 0 0 0 0 0 0 0 0 0 0 0 0 0 0 0 0 0 0 0 0 0 0 0 0 0 0 0.13633 0.13798 0.14113 0.14003 0.13886 0.13799 0.13753 0.13739 0.13726 0.13708 0.13706 0.13683 0.13675 0.13691 0.13762 0.13806 0.13853 0.13904 0.13921 0.13952 0.13982 0.14005 0.14012 0.14017 0.14024 0.14024 0.14051 0.14067 0.14073 0.14078 0.1406 0.1405 0.14103 0.14099 0.14103 0.1411 0.14125 0.14155 0.14189 0.14179 0.14169 0.14164 0.1417 0.14227 0.14229 0.14232 0.1426 0.1427 0.14261 0.14159 0.14089 0.14038 0.1402 0.1398 0.1398 0.14 0.14035 0.14051 0.14059 0.14078
0 0 0 0 0 0 0 0 0 0 0 0 0 0 0 0 0 0 0 0 0 0 0 0 0 0 0 0 0 0 0 0 0 0 0 0 0 0 0 0 0 0 0 0 0 0 0 0 0.13146 0.13476 0.13783 0.14056 0.13931 0.13805 0.13697 0.13667 0.13659 0.13643 0.13619 0.13627 0.13611 0.13635 0.13669 0.13715 0.13762 0.13813 0.13861 0.13903 0.13949 0.13987 0.14023 0.14042 0.14063 0.14061 0.14077 0.14111 0.14127 0.14129 0.1414 0.14157 0.1413 0.14172 0.14192 0.14194 0.14191 0.14196 0.14226 0.14253 0.14249 0.14234 0.14236 0.14263 0.14273 0.14304 0.14311 0.14334 0.14371 0.1431 0.14218 0.14154 0.14112 0.14096 0.14048 0.14056 0.14063 0.14059 0.14093 0.14113 0.14124
0 0 0 0 0 0 0 0 0 0 0 0 0 0 0 0 0 0 0 0 0 0 0 0 0 0 0 0 0 0 0 0 0 0 0 0 0 0 0 0 0 0 0 0 0 0.13501 0.13436 0.13343 0.13295 0.13526 0.13739 0.13872 0.13796 0.13681 0.13606 0.13576 0.13602 0.13577 0.13543 0.13539 0.13536 0.13571 0.13619 0.13686 0.13722 0.13779 0.13838 0.13876 0.13942 0.14018 0.14072 0.14055 0.14113 0.14137 0.14143 0.14158 0.14171 0.14196 0.14203 0.14191 0.14212 0.14197 0.14207 0.14221 0.14237 0.14261 0.14288 0.14303 0.14303 0.14294 0.14321 0.14332 0.14327 0.14333 0.14327 0.1439 0.14439 0.14381 0.14272 0.14231 0.14193 0.14169 0.14091 0.1409 0.14092 0.14103 0.14121 0.14174 0.14183
0 0 0 0 0 0 0 0 0 0 0 0 0 0 0 0 0 0 0 0 0 0 0 0 0 0 0 0 0 0 0 0 0 0 0 0 0 0 0 0 0 0 0.13268 0.13368 0.13486 0.1355 0.13532 0.13522 0.13468 0.13531 0.1359 0.13674 0.13639 0.13546 0.13512 0.13486 0.13514 0.13501 0.13505 0.13468 0.13479 0.13526 0.13594 0.13653 0.13702 0.13755 0.13817 0.13859 0.13946 0.14021 0.14043 0.14084 0.14144 0.14195 0.14213 0.14261 0.14269 0.14286 0.143 0.14279 0.14265 0.14267 0.14259 0.14272 0.14304 0.1434 0.14353 0.14351 0.14359 0.14359 0.14396 0.14421 0.1442 0.14406 0.14399 0.1442 0.14484 0.14452 0.14363 0.14339 0.14289 0.14243 0.14199 0.14161 0.14147 0.14155 0.14168 0.14208 0.14234
0 0 0 0 0 0 0 0 0 0 0 0 0 0 0 0 0 0 0 0 0 0 0 0 0 0 0 0 0 0 0 0 0 0 0 0 0 0 0 0 0.131 0.13148 0.13217 0.13312 0.13473 0.13555 0.13585 0.13626 0.13633 0.13578 0.13512 0.13503 0.13466 0.1341 0.13411 0.13405 0.13424 0.13434 0.13432 0.13402 0.13428 0.13468 0.13532 0.1359 0.13665 0.1375 0.13817 0.13864 0.13921 0.13991 0.14046 0.14114 0.14176 0.14253 0.1431 0.14336 0.14332 0.14349 0.14398 0.14381 0.1436 0.14361 0.14363 0.14351 0.14397 0.14415 0.14447 0.14469 0.14466 0.14463 0.14482 0.14518 0.14523 0.14522 0.14511 0.1452 0.14553 0.14499 0.14456 0.14452 0.14412 0.14309 0.14271 0.14247 0.14217 0.14199 0.14232 0.14246 0.14286
0 0 0 0 0 0 0 0 0 0 0 0 0 0 0 0 0 0 0 0 0 0 0 0 0 0 0 0 0 0 0 0 0 0 0 0 0 0 0 0.13006 0.13127 0.1312 0.13158 0.13193 0.13301 0.13378 0.1339 0.13424 0.13408 0.13364 0.13295 0.13336 0.1334 0.13297 0.13291 0.13299 0.13313 0.1336 0.1337 0.13371 0.13393 0.13443 0.13494 0.1357 0.13646 0.13716 0.13784 0.13845 0.1392 0.13987 0.14064 0.14119 0.14225 0.14305 0.1436 0.14399 0.14401 0.14413 0.14462 0.14444 0.14423 0.14431 0.14445 0.14457 0.1447 0.14477 0.1452 0.14553 0.14538 0.14536 0.14581 0.14584 0.14609 0.14635 0.14651 0.14653 0.14631 0.14606 0.14546 0.14495 0.144 0.14321 0.14296 0.14284 0.14292 0.14291 0.14302 0.14288 0.14322
0 0 0 0 0 0 0 0 0 0 0 0 0 0 0 0 0 0 0 0 0 0 0 0 0 0 0 0 0 0 0 0 0 0 0 0 0 0 0.12826 0.1316 0.13197 0.13163 0.13169 0.13155 0.13186 0.13225 0.13206 0.13169 0.13168 0.13184 0.13184 0.13246 0.13253 0.1325 0.13272 0.13268 0.13286 0.13319 0.13344 0.13379 0.13415 0.13468 0.13514 0.13584 0.13653 0.13715 0.13775 0.13839 0.13924 0.14005 0.14059 0.14142 0.14235 0.14324 0.14394 0.1444 0.1444 0.14443 0.1448 0.14484 0.14466 0.14477 0.1449 0.14495 0.14516 0.14544 0.14575 0.14616 0.14633 0.14669 0.14696 0.14689 0.1469 0.14714 0.14733 0.14762 0.14707 0.1461 0.14555 0.14513 0.14362 0.14303 0.14298 0.1432 0.14341 0.14353 0.14361 0.14341 0.14366
0 0 0 0 0 0 0 0 0 0 0 0 0 0 0 0 0 0 0 0 0 0 0 0 0 0 0 0 0 0 0 0 0 0 0.12301 0.11439 0.10732 0.11598 0.12519 0.13422 0.13388 0.13302 0.13242 0.13198 0.1315 0.13057 0.1304 0.13027 0.13015 0.13061 0.13108 0.13175 0.13221 0.13233 0.13265 0.1328 0.13293 0.13346 0.13368 0.13409 0.13459 0.13525 0.1357 0.13624 0.13681 0.13729 0.13791 0.13868 0.13957 0.14048 0.14101 0.14176 0.14261 0.14354 0.14423 0.14467 0.145 0.14492 0.14499 0.14498 0.14519 0.14532 0.1454 0.14535 0.14561 0.1459 0.14638 0.14672 0.14706 0.14765 0.14811 0.14807 0.14838 0.14848 0.14807 0.14787 0.14683 0.14591 0.14543 0.14528 0.14428 0.14364 0.14322 0.1435 0.14395 0.14396 0.14403 0.1439 0.14397
0 0 0 0 0 0 0 0 0 0 0 0 0 0 0 0 0 0 0 0 0 0 0 0 0 0 0 0 0 0.13734 0.13698 0.13662 0.13523 0.13303 0.12877 0.12365 0.11706 0.1226 0.12853 0.13415 0.13326 0.13232 0.13159 0.13118 0.13092 0.12984 0.12998 0.12992 0.12994 0.13038 0.13086 0.13157 0.13188 0.13224 0.13257 0.13262 0.13306 0.13364 0.13391 0.1343 0.1348 0.13535 0.13597 0.13644 0.13696 0.13748 0.13825 0.13914 0.13975 0.14029 0.14105 0.14183 0.1426 0.14358 0.14424 0.14454 0.14456 0.14474 0.14499 0.14517 0.14514 0.14539 0.14573 0.14577 0.14625 0.14661 0.14701 0.14711 0.14747 0.14811 0.14866 0.14886 0.14896 0.14862 0.14834 0.14824 0.1479 0.14621 0.14561 0.14529 0.14463 0.14412 0.14366 0.14384 0.14423 0.14419 0.14433 0.14429 0.14437
0 0 0 0 0 0 0 0 0 0 0 0 0 0 0 0 0 0 0 0 0 0 0 0 0 0.1343 0.13514 0.13441 0.13673 0.13956 0.1399 0.13856 0.13722 0.13667 0.13487 0.13279 0.12673 0.12884 0.13138 0.13386 0.13319 0.13191 0.1307 0.13006 0.12968 0.12909 0.1294 0.12956 0.12963 0.13012 0.13064 0.13131 0.13161 0.13215 0.13253 0.13269 0.13314 0.13356 0.13413 0.13469 0.13526 0.13564 0.13628 0.13683 0.13723 0.13804 0.1388 0.13954 0.13986 0.14066 0.14137 0.14205 0.14281 0.14374 0.14397 0.14428 0.14449 0.14458 0.14495 0.14539 0.14535 0.14526 0.14572 0.14623 0.1464 0.14705 0.14755 0.14762 0.14822 0.14874 0.14941 0.14928 0.1489 0.14877 0.14902 0.14878 0.14858 0.14716 0.14604 0.14554 0.14499 0.14451 0.14403 0.144 0.1445 0.1446 0.14463 0.14466 0.14487
0 0 0 0 0 0 0 0 0 0 0 0 0 0 0 0 0 0 0 0 0 0 0 0.132 0.13324 0.13464 0.13459 0.13219 0.13765 0.14041 0.14331 0.14084 0.13931 0.13834 0.13796 0.13684 0.13566 0.13487 0.13414 0.13354 0.13246 0.13124 0.12989 0.12896 0.12841 0.12835 0.12883 0.12915 0.12954 0.12976 0.13022 0.13112 0.13147 0.13184 0.13242 0.13265 0.13304 0.13376 0.13438 0.13497 0.13553 0.13607 0.13671 0.13733 0.13771 0.13819 0.13907 0.13961 0.14022 0.14099 0.1416 0.14215 0.14284 0.14345 0.14365 0.14349 0.14372 0.14388 0.14435 0.14508 0.14567 0.14562 0.14574 0.14653 0.14698 0.1473 0.14769 0.14818 0.14866 0.14934 0.15002 0.14975 0.14936 0.14918 0.14957 0.14929 0.14913 0.14825 0.14658 0.14591 0.14533 0.14482 0.14475 0.14433 0.14475 0.14478 0.14501 0.14524 0.14565
0 0 0 0 0 0 0 0 0 0 0 0 0 0 0 0 0 0 0 0 0 0 0.12949 0.13081 0.13158 0.13377 0.13731 0.13582 0.13854 0.14093 0.14289 0.14103 0.13884 0.13684 0.13632 0.13576 0.13476 0.1342 0.1334 0.13232 0.13134 0.13054 0.12967 0.12888 0.12806 0.12798 0.12813 0.12857 0.12911 0.12956 0.12997 0.13076 0.13134 0.13174 0.13238 0.13273 0.13303 0.13371 0.13438 0.135 0.13576 0.13633 0.13695 0.13758 0.13798 0.13839 0.13903 0.13967 0.14017 0.14082 0.14145 0.14213 0.1427 0.1432 0.143 0.1432 0.14324 0.14354 0.14389 0.14396 0.14425 0.14509 0.14551 0.14601 0.14666 0.14679 0.14725 0.14804 0.14853 0.14935 0.15007 0.14969 0.14949 0.14939 0.14977 0.14988 0.14939 0.14785 0.14673 0.14601 0.14536 0.14481 0.1445 0.1445 0.14499 0.14531 0.14548 0.14556 0.14589
0 0 0 0 0 0 0 0 0 0 0 0 0 0 0 0 0 0 0 0 0 0.12914 0.12898 0.1287 0.12838 0.13092 0.13543 0.13798 0.13896 0.13985 0.14091 0.13881 0.1365 0.13444 0.13388 0.13368 0.1328 0.13213 0.13175 0.13105 0.13035 0.1297 0.12882 0.12818 0.12765 0.12768 0.12805 0.12839 0.12889 0.12949 0.13001 0.1309 0.13149 0.13205 0.13283 0.133 0.1334 0.13407 0.13456 0.13537 0.13615 0.13667 0.13711 0.13774 0.13805 0.13852 0.13921 0.13962 0.1403 0.14102 0.14147 0.14194 0.14245 0.14267 0.1428 0.14283 0.14296 0.14323 0.1435 0.14363 0.14412 0.14481 0.14549 0.14597 0.14628 0.14654 0.14663 0.14743 0.14827 0.14892 0.14961 0.1494 0.14918 0.14935 0.14955 0.14972 0.14919 0.14775 0.14656 0.14542 0.14516 0.14466 0.14452 0.14471 0.14521 0.14556 0.14568 0.14584 0.14595
0 0 0 0 0 0 0 0 0 0 0 0 0 0 0 0 0 0 0 0 0 0 0 0.12813 0.12498 0.12875 0.13302 0.14015 0.13946 0.13893 0.13883 0.13642 0.13415 0.13211 0.1317 0.13161 0.13107 0.1306 0.13028 0.1296 0.12902 0.12832 0.12778 0.1274 0.12722 0.12745 0.12776 0.12824 0.12871 0.12955 0.13016 0.13092 0.13143 0.13223 0.13292 0.13327 0.13378 0.13455 0.13509 0.13569 0.13652 0.13694 0.13743 0.13806 0.13839 0.13879 0.13952 0.13998 0.14052 0.14125 0.14173 0.14219 0.1426 0.14276 0.14294 0.14287 0.14266 0.14287 0.14325 0.14345 0.14401 0.1448 0.14554 0.14562 0.14601 0.14629 0.1464 0.14698 0.14767 0.1486 0.14916 0.14893 0.14881 0.14916 0.14926 0.14944 0.14865 0.14716 0.14607 0.14555 0.14507 0.14484 0.14479 0.14482 0.14531 0.14593 0.1458 0.14592 0.14594
0 0 0 0 0 0 0 0 0 0 0 0 0 0 0 0 0 0 0 0 0 0.12507 0.12783 0.13009 0.1272 0.13113 0.13501 0.14234 0.14039 0.13879 0.13727 0.13529 0.13277 0.13084 0.1308 0.13069 0.12997 0.12962 0.12939 0.12891 0.12832 0.12762 0.12715 0.12693 0.12669 0.12697 0.12748 0.1281 0.12869 0.12925 0.12983 0.13046 0.13095 0.13159 0.13245 0.13278 0.13335 0.134 0.13481 0.13562 0.13625 0.13681 0.13733 0.13808 0.13835 0.13871 0.13923 0.13977 0.14032 0.14094 0.14132 0.14189 0.14232 0.14243 0.14248 0.1424 0.1423 0.14266 0.14306 0.14344 0.14405 0.14483 0.14551 0.14535 0.14589 0.14612 0.14669 0.14708 0.14756 0.14837 0.14898 0.14874 0.14895 0.14929 0.14884 0.14818 0.14771 0.14636 0.1458 0.14486 0.14474 0.14443 0.14428 0.14424 0.14497 0.14562 0.14574 0.14593 0.14611
0 0 0 0 0 0 0 0 0 0 0 0 0 0 0 0 0 0 0 0.11934 0.11889 0.11874 0.12421 0.13027 0.12977 0.13304 0.13755 0.1443 0.14166 0.13849 0.13593 0.13376 0.13133 0.12942 0.12953 0.12931 0.12879 0.12865 0.12838 0.12807 0.12757 0.12692 0.12654 0.12638 0.12614 0.12641 0.12707 0.12757 0.12831 0.12885 0.12937 0.13005 0.13049 0.13094 0.13184 0.13249 0.13306 0.13409 0.13469 0.13538 0.13598 0.13668 0.1373 0.13809 0.1384 0.13866 0.13904 0.13966 0.14007 0.14056 0.14092 0.14128 0.14177 0.14193 0.14191 0.14191 0.14211 0.1426 0.14309 0.14353 0.14431 0.14483 0.14544 0.14542 0.14596 0.14627 0.14685 0.14734 0.14773 0.1484 0.14916 0.14914 0.14928 0.14972 0.14884 0.1474 0.14697 0.14639 0.14538 0.14451 0.1442 0.14414 0.1438 0.14411 0.14486 0.14541 0.14588 0.14606 0.14642
0 0 0 0 0 0 0 0 0 0 0 0 0 0 0 0 0 0 0.11542 0.11731 0.11591 0.11119 0.11934 0.12485 0.13004 0.1341 0.13978 0.14621 0.14224 0.1382 0.13454 0.13219 0.12983 0.1281 0.12808 0.12781 0.1277 0.12756 0.12722 0.12703 0.12653 0.12624 0.12598 0.12584 0.12567 0.12593 0.1266 0.12726 0.12777 0.12843 0.1289 0.12964 0.13012 0.13061 0.13126 0.13199 0.13285 0.13404 0.13458 0.13516 0.13586 0.13662 0.13744 0.13821 0.13864 0.13884 0.13923 0.13964 0.14005 0.14041 0.14073 0.14103 0.14144 0.1415 0.14164 0.14195 0.14226 0.1427 0.14325 0.14375 0.1443 0.14497 0.14541 0.14595 0.14644 0.14672 0.1473 0.14747 0.14769 0.1483 0.14888 0.1493 0.14974 0.15022 0.14868 0.14829 0.14767 0.14676 0.14497 0.14464 0.14435 0.14398 0.14356 0.14395 0.14445 0.14512 0.14561 0.14601 0.14663
0 0 0 0 0 0 0 0 0 0 0 0 0 0 0 0 0 0.11072 0.11302 0.11671 0.12006 0.11602 0.12284 0.12965 0.13657 0.1396 0.14182 0.14369 0.14026 0.13675 0.13379 0.13162 0.12918 0.12762 0.12737 0.1273 0.12722 0.12708 0.12696 0.12677 0.12642 0.12621 0.12597 0.1259 0.12578 0.12617 0.12675 0.12731 0.12788 0.12838 0.12887 0.12956 0.1301 0.13044 0.13089 0.13158 0.13223 0.13294 0.13367 0.13487 0.13581 0.13642 0.13691 0.13756 0.13824 0.13931 0.13991 0.13999 0.13984 0.1401 0.14028 0.14064 0.14098 0.14112 0.14129 0.14178 0.14226 0.14275 0.14329 0.14385 0.14441 0.14491 0.14527 0.14567 0.14618 0.14667 0.14739 0.14761 0.14813 0.1485 0.1489 0.14946 0.14936 0.14959 0.14881 0.14798 0.14725 0.14592 0.14433 0.14448 0.14376 0.14364 0.14332 0.14365 0.14396 0.14487 0.1454 0.14589 0.14718
0 0 0 0 0 0 0 0 0 0 0 0 0 0 0 0 0.10445 0.1041 0.10411 0.11068 0.11799 0.11549 0.12557 0.13192 0.13818 0.13943 0.14067 0.14081 0.13809 0.13555 0.13304 0.13104 0.12885 0.12711 0.12719 0.12692 0.12672 0.12673 0.12671 0.12664 0.12634 0.12621 0.126 0.12588 0.12586 0.12625 0.12686 0.12748 0.12798 0.1283 0.12869 0.12932 0.12982 0.1302 0.13065 0.13122 0.13185 0.13266 0.13351 0.13441 0.13531 0.13606 0.13679 0.13741 0.138 0.13906 0.13984 0.13998 0.13987 0.14023 0.14036 0.14068 0.14097 0.14096 0.14115 0.14149 0.14212 0.14279 0.14344 0.14392 0.14449 0.14496 0.14527 0.14573 0.14674 0.14708 0.14751 0.148 0.14851 0.14884 0.14943 0.14956 0.14992 0.15008 0.14873 0.14778 0.14659 0.14509 0.14424 0.14354 0.14288 0.14305 0.14306 0.14321 0.14336 0.14427 0.14513 0.14596 0.14697
0 0 0 0 0 0 0 0 0 0 0 0 0 0 0 0.10633 0.10336 0.09773 0.09235 0.10054 0.10821 0.11523 0.12766 0.13407 0.14027 0.13971 0.1392 0.1381 0.13566 0.13408 0.13211 0.13033 0.12837 0.12659 0.12691 0.12682 0.12654 0.12653 0.12652 0.12646 0.12621 0.12618 0.12607 0.12604 0.12601 0.12631 0.12695 0.12752 0.12809 0.12829 0.12863 0.1292 0.12953 0.12994 0.13034 0.13103 0.13187 0.13235 0.13264 0.13368 0.13512 0.13482 0.13639 0.13733 0.13809 0.13901 0.13975 0.13972 0.14001 0.14042 0.14074 0.14072 0.14092 0.14109 0.14118 0.14138 0.14218 0.1431 0.14357 0.14424 0.14469 0.14514 0.14583 0.14604 0.14649 0.14675 0.14745 0.14816 0.14855 0.149 0.14983 0.14965 0.15022 0.14979 0.14855 0.14714 0.14548 0.14395 0.14322 0.14288 0.14261 0.14249 0.14283 0.14326 0.14316 0.14371 0.14441 0.14568 0.14636
0 0 0 0 0 0 0 0 0 0 0 0 0 0 0.10461 0.10592 0.10536 0.10427 0.09898 0.10647 0.11362 0.12056 0.12999 0.13424 0.13807 0.13795 0.13744 0.13649 0.13454 0.13299 0.13136 0.12967 0.12792 0.1266 0.1267 0.12649 0.12631 0.12639 0.1263 0.12622 0.12609 0.12597 0.12581 0.12589 0.12591 0.12607 0.12675 0.12733 0.12805 0.12849 0.12903 0.1297 0.12982 0.12996 0.13022 0.12989 0.12951 0.12929 0.13102 0.13207 0.13315 0.13328 0.13406 0.13179 0.13464 0.13758 0.14019 0.1401 0.13998 0.13996 0.14008 0.14013 0.14041 0.14049 0.1409 0.1413 0.14202 0.14253 0.14312 0.14379 0.14447 0.14475 0.14518 0.14563 0.14604 0.14638 0.1472 0.14781 0.14827 0.14857 0.14854 0.14939 0.14963 0.14938 0.1477 0.14592 0.14418 0.14284 0.14206 0.14247 0.14213 0.14192 0.14231 0.14263 0.14288 0.14346 0.14388 0.14467 0.14584
0 0 0 0 0 0 0 0 0 0 0 0 0 0.10437 0.10425 0.10193 0.10633 0.11124 0.10674 0.11407 0.12143 0.1283 0.1324 0.13432 0.13572 0.13609 0.13557 0.1352 0.13344 0.13196 0.13057 0.12901 0.12742 0.12624 0.1263 0.12619 0.12623 0.12611 0.12599 0.12586 0.12584 0.12577 0.1256 0.12558 0.12559 0.12595 0.12659 0.12717 0.12798 0.12869 0.12939 0.13016 0.13019 0.13018 0.13027 0.12888 0.12765 0.12597 0 0 0 0.1335 0.13138 0.12638 0.13115 0.13611 0.14078 0.14022 0.13972 0.1396 0.1395 0.13948 0.13969 0.13993 0.14061 0.14112 0.14145 0.14203 0.14271 0.14331 0.14401 0.14427 0.14452 0.14503 0.14554 0.14598 0.14676 0.14727 0.14768 0.14774 0.14871 0.14899 0.14838 0.14859 0.147 0.1454 0.1435 0.14227 0.14176 0.14231 0.14186 0.14154 0.14208 0.142 0.14294 0.14298 0.14363 0.14482 0.14534
0 0 0 0 0 0 0 0 0 0 0 0 0 0.10824 0.10061 0.09417 0.10051 0.10792 0.11464 0.12176 0.12854 0.13606 0.13529 0.13461 0.13353 0.134 0.13376 0.13361 0.13241 0.13107 0.13008 0.12857 0.12704 0.12595 0.12603 0.12616 0.12612 0.12601 0.12592 0.12583 0.12574 0.12571 0.12554 0.12492 0.12496 0.12544 0.12588 0.12719 0.12813 0.12807 0.1288 0.13048 0.12867 0.1282 0.13047 0.12805 0.12541 0.1228 0 0 0 0 0 0.12871 0.12764 0.13466 0.14119 0.14032 0.13974 0.13944 0.13912 0.13928 0.13964 0.13974 0.14017 0.14066 0.1411 0.14164 0.1422 0.14278 0.14354 0.144 0.14404 0.14464 0.14485 0.1454 0.14573 0.14685 0.14731 0.1477 0.14879 0.14851 0.14737 0.14674 0.14596 0.14431 0.14268 0.14165 0.14191 0.14227 0.14156 0.14122 0.14196 0.14212 0.14274 0.14312 0.14418 0.14556 0.14642
0 0 0 0 0 0 0 0 0 0 0 0 0.1146 0.11364 0.1108 0.10832 0.1123 0.11728 0.12178 0.12611 0.13044 0.13482 0.13427 0.13374 0.13281 0.13315 0.1328 0.13287 0.13183 0.13057 0.12961 0.12833 0.12697 0.12605 0.12609 0.12615 0.12616 0.12604 0.12576 0.12572 0.1238 0.12192 0.11994 0.12333 0.12407 0.12493 0.12563 0 0 0.12834 0 0.12716 0.1255 0.12422 0.1177 0.12037 0.12299 0.12565 0.12489 0.1264 0.12778 0 0 0 0.12966 0.1351 0.14025 0.13959 0.13862 0.13823 0.13811 0.13832 0.13863 0.13888 0.13913 0.13937 0.13983 0.14041 0.14103 0.14172 0.14231 0.14281 0.14294 0.143 0.14368 0.14509 0.14533 0.14616 0.14685 0.14757 0.14827 0.14714 0.14596 0.14538 0.14497 0.14328 0.1415 0.14138 0.14194 0.14161 0.14117 0.14109 0.14174 0.14164 0.14202 0.14197 0.1429 0.1447 0.14573
0 0 0 0 0 0 0 0 0 0 0 0.11354 0.11267 0.11654 0.12344 0.12202 0.12393 0.12643 0.12864 0.13052 0.13217 0.1338 0.13321 0.13276 0.13221 0.13221 0.13202 0.13208 0.13101 0.13007 0.12904 0.12805 0.12705 0.12625 0.12631 0.12635 0.12628 0.12586 0.12562 0.12546 0.12184 0.11815 0.11437 0.11796 0.1209 0 0 0 0 0 0.12469 0.12223 0.11824 0.11266 0.10517 0.11263 0.1205 0.12833 0.12642 0.12671 0.12757 0.12906 0.1301 0.12834 0.13192 0.13543 0.13907 0.13828 0.13761 0.1375 0.13766 0.1379 0.13834 0.13842 0.13826 0.13856 0.13906 0.13966 0.14019 0.14063 0.14126 0.14182 0.14201 0.14239 0.14302 0.14389 0.14509 0.14553 0.14642 0.14729 0.14752 0.1465 0.14553 0.14489 0.14421 0.14232 0.14176 0.14142 0.14164 0.14168 0.14113 0.14107 0.14149 0.14119 0.1413 0.14149 0.14196 0.14377 0.14488
0 0 0 0 0 0 0 0 0 0 0.11707 0.11118 0.10586 0.11533 0.12493 0.13405 0.13507 0.13539 0.13545 0.13482 0.13376 0.13274 0.13244 0.13171 0.13139 0.13126 0.13127 0.13125 0.13038 0.12951 0.12869 0.1278 0.12704 0.12646 0.12646 0.12647 0.12624 0.12575 0.12539 0.12539 0.12291 0.11486 0.10891 0 0 0 0 0 0 0 0 0 0 0 0.09273 0.1051 0.11809 0.1308 0.13005 0.12956 0.12926 0.13 0.13097 0.13235 0.13397 0.13608 0.13818 0.13747 0.13701 0.13693 0.13718 0.13741 0.13751 0.13725 0.13751 0.13804 0.13862 0.13915 0.13945 0.13998 0.14038 0.14096 0.14134 0.14168 0.14255 0.14345 0.14471 0.14555 0.14615 0.14665 0.14701 0.14623 0.14519 0.14454 0.14341 0.14205 0.14149 0.14154 0.14144 0.1419 0.14134 0.1409 0.14115 0.14091 0.14108 0.14122 0.14141 0.14256 0.14453
0 0 0 0 0 0 0 0 0 0 0.12228 0.11875 0.11677 0.12193 0.12735 0.13293 0.13369 0.13375 0.13374 0.13292 0.13198 0.13134 0.13097 0.13069 0.13023 0.13028 0.13037 0.1304 0.12964 0.12894 0.12819 0.12759 0.12713 0.12663 0.12657 0.12649 0.12627 0.12583 0.1253 0.12504 0.12237 0 0 0 0 0 0 0 0 0 0 0 0 0 0.10525 0.11322 0.12128 0.12948 0.12912 0.12897 0.1291 0.12984 0.13062 0.13148 0.13313 0.13485 0.13678 0.13613 0.13596 0.13606 0.13598 0.13587 0.13612 0.13635 0.13656 0.13707 0.13756 0.13814 0.13878 0.13918 0.13965 0.14012 0.14037 0.14106 0.14179 0.14245 0.14324 0.14357 0.14338 0.14367 0.14438 0.14449 0.14428 0.14385 0.14255 0.14134 0.14102 0.14124 0.14125 0.14165 0.14119 0.14076 0.141 0.14057 0.14032 0.1407 0.14075 0.14177 0.14321
0 0 0 0 0 0 0 0 0 0.12716 0.12846 0.13112 0.12768 0.12905 0.13044 0.13234 0.13224 0.13197 0.13175 0.13112 0.13047 0.12974 0.1296 0.12932 0.12927 0.12936 0.12959 0.12962 0.12902 0.12851 0.12782 0.12747 0.12714 0.12671 0.12666 0.12659 0.12652 0.12587 0.12516 0.12461 0.12401 0 0 0 0 0 0 0 0 0 0 0 0 0.12095 0.1178 0.12125 0.12468 0.12833 0.12837 0.12865 0.12899 0.12974 0.13027 0.13107 0.1325 0.13415 0.13553 0.13509 0.13499 0.13513 0.13469 0.13484 0.1351 0.13544 0.13588 0.13631 0.13678 0.13726 0.13776 0.13816 0.13861 0.13948 0.14006 0.14061 0.14123 0.14136 0.1416 0.14191 0.14186 0.14201 0.14232 0.14233 0.14234 0.14262 0.14176 0.1408 0.14062 0.14089 0.14121 0.14151 0.14092 0.14054 0.14075 0.14016 0.14013 0.13993 0.14007 0.14102 0.14207
0 0 0 0 0 0 0 0 0.12713 0.12912 0.13257 0.13599 0.13841 0.13624 0.13412 0.1319 0.13159 0.13126 0.13088 0.13054 0.13012 0.12985 0.1297 0.1295 0.12947 0.1295 0.12961 0.12949 0.12895 0.12843 0.1278 0.12744 0.12711 0.12677 0.12665 0.12659 0.12658 0.1257 0.12489 0.12411 0.1241 0.12383 0 0.12182 0.12147 0 0 0 0 0 0 0 0.124 0.12741 0.13028 0.12933 0.12815 0.12741 0.12781 0.12816 0.12863 0.12933 0.13019 0.13108 0.1321 0.1331 0.1343 0.13398 0.1341 0.13429 0.13411 0.1342 0.13464 0.1348 0.1353 0.1355 0.13593 0.13639 0.13691 0.13743 0.13842 0.13959 0.13968 0.14026 0.14092 0.14042 0.14056 0.14063 0.14039 0.14052 0.14085 0.14097 0.14116 0.14146 0.14099 0.14052 0.1404 0.14041 0.14064 0.14116 0.14056 0.14058 0.14025 0.13976 0.13981 0.13925 0.1393 0.1401 0.14085
0 0 0 0 0 0 0 0 0.12844 0.12988 0.13174 0.13344 0.13761 0.13543 0.13323 0.13109 0.13081 0.13038 0.13009 0.1299 0.12968 0.12959 0.12943 0.12934 0.12921 0.12918 0.12916 0.12904 0.12859 0.12821 0.12776 0.12742 0.12705 0.12673 0.12667 0.12664 0.12662 0.12602 0.12549 0.12487 0.12483 0.12499 0.12403 0.12367 0.12317 0 0 0 0 0 0 0.12274 0.12441 0.126 0.12916 0.12848 0.12768 0.12721 0.12756 0.12784 0.12828 0.12894 0.12953 0.13022 0.13119 0.13222 0.13298 0.13287 0.13296 0.13317 0.13317 0.13346 0.13389 0.13407 0.13451 0.13496 0.13519 0.13552 0.13615 0.13653 0.13735 0.13829 0.1382 0.13853 0.13846 0.13845 0.13877 0.13882 0.13909 0.13935 0.1398 0.13997 0.14013 0.14068 0.14009 0.14004 0.14003 0.14022 0.14069 0.14019 0.13985 0.13979 0.14015 0.13928 0.13913 0.13894 0.13918 0.13956 0.14025
0 0 0 0 0 0 0 0 0 0.12844 0.13057 0.13204 0.13656 0.1345 0.13246 0.13037 0.12999 0.12957 0.1294 0.12931 0.1294 0.12935 0.12927 0.12919 0.12915 0.12892 0.12892 0.12879 0.12842 0.1281 0.12779 0.12743 0.12707 0.12681 0.12668 0.12671 0.12675 0.12646 0.1262 0.12574 0.1263 0.12606 0.1257 0.12532 0.12494 0.12476 0.12174 0.11547 0 0 0.12173 0.1251 0.12498 0.12561 0.12804 0.12766 0.12726 0.12717 0.12732 0.12751 0.12796 0.12857 0.12915 0.12972 0.13037 0.13113 0.13177 0.13189 0.13213 0.13249 0.13271 0.13296 0.13332 0.13349 0.13393 0.13434 0.13468 0.13506 0.13564 0.13592 0.13636 0.13705 0.1371 0.13676 0.13647 0.13693 0.13714 0.13739 0.13795 0.1385 0.13894 0.13898 0.13926 0.13964 0.13931 0.13949 0.1397 0.14014 0.13978 0.13985 0.13961 0.13945 0.13983 0.1391 0.13881 0.13874 0.1387 0.13923 0.13972
0 0 0 0 0 0 0 0 0 0.12607 0.12866 0.13261 0.1358 0.13365 0.13151 0.12939 0.12914 0.12893 0.12865 0.12884 0.12911 0.12926 0.12908 0.12897 0.12895 0.12879 0.12876 0.12861 0.1283 0.1281 0.12774 0.12742 0.12711 0.12682 0.12689 0.12687 0.12691 0.12685 0.12675 0.12653 0.12662 0.12686 0.12705 0.12741 0.12771 0.12794 0.11942 0.11096 0.10268 0.11069 0.11874 0.12694 0.12698 0.12709 0.12699 0.12689 0.1269 0.12706 0.12726 0.12743 0.12773 0.12808 0.12857 0.12911 0.12967 0.13024 0.13087 0.13108 0.13127 0.13173 0.13201 0.13237 0.13273 0.13309 0.13335 0.134 0.13423 0.1346 0.13515 0.13506 0.13534 0.13574 0.13558 0.13529 0.13548 0.13551 0.13575 0.13633 0.1369 0.13754 0.13805 0.13803 0.13836 0.13879 0.1389 0.13941 0.13975 0.14018 0.13963 0.13995 0.13964 0.13941 0.13957 0.1389 0.13875 0.13877 0.1384 0.13879 0.13951
0 0 0 0 0 0 0 0 0 0.12159 0.12246 0.12448 0.11724 0.12154 0.12558 0.1296 0.1294 0.1291 0.12874 0.12888 0.1291 0.12922 0.12914 0.12904 0.12913 0.12896 0.12891 0.12878 0.12882 0.12873 0.12858 0.1286 0.1286 0.12872 0.12812 0.12756 0.12707 0.12693 0.12673 0.12646 0.12648 0.12655 0.12661 0.12687 0.12708 0.12723 0.12153 0 0.11028 0.11572 0.1212 0.12667 0.12667 0.1267 0.12667 0.12659 0.12659 0.12673 0.12693 0.12724 0.12748 0.12797 0.1285 0.12902 0.12944 0.12977 0.13033 0.13049 0.13067 0.13093 0.13112 0.13134 0.13168 0.1319 0.13224 0.13269 0.13285 0.13301 0.13324 0.13335 0.13355 0.1335 0.13373 0.13393 0.13402 0.13404 0.13472 0.13559 0.13607 0.13652 0.13705 0.13718 0.13753 0.13792 0.13804 0.13848 0.13922 0.13931 0.13933 0.13937 0.13896 0.13873 0.13881 0.13861 0.13819 0.13804 0.13804 0.13802 0.13899
0 0 0 0 0 0 0 0 0 0 0.11125 0.10533 0.09903 0.10931 0.11958 0.12991 0.12959 0.12915 0.12883 0.12882 0.12902 0.12911 0.12903 0.12906 0.12915 0.12898 0.12897 0.12892 0 0 0 0.12941 0.13006 0.13042 0.12927 0.12816 0.1271 0.12686 0.12666 0.12633 0.12632 0.12624 0.12617 0.12625 0.12632 0.12638 0.12361 0.12078 0.11795 0.12072 0.12359 0.12649 0.12637 0.12632 0.12626 0.12622 0.12623 0.1265 0.12687 0.12708 0.12733 0.12778 0.12817 0.12877 0.12906 0.12949 0.12995 0.13003 0.13017 0.13032 0.13042 0.13053 0.1308 0.131 0.13131 0.13164 0.13175 0.13193 0.13219 0.13225 0.1324 0.1325 0.13246 0.13276 0.13303 0.13347 0.13393 0.13484 0.13527 0.13577 0.13648 0.13684 0.13724 0.13761 0.1378 0.13817 0.13855 0.13849 0.13854 0.13869 0.13808 0.13827 0.13886 0.13833 0.13778 0.13745 0.1377 0.13773 0.13869
0 0 0 0 0 0 0 0 0 0 0 0.09117 0.08084 0.09748 0.12218 0.13015 0.12803 0.12803 0.12889 0.12882 0.12892 0.12895 0.12891 0.12902 0.12911 0.12907 0.12906 0.1291 0 0 0 0.12982 0.13121 0.13185 0.13037 0.12868 0.12701 0.12679 0.12651 0.12623 0.12601 0.12579 0.12555 0.1255 0.1255 0.12549 0.12556 0.12557 0.12563 0.12581 0.12598 0.12621 0.12603 0.12603 0.126 0.12598 0.12595 0.12634 0.12655 0.12691 0.12728 0.12765 0.12805 0.12871 0.12909 0.12937 0.1297 0.12982 0.12996 0.13017 0.13017 0.13013 0.1302 0.13055 0.1307 0.13078 0.13098 0.13134 0.13174 0.13154 0.13158 0.1316 0.13179 0.13231 0.1325 0.13332 0.13401 0.13463 0.13523 0.13617 0.13685 0.13696 0.13738 0.13747 0.13765 0.13785 0.13823 0.13796 0.13782 0.13784 0.13738 0.13792 0.13868 0.13841 0.13821 0.13788 0.13761 0.13768 0.13862
0 0 0 0 0 0 0 0 0 0 0 0 0.09575 0.10498 0.1183 0.12507 0.1261 0.12704 0.12866 0.12863 0.12875 0.12878 0.12885 0.12903 0.12917 0.1258 0.12245 0 0 0.12318 0.12885 0.12929 0.12969 0.13012 0.12908 0.12791 0.12674 0.12644 0.1262 0.12594 0.12576 0.12552 0.12527 0.12533 0.12536 0.12533 0.12543 0.1255 0.12553 0.12571 0.12586 0.12608 0.12602 0.12589 0.12582 0.12583 0.12587 0.12603 0.12633 0.1267 0.12709 0.1274 0.12773 0.12828 0.12872 0.12874 0.129 0.12929 0.12951 0.12961 0.12966 0.12972 0.12985 0.12977 0.12973 0.13003 0.13012 0.13048 0.13099 0.13099 0.13105 0.13123 0.13138 0.13176 0.13218 0.13277 0.13335 0.13392 0.13412 0.13468 0.13539 0.13544 0.13579 0.13632 0.13662 0.13691 0.13737 0.13727 0.13718 0.13711 0.13666 0.13717 0.1376 0.13689 0.13672 0.13686 0.13663 0.13658 0.13725
0 0 0 0 0 0 0 0 0 0 0 0 0 0 0 0.12119 0.12411 0.12635 0.12836 0.12838 0.1285 0.12851 0.12875 0.12905 0.12932 0.12256 0.11577 0.10892 0.11515 0.12132 0.1274 0.12778 0.12811 0.12848 0.12785 0.12714 0.12652 0.12624 0.12591 0.12565 0.12556 0.12532 0.12512 0.12519 0.12523 0.12521 0.12534 0.12538 0.12543 0.12559 0.12578 0.1259 0.12587 0.1258 0.12577 0.12572 0.12577 0.12598 0.12626 0.12655 0.12699 0.12726 0.1276 0.12804 0.12816 0.12833 0.1286 0.12874 0.12888 0.1291 0.12909 0.12911 0.1293 0.12933 0.12936 0.12973 0.12987 0.12995 0.13014 0.13022 0.13037 0.13062 0.13106 0.13168 0.13216 0.13245 0.13304 0.13332 0.13353 0.13402 0.13445 0.13455 0.135 0.13551 0.13579 0.13612 0.1366 0.13661 0.13663 0.1366 0.13606 0.13636 0.13634 0.13578 0.1357 0.1361 0.13594 0.13589 0.13629
0 0 0 0 0 0 0 0 0 0 0 0 0 0 0 0.1205 0.1235 0.12657 0.1281 0.12809 0.12814 0.12821 0.12866 0.12902 0.12943 0.11922 0.10898 0.09851 0.10779 0 0.12592 0.12622 0.12647 0.12677 0.1267 0.12651 0.12632 0.12599 0.12568 0.12541 0.12527 0.12514 0.12492 0.12503 0.12504 0.12506 0.1252 0.12525 0.12532 0.12547 0.1256 0.12573 0.1257 0.12569 0.12571 0.1257 0.1257 0.12589 0.12631 0.12659 0.1269 0.12707 0.12722 0.12762 0.12778 0.12799 0.12826 0.12835 0.12838 0.12854 0.12861 0.12866 0.12893 0.12894 0.1292 0.12928 0.12924 0.12938 0.12959 0.12958 0.12994 0.13042 0.13094 0.13162 0.13201 0.13196 0.13242 0.1327 0.13308 0.13357 0.13398 0.13403 0.13453 0.13506 0.13488 0.13542 0.13595 0.13615 0.13614 0.13635 0.13586 0.13552 0.13529 0.1351 0.13499 0.13565 0.13535 0.13539 0.13559
0 0 0 0 0 0 0 0 0 0 0 0 0 0.11469 0.1166 0.11875 0.12167 0.12578 0.12806 0.12816 0.12814 0.12831 0.1287 0.129 0.12921 0.12232 0.1156 0.10858 0.11473 0.12134 0.1268 0.12681 0.12676 0.12676 0.12661 0.12641 0.12622 0.1259 0.12561 0.12532 0.12524 0.12521 0.12511 0.12522 0.12523 0.12531 0.12539 0.12549 0.12558 0.12561 0.12562 0.12572 0.12569 0.12565 0.12565 0.12566 0.1257 0.12585 0.12615 0.12624 0.12641 0.12653 0.12671 0.12695 0.12701 0.12726 0.12743 0.12761 0.12772 0.12787 0.12796 0.12802 0.12819 0.1282 0.1284 0.12859 0.12854 0.12852 0.12884 0.12905 0.12935 0.12965 0.12996 0.1304 0.13072 0.131 0.13131 0.13193 0.13245 0.13272 0.13309 0.13348 0.13402 0.13442 0.13466 0.13475 0.13525 0.13538 0.13555 0.1357 0.13527 0.13514 0.135 0.13456 0.13466 0.1353 0.13483 0.1351 0.13575
0 0 0 0 0 0 0 0 0 0 0 0 0.11143 0.11306 0.1148 0.11656 0.12003 0.12441 0.12809 0.12824 0.12834 0.12849 0.12857 0.12878 0.12905 0.12572 0.12214 0.11873 0.12168 0.12471 0.12774 0.12746 0.12705 0.12671 0.12649 0.12627 0.1261 0.12584 0.12552 0.12528 0.12528 0.12527 0.12529 0.12534 0.12536 0.1254 0.12545 0.12554 0.12561 0.12566 0.12565 0.12566 0.1257 0.12568 0.12568 0.12567 0.12569 0.12574 0.12589 0.12611 0.12621 0.12628 0.12635 0.12655 0.12667 0.12679 0.12699 0.12709 0.12723 0.12747 0.1275 0.12769 0.12795 0.12786 0.12795 0.12809 0.12807 0.12823 0.12841 0.12864 0.12893 0.12935 0.12939 0.1298 0.13026 0.13043 0.131 0.13151 0.13184 0.13225 0.13266 0.13288 0.13329 0.13406 0.13431 0.13453 0.13487 0.13475 0.13515 0.13535 0.13488 0.1346 0.1346 0.13445 0.13438 0.13466 0.13473 0.13523 0.13581
0 0 0 0 0 0 0 0 0.11934 0.11836 0.11603 0.1116 0.10753 0.10867 0.10983 0.11103 0.11685 0.12261 0.12813 0.12836 0.12851 0.12882 0.1288 0.12888 0.12895 0.12893 0.12873 0.12867 0.1287 0.12871 0.12873 0.12808 0.12728 0.12649 0.1263 0.12614 0.12593 0.12567 0.12536 0.12512 0.12519 0.12523 0.12529 0.12543 0.12549 0.12553 0.12563 0.12563 0.12564 0.12566 0.12563 0.12564 0.12562 0.12553 0.1255 0.12546 0.12549 0.12556 0.12578 0.12588 0.12595 0.12608 0.12616 0.12622 0.12635 0.12648 0.12662 0.12664 0.12683 0.12697 0.12714 0.1274 0.12763 0.12765 0.12767 0.12779 0.12788 0.1279 0.12794 0.12814 0.12853 0.12889 0.12901 0.12918 0.12957 0.13003 0.13068 0.13128 0.13172 0.13211 0.1326 0.13273 0.13319 0.13374 0.13395 0.13422 0.13444 0.13448 0.13459 0.13495 0.13466 0.1345 0.13443 0.13418 0.13419 0.13509 0.13527 0.13541 0.13615
0 0 0 0 0 0 0 0.1219 0.12131 0.12225 0.12098 0.11879 0.11652 0.11664 0.117 0.1175 0.12122 0.12506 0.12871 0.12863 0.12864 0.12884 0.1287 0.12876 0.12863 0.12857 0.12838 0.12827 0.12828 0.12829 0.12822 0.12771 0.12712 0.12656 0.12633 0.12615 0.12594 0.1257 0.12541 0.12525 0.12529 0.12533 0.12536 0.12543 0.12542 0.1255 0.12558 0.12556 0.1256 0.12561 0.12561 0.1256 0.12556 0.12552 0.1255 0.12547 0.12538 0.12541 0.12553 0.12565 0.12569 0.12576 0.12583 0.12592 0.12603 0.12611 0.12629 0.12633 0.12655 0.12662 0.12679 0.12703 0.12729 0.12726 0.12732 0.12743 0.12745 0.12742 0.12747 0.12757 0.12778 0.12809 0.12836 0.12865 0.12895 0.12933 0.12987 0.13031 0.13072 0.13123 0.13166 0.1319 0.13233 0.1329 0.13319 0.13347 0.13383 0.1338 0.13395 0.13409 0.1339 0.13395 0.13436 0.134 0.13433 0.13472 0.13453 0.13462 0.13527
0 0 0 0 0 0 0.1239 0.12372 0.12322 0.123 0.12399 0.12576 0.12457 0.12435 0.12384 0.12353 0.12549 0.12734 0.12909 0.12887 0.12885 0.1289 0.12873 0.12857 0.1284 0.12824 0.1281 0.12789 0.1279 0.12788 0.12777 0.12737 0.12701 0.12667 0.12646 0.12619 0.12602 0.12574 0.12553 0.12539 0.12545 0.12546 0.12547 0.12556 0.12553 0.12556 0.12565 0.12556 0.12556 0.12559 0.12559 0.12556 0.12555 0.12548 0.12541 0.12532 0.12529 0.12528 0.12535 0.12537 0.12546 0.12549 0.12557 0.12561 0.12568 0.1258 0.12594 0.12603 0.12619 0.12635 0.12651 0.12675 0.12699 0.12698 0.12701 0.12706 0.12715 0.12724 0.12724 0.1273 0.12746 0.12758 0.12785 0.12799 0.12827 0.12862 0.12907 0.12978 0.13014 0.13067 0.13132 0.1315 0.13169 0.13223 0.13243 0.13262 0.13288 0.13306 0.13329 0.1335 0.13342 0.13349 0.13391 0.13391 0.1344 0.13459 0.13439 0.13427 0.13473
0 0 0 0 0 0 0.12412 0.12386 0.1231 0.12189 0.12538 0.12882 0.13232 0.13142 0.13057 0.12952 0.12951 0.1293 0.12937 0.12921 0.12916 0.12896 0.12866 0.12842 0.12811 0.1279 0.12773 0.12751 0.12748 0.12735 0.12721 0.12706 0.12695 0.12667 0.1265 0.12628 0.12604 0.12581 0.12559 0.12548 0.1256 0.12557 0.12554 0.12562 0.12564 0.12569 0.12566 0.12561 0.1256 0.12558 0.12554 0.12546 0.12542 0.12532 0.12526 0.12519 0.12513 0.12511 0.12511 0.12516 0.12515 0.12524 0.12531 0.12539 0.12549 0.12557 0.1257 0.12571 0.12586 0.12611 0.12636 0.12654 0.12677 0.12671 0.12669 0.1268 0.1269 0.12694 0.12694 0.12702 0.12721 0.1273 0.12753 0.12765 0.12784 0.12836 0.12862 0.12915 0.12962 0.13021 0.13095 0.13127 0.1314 0.13172 0.13183 0.13202 0.13237 0.1325 0.1328 0.13303 0.13305 0.13305 0.13369 0.13418 0.13462 0.1348 0.13474 0.13464 0.13525
0 0 0 0 0 0.12358 0.12393 0.12488 0.12582 0.12581 0.12818 0.13033 0.13262 0.13206 0.13133 0.13034 0.13003 0.12978 0.12953 0.12932 0.12907 0.12879 0.1286 0.1283 0.12797 0.12779 0.12777 0.12767 0.12755 0.12745 0.12728 0.12706 0.12687 0.12667 0.12647 0.12629 0.12614 0.12593 0.12571 0.12567 0.1257 0.12567 0.12564 0.1256 0.12563 0.12564 0.12566 0.12567 0.12576 0.12566 0.12556 0.12553 0.1255 0.12545 0.1253 0.12529 0.12526 0.12528 0.12528 0.12522 0.12525 0.12532 0.12538 0.12544 0.12555 0.12566 0.12576 0.12587 0.12604 0.12626 0.12646 0.1267 0.12693 0.12695 0.12691 0.12707 0.12703 0.12696 0.12697 0.12699 0.12705 0.12718 0.12732 0.12751 0.12767 0.12799 0.12843 0.1289 0.12932 0.12975 0.13028 0.13052 0.13084 0.13118 0.13134 0.13162 0.13184 0.13202 0.13231 0.13264 0.13226 0.13213 0.1329 0.13352 0.13433 0.13446 0.13463 0.13462 0.13486
0 0 0 0 0.12326 0.12345 0.12324 0.12475 0.12842 0.13003 0.1311 0.1318 0.13265 0.13225 0.13176 0.13106 0.13065 0.13016 0.12976 0.12944 0.12908 0.12871 0.12856 0.12827 0.12803 0.12786 0.12774 0.12773 0.12763 0.12741 0.12726 0.12709 0.12688 0.12668 0.12654 0.12638 0.12621 0.126 0.12582 0.12577 0.12575 0.12579 0.12576 0.12573 0.12575 0.12574 0.12574 0.12575 0.12573 0.12569 0.12564 0.12567 0.1256 0.12556 0.12555 0.12546 0.12546 0.12547 0.12546 0.12543 0.12542 0.12547 0.12553 0.12561 0.12574 0.12584 0.12598 0.12613 0.12627 0.12656 0.12681 0.12693 0.12719 0.12719 0.12727 0.1275 0.12735 0.12733 0.12739 0.12745 0.12755 0.12748 0.12743 0.1276 0.12775 0.12796 0.12836 0.12865 0.12899 0.12944 0.12992 0.13011 0.13043 0.13102 0.13118 0.13141 0.13179 0.13199 0.13206 0.13235 0.13217 0.13223 0.13255 0.13298 0.13397 0.1344 0.13459 0.13473 0.13484
0 0 0 0 0.12273 0.1233 0.12222 0.126 0.1296 0.13408 0.13368 0.13324 0.13276 0.13237 0.13203 0.13162 0.13106 0.13036 0.12985 0.12942 0.12898 0.12866 0.12858 0.12823 0.12797 0.12792 0.12793 0.12781 0.12766 0.12749 0.1273 0.12716 0.12692 0.12675 0.12657 0.12645 0.12627 0.12615 0.12603 0.12595 0.12592 0.12591 0.12588 0.12588 0.12584 0.12582 0.12585 0.12587 0.12581 0.1258 0.12574 0.1257 0.12566 0.12561 0.12561 0.12562 0.12557 0.12557 0.1256 0.12553 0.12553 0.12561 0.12568 0.1257 0.12587 0.12602 0.12622 0.12638 0.12655 0.1269 0.12711 0.12728 0.12757 0.12756 0.12774 0.12792 0.12771 0.12788 0.12788 0.1277 0.12761 0.12749 0.12756 0.12755 0.1276 0.12794 0.12824 0.12849 0.12883 0.1292 0.12966 0.12977 0.13006 0.13054 0.13094 0.1312 0.13155 0.13168 0.13186 0.13216 0.13221 0.13255 0.13306 0.13337 0.13363 0.1345 0.13459 0.13482 0.1351
0 0 0 0.11606 0.12079 0.12334 0.12551 0.12781 0.13034 0.1329 0.13278 0.13244 0.13215 0.1318 0.13143 0.13103 0.13055 0.13017 0.12982 0.12938 0.12917 0.12887 0.12866 0.12836 0.12811 0.128 0.12781 0.12757 0.1274 0.12721 0.12706 0.1269 0.12681 0.12666 0.12655 0.12638 0.12627 0.12614 0.12607 0.12602 0.12605 0.12603 0.12603 0.12606 0.12603 0.12604 0.12614 0.12612 0.12613 0.12616 0.12612 0.12608 0.12608 0.12603 0.12603 0.12599 0.12596 0.126 0.12601 0.12596 0.12599 0.12608 0.12616 0.12618 0.12628 0.12645 0.12661 0.12673 0.1268 0.12707 0.12732 0.12741 0.12766 0.12776 0.12786 0.12802 0.12804 0.12811 0.12806 0.12779 0.12776 0.12756 0.12743 0.12755 0.12768 0.12798 0.12828 0.12844 0.12858 0.12897 0.12938 0.12946 0.12952 0.12982 0.13029 0.13055 0.13084 0.13114 0.13139 0.13178 0.13172 0.13199 0.13262 0.13277 0.13308 0.13347 0.13362 0.13387 0.13437
0 0 0 0.10639 0.11434 0.12422 0.12871 0.12964 0.13063 0.13203 0.13199 0.13178 0.13176 0.13129 0.13083 0.13042 0.13026 0.13008 0.12986 0.12968 0.12942 0.12923 0.12884 0.12857 0.12823 0.12803 0.12763 0.12739 0.12723 0.1271 0.12698 0.1268 0.12666 0.12652 0.12643 0.12634 0.12625 0.12618 0.12614 0.12609 0.12611 0.1261 0.12612 0.12615 0.12616 0.12616 0.12624 0.12633 0.1264 0.12642 0.12642 0.12645 0.1264 0.12643 0.1264 0.1264 0.12641 0.12636 0.12635 0.12635 0.12641 0.12651 0.12653 0.12665 0.12677 0.1269 0.12696 0.12701 0.12717 0.12725 0.12749 0.12768 0.12796 0.12816 0.12813 0.1281 0.12808 0.12807 0.128 0.1279 0.12784 0.12775 0.12747 0.12746 0.1277 0.12801 0.12823 0.12841 0.12841 0.12882 0.1291 0.12913 0.12919 0.12945 0.12982 0.13014 0.13028 0.13058 0.13105 0.13135 0.13141 0.13158 0.13193 0.1322 0.1325 0.13279 0.13296 0.13327 0.13366
0 0 0 0.09164 0.10599 0.11937 0.13184 0.13171 0.13142 0.13135 0.13135 0.13121 0.1312 0.13091 0.1305 0.13019 0.13015 0.13006 0.12998 0.12984 0.12962 0.12941 0.12921 0.12883 0.12834 0.12807 0.12772 0.12752 0.12731 0.12717 0.12699 0.12686 0.12675 0.12668 0.12661 0.12645 0.12626 0.12617 0.12611 0.12614 0.12611 0.12613 0.12621 0.12627 0.12627 0.12637 0.12651 0.12657 0.12664 0.12665 0.12673 0.12679 0.12681 0.12678 0.12676 0.12683 0.12684 0.12681 0.12675 0.12675 0.12674 0.12685 0.12695 0.12702 0.1271 0.12731 0.12732 0.12741 0.1275 0.12766 0.12787 0.12798 0.12818 0.12818 0.12824 0.12828 0.12826 0.12822 0.12817 0.12805 0.12805 0.12783 0.12779 0.12782 0.12798 0.12805 0.12814 0.12831 0.12836 0.12863 0.12885 0.12895 0.12913 0.1292 0.12949 0.12969 0.12999 0.13033 0.13067 0.13097 0.13112 0.13139 0.13159 0.1318 0.13199 0.13244 0.1326 0.13292 0.13311
0 0 0 0.10797 0.11713 0.1259 0.13449 0.13387 0.13332 0.1327 0.1324 0.13197 0.13171 0.13124 0.13085 0.13055 0.13043 0.13036 0.13021 0.13004 0.12981 0.12965 0.12922 0.12872 0.12831 0.128 0.12767 0.12731 0.12723 0.12714 0.12697 0.12689 0.12674 0.12659 0.12657 0.12649 0.12641 0.12634 0.12624 0.12625 0.12621 0.12628 0.12634 0.1264 0.1265 0.12663 0.1269 0.12705 0.12719 0.1272 0.12719 0.12725 0.1273 0.12734 0.12739 0.12744 0.12741 0.12746 0.12744 0.12743 0.12752 0.12757 0.12764 0.12764 0.12768 0.12785 0.12795 0.12807 0.12814 0.1282 0.12823 0.12837 0.12845 0.12852 0.12857 0.12863 0.12856 0.12849 0.12862 0.12855 0.12853 0.12831 0.1283 0.12833 0.12838 0.12848 0.12867 0.12882 0.12885 0.12897 0.12925 0.12952 0.12952 0.12967 0.12985 0.1301 0.13027 0.13054 0.13066 0.13078 0.13101 0.13137 0.13176 0.13183 0.13213 0.13238 0.13244 0.13282 0.13318
0.13593 0.13701 0.12994 0.12459 0.12899 0.13359 0.13776 0.13689 0.13588 0.13469 0.13366 0.13265 0.13205 0.13171 0.13138 0.13104 0.13084 0.13062 0.13049 0.13026 0.12992 0.12963 0.12916 0.12875 0.12829 0.12796 0.12767 0.12743 0.12728 0.1271 0.12695 0.12682 0.12667 0.12663 0.12662 0.12662 0.12664 0.12654 0.12644 0.12639 0.12638 0.12649 0.12652 0.1267 0.12674 0.12694 0.12713 0.12733 0.12748 0.12757 0.12768 0.1277 0.12769 0.12784 0.12795 0.12799 0.12803 0.12809 0.12812 0.12814 0.12821 0.12822 0.12822 0.12822 0.12828 0.1283 0.12834 0.12841 0.12858 0.12862 0.12864 0.12869 0.1289 0.12904 0.12892 0.12893 0.12887 0.12889 0.12899 0.12903 0.12911 0.12883 0.12886 0.12885 0.12887 0.12898 0.1292 0.12942 0.12951 0.12965 0.12984 0.12985 0.12997 0.13015 0.13024 0.13039 0.13041 0.13057 0.13084 0.1309 0.13086 0.1312 0.13157 0.13178 0.13217 0.13248 0.13272 0.13293 0.13317
0.1348 0.13706 0.13916 0.1409 0.14055 0.14002 0.13899 0.13755 0.13625 0.13554 0.13474 0.13319 0.13243 0.13217 0.13183 0.13146 0.13127 0.1309 0.13058 0.13013 0.12972 0.12946 0.12917 0.1288 0.12834 0.12799 0.12764 0.12742 0.12727 0.12716 0.12706 0.1269 0.1268 0.1267 0.12672 0.12667 0.1268 0.12673 0.12666 0.12666 0.12668 0.12666 0.12675 0.12693 0.127 0.12714 0.12736 0.12762 0.12782 0.12795 0.12805 0.1281 0.12824 0.12828 0.12838 0.12858 0.12861 0.12869 0.12875 0.12884 0.12898 0.1288 0.1288 0.12874 0.12874 0.12884 0.12883 0.12884 0.12891 0.1291 0.12912 0.12916 0.12929 0.12924 0.12928 0.12938 0.12934 0.12938 0.12945 0.12941 0.12941 0.12946 0.12951 0.12946 0.12933 0.12963 0.12992 0.13007 0.13017 0.13022 0.1304 0.13019 0.13048 0.13076 0.13083 0.1307 0.13093 0.13107 0.1311 0.13121 0.13155 0.13163 0.13178 0.13172 0.13208 0.13244 0.13282 0.13314 0.1334
0.13554 0.13726 0.13897 0.14076 0.14042 0.13986 0.13908 0.13781 0.13706 0.13631 0.13513 0.13423 0.13329 0.13272 0.13223 0.13171 0.13136 0.13101 0.13054 0.1301 0.12973 0.12956 0.12927 0.12883 0.12835 0.12809 0.1278 0.12754 0.12737 0.12723 0.12711 0.1271 0.12704 0.12696 0.12693 0.12696 0.12707 0.12698 0.12696 0.12705 0.12708 0.12714 0.12717 0.12728 0.12739 0.12756 0.1278 0.12813 0.12836 0.12855 0.12874 0.12885 0.12894 0.12901 0.12915 0.12922 0.12922 0.12937 0.12947 0.12959 0.12963 0.12951 0.12935 0.12933 0.12928 0.12921 0.12922 0.1292 0.12922 0.12946 0.12952 0.12952 0.1296 0.12973 0.12981 0.12994 0.12995 0.12997 0.12998 0.12993 0.12997 0.12994 0.13002 0.13021 0.13026 0.13052 0.13085 0.13138 0.13134 0.13133 0.13141 0.13111 0.13121 0.13115 0.13123 0.13126 0.13126 0.13137 0.1314 0.13152 0.13178 0.13212 0.13258 0.13263 0.13252 0.13272 0.13297 0.1333 0.13339
0.136 0.13726 0.13831 0.13929 0.13964 0.13971 0.13979 0.13876 0.13773 0.13682 0.13578 0.13492 0.13406 0.13334 0.13276 0.132 0.13162 0.13129 0.13091 0.13052 0.13004 0.12964 0.12918 0.12878 0.12846 0.12826 0.12799 0.12776 0.1275 0.12724 0.12717 0.12719 0.12719 0.12714 0.12721 0.12725 0.1273 0.12729 0.12738 0.12745 0.1275 0.12751 0.12756 0.1277 0.12787 0.12813 0.12843 0.12861 0.12884 0.12917 0.12937 0.12952 0.12964 0.12971 0.12972 0.12988 0.12994 0.13008 0.13017 0.13017 0.13013 0.12995 0.12992 0.12993 0.12985 0.12976 0.12967 0.12965 0.1298 0.12974 0.12973 0.12985 0.12999 0.13015 0.13035 0.13044 0.1304 0.13043 0.13039 0.13047 0.13044 0.13048 0.13071 0.13093 0.13106 0.1316 0.13211 0.13256 0.13263 0.13259 0.13276 0.13244 0.1321 0.13187 0.13177 0.13186 0.13185 0.132 0.1321 0.13232 0.13269 0.13312 0.13355 0.13346 0.13354 0.13342 0.13344 0.13352 0.13364
0.1357 0.13654 0.1375 0.13855 0.13901 0.13956 0.14006 0.1391 0.13849 0.13788 0.13674 0.13575 0.13492 0.13405 0.13316 0.13222 0.13171 0.13125 0.13084 0.1304 0.13005 0.12969 0.12937 0.12896 0.12861 0.1284 0.12812 0.12775 0.12763 0.12745 0.12733 0.12743 0.12742 0.12748 0.12753 0.1277 0.12779 0.12776 0.12788 0.12795 0.12806 0.12815 0.12819 0.12826 0.12854 0.12896 0.1292 0.12935 0.12958 0.12992 0.13012 0.13026 0.13036 0.13043 0.13053 0.13053 0.1305 0.13066 0.13058 0.13061 0.13053 0.13052 0.13042 0.13038 0.13034 0.1303 0.1302 0.13017 0.13011 0.13014 0.13024 0.13036 0.13052 0.13047 0.13054 0.13076 0.13084 0.13083 0.13076 0.13087 0.13085 0.13091 0.13126 0.13156 0.13185 0.13206 0.13284 0.13372 0.13321 0.13335 0.1341 0.13348 0.13287 0.13225 0.13274 0.13275 0.13261 0.13264 0.13283 0.13339 0.13142 0.13232 0.13462 0.13363 0.13378 0.1347 0.13463 0.13457 0.13433
0.13679 0.13761 0.13828 0.13924 0.13956 0.13999 0.14012 0.13911 0.13858 0.13836 0.13716 0.13599 0.13526 0.13432 0.1334 0.13256 0.13198 0.13152 0.1312 0.13083 0.13048 0.13018 0.12986 0.12952 0.1291 0.12877 0.12859 0.12832 0.12817 0.12812 0.12809 0.1282 0.12818 0.12823 0.12836 0.12857 0.1286 0.12867 0.12873 0.12878 0.12884 0.12885 0.12895 0.12925 0.12954 0.12981 0.13004 0.1304 0.13065 0.13074 0.13083 0.13102 0.13106 0.13104 0.13105 0.13115 0.13109 0.13121 0.13129 0.13133 0.13149 0.13151 0.13146 0.13141 0.13127 0.13129 0.13121 0.13104 0.13092 0.13073 0.13069 0.1306 0.13068 0.13069 0.1307 0.13078 0.13086 0.13078 0.13084 0.131 0.13111 0.13132 0.13172 0.13221 0.13273 0.13234 0.13265 0.13298 0.13284 0.1329 0.13295 0.13246 0.13211 0.13183 0.1289 0.12558 0.12214 0.12239 0.12272 0.12306 0.12742 0.12917 0.13134 0.13273 0.13349 0.13415 0.13528 0.13564 0.13749
0.13746 0.13826 0.13857 0.13875 0.13928 0.13956 0.1399 0.13933 0.13846 0.13822 0.13747 0.13647 0.13563 0.13475 0.13377 0.1329 0.13233 0.13199 0.1317 0.13135 0.131 0.13067 0.13039 0.13008 0.12971 0.12942 0.12901 0.12863 0.1287 0.12881 0.12888 0.12893 0.12899 0.12901 0.12903 0.12919 0.1292 0.12933 0.12949 0.12966 0.12971 0.12975 0.1298 0.13013 0.1304 0.13079 0.13102 0.13138 0.13159 0.13162 0.13167 0.13177 0.13175 0.13163 0.13172 0.13182 0.13183 0.13193 0.13208 0.13222 0.13245 0.1325 0.13255 0.13263 0.13234 0.13219 0.13218 0.1319 0.13172 0.13143 0.1312 0.13112 0.13098 0.13093 0.13093 0.13096 0.13096 0.13096 0.13093 0.13114 0.1313 0.13148 0.1323 0.13308 0.1337 0.13138 0.13081 0.13262 0 0 0.13204 0.13194 0.13175 0.13171 0.1252 0.11837 0.11179 0.11224 0.11261 0 0 0.12878 0.1272 0.12986 0.13296 0.13438 0.13608 0.13848 0.14061
