ncols        109
nrows        82
xllcorner    -1.041666666667
yllcorner    37.041665395101
cellsize     0.083333333333
NODATA_value -9999
0.0 0 0 0 0 0 0 0 0 0 0 0 0 0 0 0 0 0 0 0 0 0 0 0 0 0 0 0 0 0 0 0 0 0 0 0 0 0 0 0 0 0 0 0 0 0 0 0 0 0 0 0 0 0 0 0 0 0 0 0 0 0 0 0 0 0 0 0 0 0 0 0 0 0 0 0 0 0 0 0 0 0 0 0 0 0 0 0 0 0 0 0 0 0 0 0 0 0 0 0 0 0 0 0 0 0.12924 0.12919 0.1293 0.12931
0 0 0 0 0 0 0 0 0 0 0 0 0 0 0 0 0 0 0 0 0 0 0 0 0 0 0 0 0 0 0 0 0 0 0 0 0 0 0 0 0 0 0 0 0 0 0 0 0 0 0 0 0 0 0 0 0 0 0 0 0 0 0 0 0 0 0 0 0 0 0 0 0 0 0 0 0 0 0 0 0 0 0 0 0 0 0 0 0 0 0 0 0 0 0 0 0 0 0 0 0 0.12888 0.12906 0.12922 0.12945 0.12955 0.12948 0.12962 0.12976
0 0 0 0 0 0 0 0 0 0 0 0 0 0 0 0 0 0 0 0 0 0 0 0 0 0 0 0 0 0 0 0 0 0 0 0 0 0 0 0 0 0 0 0 0 0 0 0 0 0 0 0 0 0 0 0 0 0 0 0 0 0 0 0 0 0 0 0 0 0 0 0 0 0 0 0 0 0 0 0 0 0 0 0 0 0 0 0 0 0 0 0 0 0 0 0 0 0 0.12821 0.12851 0.12876 0.12895 0.12911 0.12916 0.12924 0.12922 0.12921 0.12921 0.12909
0 0 0 0 0 0 0 0 0 0 0 0 0 0 0 0 0 0 0 0 0 0 0 0 0 0 0 0 0 0 0 0 0 0 0 0 0 0 0 0 0 0 0 0 0 0 0 0 0 0 0 0 0 0 0 0 0 0 0 0 0 0 0 0 0 0 0 0 0 0 0 0 0 0 0 0 0 0 0 0 0 0 0 0 0 0 0 0 0 0 0 0 0 0 0 0 0 0.12775 0.12835 0.12875 0.12883 0.12918 0.12944 0.1292 0.1288 0.12889 0.12878 0.12861 0.12845
0 0 0 0 0 0 0 0 0 0 0 0 0 0 0 0 0 0 0 0 0 0 0 0 0 0 0 0 0 0 0 0 0 0 0 0 0 0 0 0 0 0 0 0 0 0 0 0 0 0 0 0 0 0 0 0 0 0 0.11527 0.11422 0.11349 0.11523 0 0 0 0 0 0 0 0 0 0 0 0 0 0 0 0 0 0 0 0 0 0 0 0 0 0 0 0 0 0 0 0 0 0.12732 0.12698 0.12769 0.12854 0.1292 0.12953 0.12997 0.13032 0.1297 0.12909 0.12847 0.12824 0.12808 0.1278
0 0 0 0 0 0 0 0 0 0 0 0 0 0 0 0 0 0 0 0 0 0 0 0 0 0 0 0 0 0 0 0 0 0 0 0 0 0 0 0 0 0 0 0 0 0 0 0 0 0 0 0 0 0 0 0 0.1168 0.11613 0.11643 0.11631 0.11598 0.11745 0.11835 0.11925 0.11314 0.10698 0.10059 0 0 0 0 0.11484 0 0 0 0 0 0 0 0 0 0 0 0 0 0 0 0 0 0 0 0 0 0.12785 0.1278 0.12756 0.12724 0.12779 0.12826 0.12885 0.12898 0.12915 0.12928 0.12875 0.12822 0.12776 0.12748 0.12726 0.12701
0 0 0 0 0 0 0 0 0 0 0 0 0 0 0 0 0 0 0 0 0 0 0 0 0 0 0 0 0 0 0 0 0 0 0 0 0 0 0 0 0 0 0 0 0 0 0 0 0 0 0 0 0 0 0 0.11632 0.11765 0.11832 0.11827 0.11826 0.11784 0.11863 0.11937 0.11981 0.1175 0.11508 0.1126 0.1193 0.11825 0.1176 0.11775 0.11646 0.11519 0.11233 0.10688 0.10326 0.10419 0 0 0 0 0 0 0 0 0 0 0 0 0 0 0 0.12737 0.12673 0.12766 0.1276 0.12736 0.12768 0.12807 0.12824 0.12833 0.12831 0.1283 0.12773 0.12736 0.12691 0.12671 0.12641 0.12607
0 0 0 0 0 0 0 0 0 0 0 0 0 0 0 0 0 0 0 0 0 0 0 0 0 0 0 0 0 0 0 0 0 0 0 0 0 0 0 0 0 0 0 0 0 0 0 0 0 0 0 0.1114 0.11279 0.11374 0.11471 0.11647 0.11842 0.1198 0.11976 0.11935 0.11917 0.11914 0.11933 0.11915 0.12066 0.12228 0.12414 0.1221 0.11921 0.11621 0.11602 0.11576 0.11546 0.10852 0.10139 0.09411 0 0 0 0 0 0 0 0 0 0 0 0 0 0 0 0 0.12659 0.12751 0.12753 0.12754 0.12746 0.12758 0.1276 0.12781 0.12764 0.12737 0.1271 0.12676 0.12636 0.12601 0.12571 0.12548 0.12518
0 0 0 0 0 0 0 0 0 0 0 0 0 0 0 0 0 0 0 0 0 0 0 0 0 0 0 0 0 0 0 0 0 0 0 0 0 0 0 0 0 0 0 0 0 0 0 0 0 0 0.10847 0.11039 0.11101 0.11206 0.11305 0.11416 0.11605 0.11628 0.11628 0.11585 0.11514 0.11689 0.11876 0.12052 0.12442 0.12853 0.13235 0.13062 0.12826 0.12579 0.12458 0.1233 0.12192 0.11654 0.11096 0.10538 0.10681 0.10822 0.10945 0.11323 0.11721 0.12044 0 0 0 0 0 0 0 0.11917 0.1226 0.12469 0.12608 0.12793 0.12776 0.12755 0.12734 0.12724 0.12706 0.12699 0.12668 0.12625 0.12587 0.12552 0.12526 0.12498 0.12481 0.12462 0.1244
0 0 0 0 0 0 0 0 0 0 0 0 0 0 0 0 0 0 0 0 0 0 0 0 0 0 0 0 0 0 0 0 0 0 0 0 0 0 0 0 0 0 0 0 0 0 0 0 0 0.10918 0.10742 0.1069 0.10887 0.11035 0.11067 0.11187 0.11253 0.11269 0.11209 0.11166 0.11097 0.11442 0.11811 0.12144 0.1278 0.13425 0.1403 0.13882 0.13696 0.13474 0.13239 0.13009 0.12794 0.12421 0.12029 0.11651 0.11773 0.11875 0.11946 0.12436 0.12481 0.12661 0 0.12816 0.12793 0.12083 0.10763 0.09974 0.10671 0.11857 0.12451 0.12571 0.12608 0.12825 0.12798 0.12762 0.12725 0.12683 0.12655 0.1262 0.12573 0.12526 0.12467 0.12437 0.12413 0.12392 0.12394 0.12391 0.12384
0 0 0 0 0 0 0 0 0 0 0 0 0 0 0 0 0 0 0 0 0 0 0 0 0 0 0 0 0 0 0 0 0 0 0 0 0 0 0 0 0 0 0 0 0 0 0 0 0 0.10841 0.10502 0.10253 0.10468 0.10682 0.10792 0.10824 0.10839 0.10856 0.10803 0.10715 0.10626 0.11164 0.11675 0.12201 0.1308 0.13938 0.14799 0.1469 0.14526 0.14328 0.14011 0.13691 0.13347 0.13167 0.12961 0.1275 0.12834 0.12888 0.12944 0.12981 0.1302 0.1307 0.13286 0.13455 0.13643 0.11721 0.09771 0.07827 0.09547 0.11278 0.1297 0.12944 0.12913 0.12864 0.12815 0.12772 0.12733 0.12662 0.12599 0.1253 0.12462 0.12402 0.12337 0.12321 0.12288 0.12276 0.12294 0.12291 0.12294
0 0 0 0 0 0 0 0 0 0 0 0 0 0 0 0 0 0 0 0 0 0 0 0 0 0 0 0 0 0 0 0 0 0 0 0 0 0 0 0 0 0 0 0 0 0 0 0 0 0.11004 0.10865 0.1057 0.10818 0.11045 0.11194 0.11312 0.11443 0.11507 0.11441 0.11362 0.11296 0.11669 0.12039 0.12414 0.13056 0.13651 0.14234 0.14157 0.14045 0.13898 0.13683 0.13433 0.13185 0.13068 0.12915 0.12759 0.12822 0.12866 0.12924 0.12955 0.12997 0.13043 0.13202 0.13347 0.13483 0.12206 0.10904 0.09589 0.10726 0.11826 0.1295 0.12904 0.12872 0.12828 0.12761 0.12689 0.12636 0.1257 0.12507 0.12419 0.12372 0.12333 0.12284 0.12267 0.12253 0.12247 0.12251 0.12256 0.12263
0 0 0 0 0 0 0 0 0 0 0 0 0 0 0 0 0 0 0 0 0 0 0 0 0 0 0 0 0 0 0 0 0 0 0 0 0 0 0 0 0 0 0 0 0 0 0 0 0 0.11247 0.11215 0.10831 0.11101 0.11373 0.11551 0.11759 0.11932 0.12052 0.12023 0.11966 0.11924 0.12155 0.12375 0.12598 0.12977 0.13319 0.1364 0.13618 0.13558 0.13478 0.1334 0.13177 0.13019 0.12942 0.12856 0.12783 0.12818 0.12853 0.12886 0.12908 0.12936 0.12966 0.1309 0.13197 0.13277 0.12642 0.12002 0.11353 0.11874 0.12401 0.12922 0.1288 0.12833 0.12782 0.12689 0.12598 0.12544 0.12477 0.12398 0.12332 0.123 0.12259 0.12219 0.12213 0.12207 0.12204 0.12214 0.1222 0.12238
0 0 0 0 0 0 0 0 0 0 0 0 0 0 0 0 0 0 0 0 0 0 0 0 0 0 0 0 0 0 0 0 0 0 0 0 0 0 0 0 0 0 0 0 0 0 0 0 0 0.11388 0.11238 0.11089 0.11385 0.11787 0.11918 0.12186 0.12367 0.12529 0.12554 0.12541 0.12526 0.12626 0.12687 0.12768 0.12871 0.12946 0.13023 0.13005 0.13042 0.13041 0.12976 0.12906 0.1284 0.12835 0.12814 0.12811 0.12835 0.12849 0.12859 0.12871 0.12896 0.12917 0.13009 0.13059 0.13089 0.13093 0.13096 0.13094 0.13024 0.12955 0.12879 0.12833 0.12778 0.12724 0.12631 0.12525 0.12442 0.12369 0.123 0.1223 0.12215 0.12187 0.12147 0.12145 0.1215 0.12145 0.12163 0.12169 0.12195
0 0 0 0 0 0 0 0 0 0 0 0 0 0 0 0 0 0 0 0 0 0 0 0 0 0 0 0 0 0 0 0 0 0 0 0 0 0 0 0 0 0 0 0 0 0 0 0 0 0.1158 0.11491 0.11477 0.1169 0.11918 0.12246 0.12383 0.12402 0.12468 0.12465 0.12457 0.12464 0.12554 0.12666 0.12735 0.12811 0.12872 0.12936 0.12967 0.12967 0.12954 0.129 0.12846 0.12795 0.12781 0.12755 0.12738 0.12755 0.12757 0.12753 0.12767 0.12775 0.12791 0.1284 0.1287 0.1289 0.12898 0.12896 0.12891 0.12834 0.1278 0.1272 0.12664 0.12615 0.12568 0.12509 0.12425 0.12334 0.12272 0.1222 0.12167 0.12152 0.12138 0.12123 0.12132 0.12129 0.12128 0.12145 0.12169 0.12182
0 0 0 0 0 0 0 0 0 0 0 0 0 0 0 0 0 0 0 0 0 0 0 0 0 0 0 0 0 0 0 0 0 0 0 0 0 0 0 0 0 0 0 0 0 0 0 0 0 0.11666 0.11926 0.11999 0.12149 0.12366 0.12575 0.12538 0.12433 0.12384 0.12397 0.12393 0.12422 0.12532 0.12634 0.12685 0.1275 0.12821 0.12881 0.12884 0.12886 0.12869 0.12826 0.12773 0.12736 0.12721 0.12693 0.1267 0.12669 0.12664 0.12652 0.12652 0.12659 0.12667 0.12679 0.12692 0.12701 0.12695 0.1269 0.12672 0.1263 0.12581 0.12537 0.12503 0.12463 0.12422 0.12372 0.12309 0.12237 0.122 0.12161 0.12122 0.12119 0.12102 0.12092 0.12106 0.12108 0.12115 0.12137 0.12164 0.12187
0 0 0 0 0 0 0 0 0 0 0 0 0 0 0 0 0 0 0 0 0 0 0 0 0 0 0 0 0 0 0 0 0 0 0 0 0 0 0 0 0 0 0 0 0 0 0 0 0 0 0.12268 0.12354 0.12491 0.12726 0.12868 0.12742 0.12496 0.12325 0.12333 0.12354 0.12375 0.125 0.12615 0.12691 0.12723 0.12778 0.12823 0.12818 0.12823 0.12792 0.12759 0.12723 0.12699 0.12691 0.12642 0.12601 0.12587 0.12569 0.12559 0.12544 0.12539 0.12534 0.12535 0.12521 0.12513 0.12503 0.1249 0.12465 0.12432 0.12398 0.12367 0.12333 0.12295 0.12259 0.12224 0.12191 0.1215 0.12122 0.12093 0.12066 0.1206 0.12051 0.12055 0.12071 0.12082 0.12098 0.12115 0.12143 0.12178
0 0 0 0 0 0 0 0 0 0 0 0 0 0 0 0 0 0 0 0 0 0 0 0 0 0 0 0 0 0 0 0 0 0 0 0 0 0 0 0 0 0 0 0 0 0 0 0 0 0 0.12512 0.12549 0.12608 0.12678 0.12818 0.12697 0.12468 0.12318 0.12342 0.12396 0.12398 0.12529 0.12646 0.12718 0.1275 0.12783 0.12805 0.12793 0.12775 0.12759 0.12725 0.12684 0.12646 0.1263 0.12594 0.12573 0.12565 0.12551 0.12537 0.12529 0.12511 0.12507 0.125 0.12492 0.12485 0.12469 0.12451 0.12422 0.12391 0.12362 0.12328 0.12301 0.12267 0.12238 0.12203 0.12171 0.12132 0.12112 0.12084 0.12056 0.12054 0.12051 0.12051 0.12068 0.12079 0.12091 0.12105 0.12132 0.12163
0 0 0 0 0 0 0 0 0 0 0 0 0 0 0 0 0 0 0 0 0 0 0 0 0 0 0 0 0 0 0 0 0 0 0 0 0 0 0 0 0 0 0 0 0 0 0 0 0 0 0 0 0.12633 0.12664 0.12762 0.12594 0.12455 0.1233 0.12364 0.12384 0.12391 0.12535 0.12659 0.12724 0.1274 0.12766 0.12769 0.1276 0.1274 0.12718 0.12679 0.12637 0.12604 0.1257 0.12556 0.12532 0.12522 0.1251 0.12502 0.12508 0.12487 0.12479 0.12466 0.12471 0.12463 0.12443 0.12419 0.12397 0.12369 0.12337 0.12307 0.12285 0.1225 0.12214 0.12182 0.12142 0.12109 0.12089 0.12069 0.12049 0.12053 0.12057 0.12057 0.12072 0.12081 0.12092 0.12107 0.12127 0.12149
0 0 0 0 0 0 0 0 0 0 0 0 0 0 0 0 0 0 0 0 0 0 0 0 0 0 0 0 0 0 0 0 0 0 0 0 0 0 0 0 0 0 0 0 0 0 0 0 0 0 0.12692 0.1268 0.12697 0.12712 0.1269 0.12531 0.1245 0.12323 0.12362 0.12369 0.12389 0.12502 0.12634 0.127 0.12698 0.12694 0.1272 0.12706 0.12682 0.12653 0.12617 0.12577 0.12547 0.12536 0.12508 0.12481 0.1248 0.1247 0.12452 0.12454 0.12458 0.12454 0.12442 0.12426 0.12415 0.12393 0.12381 0.12362 0.12326 0.12308 0.12294 0.12257 0.12223 0.12194 0.12152 0.12115 0.12083 0.12063 0.12051 0.12035 0.12046 0.12048 0.12053 0.12059 0.12073 0.12084 0.1211 0.12127 0.12146
0 0 0 0 0 0 0 0 0 0 0 0 0 0 0 0 0 0 0 0 0 0 0 0 0 0 0 0 0 0 0 0 0 0 0 0 0 0 0 0 0 0 0 0 0 0 0 0 0 0 0.12783 0.12768 0.12777 0.12801 0.12737 0.1258 0.1249 0.12385 0.1239 0.12409 0.1241 0.12497 0.12599 0.12659 0.12672 0.12652 0.12688 0.12677 0.12657 0.1264 0.12614 0.12594 0.12555 0.12534 0.12501 0.12479 0.12484 0.12478 0.12483 0.12482 0.12457 0.12455 0.12442 0.12438 0.12428 0.12408 0.12397 0.12389 0.12366 0.12349 0.12321 0.12283 0.12242 0.12205 0.12174 0.12131 0.12085 0.12068 0.12056 0.12041 0.12052 0.12048 0.12047 0.1206 0.12071 0.12081 0.12101 0.12126 0.12146
0 0 0 0 0 0 0 0 0 0 0 0 0 0 0 0 0 0 0 0 0 0 0 0 0 0 0 0 0 0 0 0 0 0 0 0 0 0 0 0 0 0 0 0 0 0 0 0 0 0 0 0.1284 0.1285 0.12816 0.12765 0.12658 0.12526 0.12426 0.12429 0.12434 0.12431 0.125 0.12599 0.12635 0.1264 0.12645 0.12654 0.1265 0.12641 0.12629 0.12616 0.12606 0.12554 0.12517 0.12483 0.12487 0.12485 0.12484 0.1248 0.12477 0.12463 0.12456 0.12459 0.12448 0.12442 0.12428 0.12421 0.12417 0.12402 0.12369 0.12346 0.12296 0.12251 0.12212 0.12178 0.1214 0.12108 0.1208 0.12062 0.12047 0.1205 0.12048 0.12045 0.12054 0.12069 0.12081 0.1211 0.12129 0.12141
0 0 0 0 0 0 0 0 0 0 0 0 0 0 0 0 0 0 0 0 0 0 0 0 0 0 0 0 0 0 0 0 0 0 0 0 0 0 0 0 0 0 0 0 0 0 0 0 0 0 0 0.12958 0.1291 0.12865 0.12799 0.12704 0.12544 0.1246 0.12476 0.12467 0.12459 0.12512 0.12585 0.12609 0.12628 0.1263 0.12628 0.12622 0.1263 0.12643 0.12604 0.12583 0.12538 0.12511 0.12517 0.12506 0.12506 0.12495 0.12503 0.12506 0.12498 0.12482 0.12488 0.12495 0.12485 0.12473 0.12466 0.1245 0.12411 0.12381 0.12357 0.12314 0.12274 0.12234 0.12195 0.12163 0.12125 0.12093 0.1207 0.12058 0.12057 0.12052 0.12044 0.12057 0.12073 0.12073 0.12098 0.12121 0.12139
0 0 0 0 0 0 0 0 0 0 0 0 0 0 0 0 0 0 0 0 0 0 0 0 0 0 0 0 0 0 0 0 0 0 0 0 0 0 0 0 0 0 0 0 0 0 0 0 0 0 0 0.13039 0.12959 0.12902 0.12791 0.12703 0.12571 0.12482 0.1249 0.12493 0.125 0.12534 0.1259 0.1262 0.12633 0.12635 0.12628 0.12627 0.12632 0.12647 0.12614 0.12598 0.12582 0.12562 0.1254 0.1252 0.12522 0.12531 0.1253 0.12512 0.12498 0.12496 0.12505 0.12514 0.12502 0.12495 0.12471 0.12446 0.1242 0.1238 0.12351 0.12319 0.12273 0.12245 0.12215 0.12174 0.12132 0.12117 0.12096 0.1207 0.12065 0.12064 0.12049 0.12057 0.12072 0.12079 0.12104 0.12121 0.12148
0 0 0 0 0 0 0 0 0 0 0 0 0 0 0 0 0 0 0 0 0 0 0 0 0 0 0 0 0 0 0 0 0 0 0 0 0 0 0 0 0 0 0 0 0 0 0 0 0 0.12659 0.12846 0.13062 0.12991 0.12888 0.12779 0.12686 0.12596 0.12525 0.12511 0.12532 0.12536 0.12577 0.1261 0.12642 0.12642 0.12648 0.12648 0.12638 0.12645 0.12656 0.12649 0.12628 0.12619 0.12607 0.12574 0.12564 0.12557 0.1255 0.12552 0.12548 0.12525 0.12503 0.12503 0.12522 0.12514 0.12498 0.12477 0.12452 0.12426 0.124 0.12362 0.1232 0.12291 0.1226 0.12224 0.1218 0.12146 0.1212 0.121 0.12073 0.12068 0.12056 0.12046 0.12063 0.12067 0.12076 0.12103 0.12118 0.12149
0 0 0 0 0 0 0 0 0 0 0 0 0 0 0 0 0 0 0 0 0 0 0 0 0 0 0 0 0 0 0 0 0 0 0 0 0 0 0 0 0 0 0 0 0 0 0 0 0.12198 0.12491 0.12799 0.13066 0.12976 0.12854 0.12766 0.12687 0.12601 0.12544 0.12544 0.12553 0.12574 0.12608 0.12626 0.12639 0.12656 0.12669 0.12674 0.12675 0.12674 0.12675 0.12676 0.12667 0.12653 0.1264 0.12614 0.12607 0.12601 0.12581 0.12566 0.12558 0.12543 0.12538 0.1252 0.12518 0.12517 0.12503 0.12482 0.12465 0.12436 0.12403 0.12381 0.12346 0.12307 0.12275 0.12232 0.12196 0.12161 0.1213 0.12102 0.12086 0.12068 0.1206 0.12049 0.12063 0.12073 0.12077 0.12101 0.12122 0.1215
0 0 0 0 0 0 0 0 0 0 0 0 0 0 0 0 0 0 0 0 0 0 0 0 0 0 0 0 0 0 0 0 0 0 0 0 0 0 0 0 0 0 0 0 0 0.12973 0.12784 0.12623 0.12457 0.12674 0.12856 0.12979 0.12926 0.12844 0.12744 0.12712 0.12643 0.12595 0.12611 0.12604 0.12611 0.12636 0.1264 0.12661 0.12676 0.12692 0.12706 0.12707 0.12708 0.12713 0.12709 0.12708 0.127 0.12688 0.12673 0.12659 0.12634 0.12618 0.12598 0.12586 0.12574 0.12542 0.12525 0.12522 0.12515 0.12506 0.12488 0.12461 0.1243 0.12397 0.12379 0.12339 0.12305 0.12265 0.12234 0.12197 0.12166 0.12132 0.12116 0.12097 0.12084 0.12077 0.12068 0.12081 0.12085 0.1209 0.12117 0.12137 0.12154
0 0 0 0 0 0 0 0 0 0 0 0 0 0 0 0 0 0 0 0 0 0 0 0 0 0 0 0 0 0 0 0 0 0 0 0 0 0 0 0 0 0 0.12894 0.12983 0.13083 0.13054 0.1297 0.12924 0.1276 0.12815 0.12898 0.129 0.12869 0.12816 0.1274 0.12716 0.12678 0.12648 0.12665 0.12651 0.12651 0.1266 0.12678 0.12683 0.12703 0.12708 0.12716 0.12723 0.12734 0.12734 0.12739 0.12731 0.12751 0.12738 0.12709 0.12695 0.12663 0.12645 0.12631 0.12609 0.12582 0.12552 0.12532 0.12526 0.12516 0.12504 0.12477 0.12452 0.12422 0.12396 0.1237 0.1234 0.1231 0.12262 0.12226 0.12205 0.12177 0.12144 0.1212 0.12111 0.12101 0.12099 0.12084 0.12092 0.12098 0.12104 0.12131 0.12153 0.12175
0 0 0 0 0 0 0 0 0 0 0 0 0 0 0 0 0 0 0 0 0 0 0 0 0 0 0 0 0 0 0 0 0 0 0 0 0 0 0 0 0.12842 0.12846 0.12911 0.13002 0.13149 0.13193 0.13154 0.13104 0.1306 0.12981 0.12901 0.12812 0.12804 0.12774 0.12748 0.12739 0.12722 0.12698 0.12712 0.12707 0.12676 0.12668 0.12682 0.12684 0.1272 0.12723 0.1273 0.12729 0.12742 0.12757 0.12754 0.1276 0.12765 0.1276 0.12741 0.12724 0.12699 0.12673 0.12654 0.12625 0.12597 0.12571 0.12551 0.12535 0.12522 0.12504 0.12485 0.12461 0.12429 0.12401 0.12364 0.12341 0.12307 0.12265 0.12234 0.12211 0.12179 0.12158 0.12138 0.1212 0.12119 0.12112 0.12103 0.12103 0.12115 0.12115 0.12142 0.12167 0.12188
0 0 0 0 0 0 0 0 0 0 0 0 0 0 0 0 0 0 0 0 0 0 0 0 0 0 0 0 0 0 0 0 0 0 0 0 0 0 0 0.12787 0.12871 0.12864 0.12907 0.12945 0.13074 0.13112 0.13069 0.13015 0.12942 0.1288 0.12829 0.12787 0.12773 0.12766 0.12758 0.12755 0.12761 0.1274 0.12741 0.12723 0.12707 0.12707 0.12697 0.12709 0.12733 0.12738 0.12738 0.12751 0.12751 0.12763 0.12774 0.12771 0.12781 0.12764 0.12743 0.12743 0.12706 0.12683 0.12661 0.12633 0.12597 0.1257 0.12557 0.1254 0.12525 0.12505 0.12498 0.12467 0.12434 0.12411 0.12383 0.12348 0.1232 0.12296 0.12255 0.12232 0.12195 0.12177 0.12159 0.12136 0.12133 0.12128 0.12122 0.12129 0.12138 0.12143 0.12168 0.12189 0.12209
0 0 0 0 0 0 0 0 0 0 0 0 0 0 0 0 0 0 0 0 0 0 0 0 0 0 0 0 0 0 0 0 0 0 0 0 0 0 0.12617 0.12973 0.13005 0.1295 0.12936 0.12908 0.1293 0.12977 0.12947 0.129 0.12871 0.12819 0.12774 0.12764 0.12764 0.12765 0.12778 0.12772 0.1279 0.12767 0.12756 0.12737 0.12727 0.12734 0.12728 0.12741 0.12747 0.12754 0.12761 0.12757 0.12775 0.1278 0.12775 0.12781 0.12778 0.12777 0.12766 0.12756 0.12724 0.12684 0.12666 0.12633 0.12598 0.1258 0.12561 0.12545 0.12531 0.12513 0.12496 0.12466 0.12436 0.12422 0.12393 0.12348 0.1232 0.12289 0.12261 0.12236 0.12205 0.12182 0.12165 0.12151 0.12154 0.12151 0.12141 0.12152 0.12163 0.12174 0.12197 0.12211 0.1223
0 0 0 0 0 0 0 0 0 0 0 0 0 0 0 0 0 0 0 0 0 0 0 0 0 0 0 0 0 0 0 0 0 0 0.11959 0.1118 0.10564 0.11469 0.12397 0.13307 0.13257 0.13179 0.13066 0.12971 0.12898 0.12866 0.1284 0.12819 0.12751 0.12733 0.12724 0.12742 0.12766 0.12792 0.12783 0.12794 0.12804 0.12806 0.12802 0.12774 0.12766 0.12773 0.12762 0.12766 0.12773 0.12765 0.12773 0.12788 0.12794 0.12805 0.12794 0.12792 0.12789 0.12787 0.12776 0.12756 0.1274 0.12711 0.12679 0.12632 0.12607 0.12599 0.12587 0.12562 0.1255 0.12533 0.12503 0.12458 0.12446 0.12434 0.12389 0.12352 0.12323 0.12283 0.12255 0.12232 0.12208 0.1219 0.12172 0.12158 0.12169 0.12175 0.1216 0.12178 0.12194 0.12211 0.12226 0.12237 0.12251
0 0 0 0 0 0 0 0 0 0 0 0 0 0 0 0 0 0 0 0 0 0 0 0 0 0 0 0 0 0.12955 0.13059 0.13121 0.13029 0.12866 0.12535 0.12058 0.11483 0.12098 0.12681 0.13261 0.13211 0.13168 0.13094 0.13026 0.12945 0.12867 0.12837 0.12815 0.1278 0.12762 0.12741 0.12775 0.128 0.12814 0.12817 0.12831 0.12847 0.12836 0.12834 0.12823 0.12832 0.12822 0.12817 0.12821 0.12818 0.12813 0.12815 0.12816 0.12815 0.12819 0.12807 0.12794 0.12769 0.12783 0.12779 0.1277 0.12736 0.1272 0.12693 0.12646 0.12611 0.126 0.12611 0.12574 0.1257 0.12557 0.12524 0.12481 0.12453 0.12428 0.12389 0.12357 0.12323 0.12297 0.1226 0.12236 0.12216 0.12195 0.12181 0.12173 0.12184 0.12185 0.1218 0.12202 0.12219 0.12242 0.12255 0.1227 0.12286
0 0 0 0 0 0 0 0 0 0 0 0 0 0 0 0 0 0 0 0 0 0 0 0 0 0.12361 0.1246 0.12436 0.12704 0.13124 0.13352 0.13362 0.13285 0.13268 0.13116 0.12949 0.12427 0.12718 0.12979 0.13233 0.13198 0.13143 0.13048 0.13013 0.12974 0.12872 0.12833 0.12806 0.12789 0.12796 0.12766 0.12808 0.12824 0.12844 0.12848 0.12875 0.1288 0.1287 0.12869 0.12879 0.12882 0.12873 0.12873 0.12882 0.12886 0.1287 0.1286 0.12848 0.12844 0.12849 0.12831 0.12797 0.12791 0.12789 0.12772 0.12755 0.12741 0.1271 0.12704 0.12681 0.12645 0.12611 0.12611 0.12603 0.12576 0.1256 0.1253 0.12497 0.12477 0.1243 0.12394 0.1235 0.1232 0.12302 0.12276 0.12248 0.12224 0.12207 0.12199 0.12183 0.12193 0.12199 0.12202 0.12226 0.12248 0.12265 0.1228 0.123 0.12312
0 0 0 0 0 0 0 0 0 0 0 0 0 0 0 0 0 0 0 0 0 0 0 0.12027 0.12178 0.12308 0.12311 0.12097 0.12673 0.13172 0.13715 0.13665 0.13578 0.13497 0.1346 0.13372 0.13316 0.13296 0.13214 0.13146 0.13094 0.13061 0.12984 0.12928 0.12893 0.1287 0.12863 0.12826 0.12805 0.12804 0.12796 0.12827 0.12867 0.12865 0.12879 0.12895 0.12913 0.12913 0.12922 0.12932 0.12922 0.12917 0.12936 0.12919 0.12911 0.12906 0.12907 0.12899 0.12886 0.12875 0.12854 0.12831 0.12823 0.12802 0.1277 0.12744 0.12721 0.12699 0.12692 0.12689 0.12666 0.12631 0.12604 0.12606 0.12583 0.12562 0.12537 0.12503 0.12468 0.1245 0.12402 0.12357 0.12324 0.12301 0.12281 0.12261 0.1223 0.12223 0.12206 0.12184 0.12197 0.12211 0.12221 0.12246 0.12264 0.12288 0.12311 0.12326 0.12333
0 0 0 0 0 0 0 0 0 0 0 0 0 0 0 0 0 0 0 0 0 0 0.11662 0.11842 0.11964 0.12166 0.12483 0.12388 0.12799 0.13193 0.13594 0.13538 0.1345 0.13351 0.13317 0.13278 0.13201 0.13156 0.13101 0.13034 0.1301 0.12991 0.12951 0.1291 0.1287 0.12855 0.12838 0.12827 0.12799 0.12803 0.1281 0.12834 0.12878 0.12883 0.12919 0.12932 0.12926 0.12933 0.12937 0.12939 0.12954 0.12951 0.12945 0.12951 0.12934 0.12926 0.12925 0.12921 0.12916 0.129 0.12874 0.12865 0.12839 0.12802 0.12772 0.12748 0.12711 0.12687 0.12649 0.12633 0.12609 0.12612 0.12589 0.12582 0.12575 0.12555 0.12533 0.1251 0.1246 0.12428 0.12406 0.12366 0.12324 0.12311 0.12292 0.12274 0.12244 0.12232 0.12213 0.12198 0.12217 0.12231 0.12236 0.12265 0.12282 0.12301 0.12322 0.12333 0.12344
0 0 0 0 0 0 0 0 0 0 0 0 0 0 0 0 0 0 0 0 0 0.11413 0.11458 0.11526 0.1156 0.11892 0.12346 0.12569 0.1285 0.13107 0.13386 0.13348 0.13229 0.13123 0.13093 0.13077 0.13003 0.12955 0.12937 0.12896 0.12881 0.12875 0.12828 0.12792 0.12778 0.12786 0.128 0.12788 0.12778 0.12792 0.12794 0.12824 0.12876 0.12901 0.12934 0.12952 0.12961 0.12963 0.12965 0.12956 0.12969 0.1297 0.12957 0.12959 0.12968 0.12953 0.12933 0.12921 0.1292 0.12908 0.12875 0.12857 0.12836 0.12798 0.12761 0.12714 0.12685 0.12669 0.12643 0.12619 0.12601 0.12594 0.12582 0.1257 0.12555 0.12547 0.12507 0.12497 0.12451 0.12422 0.12403 0.12364 0.12339 0.1233 0.12291 0.12266 0.12241 0.1223 0.12215 0.12209 0.12231 0.12247 0.12253 0.12272 0.1229 0.1232 0.1233 0.12343 0.12349
0 0 0 0 0 0 0 0 0 0 0 0 0 0 0 0 0 0 0 0 0 0 0 0.11318 0.11128 0.11661 0.12198 0.12795 0.12911 0.13021 0.1319 0.13104 0.13016 0.12935 0.12889 0.12893 0.12839 0.12817 0.128 0.12766 0.12757 0.12734 0.12727 0.12705 0.1272 0.12722 0.12723 0.12744 0.12754 0.12783 0.12808 0.1283 0.12871 0.12909 0.12955 0.1297 0.12991 0.12988 0.13004 0.13 0.13003 0.1299 0.12984 0.12961 0.12975 0.12942 0.12931 0.12916 0.1291 0.129 0.12885 0.12864 0.12831 0.12788 0.12757 0.1271 0.12671 0.12646 0.12625 0.12605 0.12592 0.12591 0.12571 0.12546 0.12545 0.12542 0.12513 0.12475 0.12449 0.12416 0.12402 0.12366 0.12344 0.12313 0.12276 0.1226 0.12231 0.12231 0.12228 0.12225 0.1224 0.12261 0.12262 0.12287 0.12306 0.12332 0.12341 0.12349 0.12359
0 0 0 0 0 0 0 0 0 0 0 0 0 0 0 0 0 0 0 0 0 0.10603 0.10937 0.11324 0.1123 0.11774 0.12344 0.13042 0.13022 0.13006 0.13057 0.13004 0.12918 0.12838 0.12832 0.12822 0.12763 0.12739 0.12737 0.12714 0.12695 0.12663 0.12652 0.12651 0.12659 0.12676 0.12677 0.12704 0.12682 0.12713 0.12751 0.12796 0.1283 0.12864 0.12915 0.1294 0.12968 0.12972 0.12974 0.12983 0.12988 0.12985 0.1298 0.12974 0.12949 0.12945 0.12935 0.12928 0.12907 0.12889 0.12863 0.12852 0.1283 0.12796 0.1276 0.12713 0.12672 0.12651 0.1262 0.12604 0.12601 0.12587 0.1257 0.12541 0.12546 0.12534 0.12512 0.12483 0.12454 0.12417 0.12396 0.12366 0.12345 0.12312 0.12285 0.12265 0.12233 0.12235 0.12234 0.12238 0.12246 0.12256 0.12254 0.12282 0.12294 0.12317 0.12337 0.12356 0.12383
0 0 0 0 0 0 0 0 0 0 0 0 0 0 0 0 0 0 0 0.0995 0.0972 0.09639 0.10322 0.11155 0.1135 0.11911 0.1253 0.13243 0.13132 0.13012 0.12934 0.12897 0.12812 0.12716 0.12734 0.12724 0.12673 0.12659 0.12663 0.12651 0.12646 0.12611 0.12611 0.12621 0.12615 0.12632 0.12646 0.12666 0.12661 0.12684 0.12704 0.12737 0.1278 0.12823 0.12863 0.12884 0.12924 0.12949 0.12957 0.12962 0.12955 0.1297 0.12981 0.12999 0.12989 0.1297 0.12943 0.12935 0.12911 0.12876 0.12849 0.12835 0.12819 0.12791 0.12748 0.12703 0.12672 0.12646 0.12626 0.12608 0.12598 0.12569 0.12564 0.12544 0.12532 0.12518 0.12504 0.12479 0.12445 0.12417 0.12394 0.12368 0.12344 0.12308 0.1229 0.12264 0.12237 0.1224 0.12247 0.12245 0.12249 0.12248 0.12245 0.12269 0.1229 0.12303 0.12341 0.12374 0.12402
0 0 0 0 0 0 0 0 0 0 0 0 0 0 0 0 0 0 0.09654 0.09641 0.09231 0.08582 0.0957 0.10506 0.11419 0.12065 0.12738 0.13422 0.13224 0.13021 0.12823 0.12765 0.12699 0.12623 0.12624 0.12602 0.1259 0.1258 0.12569 0.12578 0.12558 0.12563 0.12565 0.12565 0.1257 0.12574 0.12597 0.12611 0.12636 0.12655 0.12667 0.12707 0.12742 0.12773 0.12818 0.12855 0.12893 0.12926 0.12939 0.12951 0.12963 0.12972 0.12986 0.1301 0.12994 0.12982 0.12963 0.12939 0.12913 0.12881 0.12864 0.12841 0.12813 0.12778 0.12741 0.12716 0.12693 0.12663 0.12641 0.12624 0.12593 0.12574 0.12555 0.12547 0.12532 0.12529 0.12508 0.12482 0.12446 0.12421 0.124 0.12369 0.12343 0.12314 0.12295 0.12265 0.1225 0.1225 0.12258 0.12255 0.12254 0.12243 0.12236 0.12259 0.12284 0.12286 0.1234 0.12384 0.12428
0 0 0 0 0 0 0 0 0 0 0 0 0 0 0 0 0 0.09461 0.0953 0.09689 0.09802 0.0924 0.10141 0.11031 0.11894 0.1238 0.12829 0.13232 0.13081 0.12929 0.12778 0.12737 0.12639 0.12575 0.12553 0.12553 0.12552 0.12548 0.12544 0.12554 0.12547 0.12547 0.12554 0.12561 0.12572 0.12575 0.12588 0.12602 0.12637 0.12643 0.12664 0.12686 0.12712 0.12729 0.12748 0.12799 0.12831 0.12859 0.12869 0.12896 0.12921 0.12922 0.12944 0.1296 0.12967 0.1298 0.12975 0.12954 0.12933 0.12902 0.1287 0.12846 0.12822 0.12789 0.12761 0.12741 0.1272 0.12691 0.12657 0.12653 0.12634 0.12602 0.12585 0.12573 0.12564 0.12542 0.1252 0.12496 0.1246 0.12434 0.12417 0.12377 0.12344 0.12316 0.12299 0.12274 0.1226 0.12255 0.1226 0.12256 0.12253 0.12251 0.12238 0.12265 0.12295 0.12301 0.12341 0.12373 0.12402
0 0 0 0 0 0 0 0 0 0 0 0 0 0 0 0 0.09043 0.08941 0.08834 0.09399 0.10024 0.09717 0.1064 0.11444 0.12253 0.1253 0.1284 0.13039 0.12939 0.12859 0.12749 0.12703 0.12602 0.12526 0.12534 0.12522 0.12504 0.1251 0.12526 0.12537 0.12523 0.12536 0.12532 0.12537 0.12547 0.12567 0.12577 0.12589 0.1261 0.12619 0.12644 0.12671 0.12687 0.12696 0.12701 0.12758 0.12769 0.1281 0.12848 0.12879 0.12905 0.12904 0.12919 0.12936 0.12959 0.12974 0.12989 0.12971 0.12957 0.12939 0.12907 0.12886 0.12858 0.12815 0.12784 0.1276 0.12744 0.12722 0.12689 0.12676 0.12659 0.12641 0.12616 0.12594 0.12573 0.12552 0.12527 0.12506 0.12473 0.12445 0.12425 0.12384 0.12353 0.12327 0.12305 0.1229 0.12271 0.12271 0.12261 0.12256 0.12255 0.12249 0.1224 0.12274 0.12297 0.12311 0.12343 0.12364 0.12381
0 0 0 0 0 0 0 0 0 0 0 0 0 0 0 0.09363 0.09037 0.08413 0.07812 0.08597 0.09345 0.10046 0.11044 0.11823 0.12605 0.12705 0.12822 0.12861 0.12783 0.12769 0.127 0.1265 0.12566 0.12473 0.12522 0.12508 0.12481 0.125 0.12511 0.12511 0.12497 0.12513 0.12521 0.12542 0.12548 0.12562 0.12575 0.12594 0.12617 0.12616 0.12623 0.12644 0.12653 0.12667 0.12683 0.1272 0.12744 0.12773 0.12767 0.12816 0.12895 0.1283 0.12856 0.12924 0.12951 0.1299 0.13013 0.12986 0.12979 0.12964 0.12941 0.12905 0.12885 0.1285 0.12802 0.1277 0.12762 0.12752 0.12734 0.12713 0.127 0.12685 0.12655 0.12609 0.1259 0.12574 0.12553 0.12526 0.12482 0.1246 0.12427 0.12395 0.12371 0.12336 0.12321 0.123 0.12286 0.1228 0.12264 0.12253 0.12256 0.12252 0.12243 0.12281 0.12299 0.1232 0.12341 0.12348 0.12354
0 0 0 0 0 0 0 0 0 0 0 0 0 0 0.09187 0.09346 0.09286 0.09157 0.08623 0.09357 0.10065 0.10768 0.11486 0.12032 0.1253 0.12664 0.12768 0.12805 0.12744 0.12703 0.1265 0.12595 0.12519 0.1245 0.12471 0.1246 0.12453 0.12474 0.12489 0.12476 0.12475 0.12485 0.12484 0.12492 0.12503 0.12502 0.12543 0.12566 0.12607 0.12626 0.12652 0.12688 0.12684 0.12677 0.12666 0.12602 0.12526 0.12463 0.12621 0.12671 0.12732 0.1269 0.12668 0.12396 0.12617 0.12847 0.13064 0.13031 0.12999 0.12965 0.12923 0.12878 0.12854 0.12811 0.12786 0.12761 0.12753 0.12747 0.12734 0.1272 0.12708 0.12685 0.12645 0.12616 0.12604 0.12588 0.12555 0.12537 0.12503 0.12476 0.12442 0.12415 0.12392 0.12352 0.12335 0.12322 0.12298 0.1229 0.1228 0.12272 0.12271 0.12265 0.12252 0.12299 0.12322 0.12347 0.12375 0.12393 0.12417
0 0 0 0 0 0 0 0 0 0 0 0 0 0.09166 0.0915 0.08889 0.09386 0.09935 0.09457 0.10179 0.1089 0.11593 0.1195 0.12231 0.12467 0.12618 0.127 0.12767 0.12704 0.12667 0.12617 0.12553 0.1247 0.12408 0.12418 0.12428 0.12443 0.12439 0.12441 0.12438 0.12451 0.12456 0.12448 0.12457 0.12459 0.1246 0.1251 0.12555 0.12603 0.12656 0.12716 0.12768 0.12738 0.12697 0.12662 0.12504 0.12335 0.1217 0 0 0 0.12697 0.12408 0.1188 0.12285 0.12703 0.1312 0.13069 0.1301 0.12958 0.12899 0.1285 0.12817 0.1279 0.12777 0.12758 0.12744 0.12743 0.12742 0.12731 0.12707 0.12679 0.12652 0.12623 0.12609 0.12589 0.12554 0.12542 0.1252 0.12486 0.12466 0.12437 0.12405 0.12376 0.12359 0.12335 0.12306 0.12304 0.12289 0.12278 0.12275 0.12267 0.1226 0.12304 0.12339 0.12361 0.12399 0.12433 0.12467
0 0 0 0 0 0 0 0 0 0 0 0 0 0.09615 0.08733 0.07981 0.08758 0.09549 0.10283 0.10998 0.11716 0.12456 0.12437 0.12451 0.1243 0.12571 0.12634 0.12697 0.12666 0.12609 0.12592 0.12521 0.12449 0.12384 0.12393 0.12419 0.12425 0.12424 0.1242 0.12409 0.12419 0.12428 0.12418 0.12369 0.12373 0.12413 0.12436 0.12548 0.12607 0.12576 0.12652 0.12802 0.1261 0.1251 0.12676 0.12413 0.12142 0.11875 0 0 0 0 0 0.12089 0.11974 0.12575 0.1317 0.13094 0.13021 0.12956 0.12896 0.12858 0.12827 0.12791 0.12772 0.12755 0.12746 0.12748 0.12736 0.12725 0.12711 0.12688 0.12661 0.12634 0.12605 0.12601 0.12581 0.12575 0.12531 0.12512 0.12496 0.12458 0.12424 0.12384 0.12375 0.12348 0.12322 0.12315 0.12302 0.12287 0.1228 0.12272 0.12254 0.12306 0.12346 0.12386 0.1244 0.12487 0.12529
0 0 0 0 0 0 0 0 0 0 0 0 0.10399 0.10272 0.09921 0.09604 0.1012 0.10652 0.11139 0.11595 0.1204 0.1249 0.12487 0.12498 0.12479 0.12584 0.12615 0.12685 0.12665 0.12611 0.12574 0.12504 0.12445 0.12397 0.12405 0.12423 0.12434 0.12424 0.12403 0.12396 0.1222 0.12039 0.11849 0.12203 0.12263 0.12347 0.12409 0 0 0.12612 0 0.12474 0.12291 0.12122 0.11434 0.11672 0.11904 0.12137 0.1204 0.12211 0.12333 0 0 0 0.12217 0.12659 0.13111 0.1303 0.12953 0.1287 0.1282 0.12785 0.1276 0.12734 0.1271 0.12693 0.127 0.12706 0.12701 0.12695 0.12684 0.12664 0.12653 0.1262 0.12601 0.12605 0.12573 0.12569 0.12549 0.12528 0.12514 0.12479 0.1244 0.12405 0.12391 0.12366 0.12337 0.12332 0.12322 0.12306 0.12296 0.12289 0.12268 0.1231 0.12351 0.12382 0.12435 0.12484 0.12532
0 0 0 0 0 0 0 0 0 0 0 0.10337 0.1024 0.10654 0.11375 0.11191 0.11447 0.11721 0.11978 0.12187 0.12363 0.12542 0.12529 0.12535 0.12531 0.12585 0.12617 0.12671 0.12641 0.12597 0.12538 0.12498 0.12449 0.12416 0.12428 0.12443 0.12444 0.12402 0.12384 0.12376 0.12014 0.11642 0.11272 0.11642 0.11941 0 0 0 0 0 0.12223 0.11972 0.11561 0.10966 0.10196 0.10934 0.11663 0.12391 0.12222 0.12254 0.12327 0.12418 0.12453 0.12215 0.12498 0.12765 0.13037 0.12959 0.12877 0.12802 0.12764 0.12739 0.12728 0.127 0.12677 0.12665 0.12664 0.1267 0.1267 0.12665 0.12668 0.12654 0.12627 0.12608 0.12602 0.12599 0.12587 0.12581 0.12562 0.12538 0.12529 0.12481 0.12464 0.12438 0.12408 0.12385 0.12358 0.12348 0.12334 0.12328 0.12315 0.123 0.12276 0.12314 0.1234 0.12371 0.12434 0.12486 0.12535
0 0 0 0 0 0 0 0 0 0 0.10775 0.10112 0.09551 0.10591 0.11643 0.12659 0.12737 0.12782 0.12814 0.12748 0.12659 0.1258 0.12581 0.12549 0.12553 0.12578 0.1262 0.12655 0.12618 0.12573 0.12527 0.1249 0.12454 0.12427 0.12446 0.12449 0.12429 0.12395 0.12348 0.12334 0.12094 0.11291 0.10689 0 0 0 0 0 0 0 0 0 0 0 0.08967 0.10201 0.11436 0.12671 0.12612 0.12558 0.12506 0.12542 0.12594 0.12655 0.12742 0.12867 0.12972 0.12894 0.12814 0.1275 0.12725 0.12697 0.12677 0.1265 0.12635 0.12633 0.12639 0.12638 0.12635 0.12623 0.12621 0.12615 0.12595 0.12586 0.12597 0.12595 0.12592 0.12588 0.1257 0.12549 0.12533 0.125 0.12476 0.12446 0.12424 0.12396 0.12368 0.1236 0.12355 0.12342 0.12323 0.12308 0.12282 0.12312 0.12331 0.12354 0.12422 0.12482 0.12538
0 0 0 0 0 0 0 0 0 0 0.11336 0.10995 0.10754 0.11393 0.12036 0.12641 0.12695 0.12721 0.1274 0.12671 0.12597 0.12559 0.12547 0.12554 0.12532 0.12554 0.12595 0.12623 0.12585 0.12549 0.12511 0.12479 0.12462 0.1244 0.12446 0.1244 0.12421 0.12381 0.12321 0.12282 0.12024 0 0 0 0 0 0 0 0 0 0 0 0 0 0.10221 0.11011 0.11798 0.12586 0.12542 0.125 0.1247 0.12506 0.12558 0.12608 0.12699 0.12783 0.12876 0.12816 0.12757 0.12709 0.12684 0.12658 0.12635 0.12612 0.12591 0.1258 0.12578 0.12586 0.12595 0.12588 0.12589 0.12586 0.12566 0.12565 0.12576 0.12576 0.12568 0.12558 0.12536 0.12521 0.12501 0.12481 0.12464 0.12436 0.12416 0.12398 0.12379 0.12377 0.12366 0.12357 0.12339 0.12319 0.12296 0.12321 0.12339 0.12355 0.12414 0.12462 0.12507
0 0 0 0 0 0 0 0 0 0.11885 0.12032 0.12328 0.1198 0.12205 0.12423 0.12645 0.12658 0.12661 0.12659 0.12614 0.12568 0.1251 0.1252 0.1252 0.12519 0.12541 0.12578 0.12608 0.12563 0.12532 0.1249 0.12471 0.12466 0.12441 0.12434 0.12431 0.12425 0.12361 0.12295 0.12228 0.12178 0 0 0 0 0 0 0 0 0 0 0 0 0.11801 0.11478 0.11817 0.12157 0.12505 0.12475 0.12455 0.12447 0.12481 0.12524 0.12571 0.12644 0.12708 0.12786 0.12739 0.12707 0.12666 0.12633 0.12602 0.12576 0.12566 0.12554 0.12548 0.12551 0.12555 0.12559 0.1256 0.12558 0.12568 0.12561 0.1256 0.12561 0.12551 0.12541 0.12523 0.12506 0.12486 0.12469 0.1246 0.12444 0.12427 0.12413 0.12397 0.12392 0.12383 0.12374 0.12365 0.12351 0.12327 0.12308 0.12332 0.12351 0.12363 0.12404 0.12435 0.12475
0 0 0 0 0 0 0 0 0.11949 0.12143 0.1252 0.12862 0.1313 0.12969 0.12805 0.12644 0.12641 0.12627 0.12608 0.1259 0.12564 0.12539 0.12546 0.12546 0.12554 0.12568 0.12599 0.12613 0.1257 0.12532 0.12494 0.1247 0.12453 0.12436 0.12434 0.12431 0.12421 0.12341 0.1227 0.12181 0.12192 0.12163 0 0.11982 0.11943 0 0 0 0 0 0 0 0.12115 0.12457 0.12736 0.12632 0.12516 0.12411 0.12411 0.12416 0.12425 0.12461 0.12487 0.12547 0.12591 0.1264 0.12704 0.12669 0.12641 0.12615 0.12585 0.12553 0.12529 0.12522 0.12529 0.12517 0.12514 0.12522 0.12533 0.1254 0.12555 0.12561 0.12551 0.12555 0.12552 0.1253 0.12515 0.12496 0.12482 0.1246 0.1244 0.12435 0.12427 0.12419 0.12413 0.12405 0.12399 0.12393 0.12387 0.12384 0.12372 0.12349 0.12333 0.12351 0.12365 0.12369 0.12392 0.12406 0.12432
0 0 0 0 0 0 0 0 0.12153 0.12296 0.12482 0.12663 0.13079 0.12916 0.1275 0.12588 0.12577 0.12567 0.12553 0.12541 0.12535 0.12528 0.12528 0.12532 0.12537 0.12548 0.12566 0.1257 0.12543 0.12514 0.12483 0.1247 0.12457 0.1244 0.12446 0.12437 0.12427 0.12372 0.12324 0.12265 0.12264 0.12285 0.12202 0.12154 0.12098 0 0 0 0 0 0 0.11999 0.1215 0.12312 0.12619 0.12544 0.12471 0.12398 0.12401 0.12399 0.12401 0.12436 0.12465 0.12495 0.12532 0.12572 0.12607 0.12593 0.12578 0.12552 0.12519 0.12506 0.12494 0.1249 0.12489 0.12493 0.1249 0.12493 0.12509 0.12511 0.12517 0.12521 0.12516 0.12531 0.12522 0.12509 0.12498 0.12482 0.12467 0.12453 0.12437 0.12439 0.12437 0.12432 0.12425 0.12415 0.12412 0.12409 0.12405 0.12396 0.12386 0.12369 0.12354 0.12369 0.12373 0.1238 0.12404 0.12416 0.12438
0 0 0 0 0 0 0 0 0 0.12188 0.12378 0.12549 0.13 0.12856 0.12693 0.12524 0.12517 0.12505 0.12501 0.12502 0.12519 0.12514 0.12521 0.12523 0.12528 0.12534 0.12551 0.12547 0.12528 0.12509 0.12491 0.1248 0.12466 0.12459 0.12457 0.12452 0.12444 0.12408 0.12382 0.12349 0.12415 0.12397 0.1236 0.12315 0.12285 0.12259 0.11958 0.11324 0 0 0.11927 0.12228 0.12209 0.12265 0.12503 0.12463 0.12425 0.12387 0.1238 0.12379 0.12381 0.12412 0.12439 0.12456 0.12477 0.125 0.12524 0.12522 0.12509 0.12499 0.12494 0.12477 0.12468 0.1246 0.12461 0.12469 0.12465 0.12477 0.12491 0.12494 0.1249 0.12489 0.12496 0.12494 0.12498 0.12487 0.12478 0.12459 0.12448 0.12444 0.12436 0.1244 0.12445 0.12437 0.1244 0.12429 0.1242 0.1242 0.12413 0.12406 0.12394 0.12386 0.12374 0.12387 0.12386 0.12383 0.12409 0.12435 0.12463
0 0 0 0 0 0 0 0 0 0.11984 0.12214 0.12603 0.12918 0.12772 0.12624 0.12451 0.12449 0.12449 0.12437 0.12467 0.12487 0.12497 0.12504 0.12511 0.12508 0.12517 0.12531 0.12539 0.12527 0.12511 0.12491 0.12485 0.12472 0.12465 0.12466 0.12461 0.12462 0.12448 0.12437 0.12432 0.1246 0.12477 0.12491 0.12525 0.12553 0.12571 0.11724 0.10873 0.10022 0.10831 0.11631 0.12434 0.12421 0.12411 0.12395 0.12382 0.12388 0.12384 0.12375 0.12369 0.12363 0.12382 0.12401 0.1242 0.12429 0.12444 0.12456 0.12455 0.12454 0.12448 0.12444 0.12445 0.1244 0.12447 0.1245 0.12462 0.12467 0.12476 0.12484 0.12467 0.12464 0.12456 0.1247 0.12472 0.12469 0.1246 0.1245 0.12436 0.12432 0.12433 0.12432 0.12436 0.12445 0.12455 0.12449 0.12442 0.12429 0.12432 0.12419 0.12412 0.12411 0.12408 0.12397 0.12405 0.12407 0.124 0.12419 0.12451 0.12477
0 0 0 0 0 0 0 0 0 0.11553 0.11622 0.11828 0.111 0.11564 0.12029 0.12466 0.12456 0.12448 0.1244 0.12472 0.12489 0.12504 0.12518 0.12538 0.12546 0.12561 0.12577 0.12587 0.126 0.12603 0.12599 0.12618 0.12625 0.12632 0.12581 0.12524 0.12474 0.12468 0.1245 0.12432 0.12442 0.12447 0.12451 0.12468 0.12485 0.12498 0.11932 0 0.10798 0.11345 0.11883 0.12422 0.12411 0.12389 0.12371 0.12362 0.12363 0.12355 0.12356 0.12359 0.1236 0.12381 0.12402 0.12418 0.12424 0.12429 0.12449 0.12447 0.12441 0.12425 0.12427 0.12421 0.12417 0.12422 0.12432 0.12439 0.12447 0.1245 0.12451 0.12446 0.12437 0.12432 0.12442 0.12446 0.12452 0.12447 0.12443 0.12444 0.12446 0.12455 0.12461 0.12466 0.12474 0.12483 0.12472 0.12464 0.12456 0.12454 0.12446 0.12437 0.12428 0.12425 0.12418 0.12412 0.12398 0.12389 0.12416 0.12451 0.12491
0 0 0 0 0 0 0 0 0 0 0.10519 0.09912 0.09272 0.1034 0.11421 0.12477 0.12471 0.12448 0.12449 0.12477 0.12493 0.1251 0.12531 0.12563 0.12578 0.12585 0.1261 0.12622 0 0 0 0.127 0.12764 0.12784 0.12684 0.12588 0.12486 0.12469 0.12447 0.12425 0.12421 0.12415 0.12404 0.12414 0.1242 0.12419 0.1214 0.1186 0.11573 0.11858 0.12134 0.12403 0.12391 0.12373 0.12355 0.1235 0.12343 0.12341 0.12353 0.12355 0.12353 0.12374 0.12392 0.12413 0.12416 0.12426 0.12445 0.12444 0.12434 0.12422 0.1242 0.12417 0.12407 0.12413 0.12409 0.12416 0.12422 0.12428 0.12434 0.12421 0.12412 0.12411 0.12415 0.1242 0.12418 0.1243 0.12443 0.12451 0.12467 0.12477 0.12496 0.12503 0.12502 0.125 0.12497 0.12492 0.12487 0.12478 0.12471 0.1246 0.12454 0.1245 0.12436 0.12419 0.12399 0.12387 0.12418 0.1246 0.125
0 0 0 0 0 0 0 0 0 0 0 0.08472 0.07419 0.09118 0.11684 0.12489 0.12294 0.12347 0.12458 0.12474 0.12501 0.12518 0.12541 0.12568 0.12593 0.12607 0.12629 0.12645 0 0 0 0.12752 0.12893 0.12942 0.12791 0.12645 0.12491 0.12471 0.12445 0.12418 0.12398 0.12377 0.12353 0.12351 0.12351 0.12344 0.12347 0.12349 0.12351 0.12365 0.12378 0.12387 0.12367 0.1235 0.12337 0.12334 0.12324 0.12327 0.12336 0.12351 0.12359 0.12384 0.12404 0.12428 0.12426 0.12429 0.12434 0.12432 0.12427 0.12419 0.12417 0.1241 0.12404 0.12406 0.12404 0.12398 0.12398 0.12399 0.12393 0.12387 0.12388 0.12379 0.12392 0.12395 0.12401 0.12418 0.12438 0.12456 0.12476 0.12496 0.12521 0.12519 0.12525 0.12523 0.12517 0.12517 0.12503 0.12501 0.12489 0.12486 0.1248 0.12478 0.12461 0.12434 0.12407 0.12389 0.12419 0.12459 0.12496
0 0 0 0 0 0 0 0 0 0 0 0 0.08944 0.09911 0.11291 0.11993 0.12125 0.12264 0.12441 0.1246 0.12496 0.12516 0.12553 0.12586 0.12615 0.12293 0.1197 0 0 0.12085 0.12653 0.12703 0.12748 0.12795 0.12695 0.12583 0.12481 0.12455 0.12431 0.12405 0.12384 0.12365 0.12341 0.12343 0.12344 0.12338 0.12344 0.12349 0.12345 0.12359 0.1237 0.12377 0.12373 0.12361 0.12345 0.12342 0.12332 0.12331 0.12349 0.12361 0.12366 0.12387 0.12404 0.12428 0.1243 0.12418 0.12421 0.12418 0.12414 0.12404 0.12398 0.12395 0.1239 0.12386 0.12377 0.12383 0.12377 0.1238 0.12382 0.12379 0.12379 0.12375 0.12386 0.12394 0.12405 0.1242 0.12441 0.12454 0.1247 0.12488 0.12514 0.12519 0.12526 0.12534 0.12532 0.1253 0.12524 0.12521 0.12515 0.12514 0.12508 0.12489 0.12476 0.12448 0.1242 0.12402 0.12425 0.12448 0.12479
0 0 0 0 0 0 0 0 0 0 0 0 0 0 0 0.11632 0.11931 0.12205 0.12426 0.12455 0.12482 0.12513 0.12556 0.12607 0.12645 0.11976 0.11299 0.10622 0.11266 0.11905 0.12519 0.12566 0.12605 0.12657 0.12597 0.12525 0.12475 0.12442 0.12412 0.12392 0.12375 0.12356 0.12329 0.12335 0.12332 0.12331 0.12339 0.12341 0.12341 0.12355 0.12371 0.12374 0.12365 0.12363 0.12355 0.12353 0.12352 0.12345 0.12355 0.12362 0.12374 0.1239 0.12407 0.12428 0.12422 0.12424 0.12424 0.12409 0.12394 0.1239 0.12386 0.12376 0.12369 0.12365 0.12363 0.12364 0.12365 0.12365 0.12358 0.12359 0.12364 0.12373 0.12379 0.12396 0.12412 0.12426 0.12441 0.12449 0.1246 0.1248 0.12502 0.12512 0.12526 0.12541 0.12548 0.12552 0.12553 0.12548 0.12542 0.12538 0.12519 0.12507 0.12496 0.12467 0.12442 0.12424 0.12441 0.12451 0.12469
0 0 0 0 0 0 0 0 0 0 0 0 0 0 0 0.11586 0.11916 0.12242 0.12406 0.1244 0.12469 0.12506 0.1257 0.12625 0.12671 0.11656 0.10631 0.09588 0.10534 0 0.12386 0.12422 0.12462 0.12505 0.12494 0.12478 0.12462 0.12428 0.12405 0.12385 0.1237 0.12341 0.12317 0.12325 0.12325 0.1232 0.12332 0.12339 0.12341 0.12351 0.12358 0.12365 0.1237 0.12362 0.12361 0.12361 0.12353 0.12346 0.12355 0.12369 0.12381 0.12383 0.12398 0.12421 0.12419 0.12419 0.12418 0.12411 0.12399 0.12388 0.1238 0.12371 0.12356 0.12353 0.12351 0.12347 0.12342 0.12338 0.12342 0.12346 0.12359 0.1236 0.12375 0.12408 0.12433 0.12429 0.12434 0.12443 0.12458 0.12474 0.1249 0.12504 0.12529 0.12547 0.12552 0.12571 0.12576 0.12568 0.12573 0.12571 0.12551 0.12533 0.12527 0.12492 0.12467 0.1244 0.12445 0.12448 0.1246
0 0 0 0 0 0 0 0 0 0 0 0 0 0.10945 0.1118 0.11423 0.11737 0.12176 0.1242 0.12452 0.12489 0.12539 0.12593 0.12634 0.12672 0.11992 0.11313 0.10623 0.11243 0.11919 0.12488 0.125 0.12499 0.12511 0.12499 0.12484 0.1246 0.12437 0.12415 0.12388 0.1237 0.12354 0.12341 0.12351 0.12354 0.12357 0.12359 0.12366 0.1237 0.1237 0.12371 0.12377 0.12374 0.12369 0.12363 0.12361 0.12362 0.12357 0.12364 0.12372 0.12383 0.12391 0.12395 0.1241 0.12402 0.12407 0.12411 0.12409 0.12398 0.12388 0.12382 0.12375 0.12368 0.12372 0.12375 0.12359 0.12358 0.12351 0.12347 0.12351 0.12359 0.12368 0.12382 0.12397 0.1242 0.12434 0.12439 0.12458 0.12467 0.12479 0.12502 0.12521 0.1255 0.12562 0.12577 0.12583 0.12598 0.12598 0.12593 0.12591 0.12568 0.12558 0.12547 0.12526 0.12503 0.12489 0.12484 0.12481 0.12477
0 0 0 0 0 0 0 0 0 0 0 0 0.10553 0.1075 0.10975 0.1117 0.11558 0.12041 0.12422 0.12473 0.1252 0.12568 0.12596 0.12624 0.12655 0.12324 0.1198 0.11633 0.11942 0.12258 0.12578 0.12561 0.12535 0.12515 0.12501 0.12482 0.12468 0.12447 0.12417 0.12389 0.1238 0.12372 0.1237 0.12376 0.12376 0.12375 0.12375 0.12381 0.12383 0.12384 0.12385 0.12389 0.12389 0.12385 0.12379 0.12378 0.12375 0.12382 0.12382 0.1239 0.124 0.12405 0.1241 0.12418 0.12408 0.12411 0.12416 0.1242 0.12418 0.1241 0.12405 0.12399 0.12397 0.12397 0.12395 0.12382 0.12375 0.1237 0.12369 0.12371 0.12377 0.12389 0.12397 0.12413 0.12427 0.1244 0.12459 0.12476 0.1249 0.12507 0.12531 0.12543 0.12554 0.12573 0.12586 0.12608 0.12623 0.12618 0.12615 0.12612 0.12601 0.12582 0.1258 0.12554 0.12539 0.12521 0.12521 0.12509 0.12503
0 0 0 0 0 0 0 0 0.11317 0.11199 0.1096 0.10515 0.10114 0.10276 0.10436 0.106 0.11229 0.11833 0.12435 0.12492 0.12548 0.12604 0.12624 0.12637 0.12644 0.12649 0.12646 0.12644 0.12658 0.1267 0.1268 0.12621 0.12565 0.12507 0.12498 0.12488 0.12474 0.12445 0.12416 0.12385 0.12383 0.12386 0.12385 0.1239 0.12398 0.12397 0.124 0.124 0.12395 0.12397 0.12393 0.12392 0.12388 0.1239 0.12388 0.12384 0.12385 0.12386 0.12392 0.12397 0.12405 0.12403 0.12403 0.1241 0.12423 0.12415 0.12416 0.12422 0.12423 0.12427 0.12429 0.12428 0.12427 0.12424 0.12412 0.124 0.12391 0.12377 0.12373 0.12378 0.12387 0.12397 0.12408 0.12418 0.12431 0.12464 0.12475 0.12495 0.12516 0.12532 0.12563 0.12574 0.12588 0.12605 0.12617 0.12634 0.12656 0.12659 0.12648 0.1265 0.12634 0.12627 0.12615 0.12592 0.12582 0.12574 0.12557 0.12542 0.12527
0 0 0 0 0 0 0 0.11572 0.11517 0.11602 0.11472 0.11252 0.11026 0.11108 0.11191 0.11276 0.11696 0.12107 0.12511 0.12537 0.1257 0.12611 0.12612 0.12613 0.12609 0.12609 0.1261 0.12607 0.12619 0.12626 0.12634 0.12598 0.12556 0.12516 0.12504 0.12502 0.12487 0.12466 0.12435 0.12412 0.12408 0.1241 0.12409 0.12412 0.12415 0.12413 0.12417 0.12414 0.12412 0.12413 0.12414 0.12408 0.12402 0.12398 0.12398 0.12403 0.12399 0.12395 0.12398 0.12398 0.12398 0.12401 0.12404 0.12411 0.1242 0.12429 0.12437 0.12432 0.12438 0.12435 0.12441 0.12444 0.12445 0.12439 0.1243 0.12416 0.12406 0.12392 0.1238 0.12384 0.12387 0.12396 0.12407 0.12414 0.12418 0.12443 0.1247 0.1249 0.12512 0.12537 0.12566 0.12585 0.12602 0.12618 0.12624 0.12635 0.12659 0.12667 0.1267 0.12667 0.12656 0.12649 0.12646 0.12625 0.12615 0.1261 0.12592 0.12577 0.12563
0 0 0 0 0 0 0.11749 0.11754 0.11701 0.11679 0.11803 0.12016 0.11887 0.11907 0.1192 0.11943 0.12158 0.1237 0.12572 0.12582 0.12596 0.12611 0.12599 0.1259 0.12578 0.12577 0.12571 0.12569 0.12578 0.1259 0.12591 0.12572 0.12554 0.12534 0.12525 0.1251 0.12494 0.12476 0.12457 0.12445 0.1244 0.12437 0.12435 0.12434 0.12434 0.12432 0.12439 0.12434 0.12432 0.12431 0.12432 0.12428 0.12415 0.1241 0.12401 0.12401 0.12404 0.12396 0.12392 0.12391 0.12399 0.12404 0.1241 0.12421 0.12419 0.12426 0.12436 0.12444 0.12443 0.1244 0.12448 0.12455 0.1246 0.12452 0.12442 0.12437 0.12428 0.12418 0.124 0.12392 0.12393 0.12394 0.12407 0.12408 0.1241 0.12432 0.1246 0.12491 0.12516 0.12545 0.12578 0.12591 0.12613 0.12628 0.12637 0.12649 0.12663 0.12671 0.1268 0.12692 0.12688 0.12677 0.1267 0.12659 0.12649 0.12649 0.12628 0.12611 0.12607
0 0 0 0 0 0 0.11745 0.11748 0.11661 0.11511 0.11932 0.12337 0.12731 0.12681 0.12642 0.12586 0.12602 0.12612 0.12634 0.12626 0.12621 0.12607 0.12584 0.12571 0.12548 0.12544 0.12538 0.12537 0.12543 0.12545 0.12546 0.12549 0.12551 0.12541 0.12533 0.12516 0.12501 0.12491 0.12482 0.1247 0.12467 0.12459 0.12458 0.12453 0.1245 0.12447 0.12445 0.12455 0.12458 0.12452 0.12443 0.12433 0.12424 0.12409 0.12405 0.12396 0.12392 0.12389 0.12386 0.12389 0.12387 0.12394 0.12404 0.12414 0.12419 0.12423 0.12429 0.12429 0.12435 0.12451 0.12456 0.12465 0.12466 0.1246 0.12451 0.12445 0.12443 0.12431 0.12416 0.12407 0.12406 0.12402 0.12407 0.12403 0.12413 0.1244 0.12451 0.12478 0.12504 0.12542 0.12582 0.12606 0.12625 0.12642 0.12649 0.12673 0.12688 0.12695 0.12706 0.12717 0.12716 0.12716 0.1271 0.12686 0.12687 0.12691 0.12668 0.12655 0.12653
0 0 0 0 0 0.11647 0.11712 0.11819 0.11956 0.11968 0.12248 0.1252 0.12787 0.12754 0.12719 0.12665 0.12663 0.12651 0.12646 0.12628 0.12608 0.12589 0.12574 0.12563 0.12546 0.12543 0.12542 0.12546 0.12549 0.12553 0.12555 0.12551 0.12552 0.12546 0.12535 0.12523 0.12511 0.12505 0.12491 0.12483 0.12479 0.12476 0.12475 0.12469 0.12462 0.12457 0.1246 0.12469 0.12476 0.12475 0.12466 0.12448 0.12433 0.12426 0.12419 0.12413 0.12409 0.12403 0.12404 0.12409 0.12403 0.12411 0.1242 0.12423 0.12438 0.12441 0.12448 0.12452 0.12462 0.1248 0.12484 0.1249 0.12497 0.12486 0.12481 0.12489 0.12474 0.12458 0.12439 0.12425 0.12418 0.12414 0.12414 0.12418 0.12418 0.1244 0.12468 0.12487 0.12515 0.12543 0.12578 0.12595 0.12609 0.12625 0.12633 0.12647 0.12668 0.12672 0.12686 0.12702 0.12696 0.12692 0.12695 0.12685 0.1268 0.12682 0.12682 0.12669 0.12664
0 0 0 0 0.1155 0.11577 0.11545 0.11787 0.12242 0.1242 0.12562 0.12693 0.12823 0.12801 0.12774 0.12741 0.12717 0.12685 0.12655 0.12632 0.12606 0.12576 0.1257 0.12559 0.12549 0.12551 0.12552 0.12558 0.12559 0.12555 0.12558 0.12553 0.1255 0.12544 0.12529 0.12529 0.12524 0.12516 0.12505 0.12494 0.12494 0.12494 0.12485 0.12479 0.12478 0.12472 0.12476 0.12481 0.12481 0.12492 0.12483 0.12466 0.12452 0.12445 0.12439 0.1243 0.12436 0.12434 0.12431 0.1242 0.12416 0.12421 0.12429 0.12431 0.12444 0.12455 0.12466 0.12472 0.12485 0.12505 0.12518 0.12522 0.12533 0.12532 0.12533 0.12533 0.12512 0.12501 0.12488 0.12477 0.12464 0.12448 0.12438 0.12442 0.12446 0.12452 0.12483 0.12495 0.12513 0.1254 0.12571 0.12588 0.12601 0.12616 0.12625 0.12639 0.12654 0.12667 0.12667 0.12678 0.1268 0.12691 0.1269 0.12681 0.1269 0.12696 0.1269 0.1268 0.12674
0 0 0 0 0.11503 0.11474 0.113 0.1181 0.12327 0.12854 0.12866 0.12868 0.12855 0.12843 0.12823 0.12802 0.12757 0.12706 0.12656 0.12628 0.12593 0.1257 0.12563 0.12552 0.12546 0.1255 0.12562 0.12566 0.12561 0.12558 0.12549 0.12551 0.12545 0.12538 0.12533 0.1253 0.12532 0.12527 0.12522 0.12517 0.12514 0.12508 0.125 0.12496 0.1249 0.12489 0.1249 0.12493 0.12489 0.12497 0.12498 0.12484 0.1247 0.12462 0.12464 0.12463 0.12467 0.12459 0.12449 0.12437 0.12433 0.12433 0.12438 0.12439 0.12452 0.12463 0.12478 0.12492 0.12504 0.12534 0.12545 0.12561 0.12566 0.1257 0.12577 0.12576 0.12564 0.12557 0.12543 0.12524 0.125 0.12472 0.12464 0.12453 0.12452 0.1247 0.12486 0.12497 0.12518 0.12542 0.12574 0.12582 0.12597 0.1261 0.12625 0.12636 0.12655 0.12664 0.12668 0.12676 0.12676 0.12689 0.12695 0.12694 0.12695 0.12706 0.12698 0.12701 0.12701
0 0 0 0.10833 0.11308 0.11571 0.11744 0.12083 0.12434 0.12784 0.12797 0.12805 0.12804 0.12788 0.12765 0.12744 0.12708 0.12678 0.12649 0.12628 0.12608 0.12581 0.12575 0.12562 0.12557 0.12558 0.12561 0.12559 0.12558 0.12557 0.12556 0.12554 0.12548 0.12539 0.12537 0.1254 0.12541 0.12536 0.12532 0.12531 0.12525 0.12519 0.12516 0.12519 0.12519 0.12522 0.12518 0.12514 0.12516 0.12522 0.12522 0.12515 0.12512 0.12511 0.12511 0.12509 0.12504 0.12499 0.12497 0.12487 0.12478 0.12477 0.12481 0.12478 0.12495 0.12514 0.12528 0.12533 0.12546 0.12571 0.12582 0.12598 0.12609 0.12603 0.12606 0.1261 0.12597 0.12588 0.12576 0.12551 0.12535 0.12498 0.12479 0.1248 0.1248 0.12497 0.1252 0.12526 0.12529 0.12546 0.1257 0.12574 0.1258 0.12592 0.12613 0.12616 0.12635 0.12637 0.12644 0.12657 0.12649 0.12651 0.12674 0.12671 0.12675 0.12676 0.12674 0.12679 0.12685
0 0 0 0.09853 0.10667 0.1173 0.12176 0.1235 0.12525 0.12703 0.12725 0.12742 0.12755 0.12737 0.12705 0.12685 0.12671 0.12657 0.12644 0.12635 0.12613 0.12596 0.12582 0.12572 0.12565 0.12565 0.12558 0.12552 0.12542 0.12535 0.12536 0.12544 0.12544 0.12542 0.12543 0.12541 0.12545 0.12541 0.12545 0.12539 0.1254 0.12538 0.12537 0.1254 0.12546 0.12547 0.12553 0.12554 0.12556 0.12555 0.12555 0.12553 0.12551 0.12555 0.12553 0.12549 0.12553 0.12551 0.12549 0.12538 0.1253 0.12521 0.12523 0.12517 0.12529 0.12545 0.12561 0.12581 0.12601 0.12619 0.12624 0.1263 0.1263 0.12634 0.12634 0.12631 0.12621 0.12613 0.12601 0.12581 0.12557 0.12533 0.12508 0.12502 0.12515 0.12528 0.12534 0.12541 0.1254 0.12557 0.12571 0.12571 0.1257 0.12585 0.126 0.12611 0.12613 0.12616 0.12632 0.12634 0.12625 0.12624 0.12635 0.1264 0.12648 0.12656 0.12662 0.12663 0.12671
0 0 0 0.08337 0.09804 0.11204 0.12585 0.12607 0.12626 0.12643 0.12665 0.12687 0.12708 0.1269 0.12664 0.12642 0.12641 0.12641 0.12636 0.12634 0.12616 0.12603 0.12595 0.12586 0.1257 0.12564 0.12553 0.12552 0.12543 0.12534 0.12527 0.12521 0.12522 0.12522 0.12524 0.12528 0.1253 0.12534 0.12538 0.12538 0.12547 0.1255 0.12556 0.12562 0.12573 0.12578 0.12584 0.12587 0.12586 0.1259 0.12595 0.12595 0.12598 0.12599 0.12603 0.12599 0.12606 0.1261 0.12601 0.12591 0.12583 0.12575 0.12573 0.12569 0.12576 0.12577 0.12586 0.12601 0.12615 0.12641 0.12658 0.12664 0.12668 0.12654 0.12653 0.12653 0.12644 0.12638 0.12638 0.12617 0.12591 0.12554 0.12547 0.12547 0.12557 0.12555 0.12545 0.1255 0.12545 0.12559 0.12574 0.12573 0.1257 0.12567 0.12583 0.1259 0.12599 0.1261 0.12616 0.12618 0.12611 0.12614 0.12615 0.12625 0.1263 0.12649 0.1265 0.12657 0.1266
0 0 0 0.10001 0.1097 0.11903 0.12832 0.12815 0.12806 0.12778 0.12767 0.12751 0.12738 0.12711 0.12683 0.12664 0.12658 0.12658 0.1265 0.12641 0.12625 0.12609 0.12592 0.12574 0.12553 0.12546 0.12539 0.12533 0.1253 0.12527 0.12525 0.12525 0.12517 0.12512 0.12518 0.12531 0.12537 0.12548 0.12549 0.12552 0.12556 0.12558 0.12559 0.12579 0.12601 0.12617 0.12621 0.12627 0.12636 0.12645 0.12651 0.12653 0.12657 0.12666 0.12678 0.12677 0.12672 0.12669 0.12665 0.12662 0.12668 0.12663 0.12663 0.12658 0.12652 0.1265 0.12654 0.12657 0.12672 0.12689 0.12695 0.12697 0.127 0.12696 0.127 0.12702 0.12689 0.12676 0.12674 0.12664 0.12637 0.1261 0.12606 0.12609 0.12609 0.12616 0.12614 0.1261 0.12607 0.12606 0.12613 0.12621 0.1261 0.12604 0.12609 0.12621 0.1262 0.12618 0.12615 0.12616 0.12617 0.12627 0.12635 0.12637 0.12644 0.12655 0.12653 0.1266 0.12669
0.1291 0.12998 0.12238 0.11672 0.12167 0.12635 0.13096 0.13043 0.12987 0.12919 0.12861 0.12806 0.12761 0.12735 0.12713 0.12685 0.12678 0.12675 0.12666 0.12649 0.12626 0.12609 0.12585 0.12561 0.12542 0.12533 0.12528 0.12519 0.12516 0.12515 0.12517 0.1251 0.12508 0.1251 0.12522 0.12537 0.1255 0.12554 0.12554 0.12559 0.1257 0.1258 0.12588 0.12612 0.12634 0.12659 0.12666 0.12685 0.12699 0.12703 0.1271 0.12715 0.12723 0.12729 0.12746 0.1275 0.12747 0.12752 0.12748 0.12746 0.1275 0.12753 0.12751 0.12745 0.12739 0.12725 0.12724 0.12724 0.12745 0.12756 0.12761 0.12759 0.12764 0.1276 0.12751 0.12744 0.12728 0.12723 0.12729 0.12714 0.12703 0.12671 0.12672 0.12677 0.12675 0.1267 0.12669 0.1268 0.12669 0.12667 0.12677 0.12665 0.12659 0.12653 0.1264 0.12633 0.12627 0.12621 0.12629 0.12624 0.1262 0.1263 0.12646 0.12647 0.12659 0.1266 0.12669 0.12674 0.12679
0.12823 0.12998 0.13174 0.13346 0.13363 0.1333 0.13287 0.13194 0.13104 0.13022 0.12954 0.12854 0.12784 0.12763 0.12732 0.127 0.12692 0.12679 0.12667 0.12648 0.12618 0.12599 0.12584 0.12561 0.1254 0.12527 0.12515 0.12509 0.12507 0.12506 0.12502 0.12498 0.12502 0.12505 0.12527 0.12535 0.12548 0.1256 0.1257 0.12579 0.12593 0.12606 0.12615 0.12637 0.12665 0.12689 0.12708 0.12729 0.12745 0.12751 0.12765 0.12765 0.12776 0.1279 0.12796 0.12814 0.12826 0.12836 0.12837 0.12834 0.12839 0.12832 0.12823 0.12816 0.12814 0.12816 0.12815 0.12808 0.1282 0.12836 0.12838 0.12841 0.12841 0.12822 0.12809 0.12801 0.12791 0.12792 0.12794 0.1278 0.12772 0.1276 0.12752 0.12745 0.12736 0.12751 0.12752 0.12744 0.12735 0.12733 0.1274 0.12708 0.12711 0.12712 0.12686 0.12657 0.12661 0.12657 0.12644 0.12637 0.12651 0.12652 0.12657 0.12651 0.1266 0.12669 0.12686 0.12698 0.12702
0.12845 0.12999 0.13155 0.13321 0.13341 0.13335 0.13319 0.13245 0.13178 0.13104 0.13016 0.12935 0.12853 0.12812 0.12771 0.12723 0.12701 0.12683 0.12663 0.12641 0.12611 0.12595 0.12579 0.12555 0.12534 0.12527 0.12522 0.12519 0.12517 0.12523 0.12515 0.12522 0.12527 0.12539 0.12558 0.1257 0.12585 0.12591 0.12606 0.1262 0.12637 0.12652 0.12661 0.12687 0.12713 0.12736 0.12752 0.12777 0.12801 0.12811 0.12826 0.12839 0.12848 0.12854 0.12866 0.12872 0.12881 0.1289 0.12893 0.12904 0.12913 0.12908 0.129 0.12897 0.1289 0.12883 0.12882 0.12871 0.1288 0.129 0.129 0.12892 0.12898 0.12894 0.12885 0.12888 0.12882 0.12871 0.12868 0.12857 0.12854 0.12838 0.12832 0.12843 0.12841 0.12856 0.12866 0.12892 0.1287 0.12851 0.12842 0.12798 0.12781 0.1275 0.12731 0.12711 0.12698 0.12696 0.12695 0.12694 0.12706 0.12724 0.12752 0.1274 0.12728 0.12735 0.12738 0.12741 0.12736
0.12869 0.12994 0.13121 0.13244 0.13292 0.13319 0.13349 0.13297 0.13238 0.13174 0.13091 0.13005 0.12919 0.12865 0.12815 0.12752 0.1272 0.12693 0.12664 0.1264 0.12612 0.12589 0.1257 0.12554 0.12538 0.12532 0.1253 0.12525 0.12522 0.12527 0.12532 0.12541 0.12556 0.12569 0.12587 0.12606 0.12626 0.12641 0.12651 0.12661 0.12669 0.12682 0.12704 0.12729 0.12755 0.12784 0.1281 0.12837 0.12862 0.12874 0.12884 0.12902 0.12916 0.12922 0.12937 0.12946 0.12947 0.12959 0.12965 0.12975 0.12977 0.12972 0.12973 0.12973 0.12962 0.12956 0.12948 0.12945 0.12953 0.12954 0.1295 0.12954 0.12963 0.12961 0.12966 0.12961 0.12948 0.12948 0.12938 0.1294 0.12931 0.12922 0.12913 0.12909 0.12914 0.12959 0.12986 0.13013 0.13002 0.12978 0.12975 0.12917 0.12865 0.12819 0.12794 0.12774 0.12757 0.12762 0.1277 0.12777 0.12797 0.12822 0.12853 0.12832 0.12822 0.12807 0.128 0.12783 0.12776
0.12877 0.12971 0.13071 0.13177 0.13244 0.13309 0.13363 0.13325 0.13283 0.1324 0.13153 0.13066 0.12979 0.1291 0.12838 0.12765 0.12724 0.12689 0.12648 0.12618 0.12596 0.12574 0.12569 0.12553 0.12538 0.12537 0.12536 0.12524 0.12537 0.12543 0.12554 0.12565 0.12581 0.12596 0.12615 0.12647 0.12665 0.12672 0.12688 0.12697 0.12716 0.12729 0.12751 0.12779 0.12807 0.12842 0.12872 0.12905 0.12932 0.12947 0.12971 0.12987 0.1299 0.13003 0.13021 0.1302 0.12999 0.13004 0.1301 0.1302 0.13029 0.13029 0.13016 0.13007 0.13005 0.13003 0.13002 0.12998 0.12991 0.12987 0.12987 0.13003 0.1302 0.13007 0.1302 0.1302 0.13012 0.13007 0.13001 0.13001 0.1298 0.12964 0.12965 0.12971 0.12983 0.13004 0.13069 0.13135 0.13032 0.13016 0.13096 0.13023 0.1295 0.1287 0.12862 0.12845 0.12822 0.12821 0.12835 0.12859 0.12652 0.12726 0.12944 0.12843 0.12838 0.12892 0.12877 0.12848 0.12822
0.12965 0.13037 0.13109 0.13193 0.13241 0.13291 0.13331 0.13285 0.13256 0.13226 0.13142 0.13053 0.12982 0.12911 0.12843 0.12773 0.12732 0.12703 0.12676 0.12653 0.1263 0.12608 0.12604 0.12598 0.12583 0.12586 0.12585 0.12588 0.12604 0.12616 0.12629 0.12645 0.1266 0.12674 0.12692 0.12713 0.12721 0.12736 0.1275 0.1276 0.12779 0.12792 0.12814 0.12853 0.12886 0.12926 0.12961 0.1299 0.13015 0.13028 0.13045 0.1306 0.13063 0.13062 0.13075 0.1308 0.13063 0.1307 0.13079 0.13092 0.13114 0.13115 0.13118 0.13114 0.13093 0.13091 0.1309 0.13073 0.13057 0.13038 0.13024 0.13026 0.13035 0.13033 0.13044 0.13042 0.13028 0.13009 0.13001 0.13013 0.12999 0.13001 0.13029 0.13055 0.1309 0.13043 0.13057 0.13045 0.12995 0.12976 0.12998 0.12934 0.12884 0.12838 0.12498 0.12155 0.11806 0.11817 0.11833 0.1185 0.12257 0.12421 0.12623 0.12746 0.12792 0.12841 0.12926 0.12939 0.13094
0.13031 0.13092 0.13141 0.13188 0.13223 0.13256 0.13282 0.13251 0.13216 0.13194 0.13132 0.13052 0.12989 0.12924 0.12851 0.12782 0.1275 0.12729 0.12704 0.12683 0.12663 0.12642 0.12645 0.12643 0.12636 0.12639 0.1264 0.1265 0.12672 0.12694 0.12715 0.12727 0.12738 0.12748 0.12761 0.12772 0.1278 0.12803 0.12819 0.12837 0.1286 0.12873 0.12881 0.12924 0.12967 0.13015 0.13044 0.13077 0.13103 0.13112 0.13124 0.1313 0.13135 0.13134 0.13133 0.13147 0.13143 0.13155 0.13156 0.13169 0.13203 0.13207 0.13221 0.13231 0.13204 0.13189 0.13185 0.13154 0.13124 0.13099 0.13074 0.13066 0.13062 0.13052 0.13063 0.13058 0.1305 0.13036 0.13015 0.13026 0.13021 0.13038 0.13086 0.1315 0.13205 0.12969 0.12888 0.13025 0 0 0.12903 0.12879 0.12852 0.12832 0.12133 0.11459 0.10789 0.10809 0.10832 0 0 0.12378 0.12211 0.12446 0.12722 0.12842 0.12967 0.13164 0.13361
