ncols        109
nrows        82
xllcorner    -1.041666666667
yllcorner    37.041665395101
cellsize     0.083333333333
NODATA_value -9999
0.0 0 0 0 0 0 0 0 0 0 0 0 0 0 0 0 0 0 0 0 0 0 0 0 0 0 0 0 0 0 0 0 0 0 0 0 0 0 0 0 0 0 0 0 0 0 0 0 0 0 0 0 0 0 0 0 0 0 0 0 0 0 0 0 0 0 0 0 0 0 0 0 0 0 0 0 0 0 0 0 0 0 0 0 0 0 0 0 0 0 0 0 0 0 0 0 0 0 0 0 0 0 0 0 0 0.13536 0.13521 0.13514 0.13515
0 0 0 0 0 0 0 0 0 0 0 0 0 0 0 0 0 0 0 0 0 0 0 0 0 0 0 0 0 0 0 0 0 0 0 0 0 0 0 0 0 0 0 0 0 0 0 0 0 0 0 0 0 0 0 0 0 0 0 0 0 0 0 0 0 0 0 0 0 0 0 0 0 0 0 0 0 0 0 0 0 0 0 0 0 0 0 0 0 0 0 0 0 0 0 0 0 0 0 0 0 0.13467 0.13481 0.13504 0.13559 0.13585 0.13594 0.13585 0.13581
0 0 0 0 0 0 0 0 0 0 0 0 0 0 0 0 0 0 0 0 0 0 0 0 0 0 0 0 0 0 0 0 0 0 0 0 0 0 0 0 0 0 0 0 0 0 0 0 0 0 0 0 0 0 0 0 0 0 0 0 0 0 0 0 0 0 0 0 0 0 0 0 0 0 0 0 0 0 0 0 0 0 0 0 0 0 0 0 0 0 0 0 0 0 0 0 0 0 0.13426 0.1345 0.13469 0.1349 0.13514 0.13503 0.13498 0.13511 0.13514 0.13512 0.13512
0 0 0 0 0 0 0 0 0 0 0 0 0 0 0 0 0 0 0 0 0 0 0 0 0 0 0 0 0 0 0 0 0 0 0 0 0 0 0 0 0 0 0 0 0 0 0 0 0 0 0 0 0 0 0 0 0 0 0 0 0 0 0 0 0 0 0 0 0 0 0 0 0 0 0 0 0 0 0 0 0 0 0 0 0 0 0 0 0 0 0 0 0 0 0 0 0 0.13369 0.13438 0.13485 0.13488 0.13507 0.13545 0.13509 0.13441 0.1347 0.13452 0.13431 0.13416
0 0 0 0 0 0 0 0 0 0 0 0 0 0 0 0 0 0 0 0 0 0 0 0 0 0 0 0 0 0 0 0 0 0 0 0 0 0 0 0 0 0 0 0 0 0 0 0 0 0 0 0 0 0 0 0 0 0 0.14814 0.15092 0.15234 0.15386 0 0 0 0 0 0 0 0 0 0 0 0 0 0 0 0 0 0 0 0 0 0 0 0 0 0 0 0 0 0 0 0 0 0.13346 0.13336 0.13383 0.13463 0.13538 0.13564 0.13584 0.13612 0.13542 0.13473 0.1341 0.13376 0.13338 0.13304
0 0 0 0 0 0 0 0 0 0 0 0 0 0 0 0 0 0 0 0 0 0 0 0 0 0 0 0 0 0 0 0 0 0 0 0 0 0 0 0 0 0 0 0 0 0 0 0 0 0 0 0 0 0 0 0 0.14747 0.1471 0.14754 0.14872 0.15145 0.15149 0.15218 0.15216 0.14087 0.13084 0.1214 0 0 0 0 0.1266 0 0 0 0 0 0 0 0 0 0 0 0 0 0 0 0 0 0 0 0 0 0.13356 0.13341 0.13324 0.13329 0.13368 0.134 0.13443 0.13452 0.13466 0.13466 0.1342 0.13352 0.13293 0.13266 0.13231 0.13199
0 0 0 0 0 0 0 0 0 0 0 0 0 0 0 0 0 0 0 0 0 0 0 0 0 0 0 0 0 0 0 0 0 0 0 0 0 0 0 0 0 0 0 0 0 0 0 0 0 0 0 0 0 0 0 0.14765 0.15045 0.15165 0.15062 0.14953 0.15142 0.15073 0.15026 0.15095 0.14369 0.13796 0.13226 0.13662 0.13298 0.13161 0.13072 0.12839 0.127 0.12407 0.11886 0.11564 0.11598 0 0 0 0 0 0 0 0 0 0 0 0 0 0 0 0.13311 0.13249 0.1332 0.13324 0.13336 0.13346 0.13368 0.13388 0.13355 0.1334 0.13335 0.13281 0.13232 0.13198 0.13169 0.13138 0.13105
0 0 0 0 0 0 0 0 0 0 0 0 0 0 0 0 0 0 0 0 0 0 0 0 0 0 0 0 0 0 0 0 0 0 0 0 0 0 0 0 0 0 0 0 0 0 0 0 0 0 0 0.13642 0.13809 0.14032 0.14352 0.14818 0.15345 0.15683 0.15538 0.15432 0.15398 0.15398 0.15318 0.15114 0.14705 0.14542 0.14481 0.13955 0.13496 0.13147 0.12953 0.12832 0.12781 0.12095 0.11457 0.10771 0 0 0 0 0 0 0 0 0 0 0 0 0 0 0 0 0.13203 0.13327 0.13324 0.13338 0.13338 0.13335 0.13332 0.13323 0.13273 0.1323 0.13199 0.13176 0.13152 0.13135 0.13099 0.1307 0.13038
0 0 0 0 0 0 0 0 0 0 0 0 0 0 0 0 0 0 0 0 0 0 0 0 0 0 0 0 0 0 0 0 0 0 0 0 0 0 0 0 0 0 0 0 0 0 0 0 0 0 0.13366 0.13523 0.13593 0.13793 0.14055 0.14376 0.14732 0.14956 0.148 0.14721 0.14691 0.14709 0.14748 0.14768 0.14768 0.14928 0.15146 0.14684 0.14284 0.13979 0.13769 0.13626 0.13508 0.12944 0.12434 0.11846 0.11902 0.11981 0.11996 0.1226 0.12676 0.1297 0 0 0 0 0 0 0 0.12378 0.12742 0.12979 0.13132 0.1333 0.13307 0.13296 0.13283 0.13249 0.13206 0.13188 0.13141 0.13101 0.13069 0.13026 0.13011 0.12986 0.12958 0.12944 0.12921
0 0 0 0 0 0 0 0 0 0 0 0 0 0 0 0 0 0 0 0 0 0 0 0 0 0 0 0 0 0 0 0 0 0 0 0 0 0 0 0 0 0 0 0 0 0 0 0 0 0.13337 0.13296 0.13308 0.13385 0.13572 0.13652 0.13731 0.13884 0.14134 0.13942 0.13804 0.13729 0.13936 0.14208 0.14521 0.14904 0.15309 0.15749 0.15365 0.15056 0.14804 0.14589 0.14381 0.14189 0.13723 0.13314 0.12903 0.13038 0.12994 0.13023 0.13491 0.135 0.13615 0 0.13563 0.13528 0.12713 0.1128 0.10432 0.11107 0.12278 0.12906 0.13036 0.13091 0.13341 0.13287 0.13255 0.13215 0.13151 0.13117 0.13083 0.13036 0.1299 0.12934 0.12894 0.12866 0.12843 0.12829 0.12825 0.12817
0 0 0 0 0 0 0 0 0 0 0 0 0 0 0 0 0 0 0 0 0 0 0 0 0 0 0 0 0 0 0 0 0 0 0 0 0 0 0 0 0 0 0 0 0 0 0 0 0 0.13262 0.13184 0.13151 0.13168 0.13317 0.13526 0.13415 0.13329 0.13265 0.13139 0.13018 0.12857 0.13314 0.13796 0.14303 0.15031 0.15755 0.1652 0.16185 0.15918 0.15758 0.15438 0.15166 0.14886 0.14559 0.14274 0.14 0.1407 0.14079 0.14109 0.14082 0.1406 0.14028 0.14126 0.14293 0.1446 0.12346 0.1026 0.08237 0.09904 0.11674 0.13427 0.13393 0.13358 0.13335 0.13274 0.13213 0.13197 0.13122 0.13074 0.13013 0.1295 0.12876 0.1282 0.12788 0.12757 0.12737 0.12724 0.12711 0.12711
0 0 0 0 0 0 0 0 0 0 0 0 0 0 0 0 0 0 0 0 0 0 0 0 0 0 0 0 0 0 0 0 0 0 0 0 0 0 0 0 0 0 0 0 0 0 0 0 0 0.13347 0.13266 0.13216 0.13327 0.13444 0.1364 0.13581 0.13677 0.13725 0.13591 0.13475 0.13373 0.13651 0.13953 0.14297 0.14757 0.15271 0.15796 0.15541 0.15332 0.15216 0.1498 0.14744 0.14521 0.14283 0.14018 0.13819 0.13802 0.1385 0.13909 0.1391 0.13908 0.13882 0.13956 0.14061 0.14169 0.12758 0.11373 0.09972 0.11087 0.12205 0.13349 0.13294 0.13256 0.13222 0.13169 0.13117 0.13078 0.13023 0.12967 0.12905 0.12855 0.12797 0.12736 0.127 0.1269 0.12678 0.12676 0.12668 0.12665
0 0 0 0 0 0 0 0 0 0 0 0 0 0 0 0 0 0 0 0 0 0 0 0 0 0 0 0 0 0 0 0 0 0 0 0 0 0 0 0 0 0 0 0 0 0 0 0 0 0.13608 0.13638 0.13522 0.13564 0.13678 0.13808 0.13854 0.14106 0.14204 0.14074 0.13953 0.13831 0.14 0.14126 0.14296 0.14553 0.14819 0.15058 0.14935 0.148 0.14708 0.14547 0.14365 0.14181 0.13998 0.13808 0.13704 0.13755 0.1377 0.1376 0.13743 0.13763 0.13739 0.13767 0.13783 0.13822 0.13131 0.12454 0.11764 0.12231 0.12754 0.1327 0.13222 0.13193 0.1316 0.13072 0.13004 0.12968 0.12895 0.12837 0.12779 0.12732 0.12678 0.12625 0.12613 0.12602 0.12595 0.12602 0.12615 0.12627
0 0 0 0 0 0 0 0 0 0 0 0 0 0 0 0 0 0 0 0 0 0 0 0 0 0 0 0 0 0 0 0 0 0 0 0 0 0 0 0 0 0 0 0 0 0 0 0 0 0.13785 0.13853 0.13873 0.13864 0.13914 0.14158 0.14388 0.14585 0.1477 0.14598 0.14456 0.14357 0.14389 0.144 0.14403 0.14384 0.14395 0.14402 0.14322 0.14275 0.14251 0.14123 0.13999 0.13888 0.1383 0.13804 0.13776 0.13766 0.1373 0.13721 0.1374 0.13737 0.13702 0.13679 0.1363 0.13594 0.13575 0.13572 0.13555 0.13432 0.13319 0.13218 0.13165 0.13114 0.1308 0.13007 0.12939 0.12853 0.12798 0.12724 0.12653 0.12615 0.12574 0.12526 0.12514 0.12519 0.12522 0.12539 0.12551 0.12576
0 0 0 0 0 0 0 0 0 0 0 0 0 0 0 0 0 0 0 0 0 0 0 0 0 0 0 0 0 0 0 0 0 0 0 0 0 0 0 0 0 0 0 0 0 0 0 0 0 0.13864 0.13863 0.1388 0.1396 0.14026 0.14405 0.14535 0.14553 0.14597 0.14458 0.14373 0.14294 0.14265 0.14268 0.1427 0.14193 0.14163 0.142 0.14148 0.1408 0.14052 0.13937 0.13829 0.1374 0.13667 0.13596 0.13577 0.13572 0.13554 0.13526 0.13501 0.13461 0.13433 0.13414 0.13393 0.13348 0.133 0.13281 0.13255 0.13174 0.13091 0.13017 0.12958 0.12915 0.12887 0.12833 0.1277 0.1271 0.12658 0.12612 0.12567 0.12537 0.12509 0.12484 0.12493 0.12492 0.12504 0.12516 0.12537 0.12557
0 0 0 0 0 0 0 0 0 0 0 0 0 0 0 0 0 0 0 0 0 0 0 0 0 0 0 0 0 0 0 0 0 0 0 0 0 0 0 0 0 0 0 0 0 0 0 0 0 0.13915 0.14018 0.14078 0.14216 0.14479 0.14827 0.14627 0.14517 0.14397 0.14324 0.14266 0.14197 0.14183 0.14127 0.14053 0.14041 0.14013 0.14038 0.13989 0.13916 0.13898 0.13774 0.13665 0.13575 0.13497 0.13456 0.1341 0.13367 0.13345 0.13318 0.13294 0.1325 0.13206 0.13188 0.13161 0.13116 0.13065 0.13056 0.13027 0.12951 0.12891 0.12829 0.12785 0.12758 0.12727 0.12668 0.12618 0.12569 0.12534 0.12503 0.12463 0.12458 0.12459 0.12448 0.12457 0.12464 0.12479 0.12499 0.12525 0.12544
0 0 0 0 0 0 0 0 0 0 0 0 0 0 0 0 0 0 0 0 0 0 0 0 0 0 0 0 0 0 0 0 0 0 0 0 0 0 0 0 0 0 0 0 0 0 0 0 0 0 0.14225 0.14356 0.14498 0.1485 0.15125 0.14712 0.14554 0.14232 0.14152 0.14104 0.14048 0.14008 0.13954 0.13906 0.13899 0.13877 0.13903 0.1382 0.13774 0.1373 0.13629 0.13535 0.13468 0.13369 0.13299 0.13244 0.13202 0.13166 0.13133 0.13102 0.13063 0.13028 0.12992 0.12942 0.12903 0.12854 0.1283 0.12794 0.12744 0.12695 0.12654 0.1261 0.12572 0.12547 0.12519 0.12493 0.12459 0.12435 0.124 0.12384 0.12394 0.12392 0.12402 0.12421 0.12439 0.12464 0.12487 0.12512 0.1255
0 0 0 0 0 0 0 0 0 0 0 0 0 0 0 0 0 0 0 0 0 0 0 0 0 0 0 0 0 0 0 0 0 0 0 0 0 0 0 0 0 0 0 0 0 0 0 0 0 0 0.14273 0.14401 0.14422 0.14516 0.14742 0.14461 0.14411 0.1412 0.13993 0.13884 0.13857 0.13828 0.13779 0.13755 0.13739 0.13721 0.13723 0.13641 0.13572 0.13531 0.13431 0.13353 0.13272 0.13209 0.13162 0.13102 0.13059 0.13024 0.12984 0.12954 0.12914 0.12879 0.1285 0.12815 0.12775 0.12744 0.12726 0.12693 0.12656 0.12621 0.12584 0.12549 0.12517 0.12496 0.12469 0.12436 0.12407 0.12384 0.12375 0.12364 0.12374 0.12373 0.12373 0.12399 0.12426 0.1245 0.12473 0.12498 0.12531
0 0 0 0 0 0 0 0 0 0 0 0 0 0 0 0 0 0 0 0 0 0 0 0 0 0 0 0 0 0 0 0 0 0 0 0 0 0 0 0 0 0 0 0 0 0 0 0 0 0 0 0 0.14253 0.14245 0.14436 0.14209 0.14175 0.1394 0.13832 0.13762 0.13711 0.13655 0.13592 0.13581 0.13566 0.13568 0.13545 0.13483 0.13428 0.13366 0.13288 0.1321 0.13135 0.1308 0.13025 0.12959 0.12921 0.12884 0.1285 0.1282 0.12784 0.12768 0.12729 0.12713 0.12688 0.12664 0.12646 0.12622 0.12602 0.1257 0.12533 0.125 0.1247 0.12439 0.12408 0.12385 0.12376 0.12372 0.12368 0.12367 0.12361 0.12354 0.12353 0.12383 0.12409 0.1244 0.1246 0.1249 0.12511
0 0 0 0 0 0 0 0 0 0 0 0 0 0 0 0 0 0 0 0 0 0 0 0 0 0 0 0 0 0 0 0 0 0 0 0 0 0 0 0 0 0 0 0 0 0 0 0 0 0 0.14207 0.14241 0.14227 0.14179 0.14208 0.14126 0.13972 0.13807 0.13724 0.13661 0.13581 0.13517 0.13442 0.13461 0.13446 0.13492 0.13467 0.13392 0.13335 0.13265 0.13183 0.13108 0.13029 0.12965 0.12903 0.1284 0.12803 0.12774 0.12729 0.12698 0.12684 0.12673 0.12655 0.12631 0.1262 0.12597 0.12586 0.12561 0.12525 0.12499 0.12478 0.12453 0.12431 0.1241 0.12387 0.12372 0.12367 0.12377 0.12382 0.12373 0.12351 0.12344 0.12348 0.12373 0.12396 0.12434 0.1246 0.12479 0.12501
0 0 0 0 0 0 0 0 0 0 0 0 0 0 0 0 0 0 0 0 0 0 0 0 0 0 0 0 0 0 0 0 0 0 0 0 0 0 0 0 0 0 0 0 0 0 0 0 0 0 0.13945 0.14141 0.14108 0.14063 0.14049 0.14008 0.13851 0.13669 0.13618 0.13541 0.13474 0.13439 0.13382 0.13386 0.13405 0.13441 0.13463 0.13365 0.13302 0.13232 0.13162 0.13107 0.13029 0.1296 0.1289 0.12827 0.1279 0.12752 0.12728 0.12695 0.12672 0.12657 0.12629 0.12617 0.12596 0.12586 0.12586 0.12577 0.12549 0.12517 0.12481 0.12448 0.12436 0.12421 0.12402 0.12394 0.12383 0.12382 0.12376 0.12373 0.12354 0.12342 0.12344 0.12372 0.12386 0.12415 0.12435 0.1246 0.12486
0 0 0 0 0 0 0 0 0 0 0 0 0 0 0 0 0 0 0 0 0 0 0 0 0 0 0 0 0 0 0 0 0 0 0 0 0 0 0 0 0 0 0 0 0 0 0 0 0 0 0 0.13895 0.13886 0.13901 0.13862 0.13763 0.13669 0.13554 0.13511 0.13431 0.1336 0.13355 0.13305 0.13324 0.13353 0.13389 0.13406 0.1336 0.13275 0.132 0.13136 0.1309 0.13007 0.12937 0.12866 0.12821 0.12784 0.12756 0.12724 0.12692 0.12672 0.12654 0.12628 0.12605 0.12595 0.1258 0.12579 0.12576 0.12553 0.1252 0.12488 0.12456 0.1244 0.12428 0.12416 0.12396 0.12386 0.12367 0.12358 0.1235 0.12356 0.12348 0.12353 0.12367 0.12379 0.12399 0.1242 0.12447 0.12475
0 0 0 0 0 0 0 0 0 0 0 0 0 0 0 0 0 0 0 0 0 0 0 0 0 0 0 0 0 0 0 0 0 0 0 0 0 0 0 0 0 0 0 0 0 0 0 0 0 0 0 0.13736 0.13728 0.13696 0.13609 0.13461 0.13494 0.13403 0.13384 0.13319 0.13295 0.1327 0.13266 0.13277 0.13316 0.13332 0.13358 0.13328 0.13257 0.13181 0.13113 0.13059 0.1299 0.12915 0.12866 0.12811 0.12788 0.12757 0.12734 0.12701 0.12685 0.12653 0.12628 0.12614 0.12607 0.12589 0.12581 0.12571 0.12544 0.12523 0.12497 0.12473 0.12454 0.12449 0.12431 0.12415 0.12396 0.12387 0.12365 0.12352 0.12351 0.12349 0.12342 0.12352 0.12365 0.12382 0.12407 0.12432 0.12462
0 0 0 0 0 0 0 0 0 0 0 0 0 0 0 0 0 0 0 0 0 0 0 0 0 0 0 0 0 0 0 0 0 0 0 0 0 0 0 0 0 0 0 0 0 0 0 0 0 0 0 0.13636 0.13599 0.1355 0.13471 0.13355 0.1334 0.1324 0.1323 0.13208 0.13209 0.132 0.13232 0.13254 0.13273 0.13298 0.13319 0.13303 0.13251 0.132 0.13112 0.13059 0.12998 0.1292 0.12866 0.12815 0.12786 0.12759 0.12727 0.12692 0.12657 0.12652 0.12623 0.12613 0.12595 0.12582 0.12569 0.1255 0.12524 0.12503 0.12494 0.12477 0.12457 0.12442 0.12424 0.12416 0.12407 0.12388 0.12367 0.12337 0.12329 0.12323 0.12316 0.12334 0.12346 0.1236 0.12393 0.12428 0.12455
0 0 0 0 0 0 0 0 0 0 0 0 0 0 0 0 0 0 0 0 0 0 0 0 0 0 0 0 0 0 0 0 0 0 0 0 0 0 0 0 0 0 0 0 0 0 0 0 0 0.13216 0.13374 0.13642 0.13558 0.13454 0.13371 0.13301 0.1322 0.13148 0.13109 0.13113 0.13131 0.1316 0.13182 0.13231 0.1324 0.13261 0.13283 0.13269 0.13251 0.13216 0.13139 0.13073 0.1299 0.12925 0.12871 0.12833 0.12798 0.12764 0.12729 0.12697 0.12661 0.12639 0.12611 0.126 0.1258 0.12562 0.12557 0.12541 0.12524 0.12505 0.1249 0.12469 0.12464 0.12451 0.12442 0.1243 0.12415 0.12402 0.1236 0.12338 0.12328 0.12324 0.12317 0.1233 0.12346 0.12371 0.12401 0.12428 0.12464
0 0 0 0 0 0 0 0 0 0 0 0 0 0 0 0 0 0 0 0 0 0 0 0 0 0 0 0 0 0 0 0 0 0 0 0 0 0 0 0 0 0 0 0 0 0 0 0 0.12788 0.13072 0.13361 0.13614 0.13515 0.13393 0.13305 0.13255 0.13166 0.13084 0.13053 0.13052 0.13093 0.13145 0.13173 0.13196 0.13205 0.13222 0.13227 0.1325 0.1323 0.13174 0.13125 0.13064 0.13006 0.12936 0.12882 0.12849 0.12816 0.12775 0.12733 0.12706 0.12669 0.12654 0.12625 0.12599 0.12586 0.1257 0.1256 0.12551 0.12531 0.1251 0.12502 0.12487 0.12477 0.12467 0.12461 0.12452 0.12452 0.12421 0.12377 0.12357 0.12344 0.12337 0.12324 0.12341 0.1235 0.12375 0.12414 0.12451 0.12476
0 0 0 0 0 0 0 0 0 0 0 0 0 0 0 0 0 0 0 0 0 0 0 0 0 0 0 0 0 0 0 0 0 0 0 0 0 0 0 0 0 0 0 0 0 0.1327 0.13182 0.1309 0.1301 0.13181 0.13335 0.13488 0.13403 0.13282 0.13225 0.13199 0.13125 0.13033 0.1302 0.1302 0.13029 0.13101 0.13129 0.13136 0.13163 0.13168 0.13187 0.132 0.13193 0.13182 0.13138 0.13068 0.1303 0.12977 0.12927 0.12881 0.12824 0.12785 0.12744 0.12701 0.12678 0.12642 0.12618 0.12598 0.12579 0.12565 0.12561 0.1255 0.12532 0.12524 0.1251 0.12489 0.12482 0.12471 0.12454 0.12467 0.12468 0.12439 0.12393 0.12375 0.12363 0.12362 0.12345 0.12362 0.12364 0.12389 0.12426 0.12471 0.12494
0 0 0 0 0 0 0 0 0 0 0 0 0 0 0 0 0 0 0 0 0 0 0 0 0 0 0 0 0 0 0 0 0 0 0 0 0 0 0 0 0 0 0.13072 0.13172 0.13276 0.13332 0.13289 0.13281 0.13193 0.13248 0.13297 0.1337 0.13276 0.13212 0.13151 0.13135 0.13075 0.13003 0.13008 0.12984 0.13007 0.1305 0.13086 0.13102 0.13108 0.13113 0.13147 0.13164 0.13176 0.13155 0.13124 0.13085 0.13038 0.12991 0.12955 0.12911 0.12848 0.12802 0.12763 0.12718 0.12678 0.12644 0.12625 0.1261 0.12597 0.12582 0.12562 0.12541 0.1253 0.1252 0.1251 0.12503 0.12491 0.12474 0.12461 0.12456 0.12465 0.12445 0.12408 0.12398 0.12393 0.12383 0.12372 0.12383 0.12389 0.12408 0.12443 0.12477 0.1251
0 0 0 0 0 0 0 0 0 0 0 0 0 0 0 0 0 0 0 0 0 0 0 0 0 0 0 0 0 0 0 0 0 0 0 0 0 0 0 0 0.12976 0.12988 0.13063 0.13147 0.13292 0.13366 0.13374 0.13376 0.1337 0.13277 0.13207 0.13174 0.13128 0.13126 0.13087 0.13036 0.13004 0.12955 0.12979 0.12975 0.12987 0.13013 0.13058 0.13053 0.13057 0.13076 0.13113 0.13134 0.13143 0.13125 0.13098 0.13073 0.13047 0.1302 0.12984 0.12935 0.12881 0.12827 0.12785 0.1274 0.12707 0.12671 0.12643 0.12614 0.12602 0.12581 0.12567 0.12552 0.12541 0.12524 0.12517 0.1251 0.12501 0.12489 0.12484 0.12477 0.12481 0.12456 0.12436 0.12428 0.12431 0.12407 0.124 0.12409 0.12414 0.12419 0.12462 0.12492 0.12528
0 0 0 0 0 0 0 0 0 0 0 0 0 0 0 0 0 0 0 0 0 0 0 0 0 0 0 0 0 0 0 0 0 0 0 0 0 0 0 0.12904 0.13002 0.13012 0.13053 0.131 0.13206 0.13243 0.13226 0.13193 0.13164 0.13095 0.13032 0.13039 0.13026 0.12979 0.12978 0.1295 0.12917 0.129 0.12932 0.12935 0.12959 0.12979 0.13011 0.13018 0.13029 0.13047 0.13074 0.13097 0.13106 0.13101 0.13081 0.13043 0.13044 0.13023 0.12988 0.12942 0.12907 0.12854 0.12804 0.12736 0.12702 0.12668 0.12648 0.12622 0.12597 0.12578 0.1258 0.12568 0.12553 0.12532 0.12526 0.12522 0.12522 0.12517 0.12519 0.12515 0.12505 0.12489 0.12464 0.12444 0.12432 0.12416 0.12417 0.12433 0.12447 0.12464 0.12497 0.12519 0.1255
0 0 0 0 0 0 0 0 0 0 0 0 0 0 0 0 0 0 0 0 0 0 0 0 0 0 0 0 0 0 0 0 0 0 0 0 0 0 0.12781 0.13095 0.1309 0.13059 0.13071 0.1306 0.13101 0.13119 0.13085 0.13025 0.12989 0.12951 0.12942 0.12955 0.12969 0.12949 0.1293 0.12909 0.1289 0.12895 0.12924 0.12947 0.12991 0.13005 0.13019 0.13034 0.13034 0.1305 0.13062 0.1307 0.13086 0.13095 0.13064 0.13052 0.13027 0.1302 0.12994 0.12964 0.12917 0.12866 0.12821 0.12761 0.12712 0.12675 0.12647 0.12618 0.12596 0.12585 0.12588 0.12581 0.12578 0.12566 0.12556 0.12547 0.12543 0.12538 0.12539 0.1255 0.12528 0.12492 0.12472 0.1246 0.12427 0.1242 0.12432 0.12457 0.12483 0.12505 0.12536 0.12548 0.12568
0 0 0 0 0 0 0 0 0 0 0 0 0 0 0 0 0 0 0 0 0 0 0 0 0 0 0 0 0 0 0 0 0 0 0.12404 0.11564 0.1085 0.11734 0.12567 0.13423 0.13336 0.13203 0.13125 0.13079 0.13042 0.13011 0.12952 0.12901 0.12841 0.12833 0.12858 0.12887 0.12928 0.12929 0.12919 0.12908 0.12911 0.12923 0.12945 0.12973 0.13001 0.13022 0.13038 0.13038 0.13036 0.13039 0.13052 0.13063 0.13082 0.13091 0.13074 0.13063 0.13043 0.13024 0.13 0.12968 0.12939 0.12893 0.12838 0.12779 0.12752 0.12722 0.12689 0.12658 0.12623 0.12612 0.12614 0.12598 0.12603 0.12604 0.12598 0.12585 0.12588 0.12579 0.12565 0.12559 0.12526 0.125 0.12483 0.12476 0.12459 0.12451 0.12447 0.12481 0.12517 0.12538 0.12556 0.12569 0.12586
0 0 0 0 0 0 0 0 0 0 0 0 0 0 0 0 0 0 0 0 0 0 0 0 0 0 0 0 0 0.13791 0.13761 0.13714 0.13535 0.13294 0.12912 0.12453 0.11828 0.12293 0.12803 0.1336 0.13273 0.13171 0.1308 0.1303 0.12995 0.12968 0.12926 0.12849 0.12821 0.1282 0.12831 0.12906 0.12898 0.12912 0.12932 0.12921 0.12925 0.12939 0.12935 0.12951 0.13002 0.13038 0.13053 0.13045 0.13043 0.13049 0.13062 0.13076 0.13069 0.13062 0.13052 0.13047 0.13025 0.13021 0.12998 0.1296 0.12913 0.12869 0.12833 0.12781 0.12747 0.12731 0.12721 0.12688 0.12668 0.12667 0.1266 0.1264 0.1263 0.12628 0.12623 0.12621 0.12612 0.12605 0.12588 0.12584 0.12571 0.12523 0.12502 0.12483 0.12475 0.12478 0.12475 0.12509 0.12538 0.12553 0.12574 0.12593 0.12609
0 0 0 0 0 0 0 0 0 0 0 0 0 0 0 0 0 0 0 0 0 0 0 0 0 0.13443 0.13557 0.13513 0.13705 0.14021 0.14091 0.13952 0.13774 0.13671 0.1347 0.13244 0.12685 0.1284 0.13051 0.13275 0.13219 0.13139 0.13054 0.13007 0.12991 0.12907 0.12882 0.12861 0.12851 0.12849 0.12846 0.12898 0.1291 0.12937 0.12957 0.12953 0.12952 0.12947 0.12958 0.12976 0.13015 0.13034 0.13061 0.1306 0.13048 0.13059 0.13077 0.13094 0.1307 0.13055 0.13053 0.13036 0.13017 0.13018 0.12973 0.12938 0.129 0.12854 0.12827 0.12788 0.12751 0.12728 0.12727 0.12716 0.12694 0.12681 0.1268 0.12668 0.12671 0.12655 0.12659 0.12646 0.12622 0.12621 0.12624 0.12617 0.12602 0.12567 0.1253 0.12505 0.12498 0.12504 0.12501 0.12529 0.1256 0.1258 0.12598 0.12615 0.12633
0 0 0 0 0 0 0 0 0 0 0 0 0 0 0 0 0 0 0 0 0 0 0 0.1313 0.13276 0.1345 0.13504 0.13351 0.13804 0.14174 0.14485 0.14219 0.14019 0.13872 0.13796 0.13645 0.13464 0.1338 0.13289 0.13207 0.13133 0.13066 0.12978 0.12945 0.12934 0.12877 0.12887 0.12852 0.12849 0.12864 0.12846 0.129 0.12911 0.12949 0.12982 0.12972 0.12976 0.12984 0.12998 0.13001 0.13027 0.13041 0.13075 0.13074 0.13061 0.13043 0.1308 0.13082 0.13075 0.13063 0.13038 0.1302 0.13011 0.13006 0.12961 0.12904 0.12871 0.12843 0.12823 0.1279 0.12775 0.12741 0.12723 0.12718 0.1271 0.12695 0.12693 0.12687 0.1268 0.12674 0.12676 0.12661 0.12645 0.12643 0.12647 0.12637 0.12625 0.12604 0.12559 0.1252 0.12519 0.12522 0.12531 0.12555 0.12582 0.12603 0.12627 0.12641 0.12661
0 0 0 0 0 0 0 0 0 0 0 0 0 0 0 0 0 0 0 0 0 0 0.12799 0.12977 0.13098 0.13318 0.13677 0.13601 0.13847 0.14135 0.14407 0.14177 0.13933 0.13699 0.1361 0.13515 0.13384 0.13299 0.1321 0.13116 0.13061 0.1303 0.12984 0.12943 0.12907 0.12873 0.1286 0.12868 0.12848 0.1285 0.1284 0.129 0.12909 0.12949 0.12976 0.12981 0.1298 0.13005 0.13011 0.13014 0.13033 0.13059 0.13079 0.13103 0.1308 0.13079 0.13071 0.13074 0.13058 0.13037 0.13012 0.12993 0.12982 0.12982 0.12947 0.12905 0.12861 0.12837 0.12802 0.12763 0.12755 0.12737 0.12731 0.12719 0.12708 0.12695 0.12701 0.12697 0.12685 0.12682 0.12688 0.12675 0.12667 0.12661 0.12667 0.1267 0.1265 0.12617 0.12587 0.12556 0.12547 0.12552 0.1256 0.12583 0.12607 0.12635 0.12656 0.1266 0.12676
0 0 0 0 0 0 0 0 0 0 0 0 0 0 0 0 0 0 0 0 0 0.12592 0.12639 0.1271 0.12744 0.13058 0.13493 0.1375 0.13851 0.13969 0.14129 0.13941 0.13665 0.13439 0.13371 0.1332 0.132 0.13103 0.13054 0.13 0.12974 0.1296 0.12917 0.1288 0.12852 0.1286 0.12862 0.12846 0.12832 0.12847 0.12849 0.12908 0.1294 0.12992 0.13014 0.13011 0.13014 0.1304 0.13043 0.13053 0.13078 0.13101 0.13094 0.13107 0.13088 0.13075 0.13078 0.13058 0.13044 0.13032 0.13016 0.12991 0.12974 0.12969 0.12939 0.12896 0.12859 0.12825 0.12788 0.12761 0.1275 0.12735 0.12731 0.1273 0.12716 0.12711 0.12701 0.12696 0.12692 0.12692 0.12689 0.12687 0.12679 0.12683 0.12668 0.12665 0.12654 0.12622 0.126 0.12564 0.12574 0.1257 0.12589 0.12613 0.1264 0.12663 0.12677 0.12687 0.1269
0 0 0 0 0 0 0 0 0 0 0 0 0 0 0 0 0 0 0 0 0 0 0 0.12571 0.12354 0.12844 0.13318 0.13931 0.13871 0.13849 0.13885 0.13653 0.13428 0.13255 0.13172 0.13136 0.13053 0.1299 0.12926 0.1286 0.1285 0.12819 0.12803 0.12797 0.12825 0.12857 0.12848 0.12858 0.12834 0.1286 0.12854 0.12896 0.12937 0.12991 0.13022 0.13019 0.13044 0.13078 0.13086 0.13091 0.13115 0.13116 0.13121 0.13118 0.13106 0.13094 0.13077 0.13077 0.13071 0.13055 0.13041 0.13002 0.12973 0.1295 0.12916 0.12883 0.12851 0.12817 0.12791 0.12764 0.12754 0.12743 0.12743 0.12728 0.12731 0.1272 0.12706 0.12697 0.127 0.12701 0.12698 0.12679 0.12679 0.12679 0.12659 0.12659 0.12641 0.12615 0.126 0.1259 0.12593 0.12596 0.12622 0.12641 0.12659 0.12688 0.12696 0.12703 0.12706
0 0 0 0 0 0 0 0 0 0 0 0 0 0 0 0 0 0 0 0 0 0.12 0.12262 0.12574 0.12446 0.12935 0.1343 0.14137 0.13938 0.13803 0.13741 0.13545 0.13329 0.13157 0.1313 0.13074 0.12965 0.12912 0.12866 0.12828 0.1281 0.12772 0.12757 0.12779 0.12789 0.12817 0.12846 0.12837 0.12855 0.12859 0.12862 0.12887 0.12905 0.12936 0.12979 0.12989 0.13019 0.13049 0.13085 0.13108 0.13116 0.13121 0.13135 0.13146 0.13119 0.13102 0.13092 0.1309 0.1308 0.13057 0.13033 0.13011 0.12991 0.1296 0.1292 0.12881 0.12859 0.12838 0.12811 0.12795 0.12786 0.12777 0.12776 0.12762 0.12749 0.1274 0.12733 0.12722 0.12716 0.12716 0.12714 0.12701 0.12689 0.1268 0.12657 0.12636 0.1262 0.12614 0.12608 0.12586 0.12597 0.12603 0.1261 0.12628 0.12654 0.12677 0.12696 0.12719 0.12734
0 0 0 0 0 0 0 0 0 0 0 0 0 0 0 0 0 0 0 0.11419 0.11293 0.1125 0.11856 0.1249 0.1258 0.13035 0.13595 0.14286 0.14033 0.13776 0.13611 0.13446 0.13211 0.13055 0.13041 0.12989 0.129 0.12852 0.1282 0.12782 0.12769 0.12731 0.12731 0.12746 0.12757 0.12771 0.12803 0.12804 0.12827 0.12836 0.1285 0.1287 0.12873 0.1289 0.12934 0.12952 0.12976 0.13036 0.13078 0.13107 0.13107 0.13118 0.13137 0.13155 0.13147 0.13129 0.13117 0.13102 0.13093 0.13071 0.13048 0.13028 0.13012 0.1299 0.12949 0.12908 0.12874 0.12865 0.12843 0.12827 0.12812 0.12801 0.128 0.12788 0.12774 0.12774 0.12765 0.12755 0.12751 0.12755 0.12748 0.12739 0.12728 0.1271 0.12676 0.12632 0.12614 0.12618 0.12602 0.12594 0.126 0.12599 0.12595 0.12612 0.12642 0.1266 0.12698 0.12726 0.12756
0 0 0 0 0 0 0 0 0 0 0 0 0 0 0 0 0 0 0.11054 0.11184 0.10916 0.10373 0.11251 0.11958 0.12672 0.13178 0.13781 0.14447 0.14092 0.1379 0.13483 0.13305 0.13083 0.12939 0.12924 0.12873 0.12826 0.1279 0.12729 0.12699 0.12693 0.12692 0.12704 0.12711 0.12704 0.12722 0.12758 0.12782 0.12802 0.12835 0.12858 0.1287 0.12873 0.12876 0.12883 0.12907 0.12947 0.1301 0.13031 0.13049 0.13059 0.13085 0.13107 0.13141 0.13137 0.13129 0.13117 0.13107 0.13101 0.13089 0.13075 0.13056 0.13042 0.13011 0.12974 0.12933 0.12914 0.12891 0.12864 0.12855 0.12846 0.12829 0.12824 0.12815 0.12798 0.12795 0.12796 0.1279 0.12779 0.12771 0.12759 0.12753 0.12756 0.12745 0.12701 0.12681 0.12651 0.12647 0.12614 0.12605 0.12605 0.12603 0.12585 0.12608 0.12623 0.12641 0.12688 0.12731 0.12768
0 0 0 0 0 0 0 0 0 0 0 0 0 0 0 0 0 0.10689 0.10847 0.11132 0.11401 0.10905 0.11665 0.12453 0.13245 0.13601 0.13942 0.14189 0.13895 0.13653 0.13408 0.13255 0.13032 0.12913 0.12883 0.12836 0.12812 0.12773 0.12738 0.12705 0.12702 0.12705 0.12699 0.12707 0.12703 0.1272 0.12744 0.12778 0.12796 0.1282 0.12851 0.12871 0.12882 0.12876 0.12867 0.12882 0.1291 0.12949 0.12982 0.13027 0.13064 0.13079 0.13088 0.13096 0.13102 0.13125 0.13129 0.13122 0.13107 0.13105 0.13094 0.13082 0.13069 0.13035 0.13006 0.1297 0.12941 0.12916 0.1289 0.12877 0.12854 0.12832 0.12831 0.12815 0.12807 0.12815 0.12826 0.12819 0.12807 0.12798 0.12788 0.12786 0.12776 0.12759 0.12727 0.12697 0.12662 0.1265 0.12612 0.12608 0.126 0.12601 0.12586 0.12606 0.12621 0.12652 0.12695 0.12719 0.12765
0 0 0 0 0 0 0 0 0 0 0 0 0 0 0 0 0.10259 0.10157 0.1008 0.10667 0.11344 0.11081 0.12077 0.12792 0.13514 0.13699 0.13904 0.13943 0.13729 0.13556 0.13345 0.13207 0.13007 0.12878 0.12872 0.12819 0.12771 0.12752 0.12733 0.12722 0.12711 0.12712 0.12704 0.12698 0.12692 0.12718 0.12756 0.12789 0.12802 0.1281 0.12829 0.12846 0.1285 0.12854 0.12854 0.1287 0.12892 0.1293 0.12967 0.13003 0.13041 0.13071 0.13079 0.13081 0.13097 0.13125 0.13145 0.13139 0.13123 0.13115 0.13104 0.13092 0.13075 0.13051 0.13018 0.12981 0.12965 0.12944 0.12907 0.12884 0.12863 0.12837 0.12839 0.1284 0.12855 0.12867 0.12853 0.1286 0.12845 0.12832 0.12822 0.12805 0.12805 0.12781 0.12747 0.12718 0.12663 0.12639 0.12617 0.12598 0.12586 0.12588 0.12582 0.126 0.12614 0.12652 0.12695 0.1272 0.12758
0 0 0 0 0 0 0 0 0 0 0 0 0 0 0 0.10558 0.10242 0.09649 0.09096 0.09833 0.10575 0.11272 0.12358 0.13097 0.13814 0.13812 0.13833 0.13726 0.13537 0.13436 0.13279 0.13136 0.12984 0.12837 0.12861 0.12828 0.12769 0.12764 0.12756 0.12729 0.12704 0.12713 0.12705 0.12711 0.12694 0.12712 0.12752 0.12776 0.12805 0.12809 0.12806 0.1283 0.12809 0.12801 0.12802 0.12834 0.12872 0.12901 0.12898 0.12934 0.13023 0.1297 0.13005 0.13069 0.13091 0.13119 0.13144 0.13127 0.13133 0.13124 0.1311 0.13106 0.13101 0.13064 0.13023 0.12993 0.1298 0.12957 0.1292 0.12909 0.12878 0.12855 0.12871 0.12882 0.12878 0.1288 0.1288 0.12879 0.12872 0.12854 0.12856 0.12829 0.1282 0.12789 0.12753 0.12716 0.12659 0.1263 0.12606 0.12587 0.12585 0.12575 0.12582 0.12605 0.12612 0.12645 0.12683 0.12712 0.12737
0 0 0 0 0 0 0 0 0 0 0 0 0 0 0.10443 0.10563 0.10489 0.1037 0.09849 0.10557 0.11245 0.11954 0.12718 0.13186 0.13636 0.13669 0.13694 0.13606 0.13453 0.13334 0.13198 0.13069 0.1293 0.12816 0.12816 0.12788 0.12756 0.12748 0.1275 0.12727 0.12713 0.12705 0.12695 0.12687 0.12688 0.12709 0.12759 0.128 0.12809 0.12833 0.1286 0.12891 0.12861 0.12824 0.12817 0.12744 0.12672 0.12607 0.12771 0.12812 0.12861 0.12839 0.12816 0.12537 0.12752 0.12968 0.13173 0.13152 0.1314 0.13113 0.13105 0.13093 0.13073 0.13041 0.13009 0.12981 0.12964 0.12932 0.12914 0.129 0.12883 0.1286 0.12875 0.12893 0.12889 0.12888 0.12892 0.12891 0.12895 0.12887 0.1287 0.12871 0.12842 0.12806 0.12765 0.12711 0.12652 0.12629 0.12609 0.12603 0.12594 0.12585 0.12579 0.12613 0.12637 0.12666 0.12695 0.12732 0.12776
0 0 0 0 0 0 0 0 0 0 0 0 0 0.10466 0.10434 0.10219 0.10633 0.11102 0.10642 0.11348 0.12051 0.12723 0.13071 0.13274 0.13442 0.13518 0.13521 0.13507 0.13377 0.13237 0.13132 0.13025 0.12898 0.12786 0.12778 0.1277 0.12759 0.12743 0.12731 0.12716 0.12708 0.12705 0.12681 0.12671 0.12663 0.12667 0.12716 0.12769 0.1281 0.12846 0.12887 0.12932 0.12895 0.12865 0.12835 0.12653 0.12472 0.12298 0 0 0 0.12839 0.12555 0.12027 0.12418 0.12828 0.13229 0.13201 0.13156 0.13112 0.13091 0.13074 0.13051 0.13021 0.12992 0.12962 0.12949 0.12923 0.12908 0.12891 0.12881 0.12863 0.12878 0.12902 0.12912 0.12911 0.1291 0.12904 0.12906 0.12907 0.12914 0.12894 0.1284 0.12815 0.1278 0.12718 0.12655 0.12638 0.12623 0.12623 0.12616 0.12601 0.12591 0.12625 0.12659 0.12676 0.12732 0.12781 0.12818
0 0 0 0 0 0 0 0 0 0 0 0 0 0.10843 0.10123 0.09503 0.10102 0.10788 0.11457 0.12138 0.12802 0.13511 0.13442 0.13381 0.13304 0.1338 0.13377 0.13387 0.13281 0.13152 0.13093 0.12993 0.12873 0.12764 0.1275 0.12764 0.12743 0.12732 0.12718 0.1271 0.12703 0.12692 0.12661 0.12597 0.12594 0.12632 0.12654 0.12747 0.12784 0.12752 0.12807 0.12954 0.12762 0.1267 0.12829 0.12537 0.12259 0.11983 0 0 0 0 0 0.12228 0.12089 0.1268 0.13278 0.13235 0.13171 0.13111 0.13091 0.13064 0.13031 0.13009 0.12973 0.12938 0.12925 0.12917 0.1289 0.12873 0.12873 0.12863 0.12874 0.12896 0.12904 0.12902 0.12902 0.12905 0.12914 0.1292 0.12943 0.12906 0.12839 0.12795 0.12772 0.12714 0.12658 0.12647 0.1265 0.12643 0.12628 0.12612 0.1259 0.12634 0.12674 0.12703 0.12775 0.12841 0.12889
0 0 0 0 0 0 0 0 0 0 0 0 0.11464 0.11373 0.11115 0.10902 0.11291 0.11764 0.12208 0.12627 0.13035 0.13454 0.13393 0.13343 0.13279 0.13333 0.13312 0.13333 0.13234 0.13111 0.13063 0.12972 0.12863 0.12773 0.12762 0.12759 0.12754 0.12737 0.12714 0.12696 0.12509 0.12316 0.12098 0.12436 0.12493 0.12568 0.12617 0 0 0.12781 0 0.1263 0.12445 0.12292 0.11591 0.11822 0.1206 0.12299 0.12228 0.1241 0.12529 0 0 0 0.12378 0.12803 0.13234 0.13186 0.13119 0.13054 0.1303 0.12996 0.12974 0.1295 0.12915 0.12893 0.12882 0.12885 0.12865 0.12857 0.12865 0.12865 0.12863 0.1287 0.12891 0.12922 0.12926 0.12919 0.12923 0.12926 0.12944 0.12894 0.12835 0.12795 0.12776 0.12725 0.12661 0.1267 0.12672 0.12653 0.12642 0.12629 0.12613 0.1263 0.1267 0.12693 0.12756 0.12832 0.12887
0 0 0 0 0 0 0 0 0 0 0 0.11384 0.11304 0.11671 0.12378 0.12248 0.12453 0.12699 0.12915 0.13093 0.13246 0.13399 0.13339 0.13295 0.13255 0.13273 0.13262 0.13275 0.13184 0.13087 0.1303 0.1295 0.1287 0.12805 0.12796 0.12786 0.1277 0.12733 0.12704 0.12676 0.12306 0.1193 0.11545 0.119 0.12172 0 0 0 0 0 0.12381 0.12132 0.11724 0.1113 0.10341 0.11094 0.11857 0.12593 0.12435 0.12455 0.1252 0.12612 0.12627 0.12385 0.12668 0.12916 0.13175 0.1312 0.13057 0.12989 0.12967 0.1294 0.12919 0.12898 0.12859 0.12849 0.12836 0.1285 0.12845 0.12849 0.12849 0.12864 0.1286 0.12874 0.12893 0.12911 0.12922 0.12906 0.12927 0.12933 0.1294 0.12897 0.12853 0.1282 0.12793 0.12738 0.12706 0.12696 0.12686 0.12678 0.12659 0.1265 0.12629 0.12643 0.12658 0.12685 0.12741 0.12815 0.12875
0 0 0 0 0 0 0 0 0 0 0.11767 0.11171 0.10653 0.11606 0.1257 0.13514 0.13595 0.13623 0.13636 0.13553 0.13446 0.13338 0.13313 0.13247 0.13218 0.13213 0.13209 0.13205 0.13131 0.13064 0.13001 0.12933 0.12871 0.12819 0.12819 0.12804 0.12771 0.12732 0.12676 0.1265 0.12411 0.11573 0.10968 0 0 0 0 0 0 0 0 0 0 0 0.09097 0.10348 0.11637 0.12878 0.12804 0.12744 0.12684 0.12724 0.12762 0.12826 0.1292 0.13009 0.13113 0.13051 0.12994 0.12929 0.1292 0.12896 0.12861 0.12822 0.12807 0.12802 0.12808 0.12817 0.12807 0.1283 0.12837 0.12839 0.12857 0.12875 0.12878 0.12899 0.12917 0.12915 0.12933 0.12928 0.12922 0.12902 0.12866 0.12823 0.12792 0.12748 0.12712 0.12713 0.12704 0.12706 0.12677 0.12657 0.12631 0.12646 0.12654 0.12679 0.12737 0.12804 0.12879
0 0 0 0 0 0 0 0 0 0 0.12271 0.1195 0.1175 0.12292 0.12856 0.13416 0.13477 0.13484 0.13482 0.13398 0.13313 0.13255 0.13208 0.13179 0.13134 0.13134 0.1315 0.13153 0.13091 0.13033 0.12969 0.12908 0.12874 0.12832 0.12819 0.1281 0.12782 0.12733 0.12663 0.12616 0.12347 0 0 0 0 0 0 0 0 0 0 0 0 0 0.10365 0.11182 0.1199 0.12779 0.12737 0.1269 0.12658 0.12701 0.12739 0.1278 0.12862 0.12942 0.13029 0.12981 0.12948 0.12898 0.12869 0.12825 0.12812 0.12809 0.12802 0.128 0.12803 0.12812 0.12815 0.12826 0.12831 0.12841 0.12862 0.12876 0.12885 0.1289 0.12891 0.12889 0.1288 0.12876 0.12875 0.12869 0.12848 0.12821 0.12784 0.12748 0.12727 0.12732 0.12722 0.12723 0.12698 0.1267 0.12651 0.12653 0.12653 0.12679 0.1273 0.12788 0.12852
0 0 0 0 0 0 0 0 0 0.12775 0.12918 0.13204 0.12866 0.13032 0.13189 0.13365 0.13353 0.1334 0.1332 0.13271 0.13202 0.13139 0.13117 0.13091 0.13075 0.13079 0.13097 0.13093 0.13037 0.1299 0.12928 0.12881 0.12864 0.12834 0.12813 0.128 0.1279 0.12719 0.12634 0.12561 0.12506 0 0 0 0 0 0 0 0 0 0 0 0 0.11955 0.11631 0.11993 0.12342 0.12691 0.12668 0.1265 0.12633 0.12677 0.12706 0.12743 0.12835 0.12901 0.1295 0.12919 0.12892 0.12851 0.12808 0.12807 0.12797 0.12799 0.12796 0.12782 0.12794 0.12801 0.12807 0.12821 0.12835 0.1285 0.12864 0.12874 0.12877 0.12872 0.12869 0.12871 0.12864 0.12845 0.12828 0.12827 0.12817 0.12803 0.12773 0.12741 0.12731 0.12735 0.12738 0.12745 0.12711 0.12676 0.12664 0.12663 0.12672 0.12674 0.12717 0.12762 0.1281
0 0 0 0 0 0 0 0 0.12796 0.12996 0.13358 0.13703 0.13974 0.13753 0.1353 0.13321 0.13302 0.1327 0.13241 0.1321 0.1318 0.13153 0.13141 0.13122 0.13111 0.13099 0.13112 0.13099 0.13044 0.12989 0.12927 0.12888 0.12855 0.12829 0.12815 0.12799 0.12784 0.12695 0.12599 0.12509 0.12512 0.12487 0 0.12266 0.12213 0 0 0 0 0 0 0 0.12294 0.12609 0.12878 0.12792 0.12693 0.12591 0.12605 0.12611 0.12608 0.12648 0.12684 0.12731 0.12798 0.12855 0.12877 0.12843 0.12823 0.12791 0.12773 0.12771 0.12755 0.12752 0.12755 0.12748 0.12753 0.12757 0.1277 0.128 0.12837 0.12857 0.12856 0.12846 0.12853 0.12846 0.12846 0.12849 0.12837 0.12817 0.12791 0.12794 0.12786 0.12767 0.12757 0.12734 0.12722 0.12726 0.1273 0.1273 0.12709 0.12694 0.12656 0.12661 0.12671 0.12656 0.12686 0.12718 0.12748
0 0 0 0 0 0 0 0 0.12952 0.13099 0.13287 0.1346 0.1389 0.13669 0.13455 0.13258 0.13231 0.13194 0.13176 0.13154 0.13142 0.13133 0.13123 0.1311 0.13098 0.13088 0.13078 0.13064 0.13014 0.12978 0.12932 0.129 0.12868 0.12837 0.12827 0.1281 0.12791 0.12723 0.1266 0.12599 0.12598 0.12593 0.12489 0.12431 0.12366 0 0 0 0 0 0 0.12197 0.1234 0.12483 0.12771 0.12718 0.12654 0.12594 0.12598 0.12602 0.12602 0.12638 0.12671 0.12701 0.1275 0.12783 0.12797 0.12778 0.12756 0.12741 0.12741 0.12742 0.12735 0.12737 0.12739 0.12739 0.12743 0.12749 0.12763 0.12779 0.12799 0.12812 0.12799 0.12797 0.12799 0.12804 0.1281 0.12804 0.12803 0.1279 0.12779 0.12782 0.12772 0.12773 0.12741 0.12729 0.12721 0.12725 0.12734 0.12718 0.12696 0.12673 0.12657 0.12651 0.12661 0.12661 0.12683 0.12711 0.12743
0 0 0 0 0 0 0 0 0 0.12966 0.13162 0.13324 0.13783 0.13589 0.13389 0.13188 0.13158 0.13133 0.13117 0.13113 0.13127 0.13131 0.13127 0.13108 0.13092 0.13071 0.13064 0.1304 0.13007 0.12976 0.12945 0.12915 0.12887 0.12855 0.12835 0.12825 0.12808 0.12766 0.12722 0.12685 0.12723 0.12685 0.12641 0.12592 0.12537 0.12485 0.12195 0.11572 0 0 0.1215 0.12445 0.12409 0.12459 0.12675 0.12649 0.12625 0.12596 0.12591 0.12581 0.1259 0.12625 0.12651 0.12667 0.12693 0.12711 0.12717 0.12696 0.12697 0.12697 0.12708 0.12709 0.12709 0.12716 0.12722 0.1272 0.12729 0.1274 0.12747 0.12751 0.1276 0.12767 0.12763 0.12753 0.12747 0.12765 0.12766 0.12761 0.12764 0.12763 0.12767 0.12768 0.12763 0.12746 0.12728 0.12712 0.12707 0.12715 0.12714 0.12705 0.1269 0.12672 0.12658 0.12653 0.12653 0.12648 0.12667 0.12702 0.12741
0 0 0 0 0 0 0 0 0 0.12738 0.12981 0.1337 0.13691 0.13495 0.1331 0.13102 0.13081 0.13069 0.13049 0.13074 0.13107 0.13129 0.1311 0.13095 0.13078 0.13056 0.13052 0.1304 0.13008 0.12985 0.12952 0.12932 0.12899 0.12873 0.12863 0.12852 0.12839 0.1281 0.12785 0.12765 0.12767 0.1277 0.12766 0.12775 0.12788 0.1281 0.11965 0.11108 0.10229 0.11049 0.11864 0.12659 0.12639 0.12609 0.12585 0.12582 0.12587 0.12574 0.12585 0.12571 0.12568 0.12585 0.12615 0.12631 0.12635 0.12632 0.12629 0.12609 0.12605 0.12632 0.12651 0.12665 0.12671 0.1269 0.12704 0.12703 0.12707 0.12716 0.12721 0.12717 0.12723 0.1272 0.12719 0.12716 0.12714 0.12723 0.12728 0.12718 0.12722 0.12724 0.12726 0.12739 0.12737 0.12729 0.12717 0.1271 0.12703 0.12712 0.12697 0.12695 0.1269 0.12676 0.12664 0.12658 0.1266 0.12655 0.12665 0.12692 0.12724
0 0 0 0 0 0 0 0 0 0.12293 0.12375 0.12574 0.11865 0.12289 0.12714 0.13114 0.13091 0.13074 0.13052 0.13076 0.13103 0.13123 0.1312 0.13109 0.13102 0.1309 0.1308 0.13081 0.13081 0.13073 0.13053 0.13054 0.13055 0.13058 0.12993 0.12922 0.12865 0.12837 0.12791 0.12762 0.12754 0.12739 0.1272 0.12726 0.12731 0.12745 0.12179 0 0.11017 0.11565 0.12103 0.1264 0.1262 0.12599 0.12571 0.12564 0.12564 0.12547 0.12555 0.12559 0.12559 0.12577 0.12608 0.12628 0.12628 0.12626 0.12617 0.1261 0.12618 0.12624 0.12643 0.12646 0.12647 0.12662 0.12672 0.12665 0.12674 0.12679 0.12685 0.12692 0.12692 0.1268 0.12685 0.12697 0.12692 0.12704 0.12723 0.12718 0.12718 0.12731 0.1274 0.12751 0.12745 0.12747 0.12737 0.12732 0.12736 0.12724 0.12722 0.12703 0.12696 0.12686 0.12672 0.12661 0.12645 0.12632 0.12657 0.12674 0.12714
0 0 0 0 0 0 0 0 0 0 0.11259 0.10656 0.10036 0.11072 0.12102 0.13135 0.13119 0.13091 0.1307 0.13091 0.13102 0.13121 0.13125 0.13131 0.13138 0.13123 0.13117 0.13122 0 0 0 0.13143 0.13207 0.1323 0.13113 0.12994 0.12884 0.12835 0.12795 0.1275 0.12726 0.12698 0.12675 0.12672 0.12662 0.1266 0.12385 0.12095 0.11803 0.12072 0.12336 0.12607 0.12597 0.12581 0.12562 0.12555 0.12526 0.12529 0.12539 0.12542 0.12537 0.12566 0.1258 0.12589 0.12588 0.12592 0.12602 0.126 0.12604 0.12597 0.12608 0.12614 0.12612 0.12625 0.12625 0.12627 0.12638 0.12644 0.12655 0.12651 0.1265 0.12653 0.12656 0.12668 0.12673 0.12688 0.1269 0.12704 0.12723 0.12735 0.12752 0.1276 0.1276 0.12759 0.1275 0.12746 0.12736 0.12725 0.12712 0.12699 0.12688 0.12689 0.12687 0.12667 0.12639 0.12616 0.12646 0.12672 0.12716
0 0 0 0 0 0 0 0 0 0 0 0.09248 0.0823 0.09884 0.12379 0.13177 0.12964 0.12993 0.13101 0.13098 0.13114 0.13132 0.13127 0.13151 0.13167 0.1316 0.13152 0.13157 0 0 0 0.13209 0.13348 0.13395 0.13225 0.13061 0.12881 0.12842 0.12794 0.12746 0.127 0.12663 0.12619 0.12602 0.12588 0.12581 0.12574 0.12569 0.12563 0.12565 0.12566 0.12576 0.1256 0.12541 0.1252 0.12505 0.12492 0.12501 0.1251 0.12522 0.12519 0.12545 0.12559 0.12569 0.1257 0.12577 0.12576 0.12571 0.12578 0.12583 0.12586 0.12582 0.12572 0.1259 0.12597 0.12587 0.12601 0.1261 0.12619 0.12616 0.12617 0.12609 0.12624 0.1264 0.12631 0.1266 0.12678 0.12688 0.12713 0.12746 0.12773 0.12773 0.12764 0.12749 0.12748 0.12748 0.12739 0.12727 0.12699 0.1268 0.12676 0.12695 0.1269 0.12668 0.1265 0.12623 0.12645 0.12672 0.12715
0 0 0 0 0 0 0 0 0 0 0 0 0.09748 0.10665 0.12005 0.12697 0.12797 0.12905 0.13088 0.13086 0.13107 0.13142 0.13149 0.13169 0.13196 0.12859 0.12514 0 0 0.12588 0.13134 0.13164 0.13193 0.1323 0.13115 0.13 0.12879 0.12832 0.12781 0.12734 0.12692 0.12652 0.12607 0.12594 0.1258 0.12557 0.12554 0.12552 0.12549 0.1255 0.12551 0.12552 0.12539 0.12527 0.12508 0.125 0.12493 0.12497 0.12503 0.12514 0.12524 0.12537 0.12549 0.12577 0.12586 0.12568 0.12558 0.12563 0.12572 0.12566 0.12571 0.1257 0.12578 0.12577 0.12572 0.1257 0.12575 0.12587 0.12604 0.12604 0.12603 0.12609 0.12621 0.12631 0.12637 0.1266 0.12677 0.12692 0.12714 0.12737 0.1275 0.12746 0.12747 0.12741 0.1274 0.12743 0.12742 0.12731 0.12717 0.12697 0.12689 0.12691 0.12688 0.12656 0.12627 0.12612 0.12634 0.12646 0.1267
0 0 0 0 0 0 0 0 0 0 0 0 0 0 0 0.12307 0.12581 0.12836 0.13077 0.13082 0.13102 0.13129 0.1316 0.13184 0.13229 0.12542 0.11868 0.11198 0.11805 0.12409 0.13005 0.13031 0.13046 0.1307 0.13007 0.12944 0.12872 0.12821 0.12765 0.12721 0.12689 0.12643 0.12603 0.12592 0.12575 0.12564 0.12557 0.12549 0.12542 0.1254 0.12547 0.12542 0.12531 0.12514 0.12495 0.12487 0.12484 0.12481 0.12496 0.12502 0.12517 0.12531 0.12551 0.1257 0.12565 0.12554 0.12552 0.12546 0.12541 0.12539 0.1254 0.12543 0.12551 0.12557 0.12559 0.12556 0.12567 0.12571 0.12573 0.12581 0.12586 0.12592 0.12615 0.12633 0.12642 0.12656 0.12675 0.12682 0.1271 0.12734 0.12741 0.12745 0.12738 0.12735 0.12737 0.12739 0.12747 0.12737 0.12729 0.12715 0.12689 0.12692 0.1267 0.12647 0.12624 0.12613 0.12619 0.12618 0.1264
0 0 0 0 0 0 0 0 0 0 0 0 0 0 0 0.12245 0.12543 0.12893 0.13077 0.13074 0.13091 0.13123 0.13167 0.13209 0.13255 0.1223 0.1123 0.10223 0.11117 0 0.12877 0.12885 0.12894 0.12917 0.12903 0.12883 0.12855 0.12802 0.12754 0.12702 0.12672 0.1263 0.12593 0.12586 0.12574 0.12556 0.12552 0.12549 0.12542 0.1254 0.12532 0.12526 0.12521 0.12517 0.12502 0.12489 0.12464 0.12464 0.12476 0.12491 0.12505 0.12501 0.12521 0.12538 0.12535 0.12539 0.12538 0.1253 0.12522 0.12511 0.12514 0.12519 0.12521 0.12536 0.12543 0.12521 0.12536 0.12535 0.12542 0.1255 0.12563 0.12579 0.12606 0.12618 0.12621 0.12647 0.12663 0.12667 0.12692 0.12713 0.12709 0.12721 0.12722 0.12718 0.1272 0.12735 0.12754 0.12756 0.12734 0.12725 0.127 0.12682 0.12665 0.1265 0.12624 0.12608 0.126 0.12599 0.12608
0 0 0 0 0 0 0 0 0 0 0 0 0 0.11712 0.11894 0.12092 0.12387 0.12818 0.13081 0.13088 0.13104 0.13142 0.13191 0.13226 0.13251 0.12564 0.11895 0.11227 0.11807 0.12445 0.12975 0.12951 0.12929 0.12917 0.12895 0.12872 0.12847 0.12796 0.12754 0.12707 0.12674 0.12646 0.12619 0.12609 0.12596 0.12584 0.12576 0.12569 0.12561 0.12553 0.12546 0.12542 0.12523 0.12504 0.1249 0.12476 0.12464 0.1246 0.12467 0.1248 0.12494 0.12487 0.1249 0.12509 0.12508 0.12519 0.12524 0.12526 0.1252 0.12511 0.1252 0.12522 0.12515 0.12514 0.12522 0.12515 0.12522 0.12523 0.12541 0.12551 0.12563 0.12577 0.12593 0.12612 0.12628 0.12645 0.12653 0.12667 0.12688 0.12693 0.12705 0.12724 0.12728 0.12725 0.12739 0.12745 0.12759 0.12754 0.12745 0.12735 0.12715 0.12701 0.12686 0.12668 0.12644 0.12629 0.12618 0.12619 0.12623
0 0 0 0 0 0 0 0 0 0 0 0 0.11454 0.11603 0.11751 0.11921 0.12261 0.12692 0.1308 0.13097 0.13127 0.13169 0.13186 0.13213 0.13239 0.12904 0.12555 0.12215 0.12496 0.1278 0.13063 0.13016 0.12965 0.12921 0.12891 0.12864 0.12832 0.12789 0.12744 0.12705 0.12686 0.1267 0.12649 0.12633 0.1262 0.12601 0.12589 0.12578 0.12568 0.12562 0.12552 0.12547 0.12533 0.12521 0.12499 0.12481 0.12463 0.12458 0.1246 0.12473 0.12481 0.12475 0.12483 0.12494 0.12492 0.12502 0.12505 0.12509 0.12518 0.12523 0.12523 0.12525 0.12527 0.12523 0.12518 0.1251 0.12506 0.12518 0.12524 0.12535 0.1255 0.12566 0.12575 0.12589 0.12604 0.12617 0.12632 0.12634 0.12653 0.12673 0.12691 0.12709 0.12719 0.12739 0.12746 0.12743 0.12739 0.12742 0.12742 0.12734 0.12716 0.12704 0.12698 0.1268 0.12665 0.12649 0.12641 0.12642 0.12638
0 0 0 0 0 0 0 0 0.12143 0.12059 0.1186 0.1145 0.11094 0.11212 0.11302 0.11413 0.11972 0.12534 0.13088 0.13115 0.13156 0.1321 0.13211 0.13219 0.13226 0.13224 0.13213 0.13213 0.13195 0.13185 0.13164 0.13085 0.12996 0.12916 0.1289 0.1286 0.1282 0.1278 0.1274 0.12705 0.12698 0.12682 0.12669 0.12654 0.12642 0.12631 0.1262 0.12601 0.12582 0.12579 0.12564 0.12547 0.12534 0.12514 0.12498 0.12472 0.12453 0.1245 0.12455 0.12462 0.12463 0.12458 0.1246 0.12469 0.12484 0.12483 0.12488 0.12486 0.12495 0.12506 0.12517 0.12528 0.12528 0.1253 0.12518 0.12513 0.12517 0.12515 0.12506 0.12523 0.12533 0.12547 0.12553 0.12558 0.12569 0.12583 0.12603 0.12613 0.12632 0.12653 0.12668 0.12689 0.12714 0.12735 0.12739 0.12736 0.12737 0.12738 0.12733 0.12725 0.12714 0.12706 0.12703 0.12698 0.12685 0.12683 0.12672 0.12655 0.12646
0 0 0 0 0 0 0 0.12391 0.12334 0.12442 0.12333 0.1214 0.11948 0.11975 0.12006 0.12041 0.12406 0.12777 0.13139 0.13141 0.13161 0.13203 0.132 0.13202 0.13195 0.13183 0.13175 0.13175 0.13157 0.13139 0.13123 0.1306 0.12995 0.12931 0.12898 0.12869 0.12839 0.128 0.12767 0.12732 0.1272 0.12708 0.12695 0.12681 0.12669 0.12654 0.12638 0.1262 0.12603 0.12588 0.12572 0.12548 0.12533 0.12507 0.12488 0.12483 0.12461 0.12446 0.12444 0.12443 0.12444 0.12447 0.12448 0.12454 0.1247 0.12481 0.1249 0.12486 0.12491 0.12504 0.12517 0.1252 0.12525 0.12525 0.1252 0.12511 0.1251 0.12504 0.12502 0.12506 0.12509 0.12523 0.12535 0.12542 0.1255 0.12565 0.12583 0.1259 0.12604 0.12628 0.12652 0.12664 0.12694 0.1272 0.12732 0.12743 0.1274 0.12743 0.12735 0.12728 0.12716 0.1272 0.12723 0.12716 0.12713 0.12699 0.12686 0.12672 0.12661
0 0 0 0 0 0 0.12566 0.12563 0.12525 0.12511 0.12606 0.12804 0.12719 0.12703 0.12668 0.12636 0.12811 0.12984 0.13157 0.13159 0.13178 0.13201 0.13191 0.13181 0.13168 0.13159 0.13146 0.13142 0.1312 0.131 0.13084 0.13036 0.12995 0.1295 0.12918 0.1289 0.12866 0.12829 0.1279 0.12757 0.12736 0.12719 0.12712 0.12704 0.12694 0.12681 0.12667 0.1264 0.1262 0.12602 0.12586 0.12564 0.12535 0.12511 0.12482 0.12466 0.12457 0.12446 0.12437 0.12431 0.12434 0.12441 0.12446 0.12457 0.12459 0.12467 0.12473 0.12485 0.12494 0.12501 0.12509 0.12515 0.1252 0.12518 0.12514 0.12513 0.12512 0.12509 0.12505 0.12505 0.12501 0.12501 0.12507 0.12508 0.12518 0.1253 0.12542 0.12566 0.1258 0.12598 0.12633 0.12652 0.1268 0.12707 0.12718 0.12731 0.12736 0.12733 0.12735 0.12729 0.12728 0.12733 0.12742 0.12737 0.12729 0.12715 0.127 0.12686 0.1268
0 0 0 0 0 0 0.12568 0.12566 0.12519 0.1242 0.12765 0.13116 0.13482 0.13406 0.13336 0.13226 0.13212 0.13181 0.1319 0.13191 0.132 0.13202 0.13175 0.13167 0.13155 0.13143 0.13126 0.1311 0.13085 0.13067 0.13044 0.13018 0.13003 0.12972 0.12941 0.12914 0.12893 0.12856 0.12814 0.12781 0.12759 0.12743 0.12739 0.12725 0.12711 0.12691 0.12673 0.12662 0.12643 0.1262 0.12592 0.12566 0.12536 0.12507 0.12478 0.12455 0.12436 0.12426 0.12421 0.12419 0.1242 0.12426 0.12428 0.12431 0.12438 0.12441 0.1245 0.12456 0.12462 0.12481 0.12496 0.12512 0.12508 0.12509 0.1251 0.12509 0.12508 0.12505 0.12498 0.12495 0.12488 0.12481 0.12484 0.12483 0.12478 0.12491 0.12515 0.12523 0.12551 0.12579 0.12602 0.12632 0.12654 0.12679 0.12695 0.12715 0.1273 0.12729 0.12729 0.12726 0.12728 0.12735 0.12753 0.12768 0.12761 0.12742 0.12723 0.12708 0.12707
0 0 0 0 0 0.1245 0.12521 0.12647 0.12773 0.12799 0.13038 0.13248 0.13489 0.13437 0.13368 0.13276 0.13241 0.13203 0.13187 0.13178 0.13178 0.13174 0.13168 0.13146 0.13123 0.13119 0.13121 0.13116 0.13087 0.13067 0.13047 0.13027 0.13004 0.12978 0.12949 0.1292 0.12897 0.12867 0.12825 0.12794 0.12763 0.12744 0.12729 0.12721 0.12702 0.12683 0.12679 0.12674 0.12657 0.12639 0.12609 0.12574 0.12544 0.12518 0.12496 0.12471 0.12456 0.12449 0.12448 0.12442 0.12434 0.12435 0.12436 0.12437 0.12445 0.12457 0.12464 0.12466 0.12473 0.12503 0.12511 0.12512 0.1252 0.12517 0.12518 0.12524 0.12519 0.12508 0.12495 0.12478 0.12476 0.1247 0.12467 0.12474 0.12472 0.12495 0.12518 0.12532 0.12553 0.1256 0.12579 0.12597 0.12622 0.12645 0.12669 0.12694 0.1271 0.12714 0.12724 0.12736 0.12719 0.12723 0.1274 0.12752 0.12764 0.12755 0.1274 0.12728 0.12719
0 0 0 0 0.12373 0.12408 0.12404 0.12591 0.13003 0.13206 0.13322 0.13379 0.13464 0.13415 0.13372 0.133 0.13266 0.13212 0.13186 0.13178 0.13172 0.13161 0.13153 0.13127 0.13113 0.13109 0.1311 0.1312 0.13094 0.13059 0.13042 0.13024 0.13002 0.12984 0.12954 0.12923 0.12897 0.12867 0.12832 0.12802 0.12776 0.12751 0.12733 0.12714 0.12694 0.12679 0.12677 0.12673 0.12652 0.12646 0.12629 0.12593 0.12563 0.1254 0.12518 0.12493 0.12478 0.12471 0.12456 0.12454 0.12447 0.12446 0.12444 0.12441 0.12453 0.12468 0.12475 0.12476 0.12485 0.1251 0.12525 0.12524 0.12532 0.12532 0.12541 0.12542 0.12531 0.12517 0.12505 0.12505 0.12492 0.12472 0.12463 0.12468 0.12473 0.12496 0.12522 0.1253 0.12537 0.12546 0.12568 0.12579 0.12606 0.12636 0.12655 0.12676 0.12706 0.12715 0.12731 0.12735 0.12729 0.12728 0.12734 0.12745 0.12759 0.12759 0.12752 0.12756 0.1275
0 0 0 0 0.12291 0.12345 0.12262 0.12675 0.13104 0.13578 0.13576 0.13522 0.13455 0.13411 0.13375 0.1333 0.13275 0.13218 0.13185 0.13176 0.13161 0.13148 0.13142 0.13118 0.1311 0.13114 0.13129 0.13131 0.13105 0.13068 0.13049 0.13031 0.13008 0.12985 0.12957 0.12927 0.12902 0.12873 0.12845 0.12811 0.12783 0.12758 0.12728 0.12709 0.12691 0.1268 0.12682 0.12675 0.12654 0.12639 0.12629 0.12601 0.12572 0.12555 0.1253 0.12514 0.125 0.12485 0.12476 0.12457 0.12447 0.12445 0.12447 0.12446 0.12459 0.12471 0.12483 0.12486 0.12494 0.12527 0.12528 0.1254 0.12546 0.12551 0.12557 0.12554 0.12536 0.12534 0.12523 0.12519 0.12494 0.12477 0.12479 0.12479 0.12466 0.12488 0.12506 0.12512 0.12529 0.12542 0.12553 0.1257 0.12594 0.12621 0.12647 0.12668 0.12694 0.12713 0.12719 0.12725 0.12724 0.12728 0.12743 0.12753 0.12755 0.12771 0.12773 0.12776 0.12771
0 0 0 0.1161 0.12077 0.12348 0.12582 0.12857 0.1316 0.13455 0.13457 0.13416 0.13365 0.13331 0.13282 0.1325 0.13205 0.13177 0.13169 0.13158 0.13159 0.13149 0.13141 0.13124 0.13105 0.13109 0.13106 0.13096 0.13076 0.13052 0.13028 0.13018 0.12999 0.12977 0.12948 0.12926 0.12906 0.12874 0.1284 0.12815 0.12799 0.12774 0.12751 0.12733 0.12714 0.12707 0.12697 0.1269 0.12675 0.12663 0.12651 0.1263 0.12614 0.12602 0.12585 0.12567 0.12543 0.12532 0.12518 0.12511 0.12491 0.12482 0.12479 0.12479 0.12493 0.12507 0.12522 0.12523 0.12528 0.12549 0.1256 0.12568 0.12577 0.12578 0.12566 0.12555 0.12541 0.12535 0.1253 0.12524 0.12511 0.12488 0.12486 0.12495 0.12491 0.12503 0.12513 0.1253 0.12538 0.1255 0.12556 0.12561 0.12577 0.12597 0.12626 0.12646 0.12668 0.1268 0.12694 0.12706 0.12703 0.12708 0.12723 0.12729 0.12733 0.1274 0.12746 0.12748 0.12755
0 0 0 0.10642 0.1143 0.12447 0.12924 0.13065 0.1321 0.13358 0.13352 0.13322 0.13306 0.13262 0.1321 0.13167 0.13158 0.13158 0.13157 0.13163 0.13163 0.13161 0.1314 0.1313 0.13117 0.1311 0.13092 0.13091 0.13072 0.13049 0.13036 0.13024 0.13003 0.12979 0.12955 0.12931 0.12904 0.12882 0.12861 0.12836 0.12823 0.12805 0.12789 0.12768 0.12743 0.12723 0.12714 0.12711 0.12711 0.12698 0.12687 0.1267 0.12656 0.12639 0.1262 0.12603 0.12584 0.12581 0.12568 0.12559 0.12546 0.1253 0.12519 0.12509 0.12509 0.12524 0.1253 0.12548 0.12561 0.12578 0.1258 0.1258 0.12582 0.12582 0.12575 0.12565 0.12551 0.12544 0.12537 0.1252 0.12504 0.12493 0.12496 0.12508 0.12519 0.1252 0.1252 0.1253 0.12532 0.12546 0.12555 0.12563 0.12567 0.12586 0.12607 0.12627 0.12641 0.12652 0.12673 0.12677 0.12682 0.12696 0.127 0.12706 0.12707 0.12707 0.12716 0.12717 0.12724
0 0 0 0.09194 0.10595 0.1196 0.13281 0.13275 0.13258 0.13272 0.1326 0.13248 0.13245 0.13215 0.13163 0.1313 0.13127 0.13139 0.13141 0.13158 0.13162 0.13164 0.13159 0.13142 0.1312 0.13111 0.13099 0.13103 0.13082 0.13059 0.13037 0.13024 0.13012 0.12996 0.12974 0.12945 0.12922 0.12904 0.12885 0.1286 0.12845 0.12829 0.12822 0.12794 0.12774 0.1276 0.12751 0.12736 0.12725 0.12722 0.12714 0.12701 0.12695 0.12687 0.12675 0.12654 0.12633 0.12621 0.12614 0.12615 0.12597 0.12593 0.12574 0.12559 0.12555 0.1255 0.12557 0.12557 0.1257 0.12585 0.12592 0.12591 0.12587 0.1258 0.12572 0.1257 0.12562 0.12554 0.12557 0.12548 0.12531 0.12511 0.12517 0.12523 0.12535 0.12542 0.12532 0.12523 0.12525 0.12537 0.1255 0.12557 0.12559 0.12555 0.12579 0.12595 0.12613 0.12624 0.12641 0.12652 0.12654 0.12666 0.12668 0.12675 0.12677 0.12682 0.12677 0.12692 0.12698
0 0 0 0.10786 0.117 0.126 0.13496 0.13449 0.13412 0.13371 0.13346 0.13288 0.13267 0.13214 0.1317 0.13142 0.13138 0.13142 0.13151 0.13156 0.13153 0.13152 0.13131 0.13107 0.13086 0.13078 0.13074 0.13065 0.13053 0.13038 0.13019 0.13005 0.12992 0.12978 0.12963 0.12949 0.12937 0.12921 0.12902 0.12876 0.12848 0.12834 0.12821 0.12811 0.12805 0.12801 0.12794 0.12782 0.12785 0.1278 0.12771 0.12752 0.12741 0.12742 0.12738 0.12717 0.12696 0.12687 0.12688 0.12687 0.12686 0.12672 0.12659 0.12651 0.12642 0.12624 0.12614 0.12611 0.12617 0.12619 0.12617 0.12618 0.12614 0.12611 0.12611 0.12611 0.12603 0.12603 0.12603 0.12596 0.1258 0.12563 0.12566 0.12572 0.12578 0.12583 0.12584 0.12586 0.12585 0.12588 0.12592 0.126 0.126 0.12591 0.12602 0.12621 0.12628 0.12635 0.12644 0.12644 0.12654 0.12666 0.12676 0.12676 0.12678 0.12676 0.12675 0.12685 0.12698
0.13545 0.13641 0.12937 0.12418 0.12886 0.13348 0.13792 0.13717 0.13622 0.13529 0.1343 0.13325 0.13269 0.13227 0.13187 0.13154 0.13152 0.13157 0.13156 0.13141 0.13131 0.13118 0.13096 0.13077 0.13059 0.13055 0.13051 0.1305 0.13038 0.13018 0.12999 0.12991 0.12979 0.12971 0.12964 0.12957 0.12939 0.12922 0.12908 0.12892 0.1287 0.12852 0.12838 0.12829 0.12822 0.12827 0.1282 0.12827 0.12828 0.12821 0.12819 0.12809 0.12797 0.12791 0.12794 0.12783 0.12768 0.12763 0.12764 0.12756 0.12748 0.12745 0.1274 0.12723 0.12713 0.12693 0.12675 0.12667 0.12669 0.12667 0.12665 0.1266 0.12659 0.12656 0.12654 0.12646 0.12643 0.12642 0.12644 0.12641 0.12633 0.12607 0.12611 0.12618 0.12624 0.12635 0.12639 0.12641 0.12636 0.12629 0.12638 0.12632 0.12632 0.12621 0.12619 0.12623 0.12624 0.12632 0.12634 0.1263 0.12637 0.12645 0.1266 0.12669 0.12678 0.12676 0.12682 0.12689 0.12708
0.13455 0.13635 0.13833 0.14013 0.14045 0.13991 0.13915 0.13774 0.13649 0.13583 0.13509 0.13364 0.13281 0.13245 0.13213 0.1318 0.13169 0.13151 0.13134 0.13109 0.13085 0.1308 0.13075 0.13061 0.13039 0.1303 0.13026 0.13032 0.13024 0.13005 0.12992 0.12989 0.12987 0.12981 0.12964 0.12946 0.1294 0.12931 0.12927 0.12916 0.12899 0.12877 0.12865 0.12858 0.12851 0.12851 0.12852 0.12861 0.12876 0.12867 0.12857 0.12848 0.12851 0.12846 0.12847 0.12853 0.12851 0.12843 0.12839 0.12826 0.12817 0.12808 0.12804 0.12787 0.12775 0.12758 0.12735 0.12724 0.12715 0.1272 0.12715 0.12713 0.12713 0.12703 0.12699 0.12699 0.12692 0.1269 0.12683 0.12678 0.12674 0.12665 0.12665 0.12667 0.12668 0.12683 0.12689 0.12688 0.1268 0.12673 0.12675 0.12665 0.12656 0.12645 0.12635 0.12623 0.12635 0.12638 0.12631 0.12637 0.12656 0.12662 0.12668 0.12658 0.12656 0.12664 0.1268 0.127 0.12714
0.13469 0.13621 0.13774 0.13964 0.13983 0.13945 0.13883 0.13763 0.13689 0.13617 0.1351 0.13431 0.13342 0.13285 0.13237 0.13186 0.13157 0.13132 0.13105 0.13083 0.13066 0.13068 0.13057 0.13035 0.13018 0.13017 0.13021 0.13024 0.13015 0.13 0.12993 0.12992 0.12985 0.12987 0.12982 0.1297 0.12965 0.12954 0.12949 0.12935 0.12924 0.12911 0.12895 0.12887 0.12875 0.12882 0.12889 0.12907 0.12915 0.12909 0.12906 0.12919 0.12921 0.1292 0.1292 0.12924 0.12926 0.12915 0.12904 0.12901 0.12891 0.12873 0.12862 0.1286 0.1284 0.12825 0.12806 0.12791 0.12779 0.12773 0.12773 0.12768 0.12766 0.12767 0.12766 0.12768 0.1276 0.12752 0.12742 0.12736 0.12733 0.1272 0.12734 0.12748 0.12751 0.12764 0.12778 0.12801 0.12793 0.12778 0.12773 0.12748 0.12724 0.12701 0.12696 0.12684 0.12677 0.12683 0.12685 0.1269 0.12713 0.12737 0.12749 0.12744 0.1272 0.1271 0.12721 0.12724 0.1273
0.1347 0.13593 0.13707 0.13823 0.1387 0.13871 0.13896 0.13809 0.13715 0.13636 0.13539 0.13461 0.13381 0.13308 0.13254 0.13189 0.13148 0.1313 0.13109 0.13087 0.13062 0.13044 0.13024 0.13013 0.13006 0.13013 0.13013 0.13015 0.13005 0.13001 0.12994 0.12999 0.13008 0.13014 0.13011 0.13005 0.12995 0.12989 0.12989 0.12984 0.12968 0.12947 0.12937 0.12926 0.1292 0.12931 0.12937 0.12941 0.12945 0.12951 0.12954 0.12968 0.12976 0.12975 0.12978 0.12997 0.12996 0.12991 0.12982 0.12976 0.12968 0.12951 0.12938 0.12927 0.12903 0.12888 0.12868 0.12852 0.12845 0.12832 0.12823 0.12827 0.1283 0.12828 0.12832 0.12825 0.12813 0.12801 0.12788 0.12783 0.12776 0.12774 0.12793 0.12808 0.12814 0.12851 0.12879 0.12903 0.12898 0.129 0.12895 0.12843 0.12789 0.12746 0.12739 0.12732 0.12723 0.12737 0.12757 0.12766 0.12787 0.1281 0.12824 0.12812 0.12795 0.12773 0.12766 0.12756 0.12743
0.13426 0.13519 0.1362 0.13736 0.13798 0.13861 0.1393 0.13838 0.13779 0.13725 0.13605 0.13512 0.13437 0.13348 0.13263 0.13176 0.13133 0.13109 0.13089 0.1307 0.13051 0.13034 0.13023 0.13007 0.13 0.13008 0.13011 0.13012 0.13009 0.13009 0.13015 0.13028 0.13044 0.13052 0.13047 0.13044 0.1304 0.13021 0.13023 0.1302 0.13009 0.13 0.12993 0.12978 0.1297 0.12993 0.13004 0.13013 0.13023 0.13022 0.13025 0.13037 0.13033 0.13035 0.13051 0.13062 0.13046 0.13049 0.13039 0.13021 0.13005 0.12993 0.12977 0.12964 0.12944 0.12927 0.12899 0.12894 0.12883 0.12869 0.12874 0.12874 0.1288 0.12871 0.12879 0.12875 0.12866 0.12855 0.1284 0.12833 0.12818 0.1282 0.12843 0.12864 0.12881 0.12899 0.12962 0.13027 0.12945 0.12933 0.12991 0.12929 0.12868 0.12794 0.12798 0.12792 0.12775 0.1279 0.12803 0.12821 0.12634 0.12705 0.12903 0.12818 0.12808 0.12858 0.12848 0.12827 0.12792
0.13508 0.13592 0.13674 0.13774 0.1382 0.13869 0.13896 0.13799 0.1375 0.1373 0.13617 0.13502 0.13438 0.13348 0.13262 0.13185 0.1314 0.13115 0.13106 0.13091 0.13075 0.13065 0.13056 0.1305 0.13038 0.1304 0.13053 0.13061 0.1307 0.13075 0.1308 0.13101 0.13113 0.1312 0.13117 0.1312 0.1311 0.13096 0.1309 0.13085 0.13079 0.13067 0.13059 0.13065 0.13069 0.13079 0.1309 0.13104 0.13115 0.13109 0.13105 0.13111 0.1311 0.13114 0.13122 0.1313 0.13113 0.1312 0.13116 0.13101 0.13092 0.13078 0.13068 0.13061 0.13036 0.13018 0.12995 0.12968 0.12941 0.12919 0.12912 0.12904 0.12904 0.129 0.12904 0.12897 0.12885 0.12869 0.12861 0.12863 0.12864 0.12871 0.12901 0.12939 0.12973 0.12928 0.1295 0.12953 0.12924 0.12904 0.12909 0.12862 0.12819 0.12783 0.12462 0.12133 0.11793 0.11815 0.11833 0.11851 0.12259 0.12414 0.12609 0.12722 0.12763 0.12812 0.12903 0.12918 0.1308
0.13548 0.1364 0.13682 0.13722 0.13771 0.13811 0.13852 0.13802 0.13727 0.13704 0.13629 0.1353 0.13442 0.13361 0.13272 0.13199 0.13158 0.13142 0.13128 0.13123 0.13112 0.13098 0.13096 0.13091 0.13084 0.13093 0.13098 0.13099 0.13117 0.13129 0.13151 0.13164 0.13182 0.13194 0.13191 0.13186 0.1317 0.1316 0.13161 0.13167 0.13166 0.13155 0.13144 0.13157 0.13164 0.13188 0.13184 0.13203 0.13221 0.13214 0.1321 0.13203 0.13202 0.13199 0.13194 0.13198 0.13188 0.13197 0.13186 0.13187 0.13189 0.13178 0.13176 0.13183 0.13149 0.13119 0.13093 0.1305 0.13011 0.12972 0.12958 0.12947 0.12928 0.12921 0.12925 0.12917 0.1291 0.12901 0.12887 0.12898 0.12905 0.12909 0.12964 0.13022 0.1307 0.1284 0.12775 0.1293 0 0 0.12826 0.12809 0.12788 0.12768 0.12112 0.11463 0.10796 0.10825 0.10845 0 0 0.1237 0.12198 0.12429 0.12694 0.1282 0.12957 0.13155 0.13344
