ncols        109
nrows        82
xllcorner    -1.041666666667
yllcorner    37.041665395101
cellsize     0.083333333333
NODATA_value -9999
0.0 0 0 0 0 0 0 0 0 0 0 0 0 0 0 0 0 0 0 0 0 0 0 0 0 0 0 0 0 0 0 0 0 0 0 0 0 0 0 0 0 0 0 0 0 0 0 0 0 0 0 0 0 0 0 0 0 0 0 0 0 0 0 0 0 0 0 0 0 0 0 0 0 0 0 0 0 0 0 0 0 0 0 0 0 0 0 0 0 0 0 0 0 0 0 0 0 0 0 0 0 0 0 0 0 0.13039 0.13066 0.13094 0.13117
0 0 0 0 0 0 0 0 0 0 0 0 0 0 0 0 0 0 0 0 0 0 0 0 0 0 0 0 0 0 0 0 0 0 0 0 0 0 0 0 0 0 0 0 0 0 0 0 0 0 0 0 0 0 0 0 0 0 0 0 0 0 0 0 0 0 0 0 0 0 0 0 0 0 0 0 0 0 0 0 0 0 0 0 0 0 0 0 0 0 0 0 0 0 0 0 0 0 0 0 0 0.12912 0.12931 0.1296 0.13004 0.13041 0.131 0.13144 0.13171
0 0 0 0 0 0 0 0 0 0 0 0 0 0 0 0 0 0 0 0 0 0 0 0 0 0 0 0 0 0 0 0 0 0 0 0 0 0 0 0 0 0 0 0 0 0 0 0 0 0 0 0 0 0 0 0 0 0 0 0 0 0 0 0 0 0 0 0 0 0 0 0 0 0 0 0 0 0 0 0 0 0 0 0 0 0 0 0 0 0 0 0 0 0 0 0 0 0 0.12776 0.12838 0.12889 0.12925 0.12948 0.1295 0.12971 0.12995 0.13067 0.13115 0.13139
0 0 0 0 0 0 0 0 0 0 0 0 0 0 0 0 0 0 0 0 0 0 0 0 0 0 0 0 0 0 0 0 0 0 0 0 0 0 0 0 0 0 0 0 0 0 0 0 0 0 0 0 0 0 0 0 0 0 0 0 0 0 0 0 0 0 0 0 0 0 0 0 0 0 0 0 0 0 0 0 0 0 0 0 0 0 0 0 0 0 0 0 0 0 0 0 0 0.12638 0.12749 0.12812 0.12872 0.12942 0.12979 0.12962 0.12942 0.1297 0.12995 0.1301 0.13023
0 0 0 0 0 0 0 0 0 0 0 0 0 0 0 0 0 0 0 0 0 0 0 0 0 0 0 0 0 0 0 0 0 0 0 0 0 0 0 0 0 0 0 0 0 0 0 0 0 0 0 0 0 0 0 0 0 0 0.10146 0.09841 0.09628 0.09804 0 0 0 0 0 0 0 0 0 0 0 0 0 0 0 0 0 0 0 0 0 0 0 0 0 0 0 0 0 0 0 0 0 0.12534 0.12493 0.12592 0.12681 0.12776 0.12881 0.12954 0.13021 0.12984 0.12941 0.129 0.12902 0.12908 0.12904
0 0 0 0 0 0 0 0 0 0 0 0 0 0 0 0 0 0 0 0 0 0 0 0 0 0 0 0 0 0 0 0 0 0 0 0 0 0 0 0 0 0 0 0 0 0 0 0 0 0 0 0 0 0 0 0 0.10523 0.10421 0.1038 0.10266 0.10059 0.10216 0.1033 0.10403 0.10038 0.09641 0.09165 0 0 0 0 0.10992 0 0 0 0 0 0 0 0 0 0 0 0 0 0 0 0 0 0 0 0 0 0.1259 0.12593 0.12571 0.12524 0.12602 0.12671 0.12745 0.12809 0.12877 0.12914 0.12881 0.12837 0.12795 0.12776 0.12765 0.1276
0 0 0 0 0 0 0 0 0 0 0 0 0 0 0 0 0 0 0 0 0 0 0 0 0 0 0 0 0 0 0 0 0 0 0 0 0 0 0 0 0 0 0 0 0 0 0 0 0 0 0 0 0 0 0 0.10528 0.10536 0.1055 0.10604 0.10603 0.10374 0.10499 0.10591 0.10627 0.10596 0.105 0.10355 0.11134 0.11157 0.11147 0.11234 0.11173 0.1107 0.10802 0.10232 0.09849 0.09964 0 0 0 0 0 0 0 0 0 0 0 0 0 0 0 0.12506 0.12459 0.12583 0.12595 0.1254 0.12596 0.12675 0.12741 0.12765 0.12776 0.1277 0.12725 0.12684 0.12657 0.12656 0.12638 0.1262
0 0 0 0 0 0 0 0 0 0 0 0 0 0 0 0 0 0 0 0 0 0 0 0 0 0 0 0 0 0 0 0 0 0 0 0 0 0 0 0 0 0 0 0 0 0 0 0 0 0 0 0.10283 0.10414 0.10457 0.10505 0.10571 0.10497 0.10476 0.10548 0.10557 0.10518 0.10548 0.10562 0.10529 0.10894 0.1123 0.11427 0.11313 0.11136 0.10883 0.10995 0.11066 0.11058 0.10366 0.09631 0.08875 0 0 0 0 0 0 0 0 0 0 0 0 0 0 0 0 0.12412 0.12468 0.12522 0.12565 0.12572 0.12607 0.12634 0.12674 0.12697 0.12665 0.12617 0.1259 0.12587 0.1256 0.12537 0.12518 0.12488
0 0 0 0 0 0 0 0 0 0 0 0 0 0 0 0 0 0 0 0 0 0 0 0 0 0 0 0 0 0 0 0 0 0 0 0 0 0 0 0 0 0 0 0 0 0 0 0 0 0 0.09997 0.10185 0.1025 0.10337 0.10408 0.10474 0.10548 0.10421 0.10472 0.10456 0.10379 0.10578 0.10755 0.10912 0.11445 0.11977 0.12403 0.12306 0.12141 0.11905 0.11879 0.11812 0.1166 0.11167 0.10613 0.10024 0.10179 0.10319 0.10385 0.10776 0.1114 0.11442 0 0 0 0 0 0 0 0.11607 0.11973 0.12213 0.12359 0.1256 0.12589 0.12615 0.12628 0.12618 0.12607 0.12632 0.12597 0.1255 0.12555 0.12534 0.12514 0.1249 0.1247 0.12446 0.12419
0 0 0 0 0 0 0 0 0 0 0 0 0 0 0 0 0 0 0 0 0 0 0 0 0 0 0 0 0 0 0 0 0 0 0 0 0 0 0 0 0 0 0 0 0 0 0 0 0 0.10087 0.09899 0.09816 0.10024 0.10182 0.10201 0.10326 0.1042 0.10309 0.10292 0.1029 0.10208 0.10593 0.10956 0.11264 0.12013 0.12738 0.13363 0.13258 0.13088 0.12872 0.12672 0.12468 0.12198 0.11878 0.11491 0.11115 0.11216 0.11281 0.11328 0.11819 0.11838 0.11981 0 0.12122 0.12108 0.11485 0.10315 0.09618 0.10318 0.11501 0.1209 0.12266 0.12389 0.12592 0.12623 0.1261 0.126 0.12572 0.12552 0.12502 0.12485 0.12465 0.12446 0.12433 0.12409 0.12384 0.12379 0.12364 0.12352
0 0 0 0 0 0 0 0 0 0 0 0 0 0 0 0 0 0 0 0 0 0 0 0 0 0 0 0 0 0 0 0 0 0 0 0 0 0 0 0 0 0 0 0 0 0 0 0 0 0.10032 0.09616 0.09259 0.09574 0.09794 0.09847 0.09949 0.10031 0.10075 0.10067 0.10044 0.09967 0.10534 0.1105 0.11556 0.12497 0.13347 0.14178 0.14085 0.13924 0.13749 0.13382 0.13033 0.12654 0.12519 0.12304 0.1214 0.12182 0.1222 0.12248 0.12281 0.12306 0.1233 0.12497 0.12655 0.12824 0.11121 0.09388 0.07533 0.09251 0.10909 0.12521 0.12569 0.12592 0.12598 0.12608 0.12592 0.12588 0.12498 0.12451 0.12418 0.12386 0.12353 0.12307 0.12302 0.12266 0.12247 0.1226 0.12265 0.12271
0 0 0 0 0 0 0 0 0 0 0 0 0 0 0 0 0 0 0 0 0 0 0 0 0 0 0 0 0 0 0 0 0 0 0 0 0 0 0 0 0 0 0 0 0 0 0 0 0 0.10245 0.10074 0.09639 0.09977 0.10266 0.10438 0.10625 0.10802 0.10897 0.10885 0.10846 0.10799 0.11195 0.11551 0.11918 0.12581 0.13155 0.13709 0.13659 0.13541 0.13389 0.13153 0.12911 0.12624 0.12492 0.12355 0.12186 0.12236 0.12287 0.12315 0.12354 0.12363 0.12365 0.12478 0.12621 0.12764 0.11635 0.1046 0.09267 0.10382 0.11499 0.12569 0.12583 0.1258 0.1258 0.12559 0.12536 0.12485 0.1243 0.12385 0.12325 0.12311 0.12273 0.12219 0.12203 0.12206 0.12204 0.12209 0.12226 0.1223
0 0 0 0 0 0 0 0 0 0 0 0 0 0 0 0 0 0 0 0 0 0 0 0 0 0 0 0 0 0 0 0 0 0 0 0 0 0 0 0 0 0 0 0 0 0 0 0 0 0.10487 0.10396 0.09867 0.10321 0.1068 0.10976 0.11235 0.11453 0.11591 0.11599 0.1156 0.11536 0.11759 0.11983 0.122 0.12555 0.12891 0.13208 0.13193 0.13114 0.13062 0.12902 0.12714 0.12523 0.1246 0.12394 0.12286 0.12297 0.12316 0.12358 0.12386 0.12392 0.12384 0.12457 0.12558 0.12684 0.12124 0.11539 0.10942 0.11506 0.12048 0.12579 0.12565 0.12547 0.12527 0.12506 0.12453 0.12386 0.12321 0.12276 0.12246 0.12215 0.1219 0.12151 0.12152 0.12155 0.12153 0.12156 0.12169 0.12186
0 0 0 0 0 0 0 0 0 0 0 0 0 0 0 0 0 0 0 0 0 0 0 0 0 0 0 0 0 0 0 0 0 0 0 0 0 0 0 0 0 0 0 0 0 0 0 0 0 0.10594 0.10295 0.09999 0.10555 0.11237 0.11418 0.11797 0.11965 0.12164 0.12217 0.12179 0.12154 0.12246 0.12335 0.12399 0.12489 0.12571 0.1264 0.1266 0.12712 0.12652 0.12589 0.12513 0.12428 0.12409 0.12375 0.12309 0.12299 0.12314 0.1233 0.12358 0.12364 0.12334 0.12355 0.12442 0.12535 0.12563 0.12571 0.12579 0.12582 0.12571 0.12549 0.12523 0.12498 0.1246 0.12421 0.12339 0.12266 0.1221 0.12169 0.12093 0.12102 0.12102 0.12088 0.1209 0.12098 0.12106 0.12128 0.12135 0.12144
0 0 0 0 0 0 0 0 0 0 0 0 0 0 0 0 0 0 0 0 0 0 0 0 0 0 0 0 0 0 0 0 0 0 0 0 0 0 0 0 0 0 0 0 0 0 0 0 0 0.10861 0.10693 0.10666 0.11023 0.11402 0.11791 0.11974 0.1206 0.12129 0.12144 0.12126 0.12111 0.12223 0.12312 0.12361 0.12444 0.12499 0.12549 0.12608 0.12622 0.12569 0.12516 0.12463 0.12388 0.12379 0.1233 0.12274 0.12286 0.12297 0.12299 0.12306 0.12274 0.12275 0.12298 0.12332 0.12389 0.12426 0.12446 0.12464 0.12455 0.12433 0.12402 0.12381 0.12342 0.12315 0.12285 0.12223 0.12165 0.12133 0.121 0.12051 0.12049 0.12059 0.12055 0.12072 0.12084 0.12095 0.12108 0.1213 0.12131
0 0 0 0 0 0 0 0 0 0 0 0 0 0 0 0 0 0 0 0 0 0 0 0 0 0 0 0 0 0 0 0 0 0 0 0 0 0 0 0 0 0 0 0 0 0 0 0 0 0.10963 0.11336 0.11435 0.11652 0.11902 0.12104 0.12141 0.12135 0.12066 0.12073 0.12078 0.1208 0.12182 0.12258 0.12308 0.12363 0.12404 0.12479 0.12512 0.12502 0.12469 0.12442 0.12406 0.12336 0.12322 0.12266 0.12207 0.12191 0.12193 0.1219 0.12186 0.12159 0.12171 0.1219 0.12204 0.12215 0.12233 0.12252 0.12261 0.12244 0.12226 0.12215 0.12205 0.1218 0.12155 0.12133 0.12096 0.1206 0.12038 0.12021 0.12 0.12023 0.12021 0.12021 0.12042 0.12061 0.12076 0.12092 0.1212 0.12134
0 0 0 0 0 0 0 0 0 0 0 0 0 0 0 0 0 0 0 0 0 0 0 0 0 0 0 0 0 0 0 0 0 0 0 0 0 0 0 0 0 0 0 0 0 0 0 0 0 0 0.11775 0.11889 0.12051 0.12285 0.124 0.1236 0.12182 0.12019 0.12009 0.1203 0.12021 0.12148 0.12233 0.1229 0.12313 0.12366 0.12402 0.12407 0.12408 0.12379 0.12359 0.12326 0.12283 0.12253 0.12194 0.12127 0.121 0.12079 0.12065 0.12045 0.12051 0.12037 0.12042 0.12039 0.12029 0.12035 0.12037 0.12036 0.12034 0.12031 0.12022 0.12014 0.12006 0.11991 0.11976 0.11968 0.11962 0.11965 0.1196 0.11955 0.11973 0.11985 0.11994 0.12012 0.12028 0.12045 0.12058 0.12084 0.12113
0 0 0 0 0 0 0 0 0 0 0 0 0 0 0 0 0 0 0 0 0 0 0 0 0 0 0 0 0 0 0 0 0 0 0 0 0 0 0 0 0 0 0 0 0 0 0 0 0 0 0.12085 0.12129 0.12201 0.12293 0.12422 0.12362 0.12205 0.12008 0.12034 0.12071 0.12076 0.12205 0.12279 0.12318 0.12345 0.12384 0.12401 0.12401 0.12396 0.12389 0.12357 0.12315 0.12266 0.12246 0.12201 0.12152 0.12119 0.12096 0.12073 0.12057 0.12053 0.12044 0.12033 0.12028 0.1203 0.12027 0.12023 0.12011 0.12009 0.12012 0.12 0.11991 0.11972 0.11972 0.11958 0.11954 0.11955 0.11958 0.11953 0.11946 0.11963 0.11973 0.11978 0.11989 0.12003 0.12028 0.1205 0.12069 0.12088
0 0 0 0 0 0 0 0 0 0 0 0 0 0 0 0 0 0 0 0 0 0 0 0 0 0 0 0 0 0 0 0 0 0 0 0 0 0 0 0 0 0 0 0 0 0 0 0 0 0 0 0 0.12208 0.12281 0.12395 0.12295 0.12182 0.12049 0.12085 0.12086 0.12088 0.12208 0.12311 0.12359 0.12393 0.12405 0.12408 0.12404 0.12381 0.12348 0.12326 0.12298 0.12259 0.12231 0.12192 0.1216 0.12142 0.12118 0.12085 0.12064 0.12042 0.12026 0.12021 0.1201 0.12001 0.11979 0.11978 0.11977 0.11975 0.11964 0.11957 0.11955 0.11938 0.11937 0.11935 0.11938 0.11935 0.11939 0.11934 0.11925 0.11934 0.11947 0.11955 0.11979 0.11994 0.12017 0.12044 0.12062 0.1209
0 0 0 0 0 0 0 0 0 0 0 0 0 0 0 0 0 0 0 0 0 0 0 0 0 0 0 0 0 0 0 0 0 0 0 0 0 0 0 0 0 0 0 0 0 0 0 0 0 0 0.12236 0.12161 0.12228 0.12276 0.12298 0.12227 0.12162 0.12037 0.12059 0.12085 0.1209 0.12194 0.12296 0.1234 0.12329 0.12346 0.12367 0.1234 0.1231 0.12274 0.12245 0.12216 0.12187 0.1217 0.12143 0.12108 0.12093 0.12059 0.12031 0.12023 0.12022 0.12014 0.11997 0.1198 0.11957 0.11948 0.11939 0.11939 0.11929 0.11918 0.11908 0.11896 0.11892 0.1189 0.11893 0.11899 0.11891 0.11902 0.11895 0.11894 0.11914 0.11921 0.11939 0.11954 0.11983 0.12013 0.12048 0.1206 0.12088
0 0 0 0 0 0 0 0 0 0 0 0 0 0 0 0 0 0 0 0 0 0 0 0 0 0 0 0 0 0 0 0 0 0 0 0 0 0 0 0 0 0 0 0 0 0 0 0 0 0 0.12407 0.12312 0.12333 0.12359 0.12322 0.1222 0.12152 0.12059 0.12085 0.12103 0.12124 0.12198 0.12284 0.12313 0.12315 0.12305 0.12327 0.12305 0.12278 0.12249 0.12236 0.1221 0.12175 0.12166 0.12135 0.12092 0.12083 0.12052 0.12036 0.12036 0.12024 0.12017 0.12011 0.11999 0.11987 0.11977 0.11964 0.11962 0.11963 0.11951 0.11939 0.11921 0.11925 0.11917 0.11914 0.11918 0.11916 0.11914 0.11901 0.11891 0.1192 0.11923 0.11933 0.11964 0.11989 0.12008 0.12042 0.12067 0.1209
0 0 0 0 0 0 0 0 0 0 0 0 0 0 0 0 0 0 0 0 0 0 0 0 0 0 0 0 0 0 0 0 0 0 0 0 0 0 0 0 0 0 0 0 0 0 0 0 0 0 0 0.12495 0.12498 0.12427 0.12356 0.12282 0.12186 0.12108 0.12099 0.1212 0.12119 0.12209 0.12282 0.12306 0.12294 0.12293 0.12284 0.12273 0.1226 0.1222 0.12202 0.12187 0.12169 0.12151 0.12117 0.12084 0.12084 0.12068 0.12048 0.12045 0.12035 0.1203 0.1203 0.12019 0.12004 0.11993 0.11989 0.11983 0.11975 0.11961 0.11949 0.1194 0.11951 0.11941 0.11934 0.11934 0.11924 0.11914 0.11907 0.11895 0.11922 0.1194 0.11952 0.11974 0.11998 0.12016 0.1204 0.12068 0.121
0 0 0 0 0 0 0 0 0 0 0 0 0 0 0 0 0 0 0 0 0 0 0 0 0 0 0 0 0 0 0 0 0 0 0 0 0 0 0 0 0 0 0 0 0 0 0 0 0 0 0 0.12636 0.12572 0.12505 0.12426 0.12369 0.12214 0.12116 0.12127 0.12151 0.12163 0.12233 0.12273 0.12281 0.12282 0.12267 0.12252 0.12237 0.12198 0.12183 0.12163 0.12154 0.12127 0.12115 0.12083 0.12057 0.12062 0.12061 0.12054 0.12043 0.12032 0.12022 0.12023 0.12017 0.12015 0.12016 0.1201 0.11999 0.11989 0.11976 0.11969 0.11961 0.11968 0.11966 0.11964 0.11947 0.11928 0.11926 0.1192 0.1193 0.11949 0.1196 0.11966 0.11985 0.12006 0.12018 0.12037 0.1206 0.12088
0 0 0 0 0 0 0 0 0 0 0 0 0 0 0 0 0 0 0 0 0 0 0 0 0 0 0 0 0 0 0 0 0 0 0 0 0 0 0 0 0 0 0 0 0 0 0 0 0 0 0 0.1276 0.12661 0.12588 0.1248 0.12386 0.12257 0.1217 0.12185 0.12201 0.12227 0.12255 0.12286 0.12302 0.12294 0.12274 0.12241 0.12221 0.12205 0.12203 0.12181 0.12162 0.12136 0.12127 0.121 0.12082 0.12089 0.12091 0.12085 0.12075 0.12064 0.12053 0.1205 0.12051 0.12043 0.12049 0.12039 0.12026 0.12017 0.11995 0.11987 0.11991 0.11983 0.11978 0.11979 0.1197 0.11976 0.11975 0.1197 0.1196 0.11978 0.11987 0.11988 0.12011 0.12024 0.12029 0.12053 0.12074 0.12097
0 0 0 0 0 0 0 0 0 0 0 0 0 0 0 0 0 0 0 0 0 0 0 0 0 0 0 0 0 0 0 0 0 0 0 0 0 0 0 0 0 0 0 0 0 0 0 0 0 0.12471 0.12628 0.12809 0.12742 0.12638 0.12483 0.12408 0.12308 0.12243 0.12243 0.12251 0.12248 0.12274 0.12313 0.12312 0.12292 0.12275 0.12245 0.1221 0.12213 0.12208 0.12198 0.12177 0.1216 0.1214 0.12118 0.12105 0.12109 0.12109 0.12111 0.12114 0.12099 0.12085 0.12078 0.12077 0.12069 0.12074 0.12064 0.12036 0.12037 0.12023 0.12024 0.12011 0.12007 0.11985 0.11987 0.11991 0.11993 0.12003 0.11994 0.11982 0.11998 0.11999 0.12004 0.12027 0.12033 0.12036 0.1206 0.12083 0.12109
0 0 0 0 0 0 0 0 0 0 0 0 0 0 0 0 0 0 0 0 0 0 0 0 0 0 0 0 0 0 0 0 0 0 0 0 0 0 0 0 0 0 0 0 0 0 0 0 0.12038 0.12298 0.12572 0.12837 0.12753 0.12626 0.12464 0.12382 0.12309 0.12246 0.12242 0.12249 0.12257 0.1229 0.12306 0.12296 0.1228 0.12248 0.12233 0.12207 0.12218 0.12214 0.12212 0.12186 0.12169 0.12152 0.12134 0.12122 0.12124 0.1212 0.12117 0.12115 0.12115 0.12115 0.12113 0.121 0.12091 0.12087 0.12081 0.12056 0.12043 0.12046 0.12043 0.12035 0.12021 0.11998 0.12017 0.12014 0.12015 0.12009 0.12006 0.11999 0.12007 0.12014 0.12018 0.12039 0.12044 0.12049 0.12076 0.121 0.12122
0 0 0 0 0 0 0 0 0 0 0 0 0 0 0 0 0 0 0 0 0 0 0 0 0 0 0 0 0 0 0 0 0 0 0 0 0 0 0 0 0 0 0 0 0 0.12927 0.12699 0.12555 0.12343 0.12503 0.12641 0.12785 0.12727 0.12593 0.12474 0.12404 0.12336 0.12272 0.12276 0.12272 0.12282 0.12303 0.12308 0.123 0.12298 0.12274 0.12268 0.1225 0.12229 0.12225 0.12223 0.12216 0.12189 0.12178 0.12166 0.12161 0.12162 0.1216 0.12138 0.12147 0.12148 0.12135 0.12146 0.12124 0.12106 0.12107 0.12104 0.12083 0.12067 0.12056 0.12063 0.12055 0.12037 0.1203 0.1204 0.12038 0.12038 0.12024 0.12023 0.12016 0.12038 0.12039 0.1204 0.12059 0.12063 0.12071 0.121 0.12132 0.12157
0 0 0 0 0 0 0 0 0 0 0 0 0 0 0 0 0 0 0 0 0 0 0 0 0 0 0 0 0 0 0 0 0 0 0 0 0 0 0 0 0 0 0.12897 0.12979 0.13067 0.13011 0.12931 0.12864 0.12667 0.12684 0.12763 0.12764 0.12678 0.12559 0.12458 0.1243 0.1236 0.12288 0.12291 0.12279 0.12286 0.12291 0.12297 0.12291 0.12278 0.12264 0.12261 0.12254 0.12235 0.12223 0.12238 0.12232 0.12225 0.12216 0.12203 0.12196 0.12191 0.12183 0.12167 0.12171 0.12168 0.12147 0.12148 0.12135 0.12114 0.12108 0.12111 0.12086 0.12081 0.12069 0.12062 0.1207 0.12053 0.12046 0.12048 0.12053 0.12048 0.12045 0.1204 0.12036 0.12056 0.12064 0.12066 0.12078 0.12091 0.12101 0.12133 0.12174 0.12201
0 0 0 0 0 0 0 0 0 0 0 0 0 0 0 0 0 0 0 0 0 0 0 0 0 0 0 0 0 0 0 0 0 0 0 0 0 0 0 0 0.13012 0.12881 0.12922 0.13016 0.13181 0.13236 0.13137 0.13078 0.13004 0.12871 0.12789 0.12682 0.12625 0.12547 0.12473 0.12436 0.1239 0.12313 0.12324 0.12329 0.12277 0.12252 0.12278 0.12269 0.12265 0.12261 0.12258 0.1224 0.12233 0.12233 0.12244 0.12254 0.12249 0.12256 0.12238 0.12228 0.12214 0.12205 0.12192 0.12195 0.12182 0.12162 0.12158 0.12142 0.12119 0.12115 0.12115 0.12088 0.12086 0.12076 0.12063 0.12073 0.12071 0.12062 0.1206 0.12063 0.12057 0.12061 0.12064 0.1206 0.12085 0.12087 0.12095 0.12106 0.12117 0.12125 0.12167 0.12204 0.12234
0 0 0 0 0 0 0 0 0 0 0 0 0 0 0 0 0 0 0 0 0 0 0 0 0 0 0 0 0 0 0 0 0 0 0 0 0 0 0 0.13122 0.13112 0.12934 0.12971 0.12972 0.13097 0.13138 0.13044 0.12938 0.12849 0.12768 0.12728 0.12656 0.12622 0.12549 0.12493 0.12464 0.12423 0.12341 0.1237 0.12344 0.1231 0.12303 0.12276 0.12272 0.12274 0.12265 0.12253 0.12253 0.12245 0.12238 0.12253 0.12259 0.12271 0.12263 0.12258 0.12251 0.12234 0.12227 0.12211 0.12214 0.12203 0.12183 0.12166 0.12142 0.12129 0.1213 0.12137 0.12103 0.12103 0.12088 0.121 0.12106 0.12097 0.12084 0.12094 0.12094 0.1208 0.12087 0.12095 0.12091 0.12117 0.12116 0.12125 0.1214 0.12162 0.12175 0.12213 0.12241 0.12268
0 0 0 0 0 0 0 0 0 0 0 0 0 0 0 0 0 0 0 0 0 0 0 0 0 0 0 0 0 0 0 0 0 0 0 0 0 0 0.13272 0.13417 0.13267 0.13019 0.12989 0.12986 0.12997 0.12984 0.12908 0.12851 0.12795 0.12712 0.12642 0.12605 0.12575 0.12559 0.12507 0.12466 0.12461 0.1241 0.12407 0.12382 0.12365 0.12333 0.12293 0.12301 0.12289 0.12283 0.12269 0.12266 0.12272 0.12266 0.12268 0.12281 0.12276 0.12285 0.12282 0.12271 0.1227 0.12256 0.12236 0.1222 0.12208 0.12202 0.12185 0.12168 0.12155 0.12155 0.12156 0.12114 0.1211 0.12112 0.12105 0.12123 0.12115 0.12103 0.12114 0.12115 0.121 0.12118 0.12118 0.12119 0.12134 0.12143 0.12161 0.12179 0.12201 0.12226 0.12256 0.12274 0.12293
0 0 0 0 0 0 0 0 0 0 0 0 0 0 0 0 0 0 0 0 0 0 0 0 0 0 0 0 0 0 0 0 0 0 0.13288 0.12465 0.11747 0.12438 0.1319 0.13965 0.13656 0.13286 0.13133 0.13034 0.12958 0.12874 0.12803 0.12717 0.12637 0.12591 0.1256 0.12561 0.12558 0.12567 0.12508 0.12471 0.12453 0.12435 0.12429 0.12407 0.12389 0.12343 0.12331 0.12316 0.12316 0.12304 0.12286 0.12289 0.12294 0.12287 0.12295 0.12301 0.1229 0.12284 0.1228 0.12274 0.12271 0.12269 0.12255 0.12228 0.12215 0.12215 0.12211 0.12196 0.12176 0.12173 0.12171 0.12138 0.12126 0.12138 0.12132 0.1214 0.12135 0.1212 0.12126 0.12137 0.12135 0.12144 0.12144 0.12144 0.12163 0.12184 0.12188 0.12218 0.12244 0.12272 0.12289 0.12304 0.12315
0 0 0 0 0 0 0 0 0 0 0 0 0 0 0 0 0 0 0 0 0 0 0 0 0 0 0 0 0 0.15178 0.15047 0.14924 0.14619 0.14342 0.13923 0.13261 0.12604 0.12972 0.13386 0.13835 0.13641 0.13312 0.13084 0.12984 0.1289 0.12822 0.12746 0.12688 0.12623 0.12591 0.12552 0.12562 0.12562 0.12538 0.12524 0.12493 0.12477 0.12457 0.12442 0.1242 0.12418 0.124 0.12378 0.12371 0.12363 0.12349 0.12338 0.12335 0.12335 0.12331 0.1233 0.12318 0.12296 0.123 0.12296 0.12285 0.1227 0.12268 0.1226 0.12243 0.12232 0.12229 0.12228 0.12212 0.12201 0.12202 0.1219 0.12172 0.12171 0.12173 0.12164 0.12169 0.12165 0.12152 0.12157 0.12161 0.12162 0.12173 0.12173 0.12168 0.12195 0.12219 0.1223 0.12257 0.1228 0.12308 0.12323 0.12335 0.12347
0 0 0 0 0 0 0 0 0 0 0 0 0 0 0 0 0 0 0 0 0 0 0 0 0 0.15277 0.15551 0.15579 0.15593 0.15524 0.15503 0.15189 0.14895 0.1476 0.14513 0.1417 0.13431 0.1346 0.1353 0.13672 0.13541 0.13307 0.13069 0.129 0.12837 0.12747 0.12698 0.12645 0.12612 0.1259 0.12548 0.12544 0.12539 0.12544 0.12554 0.12545 0.12517 0.12474 0.12474 0.12467 0.12457 0.12432 0.12416 0.12417 0.12406 0.12393 0.12377 0.12378 0.12361 0.12362 0.12348 0.12342 0.12317 0.1232 0.12304 0.12288 0.12273 0.12281 0.1229 0.12271 0.12252 0.12241 0.1224 0.12233 0.1223 0.12214 0.12224 0.12209 0.12206 0.12195 0.12191 0.12189 0.12187 0.12191 0.122 0.12196 0.12193 0.1219 0.12195 0.12193 0.1222 0.12247 0.12265 0.12293 0.12317 0.1234 0.12356 0.12371 0.12382
0 0 0 0 0 0 0 0 0 0 0 0 0 0 0 0 0 0 0 0 0 0 0 0.14778 0.15047 0.15371 0.15754 0.15894 0.16013 0.15852 0.1601 0.155 0.15172 0.15016 0.14951 0.14696 0.14317 0.13982 0.13646 0.1353 0.13413 0.1324 0.12941 0.12783 0.12748 0.12689 0.12652 0.12622 0.12582 0.12582 0.12537 0.12524 0.12538 0.12546 0.12561 0.12541 0.12542 0.12507 0.1251 0.12501 0.12486 0.12468 0.12472 0.12448 0.12439 0.12435 0.12412 0.12412 0.1239 0.12382 0.12366 0.12347 0.12334 0.12332 0.12303 0.1229 0.12289 0.12306 0.12324 0.12299 0.12282 0.12264 0.12252 0.12244 0.12237 0.12234 0.12228 0.12218 0.12228 0.1222 0.12214 0.12211 0.12215 0.1222 0.12225 0.1222 0.1221 0.1222 0.12211 0.12211 0.1224 0.12269 0.12298 0.12332 0.12353 0.12371 0.1239 0.12407 0.12419
0 0 0 0 0 0 0 0 0 0 0 0 0 0 0 0 0 0 0 0 0 0 0.1454 0.14695 0.14838 0.15115 0.15684 0.15979 0.15819 0.15833 0.15832 0.1542 0.14984 0.14678 0.14527 0.1433 0.14033 0.13783 0.13474 0.13334 0.13253 0.13138 0.12994 0.12824 0.12726 0.12642 0.12632 0.12599 0.1255 0.12544 0.12502 0.1251 0.1253 0.12546 0.12533 0.12532 0.12533 0.12541 0.12528 0.12516 0.12516 0.12521 0.12514 0.125 0.12489 0.12488 0.12461 0.12452 0.12431 0.12409 0.1239 0.1236 0.12336 0.12324 0.12308 0.12294 0.12299 0.12305 0.12297 0.12301 0.12274 0.12262 0.12271 0.12253 0.12251 0.12254 0.12249 0.12252 0.12256 0.12254 0.12248 0.1225 0.12261 0.12247 0.12253 0.12241 0.1223 0.12235 0.12234 0.12244 0.12278 0.12313 0.12329 0.12365 0.12382 0.12397 0.12422 0.12435 0.12452
0 0 0 0 0 0 0 0 0 0 0 0 0 0 0 0 0 0 0 0 0 0.14349 0.14444 0.1453 0.14582 0.14814 0.15246 0.15912 0.15708 0.15549 0.15551 0.1507 0.14562 0.14131 0.13951 0.13923 0.13662 0.1342 0.13261 0.13124 0.13058 0.12983 0.12849 0.12721 0.12635 0.12598 0.12593 0.12556 0.12526 0.12518 0.12497 0.12495 0.12517 0.12538 0.12547 0.12535 0.12544 0.12556 0.12549 0.12532 0.12534 0.12557 0.12541 0.12526 0.12527 0.12508 0.12493 0.12475 0.12449 0.12438 0.12425 0.12383 0.12346 0.12322 0.12317 0.12298 0.12304 0.12295 0.12277 0.1227 0.12262 0.12258 0.12259 0.12262 0.12266 0.12269 0.12271 0.12276 0.12279 0.12288 0.12286 0.12287 0.12283 0.12279 0.12268 0.12255 0.12249 0.12249 0.12255 0.12277 0.12312 0.12335 0.12361 0.12389 0.12409 0.12432 0.12448 0.12471 0.12484
0 0 0 0 0 0 0 0 0 0 0 0 0 0 0 0 0 0 0 0 0 0 0 0.14492 0.14341 0.14768 0.1528 0.16082 0.15703 0.15435 0.15396 0.14692 0.14189 0.13838 0.13657 0.13652 0.1349 0.1326 0.13093 0.12934 0.12885 0.12822 0.12738 0.12622 0.12588 0.12588 0.12563 0.12552 0.12522 0.1252 0.12484 0.12474 0.12491 0.12531 0.12544 0.12545 0.12547 0.12559 0.12584 0.12573 0.12578 0.12566 0.12562 0.12548 0.12543 0.12523 0.12498 0.12492 0.12474 0.12459 0.1244 0.12402 0.12369 0.12344 0.12325 0.123 0.12296 0.12286 0.12267 0.12256 0.12253 0.12254 0.12264 0.12273 0.12281 0.12292 0.12299 0.12302 0.12304 0.12316 0.12322 0.12311 0.12298 0.12296 0.12282 0.12271 0.1226 0.12273 0.12294 0.12312 0.12336 0.12364 0.12392 0.12425 0.12447 0.12463 0.1248 0.12494 0.1251
0 0 0 0 0 0 0 0 0 0 0 0 0 0 0 0 0 0 0 0 0 0.14092 0.14252 0.14485 0.14412 0.14748 0.15214 0.16146 0.1567 0.15298 0.15108 0.14549 0.14019 0.13695 0.13596 0.13522 0.13319 0.13096 0.12961 0.12843 0.12785 0.12716 0.12643 0.12581 0.12534 0.1253 0.12528 0.12517 0.12521 0.1249 0.12466 0.12458 0.12476 0.12504 0.1253 0.12542 0.12575 0.12593 0.12601 0.12602 0.12594 0.1258 0.12565 0.12568 0.1256 0.12556 0.12539 0.12526 0.12498 0.12481 0.1246 0.12436 0.12401 0.12382 0.12365 0.12339 0.12333 0.12322 0.12297 0.12289 0.12283 0.12282 0.12287 0.12294 0.12308 0.12317 0.12328 0.12328 0.12335 0.12341 0.12338 0.12329 0.12319 0.12317 0.12307 0.12292 0.12284 0.12308 0.12325 0.12338 0.12361 0.12383 0.12404 0.12435 0.12451 0.12465 0.12493 0.12517 0.12537
0 0 0 0 0 0 0 0 0 0 0 0 0 0 0 0 0 0 0 0.13647 0.13785 0.13836 0.14161 0.14607 0.14604 0.14769 0.1532 0.16197 0.15651 0.15188 0.1489 0.14393 0.13832 0.13518 0.13448 0.13338 0.13169 0.12965 0.12832 0.12749 0.12698 0.12652 0.12604 0.12542 0.12485 0.12472 0.12473 0.12467 0.12475 0.12459 0.12441 0.12447 0.12467 0.1249 0.12521 0.12539 0.12554 0.12574 0.12574 0.12579 0.12585 0.126 0.12597 0.126 0.12587 0.12578 0.12563 0.12547 0.12525 0.12507 0.1249 0.12461 0.12435 0.12416 0.124 0.12367 0.12361 0.12348 0.12328 0.12323 0.12307 0.12295 0.1231 0.12319 0.12331 0.12348 0.12354 0.12353 0.12358 0.12359 0.12355 0.12348 0.12338 0.12332 0.12339 0.12323 0.12312 0.12335 0.12355 0.12364 0.12379 0.12397 0.12423 0.12442 0.12455 0.12469 0.12515 0.12553 0.12576
0 0 0 0 0 0 0 0 0 0 0 0 0 0 0 0 0 0 0.13072 0.13499 0.13764 0.13652 0.14008 0.14309 0.14683 0.1497 0.15468 0.16287 0.1562 0.15146 0.14719 0.14177 0.13738 0.13422 0.13289 0.13131 0.13046 0.12863 0.12711 0.12655 0.12616 0.12588 0.1255 0.12478 0.12424 0.12404 0.12416 0.12423 0.12435 0.1243 0.12416 0.12421 0.12438 0.12454 0.12486 0.12498 0.12524 0.1255 0.12554 0.12561 0.12574 0.12591 0.12609 0.12618 0.12601 0.12585 0.1257 0.12563 0.12542 0.1252 0.12504 0.12486 0.12465 0.12443 0.12418 0.12394 0.12383 0.1237 0.12342 0.12341 0.12328 0.12323 0.12332 0.12345 0.12354 0.12364 0.12373 0.12385 0.1238 0.12382 0.12369 0.12368 0.12361 0.1237 0.12355 0.12348 0.12347 0.12368 0.12376 0.12388 0.12402 0.12417 0.12436 0.12449 0.12459 0.1247 0.12535 0.12581 0.12623
0 0 0 0 0 0 0 0 0 0 0 0 0 0 0 0 0 0.12373 0.12677 0.13164 0.13708 0.13536 0.14005 0.14445 0.1501 0.1518 0.15466 0.1574 0.15223 0.14786 0.14467 0.14069 0.13587 0.1328 0.13101 0.13014 0.12937 0.1282 0.12713 0.12632 0.12603 0.12564 0.12513 0.12451 0.12407 0.12394 0.12398 0.12401 0.12413 0.12408 0.12408 0.12412 0.12426 0.12423 0.12431 0.12456 0.12471 0.12496 0.12516 0.12534 0.12564 0.12582 0.12598 0.12608 0.126 0.12604 0.12595 0.12582 0.12574 0.12561 0.12547 0.12532 0.12511 0.12482 0.12463 0.12446 0.12431 0.12407 0.12384 0.12379 0.12373 0.12371 0.12384 0.12386 0.12397 0.12405 0.1242 0.12412 0.12415 0.12414 0.12388 0.12384 0.12384 0.12381 0.12375 0.1237 0.12374 0.12381 0.12391 0.12403 0.12413 0.12428 0.12445 0.12459 0.12469 0.1249 0.12536 0.12573 0.12608
0 0 0 0 0 0 0 0 0 0 0 0 0 0 0 0 0.11639 0.11712 0.11794 0.12399 0.13056 0.12962 0.13875 0.1437 0.14884 0.14915 0.15195 0.15276 0.14829 0.14499 0.14193 0.13905 0.13512 0.13199 0.13059 0.12948 0.12871 0.12774 0.12695 0.12629 0.12571 0.1254 0.1249 0.12435 0.12397 0.1238 0.12398 0.12411 0.12412 0.12413 0.12403 0.12402 0.1241 0.12415 0.12411 0.12438 0.12442 0.12468 0.12492 0.12522 0.12551 0.12556 0.12576 0.12589 0.12601 0.12606 0.12603 0.12599 0.126 0.1259 0.12573 0.12563 0.12548 0.12532 0.12505 0.12483 0.12467 0.12448 0.1243 0.12421 0.12416 0.12418 0.1242 0.12431 0.12436 0.12442 0.12452 0.1246 0.12454 0.12438 0.12415 0.12417 0.12396 0.12392 0.12388 0.12389 0.12378 0.12388 0.12404 0.12408 0.12419 0.12436 0.1245 0.12467 0.12479 0.12508 0.12539 0.12567 0.12593
0 0 0 0 0 0 0 0 0 0 0 0 0 0 0 0.11629 0.11427 0.11056 0.10774 0.11433 0.12081 0.12635 0.13801 0.14398 0.14953 0.14843 0.14891 0.1492 0.14431 0.14234 0.14037 0.13741 0.13421 0.1306 0.13022 0.12913 0.12833 0.12747 0.12679 0.1262 0.12557 0.12517 0.12467 0.12437 0.12387 0.12374 0.12386 0.12383 0.12384 0.12388 0.12383 0.12384 0.12377 0.12374 0.1238 0.12401 0.12434 0.12462 0.12451 0.12479 0.12552 0.12488 0.12525 0.12591 0.12614 0.12638 0.12653 0.12642 0.12632 0.12622 0.1261 0.12607 0.12603 0.12574 0.12547 0.12513 0.12504 0.12493 0.12478 0.12469 0.12457 0.12451 0.12457 0.12454 0.12464 0.12472 0.12474 0.12482 0.12475 0.12455 0.12435 0.12428 0.12424 0.12407 0.12412 0.12403 0.12397 0.12411 0.12419 0.12411 0.12424 0.12441 0.12452 0.12472 0.12492 0.12528 0.12545 0.1256 0.12577
0 0 0 0 0 0 0 0 0 0 0 0 0 0 0.11399 0.11452 0.1146 0.11405 0.11029 0.11635 0.12256 0.12909 0.13796 0.14175 0.1449 0.14513 0.1452 0.14524 0.14141 0.13904 0.13779 0.13498 0.13187 0.12938 0.12888 0.12799 0.12735 0.12672 0.12621 0.1255 0.12507 0.1247 0.12431 0.12395 0.12366 0.12355 0.12377 0.12387 0.12393 0.12416 0.12429 0.12446 0.12425 0.12409 0.12391 0.12312 0.12254 0.12176 0.12341 0.12373 0.12426 0.12393 0.12364 0.12101 0.123 0.12522 0.12742 0.1272 0.12677 0.12648 0.12632 0.12613 0.12599 0.12569 0.12546 0.12522 0.12509 0.12506 0.12499 0.1249 0.12487 0.12471 0.12478 0.12482 0.12501 0.1251 0.12519 0.12517 0.12503 0.12489 0.12467 0.12454 0.1245 0.12438 0.12431 0.12433 0.12424 0.12436 0.12443 0.12429 0.12437 0.12452 0.12454 0.12488 0.12514 0.1255 0.12581 0.12605 0.1263
0 0 0 0 0 0 0 0 0 0 0 0 0 0.11383 0.11348 0.11168 0.11489 0.11866 0.11526 0.1218 0.1283 0.1342 0.13815 0.13964 0.14048 0.14169 0.14141 0.14168 0.13869 0.13638 0.13566 0.13319 0.13003 0.12824 0.12762 0.12702 0.12669 0.12603 0.12549 0.12493 0.12457 0.12427 0.12386 0.12357 0.12337 0.12331 0.12352 0.12374 0.12393 0.12434 0.12487 0.12525 0.12484 0.12446 0.12411 0.12249 0.12092 0.11913 0 0 0 0.12394 0.12116 0.11607 0.1201 0.12414 0.12816 0.1279 0.12729 0.12677 0.12649 0.12634 0.12608 0.1258 0.1256 0.12539 0.12531 0.12523 0.12519 0.12515 0.12511 0.12494 0.1251 0.12522 0.1253 0.12543 0.12555 0.12558 0.12539 0.12524 0.1251 0.12493 0.12483 0.12465 0.12458 0.12455 0.12449 0.12459 0.12455 0.12449 0.12452 0.12463 0.12461 0.12508 0.12538 0.12571 0.12615 0.1266 0.12695
0 0 0 0 0 0 0 0 0 0 0 0 0 0.11667 0.11135 0.1067 0.11066 0.11559 0.12115 0.12767 0.13402 0.14135 0.13951 0.13837 0.13732 0.13864 0.13813 0.13859 0.13631 0.13402 0.13434 0.1319 0.12861 0.12726 0.12692 0.1265 0.12611 0.12557 0.1251 0.12484 0.12463 0.12437 0.12381 0.12288 0.12264 0.12307 0.12311 0.1238 0.12414 0.12373 0.12435 0.12583 0.12386 0.12286 0.12438 0.12174 0.11891 0.11617 0 0 0 0 0 0.11835 0.11711 0.1229 0.12866 0.12808 0.12755 0.12702 0.12678 0.12651 0.12621 0.12595 0.12573 0.12547 0.12539 0.12541 0.12532 0.12522 0.12516 0.1252 0.12534 0.12539 0.12541 0.12566 0.12575 0.1258 0.1257 0.12546 0.12542 0.1252 0.12515 0.12498 0.1249 0.12477 0.12467 0.1247 0.12465 0.12463 0.12461 0.12461 0.12457 0.12513 0.12553 0.12594 0.12637 0.12689 0.12738
0 0 0 0 0 0 0 0 0 0 0 0 0.11994 0.11981 0.1186 0.11773 0.11943 0.12302 0.127 0.13105 0.1346 0.13824 0.13729 0.13655 0.13593 0.13663 0.13606 0.13665 0.13465 0.13289 0.1329 0.13016 0.12772 0.12671 0.12642 0.12611 0.12587 0.12542 0.12497 0.1248 0.12269 0.12066 0.11815 0.12134 0.12177 0.12244 0.12285 0 0 0.12408 0 0.12265 0.12081 0.11924 0.11229 0.11462 0.1169 0.1192 0.11858 0.12075 0.12211 0 0 0 0.12012 0.12425 0.12835 0.12772 0.12721 0.1266 0.12638 0.12612 0.12589 0.12569 0.12552 0.12533 0.12539 0.12535 0.12521 0.12527 0.12528 0.12537 0.12555 0.1257 0.12577 0.12582 0.1258 0.12591 0.12587 0.12578 0.12561 0.12547 0.12531 0.12513 0.12505 0.12496 0.12479 0.12479 0.12474 0.12473 0.12469 0.12466 0.1246 0.12494 0.1253 0.12559 0.12594 0.12662 0.12715
0 0 0 0 0 0 0 0 0 0 0 0.11879 0.11831 0.12146 0.12754 0.12741 0.12828 0.13034 0.13236 0.13388 0.13477 0.13559 0.1349 0.13454 0.13447 0.1345 0.13419 0.13482 0.13317 0.13188 0.13082 0.12882 0.12703 0.12632 0.12613 0.12596 0.12567 0.1252 0.12475 0.12465 0.12063 0.11681 0.11285 0.11627 0.11882 0 0 0 0 0 0.12024 0.11783 0.11379 0.10778 0.10011 0.10756 0.11498 0.12238 0.12101 0.12131 0.12211 0.12291 0.12301 0.12068 0.12326 0.12574 0.12804 0.12748 0.12686 0.12618 0.12599 0.12578 0.12562 0.12548 0.12536 0.12517 0.1251 0.12513 0.12518 0.1253 0.12538 0.12539 0.12564 0.12586 0.12596 0.126 0.12617 0.12602 0.12612 0.1259 0.12577 0.12558 0.12548 0.12534 0.12517 0.12503 0.12482 0.12483 0.12481 0.12485 0.12471 0.12466 0.12457 0.12482 0.12503 0.12521 0.12574 0.12632 0.12684
0 0 0 0 0 0 0 0 0 0 0.12144 0.11695 0.11333 0.12103 0.12937 0.13726 0.13789 0.1379 0.13771 0.13628 0.13439 0.13276 0.13291 0.13205 0.13234 0.13221 0.13251 0.13268 0.13115 0.12987 0.12888 0.1275 0.12667 0.12613 0.12592 0.12563 0.12547 0.12502 0.12448 0.12425 0.12167 0.11355 0.10747 0 0 0 0 0 0 0 0 0 0 0 0.08822 0.10075 0.11331 0.12561 0.12503 0.12448 0.1239 0.12461 0.12515 0.12545 0.12632 0.12718 0.1279 0.1274 0.1266 0.12591 0.12577 0.12555 0.12526 0.12513 0.12493 0.12475 0.12487 0.12502 0.12505 0.12532 0.12542 0.12568 0.12582 0.12597 0.12607 0.1261 0.12623 0.12618 0.12616 0.12596 0.12589 0.12576 0.1256 0.12544 0.12532 0.12517 0.12494 0.12491 0.12491 0.12493 0.12479 0.12466 0.12454 0.12468 0.12477 0.12484 0.12537 0.12607 0.12658
0 0 0 0 0 0 0 0 0 0 0.12562 0.12288 0.12188 0.12589 0.13027 0.13466 0.13511 0.13479 0.13425 0.13276 0.13129 0.13047 0.13001 0.12969 0.1288 0.1288 0.12886 0.12862 0.12796 0.1274 0.12701 0.12671 0.12638 0.12601 0.12579 0.12561 0.12536 0.12485 0.12432 0.12386 0.12109 0 0 0 0 0 0 0 0 0 0 0 0 0 0.1011 0.10926 0.11725 0.12508 0.12477 0.12432 0.1239 0.12445 0.1249 0.12525 0.126 0.12677 0.12755 0.12707 0.12632 0.12573 0.12562 0.12537 0.12511 0.125 0.1249 0.12483 0.12508 0.12517 0.12539 0.12553 0.12569 0.12591 0.12595 0.12602 0.12612 0.12608 0.12598 0.12598 0.12578 0.12567 0.12555 0.12543 0.12544 0.12531 0.12526 0.12516 0.12499 0.12503 0.12498 0.12496 0.12488 0.12475 0.12461 0.1247 0.1247 0.12469 0.12514 0.12558 0.12607
0 0 0 0 0 0 0 0 0 0.12971 0.13135 0.13425 0.13169 0.13202 0.1323 0.13318 0.13251 0.13169 0.13087 0.1299 0.12858 0.12726 0.12695 0.12663 0.12637 0.12647 0.12637 0.12614 0.12615 0.12618 0.12596 0.12594 0.12587 0.12581 0.1257 0.12565 0.1255 0.12482 0.12414 0.12336 0.12277 0 0 0 0 0 0 0 0 0 0 0 0 0.11725 0.11397 0.11742 0.12089 0.12441 0.12414 0.12391 0.12372 0.12423 0.12462 0.12485 0.12538 0.1261 0.12664 0.1264 0.12599 0.12545 0.12528 0.12517 0.12485 0.12491 0.12487 0.12485 0.12503 0.12524 0.12554 0.12568 0.12581 0.12602 0.12596 0.12599 0.12594 0.1259 0.12588 0.12587 0.12567 0.12549 0.12529 0.12518 0.12522 0.1252 0.12518 0.12509 0.12507 0.12507 0.12508 0.12511 0.125 0.12488 0.12464 0.12467 0.12466 0.12457 0.12481 0.12506 0.12533
0 0 0 0 0 0 0 0 0.12958 0.13189 0.13526 0.13891 0.14211 0.13853 0.13511 0.13195 0.13096 0.13005 0.1292 0.12852 0.12764 0.12689 0.12684 0.1267 0.12667 0.12665 0.12647 0.12627 0.12625 0.12614 0.12596 0.12596 0.12589 0.12585 0.12581 0.12574 0.1256 0.12477 0.12394 0.12285 0.12293 0.12251 0 0.12041 0.11982 0 0 0 0 0 0 0 0.1206 0.1239 0.12667 0.12566 0.12467 0.12358 0.12353 0.12355 0.12355 0.12392 0.12428 0.12448 0.12494 0.12546 0.12593 0.12569 0.12546 0.12509 0.12495 0.12484 0.1246 0.12463 0.12467 0.1247 0.1249 0.12513 0.12541 0.12567 0.12587 0.12596 0.12592 0.12584 0.12586 0.12577 0.12568 0.12555 0.1254 0.12515 0.12496 0.12491 0.12499 0.12496 0.12498 0.125 0.12504 0.12504 0.12503 0.12508 0.12497 0.12481 0.12461 0.12455 0.12439 0.12429 0.12435 0.12442 0.12447
0 0 0 0 0 0 0 0 0.13037 0.13196 0.13393 0.13565 0.14037 0.13701 0.13382 0.13095 0.12996 0.12887 0.12837 0.12786 0.12735 0.12662 0.12648 0.12639 0.1263 0.12619 0.12609 0.12599 0.12599 0.12595 0.12581 0.12587 0.1259 0.12591 0.12588 0.12581 0.12575 0.12514 0.12456 0.12376 0.12371 0.12372 0.12281 0.12222 0.12152 0 0 0 0 0 0 0.11978 0.12123 0.12274 0.12568 0.12497 0.12428 0.12353 0.12347 0.12341 0.12345 0.1237 0.12396 0.12424 0.12463 0.12507 0.12547 0.12529 0.12516 0.12496 0.12481 0.12474 0.12467 0.12467 0.12474 0.12489 0.12498 0.12517 0.12546 0.12552 0.12557 0.12558 0.12555 0.12554 0.12561 0.12557 0.12547 0.12532 0.12509 0.1249 0.12482 0.1248 0.12486 0.12489 0.12493 0.12493 0.12496 0.12496 0.12493 0.12487 0.12474 0.12459 0.12445 0.12438 0.12418 0.12402 0.12406 0.12407 0.12417
0 0 0 0 0 0 0 0 0 0.12999 0.13218 0.13364 0.13861 0.13562 0.13262 0.12996 0.12887 0.12804 0.12766 0.1272 0.12688 0.12618 0.12605 0.12601 0.12587 0.12581 0.12573 0.12562 0.12568 0.12574 0.12576 0.12583 0.12593 0.1261 0.126 0.12596 0.12597 0.12566 0.12533 0.12485 0.12526 0.12495 0.12455 0.12409 0.12354 0.12299 0.11998 0.11371 0 0 0.11944 0.1223 0.12199 0.12245 0.12474 0.12434 0.12396 0.12356 0.12343 0.12337 0.12332 0.12354 0.12382 0.12404 0.12433 0.1246 0.12491 0.12487 0.12486 0.12478 0.12469 0.12469 0.12462 0.12467 0.12487 0.12488 0.125 0.12519 0.12544 0.12541 0.12537 0.12532 0.12537 0.12538 0.12543 0.12546 0.12525 0.12499 0.12483 0.12472 0.12469 0.12473 0.12481 0.12474 0.12483 0.12476 0.12481 0.12479 0.12476 0.12471 0.12452 0.12439 0.12417 0.12412 0.12388 0.12369 0.12373 0.12376 0.12381
0 0 0 0 0 0 0 0 0 0.12723 0.12984 0.13379 0.13714 0.13403 0.13097 0.12824 0.12761 0.12723 0.12666 0.12642 0.12607 0.12574 0.1256 0.12557 0.12548 0.12532 0.12528 0.12516 0.12533 0.12546 0.12561 0.12579 0.1259 0.12607 0.12611 0.12608 0.1262 0.12618 0.12613 0.12595 0.12596 0.12596 0.12591 0.12603 0.12625 0.12647 0.11788 0.10935 0.10063 0.10861 0.11661 0.12459 0.12437 0.12405 0.12386 0.12372 0.12365 0.12356 0.12341 0.12331 0.12322 0.12338 0.12358 0.12377 0.12397 0.12421 0.12444 0.12448 0.12447 0.12449 0.12445 0.12444 0.12455 0.12471 0.12489 0.12504 0.1251 0.12518 0.12539 0.12529 0.12518 0.12505 0.12518 0.12525 0.12524 0.12508 0.12489 0.12464 0.12451 0.12446 0.12443 0.12453 0.12466 0.12478 0.12479 0.12467 0.12466 0.12476 0.1246 0.12449 0.12444 0.12424 0.12401 0.12391 0.12373 0.12342 0.12341 0.12343 0.12349
0 0 0 0 0 0 0 0 0 0.1226 0.12348 0.12528 0.11814 0.12177 0.12484 0.12806 0.12734 0.12685 0.12617 0.12585 0.12576 0.12548 0.12546 0.12547 0.12545 0.12548 0.1255 0.12557 0.12586 0.12628 0.12663 0.12697 0.12739 0.12784 0.12739 0.12689 0.12651 0.12654 0.12627 0.12614 0.12594 0.12561 0.12541 0.12546 0.12564 0.12583 0.12011 0 0.10848 0.1138 0.1192 0.12452 0.1243 0.124 0.12382 0.12366 0.12364 0.12352 0.12355 0.12345 0.1234 0.12358 0.12378 0.12407 0.12423 0.12438 0.12454 0.12451 0.12452 0.12446 0.12447 0.1244 0.1244 0.12452 0.12468 0.1248 0.12492 0.12501 0.12508 0.12508 0.12502 0.12489 0.12499 0.12494 0.12489 0.12483 0.12473 0.12461 0.12456 0.1245 0.12458 0.12467 0.12477 0.1249 0.12491 0.12487 0.12491 0.12488 0.12471 0.12437 0.12422 0.124 0.12382 0.12364 0.12338 0.12312 0.12322 0.12322 0.12336
0 0 0 0 0 0 0 0 0 0 0.11232 0.10606 0.10007 0.10932 0.11851 0.12799 0.12703 0.12667 0.12589 0.12575 0.12564 0.12546 0.12554 0.12564 0.12571 0.12581 0.12594 0.12599 0 0 0 0.12803 0.12888 0.12949 0.12848 0.12752 0.12666 0.12645 0.1263 0.126 0.12567 0.12536 0.12511 0.125 0.12494 0.125 0.12216 0.11919 0.11629 0.11896 0.12165 0.12428 0.12413 0.12392 0.1237 0.12365 0.12363 0.12356 0.12361 0.12355 0.12355 0.12377 0.12395 0.12425 0.12432 0.12442 0.12457 0.12456 0.12454 0.12451 0.12447 0.12446 0.12445 0.12447 0.12461 0.12467 0.12472 0.12467 0.12488 0.12481 0.12481 0.12476 0.12467 0.12461 0.12457 0.12458 0.1246 0.12455 0.12467 0.12466 0.12467 0.12471 0.12491 0.12504 0.12506 0.12503 0.12498 0.12489 0.12462 0.12436 0.12418 0.12392 0.12356 0.12338 0.12307 0.12287 0.123 0.12314 0.1233
0 0 0 0 0 0 0 0 0 0 0 0.09196 0.08192 0.09722 0.12094 0.12856 0.12508 0.12519 0.12576 0.12574 0.12569 0.1256 0.12578 0.12595 0.12612 0.12625 0.1264 0.1265 0 0 0 0.12864 0.13025 0.13111 0.1295 0.12804 0.12653 0.12634 0.12611 0.12581 0.12532 0.12492 0.12449 0.12433 0.12416 0.12417 0.12408 0.12405 0.12397 0.12401 0.12402 0.12408 0.12392 0.12372 0.12358 0.12353 0.12348 0.12345 0.12356 0.12358 0.12368 0.12382 0.12408 0.12435 0.12451 0.1246 0.12466 0.12463 0.12445 0.12449 0.12444 0.12442 0.12443 0.12442 0.12448 0.1245 0.12449 0.12455 0.12462 0.12454 0.12449 0.12443 0.12443 0.12433 0.12421 0.12428 0.1244 0.1245 0.12464 0.12476 0.12485 0.12483 0.12493 0.12492 0.12502 0.12498 0.12494 0.12489 0.12446 0.12428 0.12407 0.12381 0.12338 0.12325 0.12295 0.12267 0.12288 0.12306 0.12316
0 0 0 0 0 0 0 0 0 0 0 0 0.09555 0.10394 0.11669 0.12307 0.12292 0.12409 0.12552 0.12567 0.12576 0.12581 0.12607 0.12637 0.12662 0.1234 0.12014 0 0 0.12159 0.12737 0.12806 0.12866 0.12934 0.12832 0.12731 0.1263 0.12606 0.1258 0.12542 0.12502 0.12463 0.12423 0.12417 0.12403 0.12393 0.1239 0.12388 0.12386 0.12389 0.12396 0.12402 0.12388 0.12377 0.12362 0.12357 0.12347 0.12348 0.12365 0.12362 0.12373 0.12379 0.12395 0.12425 0.12441 0.12439 0.12459 0.12458 0.12451 0.1244 0.12441 0.12437 0.12437 0.12442 0.12434 0.12439 0.12433 0.12436 0.12442 0.12434 0.12428 0.12427 0.1243 0.12427 0.12422 0.12433 0.12437 0.12445 0.12468 0.12468 0.12479 0.12481 0.12485 0.12486 0.12487 0.12492 0.12487 0.12479 0.12453 0.12431 0.12417 0.12378 0.12344 0.12323 0.12296 0.12258 0.12273 0.12287 0.12284
0 0 0 0 0 0 0 0 0 0 0 0 0 0 0 0.1181 0.12061 0.1232 0.12529 0.12556 0.12581 0.12602 0.12642 0.12672 0.1271 0.12039 0.11367 0.10681 0.11327 0.11971 0.126 0.12661 0.12717 0.12774 0.12713 0.12665 0.12607 0.12576 0.12548 0.12512 0.12481 0.1244 0.12405 0.12402 0.12391 0.1238 0.12377 0.12374 0.12369 0.12377 0.1238 0.12385 0.12378 0.12369 0.12362 0.12355 0.12347 0.12347 0.1235 0.12361 0.12377 0.1239 0.12405 0.12422 0.12425 0.12436 0.12437 0.12438 0.12438 0.12443 0.12432 0.12429 0.12433 0.12429 0.12428 0.12421 0.12423 0.12417 0.12404 0.12414 0.12412 0.12416 0.12417 0.12425 0.12423 0.12432 0.12438 0.12437 0.12447 0.12458 0.12462 0.12479 0.1247 0.12483 0.12493 0.12497 0.12499 0.12479 0.12462 0.12431 0.12409 0.12383 0.12356 0.12322 0.12289 0.12258 0.12267 0.12274 0.12277
0 0 0 0 0 0 0 0 0 0 0 0 0 0 0 0.11669 0.11995 0.1233 0.12506 0.12544 0.12585 0.12619 0.12666 0.12705 0.12753 0.11731 0.10706 0.09679 0.10614 0 0.12458 0.12509 0.12554 0.12607 0.12605 0.1259 0.1258 0.12546 0.12514 0.12477 0.12445 0.12416 0.12382 0.12377 0.12367 0.12362 0.12361 0.12361 0.12361 0.12361 0.12364 0.12371 0.1237 0.12364 0.12351 0.12349 0.12342 0.12344 0.12355 0.12368 0.12382 0.12401 0.12417 0.12433 0.12434 0.12434 0.12425 0.12432 0.12427 0.12437 0.12425 0.12423 0.12417 0.12412 0.12416 0.12408 0.12405 0.12392 0.12393 0.12394 0.12401 0.12402 0.12411 0.12423 0.12433 0.12431 0.12425 0.12421 0.12432 0.1245 0.12453 0.12458 0.12468 0.12478 0.12485 0.12496 0.12504 0.1248 0.12453 0.12433 0.12404 0.12371 0.1235 0.12313 0.12275 0.1224 0.12246 0.12259 0.12251
0 0 0 0 0 0 0 0 0 0 0 0 0 0.11096 0.11265 0.11465 0.11792 0.12247 0.12513 0.12562 0.1262 0.12669 0.12699 0.12728 0.12753 0.12071 0.11397 0.10709 0.11333 0.12003 0.12563 0.12573 0.12592 0.12602 0.12592 0.12579 0.12564 0.12529 0.12495 0.12463 0.1244 0.12417 0.12393 0.12392 0.12386 0.12381 0.1238 0.12375 0.12372 0.12375 0.12369 0.12371 0.12373 0.12361 0.12353 0.12347 0.12347 0.12349 0.12361 0.12369 0.12385 0.12395 0.12402 0.12419 0.12425 0.12424 0.1242 0.12417 0.12417 0.12419 0.12423 0.1243 0.1243 0.12428 0.12429 0.12419 0.12421 0.12403 0.12398 0.12396 0.12402 0.12407 0.12414 0.12414 0.1243 0.12439 0.12434 0.12435 0.12436 0.1245 0.12457 0.12468 0.12478 0.12476 0.12493 0.12492 0.12498 0.12476 0.12453 0.12432 0.12406 0.1238 0.12351 0.12333 0.12299 0.12267 0.1227 0.12265 0.12262
0 0 0 0 0 0 0 0 0 0 0 0 0.10792 0.10937 0.111 0.11259 0.11651 0.12146 0.12558 0.12612 0.12668 0.12722 0.12735 0.12746 0.12763 0.12418 0.12076 0.11731 0.12042 0.1235 0.12661 0.12643 0.12619 0.12598 0.12589 0.12572 0.12554 0.12523 0.12486 0.12457 0.12439 0.12428 0.12412 0.12409 0.124 0.12399 0.12394 0.12392 0.12387 0.12382 0.12377 0.12381 0.12381 0.12379 0.12372 0.12365 0.12355 0.12356 0.12371 0.12387 0.12393 0.12399 0.12405 0.12415 0.12418 0.12426 0.12433 0.12434 0.12436 0.1244 0.12437 0.12452 0.12462 0.12458 0.12449 0.12433 0.12421 0.12425 0.12424 0.12425 0.12424 0.12423 0.12419 0.12425 0.12423 0.12428 0.12444 0.12448 0.12444 0.12452 0.12459 0.12465 0.12478 0.12477 0.12484 0.12491 0.12483 0.12481 0.12466 0.12442 0.1242 0.124 0.12375 0.12351 0.12328 0.12306 0.12296 0.12284 0.1227
0 0 0 0 0 0 0 0 0.11616 0.11502 0.11258 0.10827 0.10413 0.10531 0.10652 0.1079 0.11379 0.11992 0.12597 0.12657 0.12715 0.12776 0.12778 0.12777 0.12773 0.12761 0.12752 0.12744 0.12752 0.12757 0.12761 0.12711 0.12654 0.12591 0.12578 0.12568 0.12542 0.12509 0.12474 0.12446 0.12439 0.12432 0.12418 0.12419 0.12416 0.12412 0.12411 0.12404 0.12396 0.12391 0.12386 0.12388 0.12383 0.12379 0.12376 0.12374 0.12368 0.12371 0.12385 0.1239 0.124 0.12403 0.12402 0.12408 0.1242 0.12423 0.12432 0.12436 0.12446 0.12455 0.12468 0.12475 0.12482 0.12486 0.12465 0.1245 0.12443 0.12436 0.12431 0.12431 0.12431 0.12425 0.12423 0.12418 0.12415 0.12438 0.12442 0.1245 0.12453 0.12456 0.12467 0.12467 0.12467 0.12472 0.12481 0.12482 0.12478 0.12473 0.12467 0.1245 0.12435 0.12417 0.12392 0.12382 0.12362 0.12335 0.12333 0.12312 0.12279
0 0 0 0 0 0 0 0.11882 0.11828 0.11905 0.1177 0.11549 0.11319 0.11371 0.11444 0.11519 0.11878 0.12293 0.12692 0.12713 0.1275 0.12791 0.12776 0.12766 0.12749 0.12737 0.12729 0.1272 0.12725 0.12728 0.12731 0.12692 0.12643 0.12601 0.12588 0.12576 0.12552 0.12519 0.12483 0.12461 0.12453 0.12448 0.12436 0.12429 0.1242 0.12414 0.12411 0.12406 0.12401 0.12395 0.12393 0.12394 0.12395 0.12392 0.12386 0.12383 0.12377 0.12384 0.12397 0.12399 0.12402 0.12395 0.124 0.1241 0.1242 0.12438 0.12452 0.12447 0.12458 0.12464 0.12481 0.12498 0.12506 0.12505 0.1249 0.12469 0.12456 0.12444 0.12436 0.12436 0.12429 0.12424 0.12425 0.12421 0.12404 0.12414 0.12426 0.1243 0.1243 0.12437 0.12452 0.12461 0.12461 0.12461 0.12471 0.12488 0.12483 0.12474 0.12469 0.1246 0.12452 0.12444 0.12422 0.12409 0.12396 0.1237 0.12353 0.12347 0.1233
0 0 0 0 0 0 0.12067 0.12067 0.12018 0.11986 0.121 0.12296 0.12175 0.12178 0.12185 0.122 0.12372 0.12574 0.12774 0.12778 0.1279 0.12803 0.12777 0.12751 0.12724 0.12715 0.12704 0.12697 0.12698 0.12697 0.12695 0.12665 0.12639 0.12609 0.12594 0.12578 0.12551 0.12521 0.12499 0.1248 0.12473 0.12464 0.12457 0.12444 0.12435 0.12427 0.12421 0.12413 0.12405 0.12401 0.12395 0.12399 0.124 0.12399 0.12392 0.1239 0.12382 0.12386 0.12394 0.12401 0.12397 0.12404 0.12409 0.1242 0.12422 0.12438 0.12456 0.12468 0.12478 0.12484 0.1249 0.12506 0.12519 0.1252 0.12507 0.12491 0.12477 0.12459 0.12448 0.12438 0.12428 0.1242 0.12418 0.12407 0.12393 0.12394 0.12402 0.12411 0.1242 0.12428 0.12444 0.12452 0.1247 0.12471 0.12475 0.12483 0.12487 0.12487 0.12484 0.12477 0.12468 0.12461 0.12434 0.12431 0.12416 0.124 0.12379 0.12375 0.12351
0 0 0 0 0 0 0.12074 0.1206 0.11987 0.11844 0.1223 0.12624 0.13019 0.1295 0.12908 0.12851 0.12851 0.12848 0.12858 0.12839 0.12834 0.12818 0.12781 0.12746 0.12708 0.12696 0.12686 0.12677 0.12671 0.1266 0.12652 0.12642 0.12633 0.12612 0.12598 0.12573 0.12547 0.12526 0.12509 0.12493 0.12494 0.12485 0.12471 0.12457 0.1244 0.12433 0.12427 0.12423 0.12412 0.12407 0.12403 0.12408 0.124 0.12397 0.12401 0.12396 0.1239 0.1239 0.12394 0.12393 0.12395 0.12401 0.12404 0.12416 0.12431 0.12442 0.12453 0.12458 0.12476 0.12505 0.12499 0.12508 0.12512 0.12512 0.12508 0.12501 0.12489 0.1248 0.1246 0.12444 0.12422 0.12403 0.12397 0.12389 0.12376 0.12377 0.12385 0.12389 0.12403 0.12423 0.12437 0.12453 0.12462 0.12473 0.12477 0.1248 0.12482 0.12484 0.12489 0.12477 0.12479 0.12471 0.12452 0.12441 0.12431 0.1243 0.1242 0.12404 0.12386
0 0 0 0 0 0.1201 0.12064 0.12155 0.12257 0.12259 0.12534 0.12797 0.13059 0.13025 0.12984 0.12937 0.12921 0.12901 0.12882 0.12858 0.12831 0.12805 0.12778 0.12751 0.12722 0.12713 0.12702 0.12693 0.12686 0.12676 0.12669 0.12653 0.12648 0.12629 0.12611 0.12594 0.12568 0.12546 0.12526 0.12518 0.12515 0.12503 0.12488 0.12475 0.12461 0.12451 0.12448 0.12437 0.12431 0.12431 0.1243 0.12433 0.12427 0.12422 0.1242 0.12415 0.12411 0.12415 0.12422 0.12411 0.12397 0.12403 0.12411 0.12424 0.12435 0.12443 0.12457 0.12463 0.12487 0.12513 0.12507 0.12512 0.12515 0.12508 0.12493 0.12497 0.1249 0.12478 0.12463 0.12433 0.12415 0.124 0.12395 0.12384 0.12372 0.12376 0.12384 0.12388 0.12402 0.12418 0.12432 0.12443 0.12452 0.12465 0.1246 0.12471 0.12473 0.12476 0.12481 0.12481 0.12479 0.12468 0.12456 0.12451 0.12449 0.12448 0.12439 0.12435 0.12429
0 0 0 0 0.11945 0.11983 0.11972 0.12147 0.12545 0.12708 0.12845 0.12964 0.13093 0.13068 0.13044 0.13017 0.12983 0.12941 0.12908 0.12871 0.12834 0.12798 0.12779 0.12754 0.12736 0.12725 0.12715 0.12704 0.12695 0.12682 0.12672 0.12663 0.12652 0.12639 0.12626 0.12611 0.12593 0.12566 0.12547 0.12536 0.12528 0.12523 0.12503 0.1249 0.12483 0.12474 0.12467 0.12457 0.12453 0.12452 0.12456 0.12458 0.12451 0.12448 0.12441 0.12432 0.12433 0.12428 0.12424 0.12414 0.1241 0.12412 0.12425 0.12427 0.12442 0.12456 0.12463 0.12477 0.12483 0.12505 0.12515 0.12511 0.12508 0.12499 0.12498 0.12493 0.12487 0.12469 0.12452 0.12437 0.12426 0.12403 0.12384 0.12374 0.12367 0.12376 0.12399 0.12388 0.12394 0.12406 0.12427 0.12434 0.12444 0.12447 0.12451 0.12459 0.1247 0.12471 0.12474 0.12476 0.12465 0.12467 0.1245 0.12468 0.12466 0.12465 0.12463 0.12465 0.12451
0 0 0 0 0.11869 0.11919 0.11812 0.12239 0.12658 0.13145 0.13152 0.13137 0.13123 0.13112 0.13104 0.13101 0.13048 0.12983 0.12926 0.12882 0.12837 0.12793 0.1278 0.12757 0.12738 0.12731 0.12725 0.12712 0.12701 0.12693 0.12677 0.12668 0.12657 0.12642 0.12634 0.12622 0.12613 0.12589 0.1257 0.12555 0.12544 0.1253 0.12515 0.12505 0.12495 0.12486 0.12479 0.12471 0.12465 0.12465 0.12469 0.12472 0.12464 0.12465 0.12458 0.12451 0.12456 0.12451 0.12441 0.12426 0.12417 0.12422 0.12427 0.12427 0.12442 0.12453 0.12472 0.12481 0.12493 0.12509 0.12506 0.12514 0.12506 0.12509 0.12509 0.12504 0.12489 0.12476 0.12458 0.12445 0.12427 0.12399 0.12393 0.12381 0.1237 0.12382 0.12392 0.12384 0.12386 0.12402 0.12413 0.12418 0.12424 0.12423 0.12433 0.1244 0.12451 0.12458 0.1246 0.12454 0.12467 0.12473 0.12461 0.12472 0.12478 0.12467 0.12475 0.12482 0.12478
0 0 0 0.11202 0.11662 0.11933 0.12166 0.12444 0.12755 0.13085 0.13079 0.13081 0.13081 0.13075 0.13071 0.13067 0.13024 0.12967 0.1292 0.12876 0.12842 0.12803 0.12784 0.12765 0.12745 0.12736 0.12723 0.12709 0.12706 0.12695 0.12683 0.12676 0.12662 0.12646 0.12635 0.12626 0.12618 0.12599 0.12585 0.12573 0.12556 0.12545 0.12535 0.1253 0.12525 0.12524 0.12519 0.1251 0.12507 0.12511 0.12508 0.12508 0.12506 0.12503 0.12498 0.12497 0.12487 0.12485 0.12473 0.1247 0.12466 0.12463 0.12458 0.12452 0.12461 0.12479 0.12501 0.12504 0.12514 0.1252 0.12519 0.12525 0.12529 0.12521 0.12508 0.12499 0.12475 0.1246 0.12448 0.12437 0.12424 0.12403 0.124 0.12398 0.12388 0.12378 0.12384 0.1239 0.12398 0.12401 0.12412 0.12414 0.12413 0.12407 0.12424 0.12418 0.12433 0.1243 0.12431 0.12433 0.12439 0.12445 0.12457 0.12452 0.12461 0.12455 0.12463 0.1247 0.12468
0 0 0 0.10255 0.11023 0.12055 0.12537 0.12686 0.12841 0.13009 0.1302 0.13036 0.13062 0.1305 0.13046 0.13039 0.13009 0.12966 0.12924 0.12885 0.12846 0.12815 0.12791 0.12777 0.12759 0.12742 0.1272 0.12709 0.12699 0.12686 0.12679 0.12672 0.12662 0.1265 0.1264 0.12628 0.12618 0.12605 0.12591 0.1258 0.12572 0.12563 0.12554 0.1255 0.1255 0.12551 0.12554 0.12558 0.12561 0.12553 0.12553 0.12551 0.12545 0.12542 0.12532 0.12532 0.12536 0.12533 0.12525 0.12513 0.12509 0.125 0.12494 0.12483 0.12479 0.12495 0.1252 0.12544 0.12548 0.12551 0.12543 0.12533 0.12525 0.12505 0.12497 0.1249 0.12475 0.12461 0.12448 0.12424 0.1241 0.12395 0.12386 0.1239 0.12394 0.1238 0.12374 0.1239 0.12407 0.12412 0.12414 0.12413 0.12407 0.12402 0.12401 0.12403 0.1241 0.12412 0.12422 0.1242 0.12419 0.12418 0.12423 0.1244 0.12439 0.12437 0.12445 0.12449 0.12459
0 0 0 0.08851 0.10215 0.11571 0.12934 0.12937 0.1293 0.12949 0.1297 0.12993 0.13023 0.13018 0.13008 0.13011 0.1299 0.12957 0.1292 0.12882 0.12848 0.12824 0.12808 0.12791 0.12768 0.1275 0.12728 0.1272 0.12709 0.12701 0.12687 0.12673 0.12668 0.1266 0.12647 0.12632 0.12621 0.12612 0.126 0.12589 0.12584 0.12584 0.12586 0.12584 0.12584 0.12587 0.12592 0.12592 0.12593 0.12594 0.12594 0.12594 0.12586 0.1258 0.12578 0.1257 0.12571 0.12575 0.1257 0.12554 0.12546 0.12536 0.12526 0.12507 0.12501 0.12508 0.12541 0.12549 0.12554 0.1256 0.12553 0.12546 0.12526 0.12506 0.12483 0.12481 0.1247 0.12463 0.12457 0.12439 0.12409 0.12392 0.12394 0.12399 0.12397 0.12386 0.12376 0.12391 0.1241 0.12417 0.12418 0.12407 0.12392 0.12383 0.12384 0.1239 0.12394 0.12397 0.12411 0.12417 0.12413 0.12416 0.12408 0.12423 0.12422 0.12438 0.12437 0.12441 0.12453
0 0 0 0.10425 0.11335 0.12244 0.13152 0.1311 0.13079 0.13044 0.13047 0.13034 0.13023 0.13006 0.12997 0.12991 0.12976 0.12946 0.12914 0.12881 0.1285 0.12825 0.12804 0.12785 0.12758 0.12735 0.1272 0.12708 0.12703 0.12697 0.12693 0.12689 0.12682 0.12666 0.12651 0.12639 0.12635 0.12627 0.12616 0.12607 0.12604 0.12604 0.12601 0.12602 0.12606 0.12613 0.12614 0.1262 0.1263 0.12625 0.12623 0.12621 0.12619 0.12619 0.12622 0.12615 0.12612 0.12605 0.12594 0.12583 0.12584 0.12574 0.12573 0.12548 0.12537 0.12536 0.12553 0.12563 0.12577 0.12572 0.12556 0.12545 0.12538 0.12522 0.12495 0.12485 0.12479 0.1248 0.12479 0.12471 0.12457 0.12437 0.1244 0.12443 0.12433 0.12435 0.12429 0.12437 0.12448 0.12449 0.12443 0.12435 0.12418 0.12396 0.12409 0.12416 0.12406 0.12414 0.12412 0.12413 0.12417 0.12426 0.12434 0.12437 0.12449 0.12451 0.12455 0.12462 0.12465
0.13181 0.13262 0.1254 0.11999 0.12468 0.12931 0.13385 0.13322 0.13239 0.13171 0.13129 0.13073 0.13022 0.13001 0.12988 0.12979 0.1296 0.12927 0.12908 0.12877 0.12853 0.12817 0.12797 0.12777 0.12747 0.12728 0.12719 0.12717 0.12709 0.12704 0.12692 0.12686 0.12679 0.12677 0.12665 0.12657 0.12653 0.12645 0.12635 0.12625 0.12625 0.1262 0.12615 0.12615 0.1262 0.12632 0.12633 0.12647 0.12659 0.12665 0.12668 0.12671 0.12662 0.12667 0.1267 0.12661 0.12654 0.12651 0.12639 0.1263 0.12636 0.12634 0.12625 0.12604 0.12586 0.12572 0.1258 0.12587 0.12593 0.12596 0.12577 0.1256 0.12543 0.12523 0.12508 0.12494 0.12492 0.12492 0.12493 0.12488 0.12486 0.12471 0.12473 0.12481 0.12476 0.12475 0.12471 0.12484 0.12485 0.12478 0.12486 0.12462 0.12445 0.12438 0.12436 0.12437 0.12423 0.12424 0.12428 0.12426 0.12427 0.12437 0.12446 0.12457 0.12463 0.12462 0.12465 0.12468 0.12478
0.131 0.13262 0.13423 0.13593 0.13609 0.13593 0.13562 0.13447 0.13341 0.13256 0.13196 0.13107 0.13024 0.12999 0.12982 0.12963 0.12938 0.1291 0.12889 0.12862 0.12831 0.12806 0.12798 0.12774 0.12745 0.12731 0.12723 0.12722 0.1272 0.12713 0.12704 0.12698 0.12699 0.12697 0.12684 0.12669 0.12658 0.12643 0.12639 0.12636 0.1264 0.12637 0.12636 0.12641 0.12649 0.12659 0.12664 0.12683 0.12703 0.12711 0.12715 0.12711 0.12712 0.12706 0.12707 0.1271 0.12705 0.12704 0.12693 0.12684 0.12685 0.12676 0.12655 0.12636 0.12618 0.12616 0.12608 0.12604 0.12609 0.12616 0.12603 0.12585 0.12568 0.12549 0.12529 0.12516 0.1251 0.12508 0.1251 0.12507 0.12504 0.12505 0.12512 0.12522 0.12521 0.12529 0.1252 0.12538 0.12534 0.12525 0.12522 0.12507 0.12496 0.12475 0.12462 0.12449 0.12442 0.12443 0.12436 0.12437 0.12442 0.1245 0.12462 0.12463 0.12467 0.12472 0.12477 0.1248 0.12491
0.13086 0.13223 0.13359 0.13521 0.13545 0.13549 0.13532 0.13437 0.13366 0.13302 0.1322 0.13142 0.13062 0.13022 0.12976 0.12942 0.12921 0.12894 0.12864 0.12836 0.12812 0.12798 0.12788 0.12759 0.12741 0.12742 0.12744 0.12747 0.12742 0.1273 0.12723 0.12724 0.12724 0.12723 0.12718 0.12705 0.12693 0.12671 0.1266 0.12655 0.12657 0.1266 0.12669 0.12669 0.12675 0.12681 0.12691 0.12711 0.12729 0.12736 0.12743 0.12746 0.12745 0.12747 0.12752 0.12748 0.12745 0.12745 0.12743 0.12736 0.12728 0.12718 0.12702 0.12689 0.12676 0.12657 0.12654 0.12648 0.12658 0.12651 0.12648 0.12638 0.12619 0.12608 0.12592 0.1257 0.12566 0.1256 0.1256 0.12558 0.12562 0.12562 0.12574 0.1259 0.12597 0.12609 0.12623 0.12653 0.12654 0.12639 0.12631 0.12596 0.1256 0.12529 0.12515 0.12501 0.12487 0.12485 0.12486 0.12491 0.12508 0.12522 0.12535 0.12535 0.12527 0.12519 0.12522 0.12518 0.12524
0.1307 0.13188 0.13297 0.13415 0.13459 0.13476 0.13511 0.13453 0.13389 0.1334 0.13253 0.13172 0.131 0.13045 0.12992 0.12944 0.12914 0.12886 0.12864 0.1284 0.12808 0.12795 0.12766 0.12752 0.1275 0.12761 0.12767 0.12768 0.12763 0.12755 0.12754 0.12756 0.12759 0.12759 0.12753 0.12742 0.12729 0.12718 0.12709 0.12707 0.12708 0.12703 0.12701 0.12703 0.12706 0.12721 0.12737 0.12742 0.12752 0.12762 0.12771 0.12781 0.12779 0.12779 0.12787 0.1279 0.12802 0.12817 0.12795 0.12795 0.1279 0.12779 0.12771 0.12759 0.12742 0.12723 0.12709 0.12701 0.12696 0.12686 0.12675 0.12672 0.12663 0.12655 0.12635 0.12612 0.12609 0.12606 0.12608 0.12614 0.1262 0.12625 0.12641 0.12646 0.12653 0.12696 0.12733 0.12761 0.12757 0.12756 0.12742 0.12688 0.12637 0.12591 0.12572 0.1255 0.12528 0.12534 0.12547 0.12553 0.12571 0.12595 0.12617 0.1261 0.12596 0.12585 0.12575 0.12564 0.12554
0.13053 0.13141 0.1323 0.13339 0.13388 0.13453 0.13522 0.1348 0.13443 0.13417 0.13311 0.13244 0.1317 0.13095 0.13016 0.12944 0.12905 0.12875 0.12847 0.12825 0.12798 0.12772 0.12757 0.1275 0.12752 0.12763 0.12772 0.1277 0.12768 0.12767 0.12765 0.1277 0.12769 0.12772 0.12758 0.12749 0.12738 0.1273 0.12732 0.1273 0.12725 0.12725 0.12733 0.12732 0.12739 0.12765 0.12785 0.12787 0.12794 0.12795 0.12803 0.12812 0.1281 0.12821 0.12842 0.12856 0.12842 0.12845 0.12842 0.12845 0.12841 0.12839 0.12831 0.12817 0.128 0.12782 0.12772 0.12753 0.12736 0.12726 0.12714 0.12705 0.12702 0.12685 0.12667 0.12658 0.12652 0.12641 0.12637 0.12639 0.12651 0.12663 0.1269 0.1271 0.12726 0.12737 0.12808 0.12881 0.12806 0.12781 0.12847 0.12776 0.12715 0.12645 0.12618 0.12594 0.12572 0.12587 0.12599 0.1262 0.12425 0.12498 0.127 0.12611 0.126 0.12643 0.12639 0.1262 0.12586
0.1311 0.13182 0.13261 0.13346 0.13389 0.13443 0.13486 0.13431 0.13405 0.13392 0.13305 0.13216 0.13162 0.13089 0.13014 0.12947 0.12914 0.12886 0.1286 0.12838 0.12819 0.12798 0.12793 0.12796 0.12788 0.12803 0.12814 0.12822 0.12822 0.12826 0.12825 0.12819 0.12819 0.12817 0.12808 0.12802 0.1279 0.12781 0.12781 0.12776 0.1278 0.12774 0.12768 0.12789 0.12807 0.12824 0.1283 0.12847 0.12861 0.12858 0.12857 0.12862 0.12874 0.12878 0.12894 0.12899 0.12905 0.12917 0.12925 0.12927 0.12939 0.1293 0.12922 0.12918 0.12902 0.12898 0.12882 0.12848 0.12812 0.1277 0.12768 0.1275 0.12735 0.12729 0.127 0.12674 0.12669 0.12665 0.12659 0.12671 0.12698 0.12707 0.12749 0.12776 0.12812 0.12763 0.12789 0.12805 0.12776 0.1275 0.12764 0.12711 0.12664 0.12616 0.12286 0.11949 0.11607 0.1162 0.11637 0.11654 0.1205 0.12208 0.12402 0.12515 0.12553 0.12598 0.12686 0.12701 0.12849
0.13188 0.13238 0.13276 0.13321 0.1336 0.13401 0.13447 0.13411 0.13372 0.13359 0.133 0.13224 0.13155 0.1309 0.1302 0.12964 0.12934 0.1291 0.12887 0.12865 0.12848 0.12824 0.12827 0.12831 0.12836 0.12848 0.12853 0.12858 0.12867 0.12873 0.12874 0.12868 0.12871 0.12874 0.12865 0.12852 0.12839 0.12833 0.12825 0.1283 0.12833 0.1283 0.12823 0.12843 0.12861 0.12894 0.12896 0.12922 0.1295 0.12948 0.12948 0.12946 0.12951 0.12953 0.12952 0.12963 0.12978 0.1299 0.13008 0.13025 0.13043 0.1304 0.13036 0.13042 0.1301 0.12995 0.12996 0.12957 0.12908 0.12857 0.12813 0.12774 0.12754 0.12759 0.12756 0.12737 0.12723 0.12704 0.12701 0.1271 0.12736 0.12749 0.12802 0.1286 0.12923 0.12691 0.12621 0.12778 0 0 0.12698 0.1267 0.12639 0.12614 0.1195 0.11298 0.1064 0.10656 0.10673 0 0 0.12164 0.11998 0.12226 0.1248 0.12598 0.12723 0.12914 0.13095
