ncols        109
nrows        82
xllcorner    -1.041666666667
yllcorner    37.041665395101
cellsize     0.083333333333
NODATA_value -9999
0.0 0 0 0 0 0 0 0 0 0 0 0 0 0 0 0 0 0 0 0 0 0 0 0 0 0 0 0 0 0 0 0 0 0 0 0 0 0 0 0 0 0 0 0 0 0 0 0 0 0 0 0 0 0 0 0 0 0 0 0 0 0 0 0 0 0 0 0 0 0 0 0 0 0 0 0 0 0 0 0 0 0 0 0 0 0 0 0 0 0 0 0 0 0 0 0 0 0 0 0 0 0 0 0 0 0.13524 0.13522 0.13545 0.13561
0 0 0 0 0 0 0 0 0 0 0 0 0 0 0 0 0 0 0 0 0 0 0 0 0 0 0 0 0 0 0 0 0 0 0 0 0 0 0 0 0 0 0 0 0 0 0 0 0 0 0 0 0 0 0 0 0 0 0 0 0 0 0 0 0 0 0 0 0 0 0 0 0 0 0 0 0 0 0 0 0 0 0 0 0 0 0 0 0 0 0 0 0 0 0 0 0 0 0 0 0 0.13485 0.13494 0.135 0.13542 0.13597 0.13609 0.13616 0.13617
0 0 0 0 0 0 0 0 0 0 0 0 0 0 0 0 0 0 0 0 0 0 0 0 0 0 0 0 0 0 0 0 0 0 0 0 0 0 0 0 0 0 0 0 0 0 0 0 0 0 0 0 0 0 0 0 0 0 0 0 0 0 0 0 0 0 0 0 0 0 0 0 0 0 0 0 0 0 0 0 0 0 0 0 0 0 0 0 0 0 0 0 0 0 0 0 0 0 0.13455 0.13478 0.1349 0.13493 0.13507 0.13506 0.13505 0.13507 0.13533 0.13569 0.13583
0 0 0 0 0 0 0 0 0 0 0 0 0 0 0 0 0 0 0 0 0 0 0 0 0 0 0 0 0 0 0 0 0 0 0 0 0 0 0 0 0 0 0 0 0 0 0 0 0 0 0 0 0 0 0 0 0 0 0 0 0 0 0 0 0 0 0 0 0 0 0 0 0 0 0 0 0 0 0 0 0 0 0 0 0 0 0 0 0 0 0 0 0 0 0 0 0 0.13437 0.13486 0.13517 0.13521 0.1353 0.13559 0.13544 0.13495 0.13507 0.13512 0.13514 0.13518
0 0 0 0 0 0 0 0 0 0 0 0 0 0 0 0 0 0 0 0 0 0 0 0 0 0 0 0 0 0 0 0 0 0 0 0 0 0 0 0 0 0 0 0 0 0 0 0 0 0 0 0 0 0 0 0 0 0 0.14459 0.14736 0.14931 0.151 0 0 0 0 0 0 0 0 0 0 0 0 0 0 0 0 0 0 0 0 0 0 0 0 0 0 0 0 0 0 0 0 0 0.13451 0.13433 0.13478 0.13529 0.13595 0.13625 0.13633 0.13677 0.13624 0.13563 0.1351 0.13496 0.13478 0.13455
0 0 0 0 0 0 0 0 0 0 0 0 0 0 0 0 0 0 0 0 0 0 0 0 0 0 0 0 0 0 0 0 0 0 0 0 0 0 0 0 0 0 0 0 0 0 0 0 0 0 0 0 0 0 0 0 0.1435 0.14324 0.14395 0.14528 0.14831 0.14844 0.1493 0.14966 0.13829 0.12789 0.11812 0 0 0 0 0.12375 0 0 0 0 0 0 0 0 0 0 0 0 0 0 0 0 0 0 0 0 0 0.13497 0.13502 0.13475 0.13476 0.13505 0.13523 0.1356 0.13562 0.13594 0.13631 0.13569 0.13523 0.13475 0.13457 0.13442 0.13418
0 0 0 0 0 0 0 0 0 0 0 0 0 0 0 0 0 0 0 0 0 0 0 0 0 0 0 0 0 0 0 0 0 0 0 0 0 0 0 0 0 0 0 0 0 0 0 0 0 0 0 0 0 0 0 0.14344 0.1465 0.14775 0.14677 0.14605 0.14855 0.14805 0.14743 0.14783 0.14054 0.13472 0.12893 0.13351 0.12994 0.1286 0.1276 0.12554 0.12427 0.12143 0.1164 0.11332 0.11356 0 0 0 0 0 0 0 0 0 0 0 0 0 0 0 0.13487 0.13417 0.13499 0.13492 0.13495 0.13496 0.13523 0.13545 0.13546 0.13543 0.13547 0.13491 0.13468 0.13445 0.13433 0.13424 0.13403
0 0 0 0 0 0 0 0 0 0 0 0 0 0 0 0 0 0 0 0 0 0 0 0 0 0 0 0 0 0 0 0 0 0 0 0 0 0 0 0 0 0 0 0 0 0 0 0 0 0 0 0.13207 0.13375 0.13581 0.139 0.14375 0.14954 0.15354 0.15184 0.15083 0.15072 0.15018 0.14926 0.14804 0.14407 0.14217 0.1411 0.13627 0.13204 0.12853 0.12672 0.1256 0.12523 0.11838 0.11197 0.1053 0 0 0 0 0 0 0 0 0 0 0 0 0 0 0 0 0.13427 0.13547 0.13511 0.13507 0.13508 0.13498 0.13499 0.13512 0.1351 0.13488 0.13469 0.1342 0.13427 0.13437 0.13424 0.13413 0.13399
0 0 0 0 0 0 0 0 0 0 0 0 0 0 0 0 0 0 0 0 0 0 0 0 0 0 0 0 0 0 0 0 0 0 0 0 0 0 0 0 0 0 0 0 0 0 0 0 0 0 0.1299 0.13082 0.13164 0.13346 0.13599 0.1391 0.14275 0.14525 0.14387 0.14307 0.14256 0.14284 0.14351 0.14433 0.14466 0.14616 0.14777 0.14335 0.13984 0.13692 0.1347 0.13326 0.13213 0.1265 0.1214 0.11584 0.11646 0.11757 0.11788 0.12093 0.12503 0.12836 0 0 0 0 0 0 0 0.12606 0.12977 0.13227 0.13366 0.13577 0.13545 0.13514 0.13476 0.13452 0.13424 0.13412 0.13381 0.13359 0.13345 0.13337 0.13335 0.13323 0.13325 0.13332 0.13326
0 0 0 0 0 0 0 0 0 0 0 0 0 0 0 0 0 0 0 0 0 0 0 0 0 0 0 0 0 0 0 0 0 0 0 0 0 0 0 0 0 0 0 0 0 0 0 0 0 0.12973 0.12953 0.12952 0.12974 0.13126 0.13192 0.13277 0.13389 0.13687 0.1348 0.1335 0.13286 0.13511 0.1381 0.14132 0.14499 0.1492 0.15353 0.14996 0.14711 0.14475 0.14243 0.14033 0.13848 0.13405 0.13048 0.12638 0.12755 0.12756 0.12803 0.13274 0.13314 0.13506 0 0.1359 0.13572 0.12798 0.11427 0.10625 0.11336 0.12549 0.13176 0.1332 0.13368 0.13607 0.13565 0.13506 0.13473 0.13453 0.13411 0.13377 0.1334 0.13311 0.13275 0.13243 0.1322 0.13215 0.13235 0.13254 0.13263
0 0 0 0 0 0 0 0 0 0 0 0 0 0 0 0 0 0 0 0 0 0 0 0 0 0 0 0 0 0 0 0 0 0 0 0 0 0 0 0 0 0 0 0 0 0 0 0 0 0.12909 0.1286 0.12848 0.12821 0.12944 0.1312 0.12973 0.12833 0.12803 0.12691 0.12557 0.12415 0.12865 0.1335 0.13881 0.14601 0.15293 0.16072 0.15788 0.15541 0.15388 0.15069 0.14805 0.14538 0.14219 0.13993 0.13733 0.13775 0.13803 0.1386 0.13874 0.13905 0.13934 0.14068 0.14256 0.14446 0.12435 0.10442 0.08464 0.10185 0.11941 0.13714 0.13695 0.13672 0.13624 0.13577 0.1353 0.13516 0.13458 0.13408 0.13362 0.13297 0.13223 0.13176 0.13155 0.13133 0.1314 0.13149 0.13155 0.1316
0 0 0 0 0 0 0 0 0 0 0 0 0 0 0 0 0 0 0 0 0 0 0 0 0 0 0 0 0 0 0 0 0 0 0 0 0 0 0 0 0 0 0 0 0 0 0 0 0 0.12967 0.12915 0.12905 0.12966 0.13044 0.13221 0.1317 0.1322 0.13286 0.13139 0.12989 0.12894 0.13178 0.1348 0.13818 0.14282 0.14813 0.15322 0.15122 0.14977 0.14872 0.14647 0.14395 0.14159 0.13945 0.13743 0.13559 0.13586 0.13638 0.13685 0.13705 0.13741 0.13768 0.13903 0.14034 0.14157 0.12826 0.11498 0.10183 0.11331 0.12511 0.13665 0.13637 0.13593 0.13583 0.13537 0.1351 0.13479 0.13384 0.13333 0.13261 0.13219 0.13179 0.13131 0.13117 0.13104 0.13096 0.1312 0.13133 0.13141
0 0 0 0 0 0 0 0 0 0 0 0 0 0 0 0 0 0 0 0 0 0 0 0 0 0 0 0 0 0 0 0 0 0 0 0 0 0 0 0 0 0 0 0 0 0 0 0 0 0.13252 0.13289 0.13165 0.13219 0.13303 0.1341 0.13442 0.13649 0.13732 0.13593 0.13434 0.1334 0.13512 0.13623 0.13804 0.14071 0.14341 0.14622 0.14526 0.14425 0.1435 0.142 0.14026 0.13869 0.13724 0.13558 0.1349 0.13544 0.13567 0.13581 0.13573 0.13606 0.13665 0.13742 0.13799 0.13864 0.13194 0.12554 0.11917 0.12491 0.1305 0.13601 0.13555 0.1353 0.13518 0.13483 0.13454 0.13418 0.13312 0.13252 0.13198 0.13155 0.13113 0.13069 0.13049 0.13026 0.13026 0.13055 0.13104 0.13133
0 0 0 0 0 0 0 0 0 0 0 0 0 0 0 0 0 0 0 0 0 0 0 0 0 0 0 0 0 0 0 0 0 0 0 0 0 0 0 0 0 0 0 0 0 0 0 0 0 0.13412 0.13502 0.13563 0.13494 0.13518 0.13719 0.13936 0.14118 0.14287 0.14106 0.13979 0.13875 0.13864 0.1388 0.13897 0.13878 0.13927 0.1398 0.1392 0.13898 0.13896 0.13784 0.13674 0.13586 0.13521 0.13505 0.13525 0.13544 0.13519 0.13497 0.13499 0.13537 0.13573 0.13614 0.13619 0.13629 0.13634 0.13644 0.13681 0.13664 0.13613 0.13544 0.13497 0.13471 0.13469 0.13441 0.134 0.1332 0.13268 0.13195 0.13135 0.13097 0.13057 0.1301 0.12994 0.12997 0.13014 0.13045 0.1308 0.13111
0 0 0 0 0 0 0 0 0 0 0 0 0 0 0 0 0 0 0 0 0 0 0 0 0 0 0 0 0 0 0 0 0 0 0 0 0 0 0 0 0 0 0 0 0 0 0 0 0 0.1346 0.13493 0.13514 0.13558 0.13629 0.14022 0.14072 0.14093 0.14155 0.14026 0.13928 0.13813 0.13786 0.13804 0.13827 0.13825 0.13832 0.1385 0.13804 0.13766 0.13759 0.1367 0.13578 0.13503 0.13438 0.13379 0.13348 0.13339 0.13332 0.13335 0.13351 0.13367 0.13379 0.13394 0.13414 0.13436 0.13453 0.13468 0.13484 0.13459 0.13426 0.1339 0.13371 0.13354 0.13336 0.13286 0.13235 0.13203 0.13162 0.13109 0.13059 0.13039 0.13019 0.12996 0.13006 0.13007 0.13028 0.13052 0.1309 0.13119
0 0 0 0 0 0 0 0 0 0 0 0 0 0 0 0 0 0 0 0 0 0 0 0 0 0 0 0 0 0 0 0 0 0 0 0 0 0 0 0 0 0 0 0 0 0 0 0 0 0.13533 0.13645 0.13701 0.13844 0.14091 0.14475 0.14258 0.14181 0.14043 0.13913 0.13847 0.13783 0.13783 0.13751 0.13729 0.13731 0.13725 0.13744 0.13714 0.13656 0.13656 0.13566 0.13485 0.13414 0.13354 0.13302 0.13261 0.13231 0.13217 0.13224 0.13229 0.13233 0.13246 0.13255 0.13266 0.13295 0.13309 0.13319 0.13326 0.13306 0.13286 0.13267 0.13251 0.13219 0.13195 0.13156 0.13128 0.1309 0.1306 0.13028 0.12994 0.13007 0.13004 0.13001 0.13018 0.1303 0.13045 0.13077 0.13117 0.13147
0 0 0 0 0 0 0 0 0 0 0 0 0 0 0 0 0 0 0 0 0 0 0 0 0 0 0 0 0 0 0 0 0 0 0 0 0 0 0 0 0 0 0 0 0 0 0 0 0 0 0.13912 0.13981 0.1413 0.14504 0.14777 0.144 0.14132 0.13863 0.13818 0.13768 0.13704 0.13693 0.13687 0.13653 0.13641 0.13626 0.13649 0.13594 0.13571 0.13556 0.13482 0.1339 0.13333 0.13269 0.13229 0.13183 0.13167 0.13138 0.13122 0.13114 0.13128 0.13146 0.13147 0.1315 0.13154 0.13157 0.13156 0.13143 0.13135 0.13127 0.13127 0.13114 0.13098 0.13078 0.1305 0.13035 0.13017 0.13001 0.12977 0.12957 0.12975 0.12972 0.12992 0.1302 0.13038 0.13065 0.13099 0.13138 0.13184
0 0 0 0 0 0 0 0 0 0 0 0 0 0 0 0 0 0 0 0 0 0 0 0 0 0 0 0 0 0 0 0 0 0 0 0 0 0 0 0 0 0 0 0 0 0 0 0 0 0 0.1408 0.14155 0.14165 0.14244 0.14449 0.14158 0.13965 0.13775 0.13713 0.13644 0.13628 0.13613 0.13586 0.13574 0.13541 0.13564 0.13559 0.1351 0.1348 0.13443 0.13362 0.13289 0.13226 0.13179 0.13155 0.13126 0.13105 0.13075 0.13062 0.13057 0.13072 0.13077 0.1308 0.13094 0.13118 0.13118 0.13122 0.13121 0.13117 0.1312 0.13114 0.13097 0.13086 0.13073 0.13061 0.13047 0.1303 0.13012 0.13003 0.12992 0.13005 0.13009 0.13025 0.13051 0.13071 0.13091 0.13126 0.13157 0.13196
0 0 0 0 0 0 0 0 0 0 0 0 0 0 0 0 0 0 0 0 0 0 0 0 0 0 0 0 0 0 0 0 0 0 0 0 0 0 0 0 0 0 0 0 0 0 0 0 0 0 0 0 0.14105 0.1404 0.14199 0.13959 0.13823 0.13689 0.13629 0.13598 0.1354 0.13541 0.13529 0.13531 0.13512 0.13515 0.13518 0.13472 0.13426 0.13372 0.13309 0.13248 0.1319 0.13149 0.13116 0.13073 0.13073 0.1306 0.13028 0.13015 0.13034 0.13054 0.13065 0.13079 0.13096 0.13098 0.13108 0.13106 0.13102 0.13094 0.1309 0.13093 0.13088 0.13082 0.13056 0.13045 0.13055 0.13062 0.13057 0.13054 0.13046 0.13049 0.13048 0.13072 0.13091 0.13121 0.13154 0.13189 0.13217
0 0 0 0 0 0 0 0 0 0 0 0 0 0 0 0 0 0 0 0 0 0 0 0 0 0 0 0 0 0 0 0 0 0 0 0 0 0 0 0 0 0 0 0 0 0 0 0 0 0 0.14088 0.14167 0.14111 0.14007 0.14001 0.13874 0.13741 0.13628 0.13588 0.13554 0.13504 0.13498 0.13445 0.13456 0.13446 0.13487 0.13485 0.13428 0.1338 0.13321 0.13254 0.13182 0.13133 0.13096 0.13057 0.13022 0.12995 0.12984 0.12967 0.12957 0.1297 0.13004 0.13029 0.13048 0.1307 0.13083 0.13102 0.13105 0.13092 0.1309 0.13102 0.13104 0.13105 0.13094 0.13085 0.13096 0.13122 0.13137 0.13144 0.13142 0.13103 0.13088 0.13085 0.13101 0.13118 0.13154 0.13189 0.13219 0.13238
0 0 0 0 0 0 0 0 0 0 0 0 0 0 0 0 0 0 0 0 0 0 0 0 0 0 0 0 0 0 0 0 0 0 0 0 0 0 0 0 0 0 0 0 0 0 0 0 0 0 0.13924 0.14092 0.14016 0.13933 0.13897 0.13826 0.13679 0.13566 0.13556 0.13525 0.13474 0.13457 0.1342 0.13405 0.13421 0.1346 0.13474 0.13416 0.1337 0.13315 0.13262 0.13223 0.13156 0.13116 0.13072 0.13036 0.13028 0.13007 0.13004 0.13 0.13009 0.13031 0.13037 0.13052 0.13069 0.13089 0.13116 0.13141 0.13143 0.13143 0.13142 0.13137 0.13143 0.1315 0.13166 0.13187 0.13186 0.13187 0.13191 0.13204 0.13176 0.13153 0.13141 0.13154 0.13162 0.13196 0.13232 0.13255 0.13274
0 0 0 0 0 0 0 0 0 0 0 0 0 0 0 0 0 0 0 0 0 0 0 0 0 0 0 0 0 0 0 0 0 0 0 0 0 0 0 0 0 0 0 0 0 0 0 0 0 0 0 0.13971 0.13894 0.13863 0.1381 0.13707 0.13599 0.13524 0.13513 0.13451 0.13412 0.13404 0.13382 0.13389 0.13387 0.13428 0.13444 0.13396 0.13352 0.13308 0.13268 0.13225 0.1317 0.13121 0.13091 0.13082 0.13068 0.13061 0.13061 0.13057 0.13067 0.13076 0.13084 0.13087 0.1309 0.131 0.13151 0.13192 0.13207 0.13212 0.13199 0.13194 0.13197 0.13207 0.13211 0.13219 0.1324 0.13216 0.13205 0.1321 0.13244 0.13216 0.13181 0.13196 0.13201 0.13216 0.13231 0.13252 0.13264
0 0 0 0 0 0 0 0 0 0 0 0 0 0 0 0 0 0 0 0 0 0 0 0 0 0 0 0 0 0 0 0 0 0 0 0 0 0 0 0 0 0 0 0 0 0 0 0 0 0 0 0.13781 0.13744 0.13768 0.13707 0.13585 0.13521 0.13452 0.13456 0.13393 0.13362 0.13343 0.13355 0.13357 0.1337 0.13392 0.1341 0.13378 0.13336 0.13304 0.13275 0.13238 0.13196 0.13155 0.13144 0.1313 0.13126 0.13132 0.13134 0.13124 0.13129 0.13132 0.13125 0.13121 0.13146 0.13182 0.13217 0.13246 0.13262 0.13281 0.1328 0.1327 0.13268 0.13296 0.13301 0.13306 0.13309 0.13305 0.1327 0.13255 0.13237 0.13232 0.13249 0.13258 0.13254 0.13253 0.13264 0.1328 0.1329
0 0 0 0 0 0 0 0 0 0 0 0 0 0 0 0 0 0 0 0 0 0 0 0 0 0 0 0 0 0 0 0 0 0 0 0 0 0 0 0 0 0 0 0 0 0 0 0 0 0 0 0.13757 0.13678 0.13643 0.13582 0.13469 0.13439 0.13359 0.13348 0.13339 0.13323 0.13291 0.13334 0.13355 0.13353 0.13377 0.13394 0.13367 0.13344 0.13339 0.13307 0.1327 0.13234 0.13202 0.13182 0.1317 0.13173 0.13179 0.13179 0.13155 0.13154 0.13178 0.13165 0.13161 0.13177 0.13211 0.13259 0.13267 0.1327 0.13293 0.13309 0.13311 0.13312 0.13331 0.13331 0.13335 0.1335 0.13323 0.13263 0.13261 0.13259 0.1325 0.1322 0.13236 0.1324 0.13257 0.13282 0.1331 0.13327
0 0 0 0 0 0 0 0 0 0 0 0 0 0 0 0 0 0 0 0 0 0 0 0 0 0 0 0 0 0 0 0 0 0 0 0 0 0 0 0 0 0 0 0 0 0 0 0 0 0.13343 0.13506 0.13791 0.13685 0.13592 0.13515 0.13414 0.1335 0.13293 0.13268 0.13295 0.13274 0.13279 0.13279 0.13321 0.13324 0.13338 0.13361 0.13348 0.13343 0.1335 0.13339 0.13302 0.13265 0.13261 0.13234 0.13232 0.13228 0.13222 0.13218 0.13206 0.13191 0.13205 0.13193 0.13201 0.13191 0.13224 0.13255 0.13288 0.13296 0.13304 0.13304 0.13317 0.13365 0.1336 0.13359 0.13362 0.13377 0.13387 0.13326 0.13298 0.1328 0.13271 0.13244 0.1325 0.13274 0.13306 0.13329 0.13342 0.13364
0 0 0 0 0 0 0 0 0 0 0 0 0 0 0 0 0 0 0 0 0 0 0 0 0 0 0 0 0 0 0 0 0 0 0 0 0 0 0 0 0 0 0 0 0 0 0 0 0.1286 0.13179 0.13495 0.13782 0.1366 0.13564 0.13448 0.13357 0.13309 0.13237 0.13231 0.13258 0.13258 0.13257 0.13272 0.13275 0.13295 0.13311 0.13327 0.13347 0.13358 0.13352 0.13361 0.13333 0.13314 0.13283 0.13274 0.1329 0.13279 0.13264 0.13256 0.13242 0.13217 0.13239 0.13236 0.13225 0.13228 0.13238 0.13283 0.1331 0.13329 0.13332 0.13336 0.13351 0.13364 0.13369 0.13394 0.13431 0.13479 0.13456 0.13387 0.13352 0.13332 0.1332 0.1329 0.13297 0.13314 0.13315 0.13351 0.13384 0.13398
0 0 0 0 0 0 0 0 0 0 0 0 0 0 0 0 0 0 0 0 0 0 0 0 0 0 0 0 0 0 0 0 0 0 0 0 0 0 0 0 0 0 0 0 0 0.13257 0.13219 0.13136 0.13103 0.13308 0.13505 0.13663 0.13584 0.13463 0.13363 0.1331 0.1326 0.1321 0.13237 0.1322 0.13222 0.13234 0.13254 0.13272 0.13293 0.13311 0.13341 0.13358 0.13371 0.13391 0.13392 0.13355 0.13362 0.13357 0.13337 0.13329 0.1332 0.13307 0.13289 0.13253 0.13252 0.13229 0.13227 0.13234 0.13242 0.13271 0.13313 0.13329 0.13349 0.13357 0.13366 0.13373 0.13383 0.13403 0.13409 0.13472 0.13533 0.13503 0.13435 0.13397 0.13378 0.13357 0.13291 0.13305 0.13331 0.13343 0.13369 0.13415 0.13431
0 0 0 0 0 0 0 0 0 0 0 0 0 0 0 0 0 0 0 0 0 0 0 0 0 0 0 0 0 0 0 0 0 0 0 0 0 0 0 0 0 0 0.12953 0.13074 0.13225 0.13291 0.13292 0.13329 0.13262 0.13342 0.13391 0.13507 0.13436 0.13356 0.13286 0.13257 0.1322 0.1317 0.13194 0.13191 0.13203 0.1322 0.13235 0.13242 0.13266 0.13293 0.13339 0.1335 0.13392 0.13407 0.13393 0.13382 0.13415 0.13405 0.13391 0.13388 0.13348 0.13348 0.13336 0.13289 0.13267 0.13252 0.13249 0.13264 0.13291 0.13316 0.13325 0.13334 0.13346 0.13356 0.13384 0.13431 0.13442 0.13433 0.13436 0.13464 0.13537 0.13527 0.13471 0.13438 0.13418 0.1338 0.13342 0.13331 0.13345 0.13357 0.13379 0.13426 0.13458
0 0 0 0 0 0 0 0 0 0 0 0 0 0 0 0 0 0 0 0 0 0 0 0 0 0 0 0 0 0 0 0 0 0 0 0 0 0 0 0 0.12727 0.12823 0.12887 0.13013 0.13207 0.13314 0.13356 0.13425 0.13485 0.13459 0.1337 0.1336 0.13313 0.1325 0.13201 0.1319 0.13167 0.13146 0.13153 0.13167 0.13158 0.1317 0.13203 0.13209 0.13239 0.13284 0.13332 0.13354 0.13373 0.13404 0.13395 0.134 0.13417 0.1343 0.13448 0.1343 0.13401 0.13383 0.13385 0.13348 0.13327 0.13319 0.13324 0.13311 0.13335 0.13341 0.13367 0.1339 0.13387 0.1339 0.13443 0.13478 0.1349 0.13497 0.13509 0.13524 0.13563 0.13533 0.13503 0.13491 0.13471 0.13412 0.13364 0.13367 0.13369 0.13368 0.13399 0.13427 0.13476
0 0 0 0 0 0 0 0 0 0 0 0 0 0 0 0 0 0 0 0 0 0 0 0 0 0 0 0 0 0 0 0 0 0 0 0 0 0 0 0.12578 0.12716 0.12792 0.12834 0.12887 0.13017 0.131 0.13151 0.13235 0.13298 0.13294 0.13264 0.1324 0.13205 0.13169 0.13142 0.13135 0.13129 0.13133 0.13132 0.13124 0.13117 0.13138 0.13145 0.13187 0.13221 0.13268 0.13316 0.13352 0.13357 0.13397 0.13415 0.1341 0.13457 0.13478 0.13481 0.1348 0.1346 0.13437 0.13431 0.13377 0.13353 0.13359 0.13369 0.13361 0.13358 0.13362 0.13401 0.13432 0.13422 0.13451 0.13502 0.13524 0.13547 0.13568 0.13584 0.13597 0.136 0.13574 0.13523 0.13481 0.13431 0.13389 0.13368 0.13376 0.13396 0.13407 0.1342 0.13433 0.13478
0 0 0 0 0 0 0 0 0 0 0 0 0 0 0 0 0 0 0 0 0 0 0 0 0 0 0 0 0 0 0 0 0 0 0 0 0 0 0.12347 0.12719 0.12781 0.12825 0.12849 0.12845 0.12896 0.12962 0.12972 0.1302 0.13044 0.131 0.13147 0.13151 0.13134 0.13128 0.13121 0.13117 0.13113 0.1312 0.13107 0.13118 0.13125 0.13136 0.13148 0.13191 0.13216 0.13256 0.133 0.13331 0.13363 0.13391 0.13389 0.13411 0.13444 0.13477 0.13503 0.13509 0.13475 0.13456 0.13453 0.13409 0.13378 0.13379 0.1338 0.13381 0.13381 0.13398 0.13423 0.13468 0.13492 0.13538 0.13576 0.13584 0.13593 0.13611 0.13635 0.13658 0.13619 0.13548 0.13507 0.13462 0.13374 0.13354 0.1335 0.13378 0.13411 0.13426 0.13441 0.13449 0.13479
0 0 0 0 0 0 0 0 0 0 0 0 0 0 0 0 0 0 0 0 0 0 0 0 0 0 0 0 0 0 0 0 0 0 0.11591 0.10817 0.10211 0.11127 0.12053 0.13005 0.12974 0.12935 0.1293 0.12896 0.12871 0.12793 0.12809 0.12842 0.12853 0.1295 0.13016 0.13061 0.13091 0.13106 0.13111 0.13105 0.13099 0.13112 0.13107 0.13126 0.13142 0.13163 0.13172 0.13184 0.13219 0.13249 0.13276 0.13322 0.1335 0.13393 0.13395 0.13407 0.13443 0.13495 0.13517 0.13512 0.13502 0.13474 0.13449 0.13409 0.13407 0.13413 0.13415 0.13401 0.13397 0.13419 0.13469 0.135 0.13547 0.13602 0.13641 0.13659 0.13682 0.13693 0.13665 0.13654 0.1358 0.13533 0.13504 0.13473 0.13408 0.13376 0.13346 0.13377 0.13425 0.13443 0.13455 0.13463 0.1348
0 0 0 0 0 0 0 0 0 0 0 0 0 0 0 0 0 0 0 0 0 0 0 0 0 0 0 0 0 0.12375 0.12485 0.1258 0.12545 0.12387 0.1209 0.11686 0.11087 0.11691 0.12303 0.12911 0.12846 0.12812 0.12775 0.12763 0.12755 0.12699 0.12752 0.12784 0.12813 0.12918 0.12986 0.13024 0.13059 0.13079 0.13098 0.13098 0.13097 0.13099 0.13102 0.13124 0.13157 0.13172 0.13188 0.132 0.13223 0.13251 0.13285 0.1334 0.13357 0.13359 0.13377 0.13396 0.13418 0.13469 0.13493 0.13481 0.13453 0.13443 0.13429 0.13407 0.13394 0.13408 0.1344 0.13432 0.13443 0.13486 0.13534 0.13547 0.13582 0.13638 0.13693 0.13719 0.13731 0.13707 0.13683 0.13677 0.1365 0.13553 0.13515 0.1348 0.13428 0.13398 0.13359 0.13378 0.13432 0.13449 0.13462 0.13482 0.13497
0 0 0 0 0 0 0 0 0 0 0 0 0 0 0 0 0 0 0 0 0 0 0 0 0 0.11669 0.11704 0.11693 0.12014 0.12522 0.12754 0.12771 0.12756 0.12779 0.12643 0.12532 0.11989 0.12273 0.12547 0.12815 0.12762 0.12699 0.1264 0.12635 0.12622 0.12615 0.12694 0.12754 0.12802 0.12877 0.12938 0.12993 0.13016 0.13068 0.13073 0.13088 0.13103 0.1311 0.13123 0.13148 0.13174 0.13188 0.13202 0.13219 0.1323 0.13275 0.13308 0.13342 0.13327 0.1335 0.13371 0.13381 0.13418 0.13465 0.13452 0.13448 0.13433 0.13411 0.13405 0.13395 0.13397 0.13405 0.13423 0.13444 0.13477 0.13537 0.13568 0.13586 0.13644 0.137 0.13763 0.13758 0.13737 0.13723 0.13738 0.13719 0.13703 0.13611 0.13537 0.13496 0.13452 0.13413 0.13376 0.13386 0.13437 0.13453 0.13476 0.13498 0.13518
0 0 0 0 0 0 0 0 0 0 0 0 0 0 0 0 0 0 0 0 0 0 0 0.11411 0.11534 0.11574 0.11518 0.11304 0.11916 0.12518 0.13094 0.13055 0.13049 0.13022 0.12974 0.12911 0.1284 0.12817 0.12793 0.12749 0.12702 0.12638 0.12557 0.12549 0.12533 0.12548 0.12627 0.12698 0.12779 0.12871 0.12924 0.12939 0.12991 0.13025 0.13057 0.13078 0.13096 0.13129 0.13147 0.13169 0.1319 0.13203 0.13227 0.1324 0.13244 0.13264 0.13304 0.13312 0.13317 0.13337 0.13348 0.13355 0.13378 0.13403 0.13391 0.13351 0.1335 0.1334 0.13344 0.13351 0.134 0.13409 0.13434 0.13489 0.13518 0.13551 0.13572 0.13631 0.13688 0.13747 0.13817 0.13806 0.13786 0.13764 0.13786 0.1376 0.13736 0.13677 0.13562 0.13511 0.13472 0.13431 0.13416 0.13396 0.13434 0.13453 0.13485 0.13507 0.13543
0 0 0 0 0 0 0 0 0 0 0 0 0 0 0 0 0 0 0 0 0 0 0.11029 0.11194 0.11326 0.11496 0.11723 0.11582 0.12056 0.1254 0.12985 0.12962 0.12946 0.12916 0.12874 0.12828 0.12765 0.12744 0.12736 0.12686 0.12642 0.12584 0.12527 0.12503 0.12484 0.12506 0.12572 0.1266 0.12741 0.12805 0.1288 0.12922 0.12967 0.13007 0.13046 0.13069 0.13089 0.13107 0.13133 0.13157 0.13196 0.13213 0.13235 0.1325 0.13258 0.13266 0.13284 0.13298 0.13298 0.133 0.13319 0.13325 0.13362 0.13363 0.13316 0.13301 0.13294 0.13289 0.13303 0.13287 0.13335 0.13394 0.13435 0.13474 0.13519 0.13538 0.13578 0.13655 0.13718 0.13797 0.13846 0.13837 0.13813 0.13797 0.13804 0.13806 0.13759 0.13653 0.13567 0.13511 0.13473 0.13426 0.13391 0.13397 0.1344 0.13481 0.135 0.13515 0.13537
0 0 0 0 0 0 0 0 0 0 0 0 0 0 0 0 0 0 0 0 0 0.10766 0.10815 0.10836 0.10861 0.1123 0.11717 0.11862 0.12197 0.12517 0.12832 0.12826 0.12799 0.12759 0.12731 0.12693 0.12649 0.1264 0.12633 0.12594 0.12558 0.12518 0.12476 0.12463 0.1245 0.12481 0.12557 0.12635 0.12706 0.12782 0.12856 0.12906 0.12953 0.1299 0.1304 0.13068 0.1309 0.13116 0.13137 0.1316 0.13191 0.13209 0.13229 0.13249 0.1325 0.13254 0.13276 0.13286 0.13296 0.13309 0.13314 0.13311 0.1333 0.13318 0.13308 0.13292 0.13284 0.13285 0.13292 0.13297 0.13342 0.13386 0.13438 0.13487 0.13516 0.1355 0.13578 0.13656 0.13757 0.13819 0.1386 0.13855 0.13827 0.13824 0.13815 0.13815 0.13753 0.13651 0.13563 0.13485 0.13465 0.13434 0.134 0.13411 0.13457 0.135 0.13513 0.13528 0.13533
0 0 0 0 0 0 0 0 0 0 0 0 0 0 0 0 0 0 0 0 0 0 0 0.10648 0.10412 0.10962 0.11566 0.12149 0.12342 0.12527 0.12669 0.12644 0.12632 0.1259 0.12572 0.12544 0.12498 0.12506 0.12509 0.12483 0.12464 0.12441 0.12415 0.12411 0.12405 0.12458 0.12535 0.12606 0.12672 0.12743 0.12834 0.12905 0.12956 0.12995 0.13046 0.13065 0.1309 0.13124 0.13149 0.13163 0.1319 0.13198 0.13227 0.13254 0.13255 0.13259 0.13287 0.13307 0.13321 0.13338 0.13337 0.13323 0.13333 0.13319 0.13293 0.1328 0.13272 0.13281 0.13306 0.13312 0.13348 0.13388 0.13456 0.13474 0.13509 0.13535 0.13573 0.13659 0.13739 0.13824 0.1387 0.13861 0.13835 0.13836 0.13822 0.13811 0.13729 0.13627 0.13545 0.13494 0.13469 0.13453 0.13421 0.13427 0.13474 0.13523 0.1352 0.13526 0.13528
0 0 0 0 0 0 0 0 0 0 0 0 0 0 0 0 0 0 0 0 0 0.09938 0.10274 0.10658 0.10543 0.1114 0.11778 0.12438 0.12502 0.12557 0.12596 0.12575 0.12542 0.12505 0.12494 0.12471 0.12435 0.12447 0.12449 0.12435 0.12419 0.12396 0.12378 0.12379 0.12373 0.12418 0.1249 0.12555 0.12626 0.1269 0.1275 0.12825 0.12872 0.12928 0.12984 0.13009 0.13037 0.13075 0.13101 0.13128 0.13153 0.13177 0.13203 0.13239 0.1324 0.1325 0.13258 0.13286 0.13309 0.13326 0.13325 0.13321 0.13315 0.13294 0.13277 0.1327 0.13271 0.13281 0.13303 0.13319 0.13357 0.13414 0.13485 0.13492 0.13529 0.13556 0.13616 0.13679 0.13745 0.13816 0.13872 0.1386 0.13856 0.13869 0.13816 0.13752 0.13688 0.13591 0.13538 0.13464 0.13451 0.13424 0.13394 0.13392 0.13445 0.13502 0.13519 0.13537 0.13554
0 0 0 0 0 0 0 0 0 0 0 0 0 0 0 0 0 0 0 0.09338 0.09084 0.08979 0.09672 0.10439 0.10665 0.11262 0.11956 0.12675 0.1264 0.12589 0.12496 0.12481 0.12457 0.12402 0.12404 0.12398 0.12363 0.12383 0.1239 0.12389 0.12373 0.12358 0.12328 0.12333 0.12329 0.12359 0.12426 0.12489 0.12561 0.12634 0.12693 0.12734 0.12785 0.12839 0.12897 0.12943 0.12978 0.13039 0.13068 0.13094 0.13114 0.13152 0.13181 0.13231 0.13231 0.13235 0.13242 0.13273 0.13286 0.13302 0.13296 0.13292 0.13297 0.1328 0.13261 0.13269 0.13264 0.13289 0.1332 0.13338 0.13393 0.13442 0.13491 0.1351 0.13563 0.13596 0.13652 0.13718 0.13762 0.13812 0.13867 0.13882 0.1388 0.13895 0.13816 0.13707 0.13668 0.13611 0.13525 0.13456 0.13419 0.13399 0.13359 0.13383 0.1343 0.1348 0.13522 0.13555 0.13586
0 0 0 0 0 0 0 0 0 0 0 0 0 0 0 0 0 0 0.09168 0.09049 0.08533 0.07843 0.08889 0.09835 0.10725 0.11395 0.12117 0.12897 0.12778 0.12615 0.12405 0.12376 0.12348 0.12287 0.12303 0.12313 0.12299 0.12321 0.12344 0.12343 0.12325 0.12303 0.12274 0.1228 0.12284 0.1231 0.12366 0.12442 0.12495 0.12552 0.12629 0.12658 0.12704 0.12762 0.12833 0.12887 0.12939 0.12986 0.1301 0.13044 0.13078 0.1313 0.13163 0.13218 0.13222 0.13218 0.13234 0.13244 0.13262 0.13284 0.13275 0.13271 0.13268 0.13254 0.13256 0.1326 0.13276 0.13301 0.13334 0.13373 0.1342 0.13467 0.13516 0.13562 0.136 0.13631 0.13692 0.13715 0.1375 0.13787 0.13835 0.13874 0.13895 0.13915 0.13798 0.1376 0.13703 0.13629 0.13497 0.13458 0.13428 0.13389 0.13346 0.13372 0.13401 0.13453 0.13502 0.13547 0.13604
0 0 0 0 0 0 0 0 0 0 0 0 0 0 0 0 0 0.09133 0.09136 0.09183 0.09211 0.0857 0.09504 0.10389 0.11273 0.11744 0.12228 0.12759 0.12685 0.12576 0.12414 0.12362 0.12326 0.12277 0.12284 0.12288 0.1228 0.12307 0.12333 0.12331 0.12316 0.12306 0.12292 0.12299 0.12304 0.12334 0.12393 0.12449 0.12501 0.12564 0.12621 0.12655 0.12677 0.12705 0.12748 0.12805 0.1286 0.12907 0.12946 0.13005 0.13054 0.13097 0.13127 0.13172 0.1321 0.13262 0.13283 0.13279 0.13251 0.13257 0.13257 0.13255 0.13261 0.13256 0.13263 0.13268 0.13292 0.13326 0.13368 0.13407 0.13456 0.13491 0.13532 0.13567 0.13617 0.13655 0.13728 0.13757 0.13801 0.13832 0.13865 0.13901 0.13864 0.13865 0.13813 0.13749 0.13695 0.13587 0.13468 0.1346 0.13394 0.13359 0.13329 0.1335 0.13366 0.1343 0.13474 0.13521 0.13618
0 0 0 0 0 0 0 0 0 0 0 0 0 0 0 0 0.08887 0.08727 0.08594 0.09081 0.09635 0.09198 0.1013 0.10928 0.11736 0.12 0.12297 0.12604 0.12576 0.12494 0.12394 0.12372 0.12314 0.12276 0.12269 0.12265 0.12264 0.12287 0.12311 0.12314 0.12312 0.1231 0.12312 0.12315 0.12329 0.12363 0.1241 0.12466 0.12511 0.12561 0.12619 0.12646 0.12661 0.12684 0.12699 0.12762 0.12808 0.12867 0.12914 0.12972 0.13024 0.13074 0.13119 0.13156 0.13196 0.13247 0.13286 0.13281 0.13248 0.13261 0.13263 0.13264 0.13268 0.13265 0.13257 0.13252 0.13304 0.13361 0.13423 0.13433 0.13486 0.13519 0.13557 0.13603 0.13681 0.13718 0.13766 0.13818 0.13863 0.13894 0.13943 0.13951 0.13947 0.13934 0.13834 0.13747 0.13662 0.13547 0.13469 0.13397 0.13336 0.13327 0.13311 0.13322 0.1334 0.13398 0.1345 0.13512 0.13587
0 0 0 0 0 0 0 0 0 0 0 0 0 0 0 0.09309 0.08963 0.08301 0.07706 0.08443 0.09151 0.0983 0.10716 0.11458 0.12213 0.123 0.12407 0.12489 0.1247 0.12436 0.12392 0.12345 0.12317 0.12267 0.12267 0.12265 0.12253 0.12265 0.12294 0.12302 0.12303 0.12313 0.12322 0.12335 0.12343 0.12383 0.12428 0.1247 0.1252 0.12571 0.12607 0.12629 0.12641 0.12656 0.12683 0.12724 0.12796 0.12835 0.12839 0.12911 0.13021 0.12975 0.1306 0.13137 0.13175 0.13213 0.13259 0.13258 0.13255 0.13273 0.13272 0.13278 0.13287 0.13292 0.13305 0.13301 0.13357 0.13419 0.13428 0.13473 0.13508 0.13543 0.13604 0.13647 0.13687 0.13717 0.13786 0.13844 0.13891 0.13927 0.14002 0.13991 0.13996 0.13954 0.13852 0.13732 0.13587 0.13474 0.13397 0.13354 0.13318 0.1329 0.13297 0.13316 0.1333 0.13372 0.13408 0.13491 0.13538
0 0 0 0 0 0 0 0 0 0 0 0 0 0 0.09243 0.09381 0.09293 0.09127 0.086 0.09295 0.09964 0.10654 0.11243 0.11744 0.12236 0.12348 0.12459 0.12552 0.12513 0.12478 0.12439 0.12372 0.12323 0.12287 0.12296 0.12288 0.12282 0.12287 0.12307 0.12306 0.12312 0.12312 0.12317 0.12327 0.12339 0.1237 0.12424 0.12474 0.12529 0.12577 0.12632 0.12668 0.12669 0.12658 0.12663 0.12604 0.12536 0.12496 0.12676 0.12747 0.12831 0.12819 0.12849 0.12576 0.12815 0.13061 0.133 0.13283 0.1325 0.13244 0.13265 0.13287 0.13298 0.13304 0.13321 0.13343 0.13387 0.13401 0.13434 0.1347 0.13508 0.13531 0.13587 0.13639 0.13673 0.13697 0.13781 0.13837 0.13885 0.13923 0.13927 0.13984 0.13979 0.13951 0.13804 0.13664 0.13524 0.13403 0.13326 0.13326 0.13284 0.13253 0.13245 0.13273 0.13308 0.13363 0.13398 0.13456 0.13532
0 0 0 0 0 0 0 0 0 0 0 0 0 0.09282 0.09257 0.09025 0.09479 0.09951 0.09452 0.10141 0.10832 0.11508 0.11787 0.12031 0.12256 0.12399 0.12481 0.12574 0.12525 0.12483 0.1244 0.12374 0.12318 0.12282 0.12295 0.12292 0.12296 0.12297 0.12311 0.12328 0.12316 0.12314 0.12313 0.12315 0.12321 0.12347 0.12414 0.12477 0.12536 0.12591 0.12676 0.12747 0.12718 0.12693 0.12666 0.12503 0.12342 0.12183 0 0 0 0.12833 0.12573 0.12049 0.1248 0.12929 0.1335 0.13304 0.13262 0.1324 0.13269 0.13279 0.13293 0.13297 0.13314 0.13339 0.13359 0.13382 0.13412 0.13458 0.13516 0.13523 0.13567 0.13624 0.1365 0.13695 0.13777 0.13828 0.13871 0.13886 0.13958 0.13979 0.13913 0.1391 0.13777 0.13644 0.1349 0.13377 0.1332 0.1332 0.13263 0.1322 0.1322 0.13234 0.13306 0.13331 0.13391 0.13472 0.13518
0 0 0 0 0 0 0 0 0 0 0 0 0 0.09689 0.08899 0.08235 0.0895 0.0964 0.10281 0.10975 0.11669 0.12396 0.12338 0.12316 0.12302 0.12436 0.12488 0.12576 0.12534 0.12478 0.12445 0.12386 0.12329 0.12285 0.12294 0.12316 0.12311 0.12309 0.12328 0.12316 0.12312 0.12312 0.12302 0.1225 0.12263 0.12304 0.12339 0.12468 0.12543 0.12527 0.12614 0.12775 0.12579 0.12507 0.1269 0.12425 0.12139 0.11872 0 0 0 0 0 0.12265 0.12137 0.12779 0.13414 0.13339 0.13291 0.13254 0.13273 0.13277 0.13289 0.13282 0.13284 0.13312 0.13326 0.1335 0.13382 0.13437 0.13505 0.13521 0.1354 0.13602 0.1363 0.1367 0.13723 0.13815 0.13866 0.13899 0.13998 0.13973 0.13867 0.1379 0.13711 0.13578 0.1344 0.13341 0.13331 0.13325 0.13254 0.13195 0.13209 0.13235 0.13297 0.13348 0.13433 0.13528 0.13596
0 0 0 0 0 0 0 0 0 0 0 0 0.10377 0.10276 0.0998 0.09724 0.10214 0.10688 0.11125 0.11578 0.12006 0.12442 0.1241 0.1241 0.12393 0.12486 0.12523 0.12604 0.12548 0.12496 0.12459 0.12409 0.12359 0.12326 0.12331 0.12344 0.12356 0.1235 0.12327 0.12305 0.12117 0.11939 0.11758 0.12104 0.12167 0.12253 0.12318 0 0 0.12561 0 0.12438 0.12265 0.12117 0.11443 0.11684 0.11919 0.12155 0.12078 0.12263 0.12397 0 0 0 0.12396 0.12875 0.13353 0.13309 0.13239 0.1322 0.13227 0.13233 0.13235 0.1324 0.13237 0.13245 0.13256 0.13297 0.13323 0.13383 0.13434 0.13465 0.13491 0.13521 0.13576 0.13675 0.13723 0.13781 0.13839 0.13903 0.13977 0.13883 0.13782 0.13713 0.13664 0.13522 0.13379 0.13339 0.13342 0.13297 0.1324 0.13205 0.13203 0.13216 0.13263 0.13281 0.13366 0.13484 0.13562
0 0 0 0 0 0 0 0 0 0 0 0.10306 0.10205 0.10618 0.11353 0.11199 0.11455 0.11721 0.1197 0.1216 0.12331 0.12502 0.12488 0.12487 0.12491 0.12539 0.12568 0.1262 0.12569 0.12517 0.12465 0.12428 0.12398 0.12368 0.12381 0.12391 0.12385 0.12364 0.12348 0.123 0.11936 0.11571 0.11197 0.11565 0.11861 0 0 0 0 0 0.12192 0.11945 0.11543 0.10971 0.10203 0.10938 0.11684 0.12451 0.12277 0.1231 0.12386 0.12494 0.12543 0.12324 0.12662 0.12983 0.13297 0.13262 0.13191 0.1318 0.13193 0.13203 0.13211 0.13204 0.13178 0.13188 0.13225 0.13264 0.13297 0.13331 0.1338 0.13412 0.13454 0.13504 0.13555 0.13612 0.13704 0.13741 0.13825 0.13908 0.13936 0.13855 0.13768 0.13691 0.13626 0.1347 0.13396 0.13354 0.13338 0.13312 0.1325 0.13215 0.13204 0.13203 0.13228 0.13256 0.13318 0.13435 0.13513
0 0 0 0 0 0 0 0 0 0 0.10763 0.10104 0.09545 0.10586 0.11643 0.12653 0.12712 0.12766 0.12812 0.12744 0.12655 0.12575 0.1259 0.12555 0.12555 0.12576 0.12609 0.12632 0.12592 0.12537 0.12493 0.12463 0.12443 0.1242 0.12437 0.12432 0.12424 0.12388 0.12339 0.1233 0.12085 0.11245 0.10623 0 0 0 0 0 0 0 0 0 0 0 0.0896 0.10205 0.11465 0.12718 0.12656 0.12604 0.12553 0.126 0.12666 0.12773 0.12934 0.13069 0.13271 0.13218 0.13173 0.13135 0.13157 0.13166 0.13155 0.13113 0.13122 0.1316 0.13197 0.13238 0.13248 0.13302 0.13334 0.13379 0.1343 0.13481 0.13546 0.13609 0.13689 0.13758 0.1383 0.13882 0.13917 0.13859 0.13757 0.13681 0.13581 0.13462 0.13396 0.13368 0.13336 0.13335 0.13279 0.13218 0.13195 0.13194 0.13214 0.13235 0.13284 0.13376 0.13507
0 0 0 0 0 0 0 0 0 0 0.11329 0.10999 0.10778 0.11426 0.12056 0.12662 0.12689 0.12722 0.12759 0.12694 0.12627 0.12594 0.12587 0.12596 0.12572 0.12594 0.12628 0.12652 0.12603 0.12564 0.12528 0.12499 0.12497 0.12472 0.12483 0.12476 0.12462 0.12412 0.12339 0.12312 0.12047 0 0 0 0 0 0 0 0 0 0 0 0 0 0.10243 0.11035 0.11828 0.12615 0.12585 0.1256 0.12542 0.12579 0.1264 0.12699 0.12842 0.12989 0.13173 0.13107 0.13075 0.13083 0.13061 0.13018 0.13044 0.13071 0.13094 0.13124 0.13167 0.13195 0.13229 0.13267 0.13308 0.13366 0.13406 0.13459 0.13519 0.13557 0.13602 0.13633 0.13642 0.13678 0.13727 0.13735 0.13703 0.13646 0.13534 0.13424 0.13372 0.13361 0.13335 0.13331 0.13284 0.1323 0.13212 0.13191 0.13188 0.13212 0.1325 0.13331 0.13432
0 0 0 0 0 0 0 0 0 0.11879 0.12021 0.12336 0.12013 0.12235 0.1245 0.12666 0.12676 0.12687 0.127 0.12668 0.12632 0.12599 0.12608 0.12609 0.1261 0.12633 0.12673 0.12686 0.12638 0.12593 0.12545 0.12525 0.12523 0.12523 0.12515 0.1251 0.12488 0.12426 0.12337 0.12267 0.12209 0 0 0 0 0 0 0 0 0 0 0 0 0.1183 0.11507 0.11846 0.12176 0.12518 0.12521 0.12525 0.12529 0.12563 0.12604 0.12683 0.12834 0.12967 0.1305 0.13011 0.1301 0.13014 0.12946 0.12983 0.13014 0.13045 0.13069 0.13102 0.13124 0.13148 0.13186 0.13221 0.13277 0.13353 0.13404 0.13447 0.13479 0.13486 0.13504 0.13535 0.1354 0.13563 0.13575 0.1357 0.1356 0.13569 0.13485 0.13402 0.13365 0.13353 0.13349 0.13345 0.13286 0.13239 0.13218 0.13194 0.13192 0.13184 0.13219 0.13289 0.13365
0 0 0 0 0 0 0 0 0.11943 0.1213 0.12511 0.1288 0.13171 0.13001 0.12832 0.12665 0.12664 0.12656 0.12649 0.12643 0.12637 0.12628 0.12642 0.12646 0.12658 0.12669 0.12696 0.12703 0.12669 0.1262 0.12567 0.12543 0.12533 0.12531 0.12521 0.12503 0.12495 0.12414 0.12321 0.12211 0.12223 0.12196 0 0.1199 0.11939 0 0 0 0 0 0 0 0.12145 0.12488 0.12765 0.12653 0.1254 0.12449 0.12474 0.12492 0.12521 0.12575 0.12651 0.12723 0.12838 0.12943 0.12983 0.1295 0.1296 0.12946 0.12932 0.12963 0.12999 0.13014 0.13042 0.1305 0.13082 0.1312 0.13148 0.13199 0.13288 0.13392 0.13405 0.13429 0.13473 0.13438 0.13457 0.13476 0.13464 0.13473 0.13487 0.13488 0.13492 0.13498 0.13451 0.13407 0.1338 0.13365 0.13359 0.1336 0.13303 0.13278 0.13228 0.1321 0.13214 0.13183 0.13208 0.13262 0.1332
0 0 0 0 0 0 0 0 0.12144 0.12288 0.12478 0.12676 0.1311 0.12941 0.12769 0.12605 0.126 0.12596 0.12596 0.126 0.12604 0.12613 0.1262 0.12631 0.12647 0.12663 0.12676 0.12684 0.12656 0.12613 0.12573 0.12565 0.12549 0.12536 0.1252 0.12514 0.12506 0.12442 0.12386 0.1231 0.12315 0.12318 0.12223 0.12176 0.12123 0 0 0 0 0 0 0.12064 0.12228 0.12381 0.12682 0.12597 0.12517 0.12457 0.12491 0.12509 0.12548 0.12601 0.1265 0.12712 0.12813 0.12896 0.1293 0.12902 0.12889 0.12892 0.12912 0.1295 0.12974 0.12992 0.13014 0.13035 0.1306 0.13095 0.13126 0.13162 0.13237 0.13325 0.13299 0.13311 0.13313 0.13317 0.13335 0.13347 0.13374 0.13394 0.13422 0.13433 0.13436 0.13461 0.13405 0.13389 0.13375 0.13378 0.13391 0.13336 0.13292 0.13263 0.13257 0.13214 0.13211 0.13204 0.13239 0.13266 0.13317
0 0 0 0 0 0 0 0 0 0.12181 0.12371 0.12553 0.13029 0.12873 0.12714 0.12545 0.12537 0.12532 0.12541 0.12555 0.12581 0.12594 0.12608 0.12618 0.12638 0.12651 0.12668 0.1267 0.12648 0.12624 0.12593 0.12586 0.12577 0.12562 0.12542 0.12537 0.12533 0.12506 0.12481 0.12439 0.12474 0.12443 0.12406 0.12368 0.12321 0.12291 0.1201 0.11422 0 0 0.12018 0.12318 0.123 0.1235 0.12597 0.12556 0.12505 0.12493 0.12496 0.12517 0.1257 0.12623 0.12668 0.12713 0.12771 0.12839 0.12861 0.12823 0.12842 0.1287 0.12898 0.12932 0.12961 0.12988 0.1301 0.13031 0.13052 0.13068 0.13105 0.13127 0.13183 0.13241 0.13228 0.13205 0.13191 0.13236 0.13236 0.1325 0.13296 0.13334 0.13371 0.13379 0.13386 0.13401 0.13361 0.13369 0.13368 0.13386 0.1335 0.13341 0.13304 0.13278 0.13277 0.13242 0.13225 0.13229 0.13242 0.13282 0.13327
0 0 0 0 0 0 0 0 0 0.11972 0.12212 0.12612 0.12943 0.12786 0.12635 0.1247 0.12469 0.12479 0.12479 0.12517 0.12544 0.12575 0.12588 0.12606 0.12616 0.12637 0.1266 0.12667 0.12647 0.12634 0.12611 0.12609 0.12604 0.12601 0.12589 0.12584 0.12589 0.12581 0.12569 0.12568 0.12554 0.12545 0.12547 0.12563 0.12591 0.12634 0.11792 0.10981 0.10121 0.10923 0.11738 0.12544 0.12533 0.12525 0.12505 0.125 0.12491 0.12505 0.12515 0.12536 0.12574 0.12605 0.12655 0.12701 0.12732 0.12765 0.12786 0.12766 0.12752 0.12836 0.1287 0.12907 0.12944 0.1298 0.12996 0.13028 0.13043 0.1306 0.13097 0.13104 0.1313 0.13162 0.13135 0.13124 0.13141 0.13138 0.13146 0.13178 0.13217 0.13259 0.13297 0.13312 0.13328 0.13347 0.1335 0.13383 0.1339 0.13402 0.13364 0.13378 0.13341 0.13314 0.1331 0.13269 0.13262 0.13266 0.13248 0.13295 0.13349
0 0 0 0 0 0 0 0 0 0.11532 0.1161 0.11824 0.11106 0.11581 0.12039 0.12486 0.1248 0.12481 0.12481 0.12519 0.12544 0.12573 0.12604 0.12624 0.1265 0.12672 0.12692 0.12713 0.12732 0.1274 0.12732 0.12751 0.12782 0.12804 0.1275 0.12691 0.12651 0.12643 0.12599 0.12594 0.1257 0.12533 0.12507 0.12508 0.12519 0.12554 0.12016 0 0.10897 0.1143 0.11981 0.12521 0.12516 0.12505 0.12498 0.12471 0.12477 0.1249 0.12503 0.12542 0.12566 0.12601 0.12657 0.12698 0.12722 0.12735 0.12757 0.12742 0.12765 0.12806 0.12835 0.12854 0.12882 0.12899 0.12924 0.12957 0.12969 0.12971 0.12989 0.13004 0.13017 0.13009 0.13023 0.13043 0.13036 0.13045 0.13107 0.13152 0.13172 0.13205 0.13248 0.13255 0.13276 0.1331 0.1332 0.13341 0.13387 0.13376 0.13375 0.1338 0.13346 0.13318 0.13308 0.13291 0.13252 0.13235 0.13243 0.13268 0.1336
0 0 0 0 0 0 0 0 0 0 0.105 0.09895 0.09264 0.10349 0.11439 0.125 0.12493 0.12478 0.12484 0.1252 0.12543 0.12571 0.12603 0.12637 0.12674 0.12695 0.12725 0.1274 0 0 0 0.12859 0.12941 0.12996 0.12885 0.12789 0.12712 0.12649 0.12621 0.12595 0.12552 0.1251 0.12469 0.12458 0.12451 0.12478 0.12226 0.11954 0.11665 0.11937 0.12217 0.12498 0.12487 0.12481 0.12466 0.12463 0.12475 0.12498 0.12525 0.1253 0.12537 0.12575 0.12616 0.12659 0.12665 0.12698 0.1274 0.1274 0.12762 0.12762 0.12774 0.12794 0.12814 0.12832 0.12856 0.12888 0.129 0.12917 0.12948 0.12939 0.12945 0.1295 0.12937 0.12952 0.12997 0.13026 0.13048 0.13118 0.13149 0.13178 0.13227 0.13256 0.13284 0.13314 0.13317 0.13333 0.13349 0.13335 0.13345 0.13361 0.13313 0.13319 0.13349 0.13306 0.13257 0.13217 0.13234 0.13265 0.13355
0 0 0 0 0 0 0 0 0 0 0 0.08454 0.07408 0.09115 0.11686 0.12506 0.12304 0.12361 0.12483 0.12508 0.1254 0.12565 0.12604 0.12647 0.12686 0.12713 0.12745 0.12768 0 0 0 0.12925 0.13089 0.13172 0.13011 0.12876 0.12696 0.12668 0.12645 0.12607 0.12537 0.12489 0.12428 0.12394 0.12384 0.1241 0.1242 0.12427 0.12429 0.12453 0.12468 0.12487 0.12471 0.12465 0.12468 0.12464 0.12473 0.12525 0.12516 0.12529 0.12567 0.12617 0.12656 0.12707 0.12714 0.12727 0.12733 0.12736 0.12764 0.1279 0.12781 0.12767 0.12761 0.12814 0.12838 0.12827 0.12861 0.12893 0.12926 0.12904 0.12906 0.12894 0.12904 0.12944 0.12939 0.13027 0.1309 0.13133 0.13177 0.13241 0.13287 0.13291 0.13306 0.13304 0.13312 0.13328 0.13358 0.13335 0.13321 0.13318 0.13279 0.13322 0.13363 0.1334 0.1331 0.13276 0.13261 0.13281 0.13367
0 0 0 0 0 0 0 0 0 0 0 0 0.08931 0.09895 0.11283 0.11989 0.12122 0.12271 0.12453 0.12483 0.12528 0.12556 0.1261 0.12661 0.12708 0.12403 0.12094 0 0 0.12216 0.12798 0.12864 0.12933 0.12995 0.12896 0.12795 0.12694 0.12663 0.12636 0.1259 0.12533 0.12481 0.12427 0.12411 0.12393 0.12389 0.12393 0.12404 0.1241 0.1243 0.12456 0.12483 0.12478 0.12465 0.12452 0.12468 0.12482 0.12506 0.12535 0.12562 0.12595 0.12629 0.12672 0.12739 0.12757 0.1272 0.12713 0.12734 0.12775 0.12779 0.12777 0.12786 0.12813 0.12796 0.12788 0.12818 0.12817 0.1285 0.12894 0.1288 0.12878 0.12886 0.12896 0.12914 0.1294 0.13001 0.13047 0.13094 0.13117 0.1316 0.13212 0.13203 0.13224 0.13246 0.13262 0.13278 0.1332 0.13311 0.13301 0.13292 0.13258 0.1329 0.13311 0.13244 0.13219 0.13215 0.13209 0.13212 0.13277
0 0 0 0 0 0 0 0 0 0 0 0 0 0 0 0.11595 0.11906 0.12188 0.12421 0.12459 0.12507 0.12545 0.1261 0.1267 0.12729 0.12084 0.11416 0.10736 0.11384 0.12025 0.12657 0.12713 0.1277 0.12837 0.12783 0.12748 0.12708 0.12664 0.12617 0.12584 0.12555 0.12487 0.1244 0.12438 0.12429 0.12418 0.12412 0.12416 0.12418 0.12434 0.12461 0.12475 0.12476 0.12477 0.12477 0.12482 0.12494 0.12512 0.12556 0.1258 0.12628 0.12647 0.12674 0.12722 0.12723 0.12721 0.12728 0.12721 0.12727 0.12761 0.12757 0.12759 0.12804 0.12806 0.12817 0.12842 0.12856 0.12857 0.12854 0.12854 0.12858 0.12863 0.129 0.12954 0.12985 0.12996 0.13034 0.13046 0.13079 0.13119 0.13152 0.13158 0.13184 0.13215 0.13226 0.13238 0.13277 0.13271 0.13278 0.13279 0.13229 0.13249 0.13231 0.13176 0.13161 0.13193 0.13183 0.13177 0.13207
0 0 0 0 0 0 0 0 0 0 0 0 0 0 0 0.11538 0.11876 0.12217 0.12394 0.12437 0.12485 0.12533 0.12613 0.12678 0.12747 0.11757 0.1074 0.09713 0.10651 0 0.12507 0.1256 0.12627 0.12687 0.12694 0.12695 0.12699 0.12652 0.12616 0.12559 0.12534 0.12495 0.12458 0.12461 0.12451 0.12443 0.12451 0.12453 0.12458 0.12458 0.12461 0.12474 0.12488 0.12502 0.1251 0.12513 0.12506 0.12522 0.12564 0.126 0.12644 0.12653 0.12665 0.12712 0.12718 0.12727 0.12736 0.12729 0.12726 0.12751 0.12754 0.12772 0.12834 0.12838 0.12845 0.12817 0.12829 0.12835 0.12838 0.12818 0.12845 0.12886 0.1292 0.12949 0.12976 0.12985 0.13009 0.1302 0.13056 0.13105 0.13134 0.13126 0.13165 0.13191 0.13174 0.13205 0.13241 0.13253 0.13248 0.13268 0.13224 0.13197 0.13166 0.13147 0.13134 0.13174 0.13158 0.13158 0.13166
0 0 0 0 0 0 0 0 0 0 0 0 0 0.10884 0.11124 0.11369 0.1169 0.12144 0.12392 0.12444 0.125 0.12561 0.12633 0.12684 0.12734 0.12075 0.11412 0.10727 0.11363 0.12031 0.12605 0.12622 0.12658 0.12682 0.1268 0.12672 0.12669 0.12625 0.12598 0.1256 0.12524 0.12502 0.12485 0.12484 0.12471 0.12476 0.1248 0.12484 0.12489 0.12494 0.12499 0.12514 0.12505 0.12501 0.12504 0.12506 0.1252 0.12533 0.12552 0.12573 0.12598 0.12598 0.12616 0.12658 0.12652 0.1267 0.12677 0.12673 0.12679 0.12702 0.12708 0.12723 0.12752 0.12767 0.12787 0.12781 0.12771 0.12767 0.12804 0.12806 0.12833 0.12847 0.12857 0.12889 0.12912 0.12923 0.12951 0.12998 0.13019 0.13037 0.13058 0.1309 0.13142 0.13173 0.13173 0.13185 0.13209 0.13203 0.13218 0.13228 0.13197 0.13184 0.13164 0.13122 0.13134 0.13176 0.13136 0.13157 0.13204
0 0 0 0 0 0 0 0 0 0 0 0 0.10455 0.10665 0.10909 0.11107 0.11487 0.11985 0.1238 0.12443 0.12507 0.1257 0.12625 0.12664 0.12707 0.12391 0.12061 0.11721 0.12042 0.12367 0.12679 0.12675 0.12661 0.12668 0.12652 0.12634 0.12625 0.12598 0.12565 0.12547 0.12535 0.12526 0.12524 0.1251 0.12494 0.12485 0.12479 0.12491 0.12505 0.12511 0.12514 0.12526 0.12532 0.12529 0.12528 0.1252 0.12516 0.12531 0.12541 0.12568 0.12587 0.12583 0.12596 0.12625 0.12626 0.12635 0.12646 0.12649 0.12659 0.12681 0.12681 0.12712 0.12761 0.12763 0.12754 0.1275 0.12725 0.12753 0.12762 0.1278 0.12804 0.12831 0.12806 0.12833 0.12856 0.12858 0.12915 0.12972 0.12982 0.13006 0.13029 0.1304 0.13076 0.13151 0.1317 0.13179 0.13188 0.13179 0.13208 0.13225 0.13186 0.13166 0.13165 0.13144 0.13129 0.13148 0.13157 0.13194 0.13233
0 0 0 0 0 0 0 0 0.11173 0.1106 0.10815 0.10379 0.09993 0.10167 0.10327 0.10511 0.11133 0.11761 0.1237 0.12443 0.12517 0.12592 0.12629 0.12658 0.12683 0.12703 0.12707 0.12712 0.1273 0.1275 0.12771 0.12729 0.1269 0.12636 0.12624 0.12612 0.12574 0.1256 0.12553 0.1255 0.12545 0.12535 0.12538 0.12522 0.12535 0.12551 0.1255 0.12546 0.12543 0.12559 0.12542 0.12545 0.12539 0.12545 0.12552 0.12538 0.12535 0.12539 0.12562 0.12567 0.1258 0.12579 0.12593 0.12603 0.12617 0.1262 0.12633 0.12625 0.12649 0.12663 0.12684 0.12718 0.12748 0.1275 0.1274 0.12734 0.12723 0.12715 0.12713 0.12739 0.12774 0.12802 0.12782 0.1277 0.12793 0.12824 0.12901 0.12956 0.12994 0.13013 0.13036 0.13033 0.13082 0.13132 0.13145 0.13162 0.13171 0.13171 0.13188 0.13225 0.13198 0.13184 0.13182 0.13147 0.1314 0.132 0.13199 0.13217 0.13271
0 0 0 0 0 0 0 0.11423 0.11372 0.11458 0.11333 0.1111 0.10893 0.10984 0.11074 0.11164 0.11604 0.12028 0.12441 0.1248 0.1253 0.12589 0.1261 0.1263 0.12637 0.1265 0.12653 0.12659 0.12672 0.12693 0.12714 0.12686 0.12659 0.12625 0.12601 0.12585 0.12578 0.12569 0.12559 0.12553 0.12544 0.1254 0.12532 0.12542 0.12561 0.12579 0.12582 0.12575 0.1257 0.12579 0.12573 0.12557 0.12547 0.12532 0.12535 0.12549 0.12538 0.12532 0.12544 0.12549 0.12558 0.12557 0.12564 0.12578 0.12598 0.12613 0.12635 0.12626 0.12649 0.1266 0.12672 0.12698 0.1272 0.12719 0.12705 0.12703 0.12712 0.1271 0.12709 0.12701 0.12716 0.12736 0.12745 0.12752 0.12774 0.12798 0.12842 0.12872 0.12906 0.12941 0.12975 0.12982 0.1302 0.13056 0.13088 0.13112 0.1314 0.13131 0.13145 0.1317 0.13157 0.13161 0.13185 0.13151 0.1316 0.13183 0.13153 0.13152 0.13194
0 0 0 0 0 0 0.11588 0.11602 0.11546 0.1152 0.11643 0.11875 0.11752 0.1178 0.11802 0.11826 0.12055 0.12272 0.12486 0.12519 0.12551 0.12584 0.12587 0.1259 0.12588 0.12595 0.12601 0.12602 0.1262 0.12636 0.12653 0.12641 0.12627 0.1262 0.12602 0.12591 0.12609 0.12607 0.12574 0.12559 0.12545 0.12535 0.1256 0.12582 0.12611 0.1261 0.12632 0.12616 0.12604 0.12596 0.12593 0.12586 0.12565 0.1256 0.12547 0.12545 0.12541 0.12534 0.12537 0.12543 0.12547 0.12551 0.12556 0.12579 0.12578 0.12595 0.12622 0.12641 0.12656 0.12666 0.12686 0.12703 0.12716 0.12709 0.12715 0.12709 0.12705 0.12706 0.12689 0.12688 0.12688 0.12694 0.12715 0.12715 0.12719 0.12746 0.12783 0.1285 0.12861 0.12902 0.12955 0.12963 0.12976 0.1302 0.13034 0.13049 0.13065 0.13082 0.13109 0.13127 0.13132 0.1314 0.13165 0.13156 0.13193 0.13193 0.1317 0.13157 0.13183
0 0 0 0 0 0 0.11578 0.11583 0.11499 0.11338 0.11763 0.12184 0.12597 0.12558 0.1252 0.12471 0.12497 0.12517 0.12549 0.12559 0.12568 0.12569 0.1256 0.12552 0.12538 0.12545 0.1255 0.12554 0.12569 0.12578 0.12589 0.12604 0.12626 0.12629 0.12625 0.12629 0.12649 0.12627 0.12605 0.12586 0.12573 0.12583 0.12623 0.12636 0.12657 0.1264 0.12639 0.12668 0.12668 0.12633 0.12607 0.12604 0.12588 0.12568 0.1256 0.12541 0.12533 0.12533 0.12531 0.12541 0.12545 0.12548 0.12555 0.12567 0.12578 0.12599 0.12629 0.12636 0.12654 0.12679 0.12699 0.12713 0.12726 0.1271 0.12701 0.12706 0.12699 0.12699 0.12701 0.12683 0.12682 0.12687 0.12695 0.12689 0.12692 0.12733 0.12746 0.12798 0.12829 0.12881 0.12933 0.12952 0.12959 0.12993 0.12994 0.13009 0.13041 0.13068 0.13095 0.13118 0.13119 0.1312 0.13167 0.13198 0.13223 0.13232 0.13219 0.13202 0.1323
0 0 0 0 0 0.11475 0.11544 0.11651 0.11795 0.11808 0.12098 0.12375 0.12648 0.12626 0.12598 0.12555 0.12562 0.12562 0.12566 0.12563 0.12556 0.12549 0.12554 0.12549 0.12538 0.12549 0.12562 0.12569 0.12581 0.12591 0.12592 0.12605 0.12611 0.12617 0.12622 0.12628 0.12638 0.1262 0.12611 0.126 0.1257 0.12569 0.12594 0.12633 0.12641 0.12632 0.1266 0.12689 0.12671 0.12656 0.12631 0.12615 0.12598 0.12583 0.12574 0.12566 0.12555 0.12565 0.12573 0.12573 0.12557 0.12558 0.12563 0.12572 0.12583 0.12607 0.12629 0.12644 0.12674 0.12703 0.12713 0.12727 0.12741 0.1273 0.12717 0.12745 0.12723 0.1271 0.127 0.12681 0.12667 0.12676 0.12661 0.12672 0.1267 0.12689 0.12738 0.12778 0.12813 0.12851 0.12899 0.1291 0.1292 0.12942 0.12947 0.12975 0.12993 0.1302 0.13059 0.13094 0.13069 0.13058 0.13117 0.1316 0.13214 0.13225 0.13212 0.13209 0.13222
0 0 0 0 0.1135 0.11384 0.11353 0.11613 0.12086 0.12272 0.1242 0.12557 0.12694 0.12681 0.12662 0.12634 0.12621 0.12597 0.12582 0.12573 0.12558 0.12544 0.12551 0.12548 0.12548 0.12557 0.12572 0.12586 0.12594 0.12594 0.12594 0.12602 0.12609 0.12618 0.12625 0.12614 0.12628 0.1262 0.12621 0.12623 0.12608 0.12589 0.12605 0.12623 0.12624 0.12635 0.12664 0.12679 0.1266 0.12669 0.12659 0.12638 0.12615 0.12608 0.12611 0.12601 0.1259 0.1259 0.1258 0.12581 0.12583 0.12576 0.12577 0.12578 0.12598 0.12621 0.1265 0.12663 0.1268 0.12718 0.12751 0.12763 0.1278 0.1278 0.12772 0.12792 0.12768 0.12751 0.12733 0.12718 0.1271 0.12681 0.1266 0.12683 0.12685 0.12687 0.12724 0.12752 0.12784 0.12826 0.12879 0.12888 0.12905 0.12943 0.12928 0.12948 0.12976 0.13001 0.13024 0.13055 0.13032 0.1304 0.13064 0.13103 0.13184 0.13214 0.13215 0.13226 0.13235
0 0 0 0 0.11292 0.11249 0.11073 0.11615 0.12157 0.12705 0.12724 0.12732 0.1273 0.12728 0.12714 0.127 0.12665 0.12622 0.12583 0.1257 0.12547 0.12531 0.12541 0.12543 0.12551 0.12568 0.12588 0.12598 0.12601 0.12605 0.12611 0.12621 0.12628 0.1264 0.12643 0.12643 0.12631 0.12631 0.1264 0.12633 0.12624 0.12628 0.12613 0.12622 0.12642 0.12653 0.12684 0.12684 0.12664 0.12667 0.12673 0.12668 0.12643 0.12642 0.1265 0.12652 0.12638 0.1262 0.12615 0.12597 0.12591 0.12596 0.12602 0.12605 0.12612 0.12638 0.12671 0.12679 0.12705 0.12743 0.12767 0.12783 0.1281 0.12824 0.12845 0.12859 0.12823 0.12803 0.1277 0.12737 0.12724 0.12692 0.12681 0.12681 0.12688 0.12695 0.12721 0.12739 0.1277 0.12811 0.12854 0.12849 0.12867 0.12903 0.12931 0.12946 0.12966 0.12961 0.12993 0.1302 0.13021 0.1305 0.13084 0.13112 0.13133 0.13201 0.13218 0.13238 0.13255
0 0 0 0.10596 0.11081 0.11353 0.11529 0.11893 0.12269 0.12632 0.12657 0.12675 0.12678 0.1267 0.12661 0.12651 0.12619 0.12598 0.12571 0.1256 0.12554 0.12545 0.12553 0.12558 0.12563 0.12582 0.12587 0.1259 0.12593 0.12592 0.12597 0.12608 0.12618 0.12626 0.12627 0.12633 0.1264 0.12635 0.12629 0.12651 0.12672 0.12669 0.12685 0.12693 0.12713 0.12723 0.12716 0.12717 0.12709 0.12715 0.12723 0.12721 0.12711 0.12715 0.12709 0.12689 0.12671 0.12669 0.12659 0.12656 0.12642 0.12643 0.12633 0.12637 0.12654 0.12666 0.12694 0.12704 0.1272 0.12747 0.1277 0.12797 0.12833 0.12838 0.12836 0.12843 0.1282 0.12808 0.12783 0.12738 0.12727 0.12696 0.1267 0.12682 0.12679 0.12687 0.12714 0.12731 0.12739 0.12761 0.12808 0.12811 0.1282 0.12838 0.12876 0.12878 0.12903 0.12908 0.12931 0.12964 0.12958 0.12972 0.13018 0.13032 0.13056 0.13091 0.13107 0.13134 0.13168
0 0 0 0.09594 0.10416 0.115 0.11964 0.12165 0.12357 0.12558 0.12587 0.12612 0.12631 0.12618 0.12604 0.12587 0.12583 0.12576 0.12565 0.12564 0.12558 0.12557 0.12562 0.12575 0.12583 0.1259 0.12585 0.12592 0.126 0.12603 0.12611 0.1262 0.12626 0.12625 0.12632 0.12643 0.12653 0.12658 0.12678 0.12707 0.12741 0.1277 0.12794 0.12802 0.12809 0.12795 0.128 0.12791 0.12804 0.12795 0.12794 0.12789 0.12778 0.12756 0.12745 0.12733 0.12718 0.12736 0.12727 0.12721 0.12713 0.12701 0.1269 0.12681 0.12679 0.12697 0.1272 0.12741 0.12764 0.12789 0.12801 0.12809 0.1283 0.12835 0.1284 0.12846 0.12818 0.128 0.12781 0.12741 0.12719 0.12691 0.12658 0.1264 0.12671 0.12695 0.12694 0.12713 0.12717 0.12742 0.12762 0.12766 0.12772 0.12794 0.1281 0.12827 0.12834 0.1285 0.12885 0.1291 0.12915 0.12927 0.12943 0.12958 0.12979 0.13009 0.13023 0.13056 0.13094
0 0 0 0.08063 0.09536 0.10971 0.12382 0.12426 0.12463 0.125 0.12527 0.12552 0.12576 0.12571 0.12556 0.12541 0.12549 0.12557 0.12554 0.12561 0.12561 0.12566 0.12581 0.12591 0.12588 0.12591 0.12589 0.12601 0.12607 0.12609 0.1262 0.12626 0.12633 0.12654 0.12671 0.12694 0.1271 0.12718 0.12738 0.12771 0.12811 0.12842 0.12856 0.12859 0.12874 0.12877 0.12874 0.12864 0.1286 0.12863 0.12859 0.1285 0.12837 0.12821 0.12813 0.12791 0.12777 0.12767 0.12776 0.12786 0.1278 0.12774 0.12753 0.12735 0.12727 0.1272 0.12752 0.12753 0.12777 0.12816 0.1283 0.1284 0.12857 0.12841 0.12836 0.12837 0.12819 0.12807 0.12785 0.12733 0.12711 0.12685 0.12664 0.12665 0.12675 0.12668 0.12673 0.12697 0.12711 0.12729 0.12745 0.1274 0.12748 0.12752 0.12766 0.12785 0.12802 0.12824 0.12853 0.12869 0.12878 0.12897 0.12904 0.12916 0.12934 0.12961 0.1297 0.13007 0.13037
0 0 0 0.09749 0.10725 0.11677 0.12635 0.12636 0.12629 0.12619 0.12613 0.12609 0.12599 0.12586 0.12572 0.12556 0.12565 0.1257 0.12568 0.12568 0.12568 0.12568 0.1257 0.12572 0.12569 0.12566 0.12571 0.12583 0.12589 0.12596 0.12603 0.12621 0.12638 0.1265 0.12665 0.12679 0.12698 0.12718 0.12753 0.12775 0.12799 0.12819 0.12849 0.12862 0.12893 0.12904 0.12892 0.12884 0.129 0.12897 0.12899 0.12887 0.12859 0.12855 0.12853 0.12827 0.12822 0.12823 0.12822 0.12812 0.12834 0.12823 0.12811 0.12805 0.12787 0.12777 0.12784 0.12787 0.12801 0.12832 0.12831 0.12836 0.1285 0.12852 0.12841 0.12835 0.12804 0.12785 0.12778 0.12761 0.1273 0.12709 0.12695 0.12694 0.12689 0.12695 0.12699 0.12718 0.12738 0.12746 0.12761 0.12765 0.12761 0.12772 0.12785 0.12808 0.12817 0.12821 0.12832 0.12841 0.12856 0.12892 0.12924 0.12939 0.12953 0.12978 0.1298 0.1302 0.13053
0.12649 0.12744 0.11996 0.11437 0.11934 0.12419 0.12902 0.12859 0.12813 0.12755 0.12712 0.1266 0.12619 0.12607 0.12592 0.12573 0.12576 0.12578 0.12584 0.12578 0.1257 0.12558 0.12557 0.12558 0.12547 0.12551 0.1256 0.1257 0.12576 0.12578 0.12586 0.12602 0.12621 0.12647 0.12672 0.127 0.12721 0.12732 0.12752 0.12777 0.128 0.1282 0.12847 0.1286 0.12879 0.12901 0.12897 0.12922 0.12941 0.12944 0.1295 0.12945 0.12922 0.12903 0.12899 0.12887 0.12885 0.1289 0.12884 0.12877 0.12887 0.12895 0.1289 0.1287 0.12853 0.12835 0.12839 0.12836 0.12853 0.12869 0.12876 0.12865 0.1287 0.12855 0.12846 0.12835 0.12818 0.12803 0.12798 0.12777 0.12766 0.12736 0.12741 0.12742 0.12734 0.12728 0.12735 0.12773 0.12789 0.128 0.1281 0.12791 0.128 0.12814 0.12812 0.12826 0.12826 0.12825 0.12843 0.12848 0.12842 0.12871 0.12906 0.12931 0.12971 0.12992 0.13024 0.13037 0.13085
0.12548 0.12749 0.12934 0.13108 0.13132 0.13119 0.13087 0.13009 0.12928 0.12856 0.12789 0.12711 0.12644 0.1263 0.12611 0.12585 0.12585 0.12582 0.12582 0.12572 0.12557 0.12553 0.12553 0.12541 0.12537 0.12542 0.12545 0.12552 0.12561 0.12568 0.12584 0.12606 0.12621 0.12641 0.12666 0.12686 0.1271 0.12721 0.12745 0.12776 0.128 0.12814 0.1284 0.12872 0.12902 0.1292 0.12921 0.12941 0.12984 0.12995 0.12993 0.1298 0.12972 0.1296 0.12951 0.12948 0.12958 0.12964 0.12966 0.12959 0.12956 0.12944 0.12928 0.12916 0.12916 0.12909 0.12904 0.12898 0.12903 0.12909 0.12904 0.12914 0.12908 0.12885 0.12864 0.12855 0.12847 0.12844 0.12846 0.12821 0.12816 0.12809 0.12798 0.12785 0.12777 0.12788 0.12808 0.12824 0.12838 0.12848 0.12859 0.12836 0.12867 0.12882 0.12871 0.1285 0.12863 0.12867 0.12865 0.12874 0.12906 0.12919 0.12932 0.12918 0.1295 0.12987 0.13035 0.13081 0.13118
0.12602 0.1276 0.12922 0.13087 0.13111 0.13119 0.13114 0.13047 0.12989 0.12925 0.12853 0.12787 0.12716 0.12686 0.12651 0.1261 0.12604 0.12597 0.12579 0.12566 0.12552 0.12547 0.12541 0.12531 0.12529 0.12536 0.12544 0.12558 0.12569 0.12581 0.12589 0.12611 0.12632 0.12654 0.12674 0.12702 0.12719 0.1272 0.12732 0.12747 0.12782 0.12807 0.1283 0.12859 0.12893 0.1291 0.12934 0.12962 0.12972 0.12977 0.12995 0.12995 0.12992 0.12992 0.12995 0.12996 0.12988 0.12989 0.12988 0.1299 0.12995 0.12987 0.12979 0.12974 0.12959 0.12952 0.12948 0.12939 0.12941 0.12941 0.12939 0.1293 0.12934 0.12932 0.12921 0.1292 0.12908 0.12893 0.12885 0.12877 0.1287 0.12856 0.12843 0.12852 0.12848 0.12865 0.12904 0.12955 0.12948 0.12948 0.12959 0.12922 0.12927 0.12919 0.12909 0.12902 0.12893 0.12893 0.12895 0.12904 0.12932 0.1297 0.13005 0.1301 0.12992 0.13005 0.13041 0.13077 0.13127
0.12632 0.12754 0.12889 0.13014 0.13068 0.13111 0.13152 0.13102 0.13046 0.12989 0.12913 0.12846 0.12779 0.12727 0.12679 0.12625 0.12612 0.12597 0.12576 0.12561 0.12546 0.12533 0.12522 0.12521 0.12526 0.12539 0.12549 0.12558 0.12575 0.1259 0.12609 0.12625 0.12647 0.12666 0.12684 0.12699 0.12714 0.12724 0.12753 0.12773 0.12799 0.12825 0.12854 0.12882 0.1291 0.12939 0.12956 0.12968 0.12981 0.12987 0.13 0.13012 0.13019 0.13019 0.13023 0.13029 0.13033 0.13042 0.13035 0.13045 0.13037 0.13026 0.1302 0.13018 0.13007 0.13003 0.12993 0.12983 0.12986 0.12977 0.12963 0.12968 0.12982 0.12982 0.12981 0.1297 0.12955 0.12958 0.12937 0.12937 0.12925 0.12918 0.12904 0.12904 0.12917 0.12967 0.13016 0.13064 0.13072 0.13057 0.13072 0.13042 0.13016 0.12996 0.12971 0.12965 0.12955 0.12962 0.12971 0.12982 0.13012 0.13057 0.13091 0.13087 0.13092 0.13075 0.13088 0.13119 0.13135
0.12631 0.1273 0.12833 0.12937 0.13013 0.13085 0.13155 0.1312 0.13086 0.13049 0.12978 0.12893 0.12822 0.12766 0.12707 0.12631 0.12605 0.12586 0.1256 0.12548 0.12536 0.12519 0.12518 0.12515 0.12519 0.12533 0.12547 0.1256 0.1258 0.12599 0.12618 0.12641 0.12655 0.12677 0.12682 0.12701 0.12718 0.12733 0.12761 0.12784 0.12815 0.1285 0.12883 0.12904 0.12933 0.12984 0.13014 0.13026 0.13038 0.13038 0.13042 0.13053 0.1306 0.13065 0.13078 0.13079 0.1307 0.13077 0.13088 0.13103 0.13092 0.13076 0.13066 0.13065 0.13059 0.13061 0.13061 0.13046 0.13028 0.13024 0.13013 0.13022 0.1303 0.13002 0.13 0.12999 0.12984 0.12983 0.12973 0.12977 0.1298 0.12971 0.12982 0.12994 0.13007 0.13019 0.13103 0.13201 0.1314 0.13135 0.13227 0.13159 0.13102 0.13062 0.13069 0.13065 0.13046 0.1304 0.13058 0.13098 0.12898 0.12979 0.13207 0.13105 0.13112 0.1321 0.13217 0.13241 0.1322
0.12708 0.12784 0.1287 0.12957 0.13019 0.13072 0.13119 0.13079 0.13053 0.13033 0.12963 0.12888 0.12826 0.12769 0.12712 0.12653 0.12622 0.12603 0.12585 0.12574 0.12563 0.12551 0.12556 0.12556 0.12558 0.12575 0.12596 0.12614 0.12641 0.12666 0.12682 0.12698 0.12715 0.12732 0.12742 0.12765 0.12776 0.12783 0.12801 0.12824 0.12852 0.12881 0.12912 0.1295 0.12987 0.13022 0.13044 0.13078 0.13108 0.13103 0.13112 0.13122 0.13121 0.1312 0.13121 0.13121 0.13131 0.1314 0.13157 0.13169 0.13181 0.13169 0.13158 0.13156 0.13147 0.13148 0.13143 0.13119 0.13097 0.13062 0.13049 0.13034 0.13038 0.13032 0.13009 0.13004 0.12972 0.12946 0.12941 0.12957 0.1299 0.13 0.1304 0.13067 0.13111 0.13058 0.1309 0.13121 0.13097 0.1309 0.13127 0.13068 0.13032 0.13005 0.12692 0.12342 0.11995 0.12012 0.12035 0.12066 0.12498 0.12672 0.12886 0.13024 0.13087 0.13161 0.13287 0.13337 0.13538
0.12776 0.12839 0.12896 0.12951 0.13001 0.13034 0.1307 0.13046 0.13018 0.12997 0.12948 0.12887 0.12828 0.1278 0.12722 0.12663 0.12638 0.12624 0.12609 0.126 0.12592 0.12582 0.12592 0.126 0.12608 0.12625 0.12643 0.12658 0.1269 0.12717 0.12737 0.1275 0.12775 0.12799 0.12804 0.12812 0.12824 0.12838 0.12851 0.12877 0.12905 0.12936 0.12961 0.13005 0.13047 0.13096 0.13105 0.13142 0.13177 0.13183 0.13194 0.13192 0.13184 0.13175 0.13171 0.13174 0.13195 0.13209 0.13226 0.13255 0.13281 0.13281 0.13277 0.13281 0.13257 0.13246 0.1324 0.13199 0.13168 0.13126 0.1308 0.13055 0.13031 0.13025 0.13017 0.13003 0.12987 0.12966 0.12957 0.12965 0.13008 0.13024 0.13089 0.13163 0.13214 0.12981 0.12914 0.13092 0 0 0.13043 0.1302 0.13001 0.12997 0.12322 0.1163 0.10954 0.10983 0.11019 0 0 0.12632 0.12471 0.12732 0.13043 0.13192 0.13386 0.13629 0.13846
