ncols        109
nrows        82
xllcorner    -1.041666666667
yllcorner    37.041665395101
cellsize     0.083333333333
NODATA_value -9999
0.0 0 0 0 0 0 0 0 0 0 0 0 0 0 0 0 0 0 0 0 0 0 0 0 0 0 0 0 0 0 0 0 0 0 0 0 0 0 0 0 0 0 0 0 0 0 0 0 0 0 0 0 0 0 0 0 0 0 0 0 0 0 0 0 0 0 0 0 0 0 0 0 0 0 0 0 0 0 0 0 0 0 0 0 0 0 0 0 0 0 0 0 0 0 0 0 0 0 0 0 0 0 0 0 0 0.12978 0.12973 0.12995 0.13005
0 0 0 0 0 0 0 0 0 0 0 0 0 0 0 0 0 0 0 0 0 0 0 0 0 0 0 0 0 0 0 0 0 0 0 0 0 0 0 0 0 0 0 0 0 0 0 0 0 0 0 0 0 0 0 0 0 0 0 0 0 0 0 0 0 0 0 0 0 0 0 0 0 0 0 0 0 0 0 0 0 0 0 0 0 0 0 0 0 0 0 0 0 0 0 0 0 0 0 0 0 0.12892 0.12908 0.12934 0.12976 0.12987 0.12988 0.13023 0.13041
0 0 0 0 0 0 0 0 0 0 0 0 0 0 0 0 0 0 0 0 0 0 0 0 0 0 0 0 0 0 0 0 0 0 0 0 0 0 0 0 0 0 0 0 0 0 0 0 0 0 0 0 0 0 0 0 0 0 0 0 0 0 0 0 0 0 0 0 0 0 0 0 0 0 0 0 0 0 0 0 0 0 0 0 0 0 0 0 0 0 0 0 0 0 0 0 0 0 0.12823 0.12854 0.12882 0.12898 0.12906 0.1291 0.12941 0.1295 0.12959 0.12971 0.12957
0 0 0 0 0 0 0 0 0 0 0 0 0 0 0 0 0 0 0 0 0 0 0 0 0 0 0 0 0 0 0 0 0 0 0 0 0 0 0 0 0 0 0 0 0 0 0 0 0 0 0 0 0 0 0 0 0 0 0 0 0 0 0 0 0 0 0 0 0 0 0 0 0 0 0 0 0 0 0 0 0 0 0 0 0 0 0 0 0 0 0 0 0 0 0 0 0 0.12755 0.12825 0.12866 0.12886 0.12923 0.1295 0.12922 0.1289 0.12901 0.12895 0.12882 0.12867
0 0 0 0 0 0 0 0 0 0 0 0 0 0 0 0 0 0 0 0 0 0 0 0 0 0 0 0 0 0 0 0 0 0 0 0 0 0 0 0 0 0 0 0 0 0 0 0 0 0 0 0 0 0 0 0 0 0 0.117 0.11643 0.11582 0.11723 0 0 0 0 0 0 0 0 0 0 0 0 0 0 0 0 0 0 0 0 0 0 0 0 0 0 0 0 0 0 0 0 0 0.12673 0.12651 0.12742 0.1283 0.12906 0.12943 0.12997 0.13037 0.12966 0.12908 0.12834 0.12804 0.12792 0.12765
0 0 0 0 0 0 0 0 0 0 0 0 0 0 0 0 0 0 0 0 0 0 0 0 0 0 0 0 0 0 0 0 0 0 0 0 0 0 0 0 0 0 0 0 0 0 0 0 0 0 0 0 0 0 0 0 0.11868 0.11812 0.11815 0.11787 0.11783 0.11909 0.11989 0.12064 0.11391 0.10713 0.10008 0 0 0 0 0.11321 0 0 0 0 0 0 0 0 0 0 0 0 0 0 0 0 0 0 0 0 0 0.12718 0.12715 0.12693 0.12663 0.12723 0.12797 0.12858 0.12875 0.12891 0.129 0.12833 0.12778 0.12718 0.12689 0.12681 0.12655
0 0 0 0 0 0 0 0 0 0 0 0 0 0 0 0 0 0 0 0 0 0 0 0 0 0 0 0 0 0 0 0 0 0 0 0 0 0 0 0 0 0 0 0 0 0 0 0 0 0 0 0 0 0 0 0.11837 0.11952 0.1201 0.12019 0.11986 0.11937 0.12001 0.12058 0.12086 0.11782 0.11476 0.11145 0.11768 0.11666 0.1161 0.11619 0.1148 0.11335 0.11037 0.10483 0.10147 0.1025 0 0 0 0 0 0 0 0 0 0 0 0 0 0 0 0.12677 0.12621 0.12703 0.12706 0.12685 0.12723 0.12758 0.12798 0.12788 0.12785 0.12775 0.12717 0.12679 0.12633 0.12609 0.12581 0.12555
0 0 0 0 0 0 0 0 0 0 0 0 0 0 0 0 0 0 0 0 0 0 0 0 0 0 0 0 0 0 0 0 0 0 0 0 0 0 0 0 0 0 0 0 0 0 0 0 0 0 0 0.11242 0.11388 0.11498 0.11623 0.1183 0.12038 0.12193 0.12152 0.12096 0.12044 0.12058 0.12069 0.12037 0.12123 0.12185 0.12195 0.11978 0.11734 0.11465 0.11466 0.11429 0.11359 0.10653 0.09941 0.09236 0 0 0 0 0 0 0 0 0 0 0 0 0 0 0 0 0.12588 0.12691 0.12691 0.12693 0.12697 0.12717 0.12742 0.1274 0.12717 0.12674 0.12625 0.12579 0.12559 0.12522 0.12498 0.12477 0.12454
0 0 0 0 0 0 0 0 0 0 0 0 0 0 0 0 0 0 0 0 0 0 0 0 0 0 0 0 0 0 0 0 0 0 0 0 0 0 0 0 0 0 0 0 0 0 0 0 0 0 0.10959 0.11129 0.1121 0.11314 0.11431 0.11574 0.11757 0.1181 0.11748 0.11679 0.11604 0.11766 0.11939 0.12083 0.12421 0.1273 0.13031 0.12824 0.12601 0.12375 0.12249 0.12112 0.11948 0.11421 0.10879 0.10328 0.10472 0.10611 0.10757 0.11149 0.11538 0.11874 0 0 0 0 0 0 0 0.11798 0.12154 0.12383 0.12529 0.12717 0.12709 0.12685 0.12689 0.12678 0.12656 0.12655 0.12609 0.12549 0.12509 0.12468 0.12457 0.1244 0.12417 0.12395 0.1238
0 0 0 0 0 0 0 0 0 0 0 0 0 0 0 0 0 0 0 0 0 0 0 0 0 0 0 0 0 0 0 0 0 0 0 0 0 0 0 0 0 0 0 0 0 0 0 0 0 0.1101 0.10869 0.10827 0.10967 0.11119 0.11147 0.11269 0.11351 0.11403 0.1131 0.11235 0.11127 0.11459 0.11805 0.12122 0.12743 0.13323 0.13872 0.13676 0.1349 0.13296 0.13058 0.12819 0.1256 0.12185 0.11791 0.1143 0.11536 0.1166 0.11766 0.12257 0.12327 0.1252 0 0.12625 0.12597 0.11881 0.10595 0.09827 0.1053 0.11741 0.12335 0.12467 0.12522 0.12745 0.12725 0.12702 0.12675 0.12638 0.12593 0.12551 0.12492 0.12452 0.12394 0.12358 0.12341 0.12325 0.12317 0.12318 0.1232
0 0 0 0 0 0 0 0 0 0 0 0 0 0 0 0 0 0 0 0 0 0 0 0 0 0 0 0 0 0 0 0 0 0 0 0 0 0 0 0 0 0 0 0 0 0 0 0 0 0.1095 0.10666 0.1046 0.10632 0.10761 0.10868 0.10881 0.10891 0.109 0.1083 0.10751 0.10626 0.11144 0.1165 0.12134 0.13021 0.13866 0.1468 0.14528 0.14356 0.14187 0.13852 0.13509 0.13141 0.12952 0.12733 0.12549 0.12626 0.12707 0.12779 0.12833 0.12901 0.12975 0.13124 0.13282 0.13449 0.11522 0.09624 0.07734 0.09439 0.1116 0.12857 0.12835 0.12796 0.12757 0.12727 0.12676 0.12654 0.12572 0.12515 0.12454 0.12394 0.1233 0.12257 0.12242 0.12218 0.12213 0.12227 0.12245 0.12251
0 0 0 0 0 0 0 0 0 0 0 0 0 0 0 0 0 0 0 0 0 0 0 0 0 0 0 0 0 0 0 0 0 0 0 0 0 0 0 0 0 0 0 0 0 0 0 0 0 0.11111 0.10969 0.10702 0.10918 0.11112 0.11253 0.11359 0.11495 0.11585 0.11508 0.11421 0.11334 0.11694 0.12044 0.12391 0.1301 0.13586 0.14143 0.14033 0.13912 0.13789 0.13556 0.13291 0.13038 0.12909 0.12774 0.12619 0.12671 0.12744 0.12796 0.12857 0.12906 0.1295 0.1305 0.1315 0.13286 0.12006 0.10724 0.09459 0.10599 0.11719 0.12831 0.128 0.1276 0.12728 0.12664 0.12609 0.12555 0.12487 0.12424 0.12343 0.12298 0.12248 0.12181 0.12165 0.12176 0.12188 0.12209 0.12224 0.12238
0 0 0 0 0 0 0 0 0 0 0 0 0 0 0 0 0 0 0 0 0 0 0 0 0 0 0 0 0 0 0 0 0 0 0 0 0 0 0 0 0 0 0 0 0 0 0 0 0 0.1135 0.11287 0.10931 0.11187 0.11449 0.11646 0.1181 0.12002 0.12187 0.12127 0.12054 0.11996 0.12213 0.1241 0.12611 0.12938 0.13261 0.13575 0.13514 0.13459 0.13418 0.1324 0.13061 0.12899 0.1284 0.12781 0.12704 0.12749 0.12809 0.12856 0.12881 0.12905 0.12931 0.12983 0.13042 0.13122 0.12496 0.11857 0.11209 0.11757 0.12265 0.1279 0.12766 0.12736 0.12681 0.12595 0.12523 0.12461 0.12376 0.12314 0.12246 0.12205 0.12161 0.12109 0.12116 0.12139 0.12156 0.12176 0.12193 0.12214
0 0 0 0 0 0 0 0 0 0 0 0 0 0 0 0 0 0 0 0 0 0 0 0 0 0 0 0 0 0 0 0 0 0 0 0 0 0 0 0 0 0 0 0 0 0 0 0 0 0.11473 0.11313 0.11149 0.11456 0.11895 0.12052 0.12327 0.12525 0.12747 0.12709 0.1267 0.12618 0.12679 0.12743 0.12797 0.12861 0.12924 0.12981 0.12982 0.13008 0.12997 0.12931 0.12843 0.12771 0.12765 0.12741 0.12725 0.12753 0.12798 0.12823 0.12848 0.12875 0.12887 0.12878 0.12897 0.12937 0.12944 0.12952 0.12952 0.12892 0.12814 0.12761 0.12719 0.12679 0.12616 0.12536 0.12428 0.12343 0.12275 0.12204 0.1212 0.12105 0.1208 0.12043 0.12055 0.12081 0.12102 0.12127 0.12147 0.12178
0 0 0 0 0 0 0 0 0 0 0 0 0 0 0 0 0 0 0 0 0 0 0 0 0 0 0 0 0 0 0 0 0 0 0 0 0 0 0 0 0 0 0 0 0 0 0 0 0 0.11681 0.11576 0.11559 0.11807 0.12035 0.12413 0.12514 0.12615 0.12715 0.1267 0.12625 0.12557 0.12638 0.12699 0.12756 0.12818 0.12859 0.12901 0.12928 0.12936 0.12922 0.12851 0.12793 0.1273 0.12704 0.12678 0.12653 0.12672 0.12677 0.12657 0.12678 0.12683 0.12681 0.12703 0.12733 0.12757 0.12758 0.12752 0.12742 0.12695 0.12636 0.12581 0.12543 0.12498 0.1245 0.12389 0.12317 0.12249 0.12201 0.1214 0.12077 0.12055 0.12042 0.12026 0.12047 0.12069 0.12091 0.12114 0.12138 0.12171
0 0 0 0 0 0 0 0 0 0 0 0 0 0 0 0 0 0 0 0 0 0 0 0 0 0 0 0 0 0 0 0 0 0 0 0 0 0 0 0 0 0 0 0 0 0 0 0 0 0.1177 0.12052 0.12132 0.12316 0.12563 0.12803 0.12743 0.1271 0.12637 0.12599 0.12564 0.12548 0.12612 0.12671 0.12716 0.12758 0.12794 0.12842 0.12854 0.12848 0.12821 0.12777 0.12729 0.12679 0.12653 0.12619 0.1259 0.12587 0.12571 0.12551 0.12537 0.12511 0.12512 0.12511 0.12526 0.12531 0.12522 0.12522 0.12511 0.12466 0.12425 0.12389 0.12365 0.12336 0.12305 0.12261 0.122 0.12144 0.12105 0.12066 0.12025 0.12022 0.12015 0.12008 0.1203 0.12055 0.12081 0.12112 0.12142 0.12171
0 0 0 0 0 0 0 0 0 0 0 0 0 0 0 0 0 0 0 0 0 0 0 0 0 0 0 0 0 0 0 0 0 0 0 0 0 0 0 0 0 0 0 0 0 0 0 0 0 0 0.1242 0.12536 0.12684 0.12954 0.13126 0.12973 0.12774 0.12563 0.12556 0.12562 0.12512 0.12575 0.12634 0.12677 0.12702 0.12754 0.12789 0.12771 0.12766 0.12732 0.12697 0.12643 0.126 0.12566 0.12532 0.12491 0.12469 0.1245 0.12431 0.12401 0.12384 0.12376 0.12354 0.12333 0.12309 0.12294 0.12283 0.12273 0.12259 0.12242 0.12213 0.12189 0.12166 0.12142 0.12109 0.12076 0.12039 0.12025 0.12003 0.11975 0.11979 0.11978 0.11983 0.1201 0.1204 0.12069 0.12092 0.12131 0.12163
0 0 0 0 0 0 0 0 0 0 0 0 0 0 0 0 0 0 0 0 0 0 0 0 0 0 0 0 0 0 0 0 0 0 0 0 0 0 0 0 0 0 0 0 0 0 0 0 0 0 0.12668 0.12711 0.12776 0.12868 0.13046 0.12914 0.12741 0.12555 0.12542 0.12538 0.12528 0.1258 0.12629 0.12658 0.12678 0.12715 0.12736 0.1273 0.12708 0.12693 0.12636 0.12587 0.12534 0.12505 0.12472 0.12441 0.12419 0.12396 0.12364 0.12352 0.1234 0.12333 0.12317 0.123 0.12285 0.12271 0.12256 0.12239 0.12217 0.12197 0.12172 0.12147 0.12117 0.12095 0.12069 0.12048 0.12027 0.12019 0.11998 0.11975 0.11977 0.11978 0.11985 0.12005 0.12035 0.12062 0.12086 0.12119 0.12153
0 0 0 0 0 0 0 0 0 0 0 0 0 0 0 0 0 0 0 0 0 0 0 0 0 0 0 0 0 0 0 0 0 0 0 0 0 0 0 0 0 0 0 0 0 0 0 0 0 0 0 0 0.12762 0.12789 0.12941 0.12801 0.12694 0.12542 0.1252 0.12518 0.12499 0.12554 0.126 0.12624 0.12662 0.12676 0.12695 0.1268 0.12652 0.12622 0.12583 0.12542 0.12494 0.12465 0.12422 0.12382 0.12369 0.12355 0.12343 0.12336 0.12313 0.12294 0.12273 0.12261 0.12249 0.12231 0.12217 0.12197 0.12176 0.12146 0.12119 0.12102 0.12075 0.12059 0.12036 0.12018 0.1199 0.11981 0.11965 0.11958 0.11968 0.1198 0.11987 0.12015 0.12037 0.12058 0.12089 0.12114 0.12146
0 0 0 0 0 0 0 0 0 0 0 0 0 0 0 0 0 0 0 0 0 0 0 0 0 0 0 0 0 0 0 0 0 0 0 0 0 0 0 0 0 0 0 0 0 0 0 0 0 0 0.12818 0.12788 0.128 0.12808 0.12817 0.12721 0.12616 0.12509 0.12505 0.12498 0.12483 0.12525 0.12563 0.126 0.12623 0.1264 0.12641 0.12612 0.12577 0.12543 0.12502 0.12447 0.12399 0.12372 0.12341 0.12308 0.12305 0.12287 0.12275 0.12276 0.12266 0.12259 0.12241 0.12222 0.122 0.12179 0.12169 0.12146 0.12118 0.12098 0.1208 0.12054 0.12033 0.1201 0.11989 0.1197 0.11949 0.11947 0.11942 0.11939 0.11954 0.11967 0.11976 0.12005 0.12033 0.12053 0.12082 0.12107 0.12136
0 0 0 0 0 0 0 0 0 0 0 0 0 0 0 0 0 0 0 0 0 0 0 0 0 0 0 0 0 0 0 0 0 0 0 0 0 0 0 0 0 0 0 0 0 0 0 0 0 0 0.12905 0.12878 0.12863 0.12822 0.12802 0.12705 0.12604 0.12513 0.12517 0.12506 0.12482 0.12515 0.12556 0.12587 0.12595 0.12611 0.12621 0.12594 0.12552 0.12516 0.12468 0.12426 0.12387 0.12358 0.12323 0.12303 0.12301 0.12285 0.12276 0.1228 0.12268 0.12258 0.12248 0.12238 0.12217 0.12201 0.12187 0.12173 0.12151 0.12124 0.12092 0.12067 0.12045 0.12018 0.12001 0.11978 0.11964 0.1196 0.11947 0.11938 0.11956 0.11965 0.11973 0.11997 0.1202 0.12033 0.12062 0.12093 0.12119
0 0 0 0 0 0 0 0 0 0 0 0 0 0 0 0 0 0 0 0 0 0 0 0 0 0 0 0 0 0 0 0 0 0 0 0 0 0 0 0 0 0 0 0 0 0 0 0 0 0 0 0.1301 0.12957 0.12897 0.1281 0.12706 0.12586 0.12508 0.12499 0.12503 0.12478 0.12523 0.12547 0.12577 0.12579 0.12594 0.12594 0.1257 0.12535 0.12492 0.12455 0.12418 0.12378 0.12335 0.12307 0.12295 0.12288 0.12275 0.1227 0.12271 0.12263 0.12252 0.12244 0.12229 0.12218 0.12215 0.12211 0.1219 0.12155 0.12127 0.12099 0.12066 0.12047 0.1203 0.12012 0.11995 0.11976 0.11966 0.11953 0.11942 0.11952 0.11958 0.11962 0.11985 0.12004 0.12021 0.12047 0.12075 0.12103
0 0 0 0 0 0 0 0 0 0 0 0 0 0 0 0 0 0 0 0 0 0 0 0 0 0 0 0 0 0 0 0 0 0 0 0 0 0 0 0 0 0 0 0 0 0 0 0 0 0 0 0.13073 0.12992 0.12928 0.12846 0.12742 0.12592 0.12503 0.12502 0.12491 0.12498 0.12536 0.12547 0.12572 0.12568 0.12558 0.12555 0.12541 0.12505 0.12466 0.12436 0.12396 0.12367 0.12327 0.12306 0.12282 0.12285 0.12288 0.12288 0.12282 0.12271 0.12253 0.12243 0.12236 0.12231 0.12232 0.12216 0.12194 0.12167 0.12127 0.12098 0.12062 0.12043 0.1203 0.1202 0.12007 0.11986 0.11979 0.1197 0.11959 0.11957 0.1195 0.1195 0.11965 0.11981 0.11997 0.12026 0.12052 0.12076
0 0 0 0 0 0 0 0 0 0 0 0 0 0 0 0 0 0 0 0 0 0 0 0 0 0 0 0 0 0 0 0 0 0 0 0 0 0 0 0 0 0 0 0 0 0 0 0 0 0 0 0.13118 0.13024 0.12937 0.12838 0.12707 0.12591 0.12524 0.1252 0.12509 0.12516 0.12531 0.12543 0.1256 0.12562 0.12553 0.12542 0.12526 0.12508 0.12487 0.1244 0.12398 0.12365 0.12338 0.12316 0.12293 0.12298 0.123 0.12298 0.12284 0.12269 0.12268 0.12249 0.12245 0.12243 0.12242 0.12222 0.12195 0.12166 0.1212 0.12096 0.12071 0.1205 0.12035 0.12021 0.12004 0.11994 0.11992 0.11972 0.11966 0.11962 0.11956 0.11952 0.11974 0.11981 0.11992 0.12018 0.12044 0.12071
0 0 0 0 0 0 0 0 0 0 0 0 0 0 0 0 0 0 0 0 0 0 0 0 0 0 0 0 0 0 0 0 0 0 0 0 0 0 0 0 0 0 0 0 0 0 0 0 0 0.1276 0.12922 0.13147 0.13042 0.12911 0.12783 0.12695 0.12596 0.12534 0.12517 0.12531 0.12526 0.12545 0.1255 0.12542 0.12542 0.1254 0.12533 0.1251 0.12495 0.12475 0.12445 0.12409 0.12369 0.12355 0.12317 0.12315 0.1231 0.12311 0.1231 0.12302 0.12288 0.1227 0.12259 0.12257 0.12238 0.1224 0.12219 0.12197 0.12176 0.12139 0.12106 0.12068 0.12052 0.12038 0.12035 0.12014 0.12 0.11993 0.11975 0.11962 0.11964 0.11954 0.11953 0.11974 0.11984 0.11989 0.12021 0.12044 0.12067
0 0 0 0 0 0 0 0 0 0 0 0 0 0 0 0 0 0 0 0 0 0 0 0 0 0 0 0 0 0 0 0 0 0 0 0 0 0 0 0 0 0 0 0 0 0 0 0 0.12301 0.12597 0.12891 0.13158 0.13048 0.12918 0.12769 0.12696 0.12621 0.12547 0.12531 0.12546 0.12543 0.12559 0.1256 0.12543 0.1253 0.12509 0.12515 0.12508 0.12492 0.12473 0.12458 0.12427 0.1239 0.1235 0.12334 0.12333 0.12327 0.12324 0.12322 0.12322 0.12308 0.12298 0.12285 0.12269 0.12256 0.12235 0.12224 0.12194 0.12168 0.1214 0.12104 0.12073 0.12057 0.12048 0.1204 0.12014 0.12006 0.11996 0.11979 0.11963 0.11955 0.11951 0.11951 0.11967 0.11977 0.1198 0.12001 0.1203 0.12053
0 0 0 0 0 0 0 0 0 0 0 0 0 0 0 0 0 0 0 0 0 0 0 0 0 0 0 0 0 0 0 0 0 0 0 0 0 0 0 0 0 0 0 0 0 0.13107 0.12934 0.12799 0.12643 0.12819 0.12969 0.13117 0.13046 0.12897 0.12774 0.12736 0.12681 0.12592 0.12582 0.12569 0.12561 0.12568 0.12582 0.12577 0.12561 0.12533 0.12533 0.12512 0.12509 0.125 0.1248 0.12457 0.12421 0.1239 0.12381 0.12375 0.12364 0.12356 0.12338 0.12333 0.12321 0.12295 0.12291 0.12271 0.12256 0.12245 0.12215 0.12182 0.12152 0.12125 0.12095 0.1207 0.12046 0.12039 0.12031 0.12016 0.12001 0.11988 0.11981 0.11958 0.11958 0.11953 0.11946 0.11964 0.11977 0.1198 0.12 0.12025 0.1205
0 0 0 0 0 0 0 0 0 0 0 0 0 0 0 0 0 0 0 0 0 0 0 0 0 0 0 0 0 0 0 0 0 0 0 0 0 0 0 0 0 0 0.1298 0.13086 0.13182 0.1319 0.13122 0.13066 0.12931 0.13003 0.13059 0.13077 0.13001 0.12884 0.12807 0.12769 0.12731 0.12651 0.12625 0.1259 0.1258 0.12584 0.12599 0.12584 0.12571 0.1256 0.12544 0.12529 0.12538 0.12531 0.12503 0.12476 0.12452 0.12437 0.12427 0.12415 0.12392 0.12382 0.12365 0.12348 0.12321 0.12295 0.12284 0.12271 0.12252 0.12235 0.12214 0.12176 0.12149 0.1212 0.12094 0.12069 0.12046 0.12035 0.12025 0.12015 0.12001 0.11989 0.11975 0.1196 0.11956 0.11956 0.11949 0.11962 0.11969 0.11977 0.12 0.12029 0.12053
0 0 0 0 0 0 0 0 0 0 0 0 0 0 0 0 0 0 0 0 0 0 0 0 0 0 0 0 0 0 0 0 0 0 0 0 0 0 0 0 0.1285 0.12905 0.13012 0.1312 0.13269 0.13321 0.13279 0.13236 0.13209 0.13163 0.13078 0.12985 0.12949 0.12871 0.12819 0.12786 0.12762 0.12716 0.1268 0.1263 0.12577 0.12572 0.12589 0.12584 0.12569 0.1256 0.12551 0.12537 0.12527 0.12527 0.12515 0.12494 0.12485 0.12473 0.12464 0.12446 0.12419 0.12404 0.12395 0.12372 0.12338 0.12311 0.12297 0.12275 0.12253 0.12235 0.12208 0.12166 0.12146 0.12124 0.12095 0.12066 0.12042 0.12024 0.12016 0.12011 0.11993 0.11981 0.11971 0.11952 0.11959 0.1196 0.11956 0.1196 0.11968 0.1197 0.12005 0.12034 0.12051
0 0 0 0 0 0 0 0 0 0 0 0 0 0 0 0 0 0 0 0 0 0 0 0 0 0 0 0 0 0 0 0 0 0 0 0 0 0 0 0.12696 0.1285 0.12951 0.13038 0.13086 0.13201 0.13238 0.13193 0.13143 0.13096 0.13064 0.13052 0.12971 0.12949 0.12859 0.1283 0.12811 0.12782 0.12747 0.12717 0.12664 0.12624 0.12624 0.12612 0.12612 0.12593 0.12562 0.12553 0.12551 0.1255 0.12537 0.12522 0.12496 0.12495 0.12484 0.12469 0.12451 0.12427 0.12409 0.12399 0.12376 0.12348 0.12321 0.12306 0.12282 0.12258 0.1224 0.12208 0.12169 0.12148 0.1213 0.12104 0.12066 0.12047 0.12023 0.12019 0.12015 0.11985 0.11983 0.11978 0.11952 0.1197 0.11964 0.1196 0.11973 0.11989 0.11997 0.12023 0.12044 0.12068
0 0 0 0 0 0 0 0 0 0 0 0 0 0 0 0 0 0 0 0 0 0 0 0 0 0 0 0 0 0 0 0 0 0 0 0 0 0 0.12434 0.12845 0.12936 0.12998 0.13061 0.13066 0.13083 0.13131 0.13108 0.13046 0.13014 0.12988 0.12978 0.12962 0.12924 0.12868 0.12843 0.12825 0.128 0.12772 0.1274 0.12709 0.12681 0.12668 0.12642 0.12627 0.12586 0.12564 0.12541 0.12545 0.12553 0.12556 0.12539 0.12521 0.12496 0.12484 0.12472 0.12459 0.12435 0.12409 0.12395 0.1238 0.12355 0.12331 0.12315 0.12289 0.1226 0.12234 0.12207 0.12169 0.12148 0.12124 0.12098 0.12072 0.12044 0.12022 0.12022 0.11999 0.11984 0.11987 0.11977 0.11966 0.11972 0.11972 0.11977 0.1199 0.12009 0.12023 0.12047 0.12064 0.1208
0 0 0 0 0 0 0 0 0 0 0 0 0 0 0 0 0 0 0 0 0 0 0 0 0 0 0 0 0 0 0 0 0 0 0.11512 0.10757 0.10176 0.11175 0.12128 0.13069 0.13137 0.13125 0.13093 0.13057 0.13018 0.13019 0.12982 0.12937 0.1287 0.12883 0.12891 0.12898 0.12899 0.12865 0.12846 0.12826 0.12825 0.12797 0.12772 0.1275 0.12731 0.12717 0.12693 0.12641 0.12615 0.12583 0.12543 0.12562 0.12584 0.12592 0.12559 0.12533 0.12511 0.1249 0.12475 0.12457 0.12446 0.12424 0.12406 0.12379 0.12357 0.12328 0.12307 0.12285 0.12274 0.12245 0.12201 0.12165 0.12137 0.1212 0.12094 0.12071 0.12045 0.12015 0.12001 0.11995 0.11985 0.11982 0.11982 0.11967 0.1198 0.11992 0.11987 0.12011 0.12029 0.12054 0.12075 0.1208 0.12086
0 0 0 0 0 0 0 0 0 0 0 0 0 0 0 0 0 0 0 0 0 0 0 0 0 0 0 0 0 0.12027 0.12219 0.12346 0.12337 0.12232 0.1201 0.11603 0.11056 0.11713 0.12337 0.12936 0.12994 0.13067 0.13026 0.13001 0.1296 0.12961 0.12933 0.12884 0.12853 0.12867 0.12879 0.12899 0.12881 0.12854 0.12837 0.1282 0.12828 0.12821 0.12799 0.12792 0.12781 0.12757 0.12732 0.12697 0.12652 0.12616 0.12595 0.12594 0.12593 0.12583 0.12559 0.12522 0.12493 0.12475 0.12463 0.12454 0.12441 0.12414 0.12393 0.12376 0.12341 0.12313 0.12288 0.12253 0.12254 0.12243 0.12207 0.12175 0.12138 0.1212 0.12096 0.12068 0.12034 0.12008 0.12003 0.11998 0.11989 0.11983 0.11978 0.11968 0.1199 0.12007 0.12016 0.12036 0.1206 0.1208 0.12092 0.12097 0.12107
0 0 0 0 0 0 0 0 0 0 0 0 0 0 0 0 0 0 0 0 0 0 0 0 0 0.11256 0.11312 0.11308 0.11646 0.12126 0.1246 0.12545 0.12561 0.12609 0.12505 0.12443 0.11948 0.12257 0.1255 0.12844 0.12864 0.12948 0.12966 0.12966 0.12917 0.12915 0.12897 0.12857 0.12826 0.1284 0.12852 0.12888 0.12862 0.12863 0.12838 0.12847 0.12842 0.12827 0.1283 0.12816 0.12825 0.12795 0.12756 0.12715 0.12683 0.12667 0.12637 0.12618 0.12575 0.12566 0.12557 0.12533 0.12507 0.12485 0.12466 0.12455 0.12435 0.12403 0.12386 0.12369 0.12345 0.12299 0.12287 0.12268 0.12237 0.12227 0.12206 0.12174 0.12144 0.12123 0.12085 0.1207 0.12039 0.12018 0.12014 0.12 0.11993 0.11974 0.11976 0.11973 0.11999 0.12017 0.12031 0.12059 0.12091 0.12104 0.12113 0.12122 0.1213
0 0 0 0 0 0 0 0 0 0 0 0 0 0 0 0 0 0 0 0 0 0 0 0.1102 0.11126 0.11168 0.1109 0.10898 0.11507 0.12078 0.12784 0.12837 0.1285 0.12842 0.12809 0.12802 0.12789 0.12779 0.12743 0.12688 0.12727 0.12819 0.12908 0.12903 0.12889 0.12873 0.12864 0.12823 0.12801 0.12812 0.12826 0.12872 0.12854 0.12842 0.12838 0.12851 0.12862 0.12866 0.12869 0.12861 0.12844 0.12831 0.12805 0.12754 0.12718 0.12679 0.12662 0.12632 0.12594 0.12569 0.12544 0.12521 0.12497 0.12483 0.12449 0.12424 0.1241 0.12389 0.12375 0.12358 0.12341 0.12297 0.12274 0.12267 0.1224 0.12217 0.12204 0.12179 0.12157 0.12137 0.12092 0.12065 0.12041 0.12025 0.1202 0.12006 0.11977 0.11977 0.1197 0.11973 0.11998 0.12021 0.12044 0.12073 0.12103 0.12113 0.12132 0.12147 0.12143
0 0 0 0 0 0 0 0 0 0 0 0 0 0 0 0 0 0 0 0 0 0 0.10691 0.10847 0.10946 0.11062 0.11279 0.11157 0.11637 0.1213 0.12619 0.12685 0.1273 0.12765 0.12745 0.1273 0.12696 0.12685 0.1266 0.12643 0.12686 0.12714 0.12813 0.12875 0.12889 0.12857 0.12825 0.12813 0.12774 0.1279 0.12816 0.12859 0.1286 0.12861 0.12853 0.12879 0.12889 0.12881 0.12876 0.12863 0.12868 0.12863 0.12832 0.12799 0.12758 0.12715 0.1268 0.1266 0.12617 0.12582 0.12555 0.12528 0.12502 0.12471 0.12437 0.12414 0.12393 0.12374 0.12344 0.12328 0.123 0.12277 0.12258 0.12243 0.12238 0.12223 0.12205 0.12186 0.12159 0.12144 0.12117 0.12085 0.12058 0.12038 0.12024 0.12004 0.11976 0.1198 0.11981 0.11991 0.12013 0.12038 0.12056 0.12098 0.12119 0.12132 0.12156 0.12156 0.12163
0 0 0 0 0 0 0 0 0 0 0 0 0 0 0 0 0 0 0 0 0 0.10423 0.10474 0.10523 0.10559 0.10883 0.11286 0.11421 0.1179 0.12138 0.12522 0.12568 0.12599 0.12612 0.12608 0.12628 0.12591 0.12553 0.12572 0.12573 0.12621 0.12679 0.12725 0.12777 0.12796 0.12803 0.12814 0.12796 0.12771 0.1279 0.12809 0.12831 0.12859 0.12874 0.12881 0.12903 0.12904 0.12888 0.12876 0.12885 0.12886 0.12882 0.12853 0.12825 0.12794 0.12757 0.12709 0.12681 0.12639 0.12607 0.12574 0.12532 0.12499 0.12466 0.1244 0.12405 0.12386 0.12357 0.12321 0.12304 0.12285 0.12266 0.12251 0.12242 0.12232 0.1223 0.12192 0.12173 0.12151 0.12134 0.12131 0.12095 0.12071 0.12027 0.12026 0.12001 0.11975 0.11985 0.11997 0.12006 0.12035 0.12052 0.12084 0.12113 0.12132 0.12145 0.12164 0.12174 0.12181
0 0 0 0 0 0 0 0 0 0 0 0 0 0 0 0 0 0 0 0 0 0 0 0.10303 0.10101 0.10681 0.11231 0.11726 0.11933 0.12154 0.12426 0.1243 0.12469 0.12506 0.12501 0.1252 0.12487 0.12476 0.12477 0.12482 0.12519 0.12573 0.12633 0.12678 0.12735 0.12751 0.12748 0.12769 0.12776 0.12805 0.12805 0.12832 0.12856 0.12885 0.12899 0.12917 0.12934 0.12925 0.12928 0.12928 0.12914 0.1289 0.12877 0.12856 0.12832 0.12783 0.12744 0.12707 0.12675 0.12634 0.12598 0.12542 0.12501 0.12464 0.12427 0.12391 0.1237 0.12331 0.12303 0.12281 0.12262 0.12244 0.12238 0.12218 0.12216 0.12209 0.1219 0.12167 0.12143 0.1215 0.12134 0.12094 0.12055 0.12026 0.12027 0.11998 0.11972 0.11985 0.12008 0.12021 0.12043 0.12075 0.12092 0.12124 0.12142 0.12155 0.12179 0.12185 0.12188
0 0 0 0 0 0 0 0 0 0 0 0 0 0 0 0 0 0 0 0 0 0.09384 0.09782 0.10258 0.10218 0.10833 0.11455 0.12014 0.12115 0.12235 0.12369 0.12402 0.12439 0.12468 0.12484 0.12488 0.1245 0.12459 0.12459 0.12464 0.12507 0.12531 0.12573 0.12649 0.127 0.12733 0.12745 0.12756 0.12766 0.12772 0.12761 0.12797 0.12816 0.12857 0.1291 0.12913 0.12934 0.12926 0.12934 0.12945 0.12922 0.12898 0.12884 0.12878 0.12842 0.12818 0.12777 0.12736 0.12701 0.12661 0.12612 0.12571 0.12516 0.12472 0.12437 0.12394 0.12364 0.12335 0.12314 0.12294 0.12272 0.1225 0.12237 0.12226 0.12219 0.12212 0.122 0.12169 0.12163 0.12146 0.12122 0.12097 0.12073 0.12038 0.12035 0.12006 0.11978 0.11994 0.12017 0.12031 0.12048 0.12078 0.12085 0.12122 0.12136 0.12147 0.12167 0.1219 0.12201
0 0 0 0 0 0 0 0 0 0 0 0 0 0 0 0 0 0 0 0.08635 0.08309 0.08175 0.08936 0.09966 0.10335 0.10978 0.11651 0.12296 0.12305 0.12292 0.12313 0.12368 0.12391 0.12414 0.12436 0.12436 0.12409 0.12413 0.12412 0.1243 0.12484 0.12516 0.12548 0.12612 0.12671 0.12709 0.12737 0.12738 0.12758 0.12763 0.12771 0.12767 0.12809 0.12837 0.12889 0.12923 0.12938 0.12951 0.12933 0.12924 0.12909 0.12896 0.1289 0.12886 0.12859 0.12831 0.12802 0.12766 0.12717 0.12668 0.12624 0.12576 0.12532 0.12499 0.12458 0.12397 0.12373 0.12357 0.1233 0.123 0.12273 0.12247 0.12236 0.12225 0.12206 0.12204 0.12189 0.12174 0.12175 0.12153 0.12118 0.12098 0.12081 0.12047 0.12038 0.12011 0.11972 0.11996 0.12025 0.1205 0.12052 0.12072 0.12083 0.1211 0.12129 0.12136 0.12169 0.12193 0.12221
0 0 0 0 0 0 0 0 0 0 0 0 0 0 0 0 0 0 0.0847 0.08271 0.07682 0.06951 0.08019 0.09212 0.10349 0.11127 0.11845 0.12535 0.12442 0.12357 0.12273 0.12314 0.12367 0.12372 0.12372 0.12366 0.12368 0.12371 0.12358 0.12396 0.12433 0.12459 0.12498 0.12544 0.12604 0.12646 0.12689 0.12705 0.12735 0.12753 0.12751 0.12749 0.12759 0.12794 0.12833 0.12888 0.1294 0.12954 0.12935 0.12918 0.12905 0.12901 0.12895 0.12889 0.12859 0.1282 0.12797 0.12771 0.12722 0.1267 0.12633 0.12595 0.12552 0.12512 0.12462 0.12415 0.12385 0.12361 0.12328 0.12303 0.12277 0.12249 0.12246 0.12237 0.1221 0.122 0.12192 0.12188 0.12179 0.12158 0.12112 0.12105 0.12088 0.1205 0.12033 0.12006 0.11983 0.12009 0.12037 0.12063 0.12073 0.12069 0.12074 0.1209 0.12109 0.12114 0.12168 0.12201 0.12239
0 0 0 0 0 0 0 0 0 0 0 0 0 0 0 0 0 0.08517 0.0846 0.08465 0.0837 0.07696 0.08752 0.0977 0.10756 0.11355 0.11914 0.12418 0.12364 0.12315 0.12284 0.12342 0.12351 0.12358 0.1234 0.12355 0.12375 0.12378 0.12394 0.12413 0.12439 0.12469 0.12497 0.12538 0.12589 0.12624 0.12655 0.12694 0.12736 0.12751 0.12753 0.12747 0.12751 0.12777 0.128 0.12847 0.1287 0.1289 0.129 0.12895 0.12893 0.12888 0.12898 0.12895 0.12866 0.12841 0.1281 0.12771 0.12738 0.12703 0.12679 0.12643 0.12599 0.12543 0.12492 0.12444 0.1242 0.12383 0.12354 0.12332 0.12304 0.12272 0.12267 0.12247 0.12235 0.12225 0.12218 0.12204 0.12193 0.12172 0.12113 0.12105 0.12089 0.12045 0.12043 0.12009 0.11999 0.12021 0.12042 0.12064 0.12076 0.12084 0.12077 0.12093 0.12112 0.12126 0.12172 0.12194 0.12221
0 0 0 0 0 0 0 0 0 0 0 0 0 0 0 0 0.08299 0.08126 0.07938 0.08393 0.08936 0.08558 0.09454 0.10335 0.11225 0.11614 0.12014 0.1231 0.12288 0.12302 0.12296 0.1235 0.12356 0.12343 0.12349 0.12353 0.1236 0.12376 0.12404 0.12431 0.12437 0.12477 0.12497 0.12532 0.12575 0.12602 0.12649 0.12692 0.12717 0.12734 0.12735 0.12727 0.12723 0.12742 0.12758 0.12797 0.12811 0.12835 0.12853 0.1287 0.12885 0.12872 0.12867 0.12863 0.12854 0.12839 0.12822 0.12786 0.12755 0.12722 0.12695 0.12658 0.12611 0.12572 0.12531 0.12479 0.12443 0.12407 0.12378 0.12336 0.12316 0.12286 0.12261 0.12255 0.1225 0.12244 0.12236 0.12221 0.12205 0.12177 0.12132 0.12114 0.12083 0.12043 0.12041 0.12025 0.12008 0.12028 0.12053 0.12056 0.12067 0.12067 0.12067 0.12097 0.12116 0.12131 0.12172 0.1219 0.1221
0 0 0 0 0 0 0 0 0 0 0 0 0 0 0 0.08743 0.08389 0.0772 0.07059 0.0783 0.0854 0.0925 0.10028 0.10887 0.11727 0.1191 0.12097 0.12217 0.12211 0.12279 0.12302 0.12336 0.12344 0.12315 0.12374 0.12382 0.12371 0.12403 0.12425 0.12435 0.12441 0.12472 0.12489 0.12542 0.12573 0.12604 0.12651 0.12684 0.12709 0.12718 0.12724 0.12725 0.12701 0.12702 0.12709 0.12738 0.12749 0.12772 0.12762 0.12798 0.12855 0.1279 0.12771 0.12815 0.12819 0.12809 0.12811 0.12791 0.12766 0.12738 0.12709 0.12677 0.12646 0.12601 0.12551 0.12486 0.12461 0.12429 0.12381 0.12351 0.12311 0.12276 0.12274 0.12254 0.12246 0.1224 0.12225 0.12217 0.12208 0.12171 0.12121 0.12102 0.12089 0.1205 0.12055 0.12039 0.1202 0.12041 0.12051 0.12043 0.12051 0.12058 0.1206 0.12082 0.12109 0.12132 0.12164 0.12174 0.1218
0 0 0 0 0 0 0 0 0 0 0 0 0 0 0.08675 0.08841 0.08733 0.08565 0.0801 0.08731 0.09438 0.10142 0.1065 0.11243 0.11798 0.11969 0.1212 0.12226 0.12223 0.12267 0.12283 0.12297 0.12305 0.12306 0.12342 0.12361 0.12379 0.12407 0.12431 0.1244 0.12453 0.12471 0.12485 0.12509 0.12544 0.12576 0.12632 0.12677 0.12699 0.12731 0.12757 0.12771 0.12749 0.1273 0.12714 0.12644 0.12543 0.12466 0.1263 0.1266 0.12692 0.12645 0.12597 0.12297 0.12486 0.12669 0.12856 0.1281 0.12783 0.12735 0.12708 0.12686 0.12642 0.12598 0.12544 0.12492 0.12457 0.12405 0.12371 0.1234 0.12311 0.12266 0.12269 0.12258 0.12256 0.12256 0.1224 0.12229 0.12219 0.12178 0.12126 0.12112 0.12096 0.12079 0.12069 0.12064 0.12035 0.12061 0.1207 0.12055 0.12059 0.12063 0.12052 0.12092 0.12123 0.12153 0.12184 0.1221 0.12225
0 0 0 0 0 0 0 0 0 0 0 0 0 0.08715 0.08685 0.08432 0.08909 0.09422 0.08913 0.0961 0.10313 0.11005 0.11278 0.11584 0.11857 0.12026 0.12124 0.12235 0.12235 0.12253 0.12271 0.12274 0.1228 0.12281 0.1232 0.12355 0.12384 0.12409 0.12429 0.12442 0.1246 0.12472 0.12467 0.12488 0.12508 0.12517 0.12574 0.12636 0.1269 0.12734 0.12781 0.12818 0.12776 0.12744 0.12705 0.12537 0.1235 0.12168 0 0 0 0.12645 0.12329 0.11777 0.12154 0.12522 0.12898 0.12859 0.128 0.12729 0.12701 0.12673 0.12624 0.12574 0.12525 0.1248 0.12437 0.12391 0.12354 0.12324 0.12304 0.12259 0.12254 0.12263 0.12259 0.12266 0.12252 0.12232 0.12224 0.12191 0.12148 0.12141 0.12123 0.12091 0.12085 0.12077 0.12051 0.12067 0.12076 0.12069 0.12072 0.12068 0.12057 0.12103 0.12133 0.1216 0.12212 0.12249 0.12272
0 0 0 0 0 0 0 0 0 0 0 0 0 0.09166 0.08294 0.07562 0.08318 0.09072 0.09764 0.10478 0.1118 0.11904 0.11892 0.11914 0.11912 0.12067 0.12139 0.1223 0.12238 0.12232 0.12274 0.12275 0.12278 0.12268 0.12303 0.12348 0.12373 0.12397 0.12426 0.12427 0.12421 0.12442 0.12434 0.12413 0.12425 0.12459 0.12486 0.12602 0.12655 0.12626 0.12679 0.12824 0.12625 0.12522 0.12684 0.12412 0.12146 0.11848 0 0 0 0 0 0.11962 0.11809 0.12366 0.1294 0.12893 0.12818 0.12726 0.12696 0.1266 0.12607 0.12561 0.1251 0.1246 0.12408 0.12374 0.12329 0.12306 0.1228 0.12243 0.1225 0.12253 0.12247 0.12265 0.1225 0.12225 0.12225 0.12186 0.12158 0.12154 0.12146 0.12097 0.12094 0.1209 0.12062 0.12077 0.12071 0.1207 0.12073 0.12064 0.12048 0.12098 0.12133 0.12162 0.1223 0.12277 0.12309
0 0 0 0 0 0 0 0 0 0 0 0 0.09996 0.09856 0.09483 0.09177 0.09703 0.10217 0.10691 0.11145 0.11577 0.12016 0.12022 0.12041 0.1204 0.12146 0.12187 0.12279 0.12266 0.12254 0.12279 0.12283 0.12275 0.12269 0.1231 0.12344 0.12374 0.12398 0.12409 0.12394 0.1222 0.12046 0.11865 0.12237 0.12311 0.12395 0.12455 0 0 0.12653 0 0.12497 0.12303 0.12152 0.1145 0.1169 0.11931 0.12162 0.12081 0.12249 0.12348 0 0 0 0.12108 0.12502 0.12908 0.12842 0.12774 0.12681 0.12649 0.12617 0.12574 0.12527 0.12474 0.12423 0.12392 0.12367 0.12318 0.12314 0.12291 0.12266 0.12283 0.12277 0.12275 0.12285 0.12266 0.12241 0.12235 0.12217 0.12194 0.12181 0.12152 0.12108 0.12119 0.12109 0.12079 0.12086 0.12089 0.12081 0.12077 0.12073 0.12054 0.12088 0.12128 0.12144 0.12201 0.12266 0.123
0 0 0 0 0 0 0 0 0 0 0 0.09995 0.09882 0.10274 0.10995 0.10807 0.1108 0.11353 0.11603 0.11798 0.11976 0.12147 0.12154 0.12161 0.12157 0.12212 0.12247 0.12304 0.1229 0.12272 0.12274 0.12288 0.12285 0.12287 0.12326 0.12364 0.12383 0.12375 0.12382 0.12366 0.12007 0.11635 0.11258 0.11652 0.11963 0 0 0 0 0 0.12245 0.11992 0.1158 0.10975 0.10194 0.10945 0.1171 0.12447 0.1228 0.12289 0.12345 0.12411 0.12406 0.12136 0.12385 0.12616 0.12859 0.12803 0.12715 0.12635 0.12601 0.12568 0.12528 0.12482 0.12431 0.12386 0.12359 0.1233 0.123 0.12294 0.12286 0.1227 0.12286 0.12293 0.12281 0.12289 0.12287 0.12244 0.12258 0.12241 0.12207 0.12182 0.12159 0.12137 0.12132 0.12116 0.12091 0.12104 0.12101 0.1209 0.12084 0.12079 0.12059 0.12089 0.12116 0.12126 0.12188 0.12244 0.12288
0 0 0 0 0 0 0 0 0 0 0.10468 0.09823 0.09256 0.10295 0.1134 0.12368 0.12388 0.12442 0.12483 0.12429 0.12345 0.12272 0.12295 0.1226 0.12256 0.12274 0.12307 0.12329 0.12312 0.12302 0.12298 0.12297 0.12298 0.12301 0.12344 0.12377 0.12383 0.12379 0.12338 0.12306 0.1209 0.11265 0.10647 0 0 0 0 0 0 0 0 0 0 0 0.08933 0.10188 0.11469 0.12704 0.12628 0.12557 0.12481 0.1251 0.12544 0.12578 0.12675 0.12719 0.12793 0.12715 0.1267 0.1256 0.12535 0.12493 0.1245 0.12407 0.12374 0.12339 0.12325 0.12301 0.12283 0.12275 0.12279 0.12266 0.12282 0.12296 0.12298 0.12303 0.12292 0.12271 0.12259 0.12238 0.12207 0.12194 0.12171 0.12153 0.12143 0.12131 0.12109 0.12112 0.12111 0.12105 0.12095 0.12075 0.12053 0.12076 0.12095 0.12106 0.12166 0.12229 0.12263
0 0 0 0 0 0 0 0 0 0 0.11025 0.10715 0.10483 0.11143 0.11793 0.12406 0.12413 0.12457 0.12493 0.12445 0.12383 0.12352 0.12351 0.12343 0.12308 0.12329 0.12358 0.12379 0.12353 0.12341 0.12312 0.1231 0.12322 0.12315 0.1235 0.12369 0.12379 0.12357 0.12316 0.12267 0.12016 0 0 0 0 0 0 0 0 0 0 0 0 0 0.10188 0.11007 0.11815 0.126 0.12546 0.12494 0.12456 0.12484 0.12517 0.12541 0.12596 0.12644 0.12705 0.12643 0.12595 0.12522 0.12485 0.12431 0.12398 0.12377 0.12358 0.12331 0.12321 0.1231 0.12297 0.12302 0.12297 0.12291 0.1231 0.12314 0.12319 0.12322 0.12292 0.12268 0.12242 0.12227 0.12205 0.12191 0.12184 0.12157 0.12149 0.12142 0.12123 0.12129 0.1213 0.12124 0.12114 0.12093 0.1207 0.12082 0.12087 0.12103 0.12156 0.12194 0.12226
0 0 0 0 0 0 0 0 0 0.11579 0.11716 0.12043 0.11724 0.11971 0.12199 0.12424 0.12445 0.12467 0.12493 0.12473 0.12439 0.12408 0.12412 0.12393 0.12383 0.12393 0.12425 0.12434 0.12406 0.12386 0.12334 0.12322 0.12329 0.12317 0.12338 0.12358 0.12368 0.12327 0.12279 0.12212 0.12157 0 0 0 0 0 0 0 0 0 0 0 0 0.11773 0.1145 0.11811 0.1216 0.12509 0.12483 0.1245 0.12425 0.12466 0.12487 0.12506 0.12557 0.12578 0.12601 0.12571 0.12535 0.12473 0.12418 0.12405 0.12363 0.12362 0.12342 0.12328 0.12321 0.12306 0.12288 0.12299 0.12313 0.12314 0.12345 0.1235 0.12323 0.12304 0.12265 0.12233 0.12228 0.12212 0.12182 0.12178 0.12167 0.12147 0.12139 0.12131 0.12126 0.12136 0.12141 0.12144 0.12126 0.12108 0.12081 0.1208 0.12094 0.12089 0.12133 0.12162 0.1218
0 0 0 0 0 0 0 0 0.11674 0.11846 0.12226 0.12592 0.1289 0.1274 0.12594 0.12444 0.12456 0.12458 0.12462 0.12456 0.12445 0.12439 0.12442 0.12425 0.12428 0.12434 0.12451 0.12458 0.12424 0.1239 0.12339 0.12321 0.12317 0.12312 0.12337 0.12355 0.1236 0.123 0.12239 0.12148 0.12158 0.12142 0 0.11959 0.1192 0 0 0 0 0 0 0 0.12118 0.12427 0.12683 0.12599 0.12508 0.12408 0.12417 0.12407 0.12391 0.12412 0.1244 0.12441 0.12486 0.1253 0.12529 0.12491 0.12457 0.12396 0.12373 0.12351 0.12311 0.12318 0.12305 0.1228 0.12282 0.12274 0.1226 0.12278 0.12299 0.12308 0.12318 0.12311 0.12276 0.12256 0.12235 0.12213 0.12199 0.12163 0.12136 0.12139 0.12135 0.12126 0.12131 0.12124 0.12113 0.12121 0.12125 0.12132 0.12122 0.12111 0.12081 0.12081 0.12085 0.12068 0.12097 0.12119 0.12124
0 0 0 0 0 0 0 0 0.11898 0.12034 0.12221 0.12425 0.12861 0.12722 0.12564 0.12414 0.12422 0.12416 0.1242 0.12424 0.12427 0.12429 0.12426 0.12422 0.12421 0.12427 0.12428 0.1243 0.12408 0.12383 0.12353 0.12349 0.12331 0.12323 0.12345 0.12349 0.12351 0.12318 0.12285 0.12226 0.1223 0.12245 0.12165 0.12134 0.12093 0 0 0 0 0 0 0.12036 0.12179 0.12315 0.12595 0.12539 0.12484 0.12409 0.12405 0.12402 0.12391 0.12413 0.12426 0.12428 0.12453 0.12479 0.1248 0.12448 0.12411 0.12367 0.12349 0.12337 0.12307 0.12315 0.123 0.12289 0.1228 0.12276 0.12261 0.12273 0.1228 0.12283 0.12286 0.12273 0.12243 0.1223 0.12221 0.12204 0.12188 0.12166 0.1214 0.12144 0.12126 0.12131 0.12129 0.12125 0.12115 0.12124 0.12127 0.12127 0.12114 0.12104 0.12087 0.12088 0.12088 0.12076 0.12092 0.12117 0.12122
0 0 0 0 0 0 0 0 0 0.11985 0.12154 0.12346 0.12818 0.12685 0.12543 0.1239 0.12387 0.12374 0.12385 0.12396 0.12421 0.12423 0.12424 0.12424 0.12425 0.12425 0.12431 0.12425 0.12409 0.12387 0.1237 0.12364 0.12351 0.12344 0.12353 0.12357 0.12366 0.12357 0.1234 0.1231 0.12375 0.12365 0.12333 0.12304 0.12265 0.12243 0.11962 0.11348 0 0 0.11965 0.12273 0.12249 0.12298 0.12515 0.12483 0.12454 0.12404 0.12393 0.12378 0.12377 0.12409 0.12417 0.1242 0.12429 0.12431 0.12416 0.12379 0.12356 0.12337 0.12327 0.1232 0.123 0.12311 0.12296 0.12282 0.12275 0.12258 0.12247 0.12248 0.12252 0.1225 0.12251 0.12235 0.12207 0.12217 0.12204 0.12181 0.12172 0.12151 0.12126 0.12115 0.12115 0.12108 0.12115 0.12111 0.12099 0.12112 0.12116 0.1212 0.12115 0.12103 0.12082 0.12091 0.12089 0.12079 0.1209 0.12104 0.1211
0 0 0 0 0 0 0 0 0 0.11813 0.1202 0.12432 0.12776 0.12632 0.12498 0.1234 0.12347 0.12347 0.12341 0.12368 0.12397 0.12414 0.1242 0.1242 0.1241 0.12409 0.12417 0.12415 0.12407 0.12392 0.12368 0.12368 0.1236 0.12352 0.12361 0.12378 0.12387 0.12396 0.12401 0.12394 0.1242 0.12439 0.1247 0.12502 0.12532 0.1256 0.11718 0.10881 0.1002 0.10853 0.11673 0.12481 0.12463 0.12442 0.12411 0.12405 0.12419 0.1239 0.12381 0.1236 0.12356 0.12371 0.12381 0.12382 0.12374 0.12358 0.12338 0.12312 0.1228 0.12285 0.12289 0.12295 0.12283 0.12295 0.12284 0.12265 0.12253 0.12239 0.12228 0.12233 0.12225 0.12202 0.12203 0.12196 0.12181 0.12181 0.12174 0.12142 0.12133 0.12106 0.12074 0.12081 0.12089 0.12092 0.12101 0.12097 0.12095 0.12114 0.12099 0.12103 0.12112 0.12095 0.12079 0.12085 0.12083 0.12067 0.12079 0.12083 0.12088
0 0 0 0 0 0 0 0 0 0.11387 0.11454 0.11681 0.10976 0.11466 0.11931 0.12379 0.12383 0.12376 0.12364 0.12404 0.12415 0.12429 0.12434 0.12436 0.12443 0.12451 0.12464 0.12469 0.12485 0.12489 0.12485 0.12506 0.12516 0.12534 0.12492 0.12453 0.12415 0.12423 0.12412 0.124 0.12411 0.12417 0.12426 0.12455 0.12476 0.12495 0.1194 0 0.10814 0.11379 0.11928 0.12461 0.12439 0.1242 0.12402 0.12392 0.12395 0.12365 0.12357 0.12354 0.12346 0.12364 0.12378 0.12381 0.12373 0.12361 0.12339 0.12321 0.12302 0.1229 0.12296 0.12285 0.12275 0.12284 0.12274 0.12253 0.12248 0.12237 0.12226 0.12229 0.12218 0.12187 0.12193 0.12187 0.12168 0.12169 0.12176 0.12149 0.12138 0.12126 0.12106 0.12113 0.12111 0.12108 0.12108 0.12116 0.1212 0.1213 0.1213 0.12116 0.12106 0.12096 0.12086 0.1208 0.12072 0.12061 0.12078 0.12081 0.12094
0 0 0 0 0 0 0 0 0 0 0.10368 0.0978 0.09171 0.10265 0.11355 0.1241 0.12414 0.12393 0.12393 0.12427 0.1243 0.1244 0.12443 0.12456 0.12479 0.12488 0.12506 0.12518 0 0 0 0.12599 0.12677 0.12707 0.12612 0.12524 0.12438 0.12421 0.12409 0.12402 0.12399 0.12393 0.12389 0.12396 0.12408 0.12421 0.1216 0.11882 0.11605 0.11887 0.12164 0.12437 0.12422 0.12405 0.12384 0.12384 0.12366 0.12355 0.12345 0.12334 0.12327 0.12346 0.12354 0.12351 0.12337 0.12336 0.12337 0.12326 0.12307 0.12284 0.12281 0.12275 0.12262 0.12259 0.12246 0.12232 0.12235 0.12228 0.12222 0.12217 0.12205 0.12187 0.12177 0.12164 0.12153 0.12157 0.12149 0.12129 0.12127 0.1212 0.12119 0.12118 0.12123 0.12117 0.1212 0.12119 0.12116 0.12121 0.12119 0.12104 0.12096 0.12089 0.12077 0.1207 0.1206 0.12044 0.12074 0.12084 0.12093
0 0 0 0 0 0 0 0 0 0 0 0.08366 0.0734 0.09058 0.11616 0.12426 0.12262 0.12307 0.12421 0.12431 0.12442 0.12441 0.12453 0.12475 0.12503 0.12524 0.12549 0.1256 0 0 0 0.12678 0.1281 0.12874 0.1273 0.12586 0.12434 0.12419 0.12408 0.12388 0.12373 0.12355 0.12326 0.12325 0.12326 0.12339 0.1235 0.12359 0.12364 0.1238 0.12397 0.1241 0.1239 0.12377 0.12361 0.12348 0.12343 0.12335 0.1232 0.12322 0.12317 0.1233 0.12333 0.12326 0.12329 0.12332 0.12318 0.12306 0.12304 0.12291 0.12281 0.12258 0.12238 0.12244 0.12229 0.12197 0.122 0.12195 0.12185 0.12185 0.12181 0.12163 0.12154 0.12152 0.12122 0.12135 0.12132 0.1211 0.12116 0.12123 0.12128 0.12124 0.12129 0.1212 0.12119 0.12121 0.12103 0.12108 0.12097 0.12075 0.12077 0.12074 0.12068 0.12062 0.12046 0.12022 0.12058 0.12075 0.12086
0 0 0 0 0 0 0 0 0 0 0 0 0.08884 0.09857 0.11241 0.11942 0.12107 0.12237 0.12407 0.12422 0.12446 0.12452 0.12475 0.12515 0.12539 0.1222 0.11895 0 0 0.12008 0.12583 0.12636 0.12683 0.12733 0.12637 0.12528 0.12429 0.12408 0.12393 0.12372 0.12351 0.12331 0.12305 0.1231 0.12314 0.12313 0.12325 0.12341 0.12346 0.12364 0.12378 0.12383 0.12375 0.1237 0.12358 0.12351 0.12352 0.12336 0.12333 0.12332 0.12337 0.12339 0.12339 0.12347 0.1235 0.12325 0.12311 0.12316 0.12312 0.1229 0.12279 0.12267 0.12258 0.12238 0.12219 0.12198 0.12188 0.12189 0.1219 0.12194 0.12187 0.1217 0.1217 0.1216 0.12137 0.12153 0.12134 0.12125 0.12124 0.12127 0.12131 0.12126 0.12128 0.12123 0.12126 0.12124 0.12122 0.1212 0.1211 0.12091 0.12087 0.12076 0.12063 0.12058 0.1204 0.12022 0.1205 0.12061 0.12075
0 0 0 0 0 0 0 0 0 0 0 0 0 0 0 0.11612 0.11924 0.12183 0.12398 0.12411 0.12433 0.12449 0.12492 0.12535 0.1257 0.11898 0.11224 0.10527 0.11181 0.11821 0.12447 0.12499 0.12545 0.12595 0.12538 0.12487 0.12429 0.12401 0.12371 0.12351 0.12337 0.1231 0.12287 0.12296 0.12301 0.12302 0.12318 0.12325 0.12332 0.12347 0.12364 0.12367 0.12369 0.12365 0.12355 0.12352 0.12346 0.12326 0.12329 0.12325 0.12336 0.1234 0.12348 0.12353 0.1234 0.12326 0.12315 0.12307 0.12291 0.12268 0.12259 0.1225 0.12241 0.12226 0.12219 0.122 0.12202 0.12192 0.12182 0.12184 0.12174 0.12162 0.12169 0.12163 0.12153 0.12146 0.12135 0.12129 0.12132 0.12127 0.12126 0.12128 0.12124 0.12123 0.1213 0.1213 0.12123 0.12115 0.12104 0.1209 0.12075 0.12072 0.12055 0.12047 0.12029 0.12002 0.12028 0.12038 0.12048
0 0 0 0 0 0 0 0 0 0 0 0 0 0 0 0.11587 0.11906 0.12227 0.12381 0.12404 0.12424 0.12441 0.12494 0.12544 0.12591 0.11575 0.1054 0.0946 0.10424 0 0.12306 0.12354 0.12397 0.12443 0.12443 0.12427 0.12411 0.12381 0.12353 0.12326 0.12313 0.12287 0.12263 0.12282 0.12281 0.12281 0.12305 0.12322 0.12329 0.12342 0.12356 0.12358 0.1237 0.12372 0.12362 0.12352 0.12332 0.12315 0.12311 0.1232 0.12328 0.12318 0.12333 0.12338 0.12321 0.12313 0.12301 0.12286 0.12268 0.12242 0.1224 0.12229 0.12207 0.12212 0.12201 0.1217 0.12166 0.12157 0.12149 0.12145 0.12147 0.12145 0.12154 0.12141 0.12127 0.12125 0.12114 0.12108 0.12122 0.1212 0.12101 0.12106 0.12112 0.12099 0.121 0.12099 0.12105 0.121 0.12091 0.12073 0.12066 0.12058 0.12046 0.12036 0.12012 0.11981 0.11994 0.12007 0.12013
0 0 0 0 0 0 0 0 0 0 0 0 0 0.10945 0.11186 0.11428 0.11737 0.12158 0.12392 0.12426 0.1244 0.12465 0.12513 0.12552 0.12589 0.1191 0.11228 0.10513 0.11149 0.11834 0.12413 0.12429 0.12441 0.12451 0.1244 0.12425 0.12407 0.12379 0.12363 0.12328 0.12309 0.12298 0.12286 0.12293 0.12295 0.12307 0.12316 0.12329 0.12342 0.12359 0.12373 0.12383 0.12378 0.12367 0.12353 0.12347 0.12349 0.1233 0.12323 0.12328 0.1233 0.12327 0.12319 0.12322 0.12308 0.12307 0.12301 0.12293 0.12272 0.12247 0.12244 0.12232 0.12217 0.1221 0.12202 0.12173 0.12162 0.12149 0.12153 0.12155 0.12152 0.12148 0.12143 0.12144 0.12131 0.12129 0.12122 0.12117 0.1212 0.12118 0.12115 0.12124 0.12123 0.12108 0.12115 0.12115 0.12113 0.12111 0.12103 0.12089 0.12089 0.1208 0.12064 0.1206 0.12037 0.12014 0.12025 0.12027 0.12025
0 0 0 0 0 0 0 0 0 0 0 0 0.10528 0.10743 0.10973 0.11172 0.11553 0.12021 0.12396 0.12431 0.12472 0.12504 0.12529 0.12556 0.12585 0.12251 0.11903 0.11545 0.11863 0.12184 0.12502 0.12493 0.1247 0.12449 0.12433 0.12413 0.12401 0.1238 0.12347 0.12324 0.12313 0.12311 0.12304 0.12307 0.12307 0.1231 0.12317 0.12325 0.12337 0.12357 0.12372 0.12377 0.12374 0.12362 0.12355 0.12347 0.12341 0.12329 0.12323 0.12331 0.12328 0.1232 0.12317 0.12315 0.12297 0.12294 0.12288 0.12287 0.12278 0.12266 0.12253 0.12246 0.12235 0.12221 0.12204 0.12174 0.12161 0.12156 0.12143 0.12146 0.12144 0.1214 0.12135 0.12127 0.12116 0.12112 0.1211 0.12095 0.12109 0.1212 0.12119 0.12127 0.1213 0.12127 0.12133 0.12131 0.12122 0.12119 0.12112 0.121 0.12105 0.12099 0.12086 0.12072 0.12059 0.12038 0.12043 0.1204 0.12026
0 0 0 0 0 0 0 0 0.11232 0.11123 0.10888 0.10463 0.10087 0.10258 0.10426 0.10595 0.11217 0.11817 0.12404 0.12453 0.12503 0.12553 0.12567 0.12575 0.12583 0.12584 0.12573 0.12565 0.12581 0.12589 0.12596 0.12548 0.12491 0.12437 0.12424 0.1241 0.12385 0.1236 0.12336 0.12317 0.12314 0.12311 0.12308 0.12309 0.12319 0.12325 0.12336 0.12337 0.12345 0.12363 0.12368 0.12368 0.12358 0.12349 0.12348 0.12342 0.1233 0.12319 0.12318 0.12318 0.12319 0.12306 0.12295 0.12293 0.12295 0.12281 0.12269 0.12271 0.12266 0.12263 0.12261 0.12256 0.12242 0.12233 0.12204 0.12183 0.12171 0.12147 0.12116 0.12128 0.12121 0.12119 0.12115 0.121 0.12083 0.12083 0.12086 0.12077 0.12088 0.121 0.12103 0.12114 0.12123 0.12129 0.12134 0.12127 0.12121 0.12125 0.12112 0.121 0.12104 0.12103 0.12079 0.12091 0.12084 0.12069 0.12067 0.12045 0.12023
0 0 0 0 0 0 0 0.11479 0.11429 0.11517 0.11396 0.11186 0.10971 0.11068 0.11154 0.11244 0.11667 0.12076 0.12478 0.12497 0.12535 0.12571 0.12569 0.12568 0.12561 0.12554 0.12541 0.12533 0.12543 0.1255 0.1256 0.12526 0.12481 0.12443 0.12426 0.12414 0.12395 0.12374 0.12352 0.12334 0.12334 0.1233 0.12325 0.12325 0.12331 0.12341 0.12352 0.12356 0.12358 0.1237 0.12381 0.1237 0.12361 0.12355 0.12351 0.12358 0.12338 0.12316 0.12312 0.12308 0.12302 0.12296 0.12289 0.12286 0.12289 0.12288 0.12288 0.12281 0.12274 0.12266 0.12264 0.12258 0.12248 0.12241 0.12226 0.1219 0.12177 0.12153 0.12134 0.12126 0.12121 0.12114 0.12115 0.12104 0.12088 0.12082 0.12077 0.12067 0.12077 0.12088 0.12097 0.12114 0.12134 0.12139 0.12147 0.12147 0.1214 0.12139 0.12129 0.12123 0.12119 0.12124 0.12113 0.12113 0.12112 0.12097 0.12098 0.12083 0.12064
0 0 0 0 0 0 0.11641 0.11653 0.11601 0.11579 0.11703 0.11926 0.11814 0.11852 0.11872 0.11894 0.12109 0.12325 0.1253 0.12545 0.12567 0.12584 0.12569 0.12558 0.12538 0.12528 0.12513 0.12502 0.12506 0.12512 0.12521 0.12499 0.12474 0.12452 0.12437 0.12425 0.12413 0.12389 0.12367 0.12356 0.12352 0.12344 0.12344 0.12345 0.12349 0.12351 0.12361 0.12359 0.12357 0.12366 0.12367 0.12372 0.12358 0.12351 0.12342 0.12341 0.12342 0.12323 0.12311 0.123 0.1229 0.1229 0.12288 0.12295 0.12283 0.12286 0.12284 0.12289 0.12278 0.12269 0.12259 0.12249 0.12244 0.12235 0.12216 0.12195 0.12183 0.12167 0.12141 0.12123 0.12109 0.12099 0.12094 0.12079 0.12064 0.12061 0.12052 0.12057 0.12064 0.12072 0.12089 0.12109 0.12133 0.12145 0.12147 0.12144 0.12142 0.12142 0.12141 0.12138 0.12128 0.12134 0.12131 0.12139 0.12136 0.12118 0.12122 0.12114 0.12097
0 0 0 0 0 0 0.11633 0.11636 0.11562 0.11414 0.11823 0.12236 0.12659 0.12623 0.12582 0.12527 0.12547 0.12562 0.12587 0.12592 0.12596 0.12597 0.12572 0.1255 0.12519 0.12507 0.12492 0.12476 0.12479 0.12481 0.12477 0.12475 0.12476 0.12463 0.12449 0.12436 0.12429 0.12406 0.12381 0.12368 0.12365 0.12359 0.12359 0.12356 0.12355 0.12351 0.12356 0.12368 0.12366 0.1236 0.12354 0.12354 0.12353 0.12334 0.12327 0.12314 0.12316 0.12299 0.12288 0.12277 0.12269 0.12274 0.12275 0.12266 0.12265 0.12263 0.12258 0.12265 0.12248 0.12254 0.12243 0.12235 0.12216 0.12208 0.12196 0.12183 0.1217 0.12149 0.12124 0.12109 0.12089 0.12066 0.12062 0.12051 0.12027 0.1203 0.12028 0.12021 0.12039 0.12049 0.12059 0.12083 0.12106 0.12122 0.12136 0.12151 0.12151 0.12153 0.12158 0.12145 0.12145 0.12145 0.12146 0.12158 0.12159 0.12147 0.12147 0.12132 0.1212
0 0 0 0 0 0.11528 0.11607 0.11714 0.11849 0.11855 0.12137 0.12419 0.12705 0.12679 0.12646 0.1261 0.12611 0.12607 0.12614 0.12603 0.12594 0.1259 0.12573 0.1255 0.12521 0.12513 0.12501 0.12497 0.12495 0.1249 0.12481 0.12475 0.12468 0.12452 0.12442 0.12436 0.12424 0.12403 0.12383 0.12373 0.12361 0.12356 0.1235 0.12357 0.1235 0.12342 0.12355 0.12364 0.12362 0.12366 0.12363 0.12357 0.12343 0.12341 0.12325 0.1232 0.12315 0.12305 0.12301 0.1229 0.12266 0.12269 0.12267 0.12262 0.12258 0.12262 0.12259 0.12253 0.12255 0.12264 0.12253 0.12236 0.12225 0.12214 0.12195 0.12196 0.12174 0.12155 0.12129 0.12097 0.12076 0.12058 0.12053 0.12036 0.12019 0.12038 0.12042 0.12037 0.12047 0.12048 0.12061 0.12076 0.12098 0.12111 0.12134 0.12159 0.12159 0.12158 0.12156 0.1215 0.12145 0.12147 0.12143 0.12158 0.12174 0.12158 0.12155 0.12147 0.12132
0 0 0 0 0.11424 0.11465 0.11442 0.11692 0.12134 0.12314 0.12459 0.1259 0.12738 0.12729 0.12716 0.12694 0.12679 0.12649 0.12631 0.12618 0.12603 0.12592 0.12574 0.12553 0.12534 0.1252 0.12511 0.12506 0.12497 0.12486 0.12477 0.1247 0.12459 0.1245 0.12441 0.12422 0.1241 0.12393 0.12378 0.1237 0.12361 0.12353 0.12346 0.1234 0.12336 0.12338 0.1235 0.12353 0.12349 0.12361 0.12365 0.12354 0.12341 0.12335 0.12326 0.12321 0.12324 0.12311 0.123 0.12278 0.1226 0.12257 0.12255 0.1224 0.12242 0.12249 0.12251 0.12255 0.12249 0.12255 0.1225 0.12238 0.12223 0.12208 0.12198 0.12191 0.12177 0.12151 0.12123 0.12103 0.12086 0.12069 0.12053 0.12041 0.12037 0.12048 0.12068 0.12054 0.12043 0.12041 0.12056 0.12071 0.12085 0.12103 0.12126 0.12146 0.12161 0.12162 0.12161 0.12158 0.12146 0.12144 0.12134 0.12162 0.12169 0.12159 0.12155 0.12155 0.12147
0 0 0 0 0.11358 0.11346 0.11202 0.11715 0.12226 0.12742 0.12758 0.1277 0.12772 0.12777 0.12775 0.12774 0.12733 0.12686 0.12645 0.12627 0.12599 0.12583 0.12576 0.12555 0.12536 0.12529 0.12526 0.1251 0.12497 0.12486 0.12474 0.12466 0.12453 0.12439 0.12426 0.12413 0.12397 0.12385 0.12374 0.12362 0.12356 0.12345 0.12327 0.12322 0.1233 0.1233 0.12347 0.12346 0.12338 0.12348 0.12356 0.1235 0.12335 0.12334 0.12328 0.12331 0.12333 0.12309 0.12292 0.12263 0.12244 0.12235 0.12233 0.12224 0.1223 0.12234 0.12241 0.12242 0.12238 0.12248 0.12233 0.12232 0.1221 0.12201 0.12193 0.12173 0.12154 0.12143 0.1212 0.12106 0.12092 0.1207 0.12063 0.12051 0.1204 0.12051 0.12056 0.12042 0.12039 0.12045 0.1204 0.12048 0.12067 0.12079 0.12105 0.12125 0.12155 0.12162 0.12157 0.12154 0.12157 0.12147 0.12152 0.12159 0.12155 0.12148 0.12148 0.12147 0.12143
0 0 0 0.10643 0.11121 0.11417 0.11619 0.11972 0.12317 0.12673 0.12693 0.12714 0.12728 0.12727 0.12732 0.12733 0.12703 0.12675 0.12647 0.1263 0.12615 0.12598 0.12585 0.12565 0.12545 0.12536 0.12518 0.12499 0.12482 0.12467 0.12455 0.12446 0.12435 0.12421 0.12409 0.12398 0.1239 0.12372 0.1236 0.12352 0.12352 0.12342 0.12341 0.12338 0.12341 0.12341 0.1234 0.12337 0.12344 0.12353 0.12354 0.12357 0.12354 0.12362 0.12353 0.12361 0.12351 0.12332 0.12311 0.12294 0.12278 0.12258 0.12254 0.12238 0.12245 0.12255 0.12261 0.12259 0.12259 0.12255 0.12247 0.12245 0.12234 0.12222 0.12201 0.12186 0.12163 0.12151 0.12138 0.12122 0.12105 0.12081 0.1208 0.1208 0.12068 0.12068 0.12075 0.12073 0.12071 0.12064 0.12064 0.12068 0.12073 0.1208 0.12112 0.12134 0.1215 0.12153 0.12145 0.12143 0.12131 0.12131 0.12132 0.12134 0.12138 0.12121 0.12128 0.12131 0.12123
0 0 0 0.09639 0.10454 0.1152 0.12016 0.12215 0.12406 0.12607 0.12635 0.12664 0.12694 0.12689 0.12692 0.12693 0.12684 0.12669 0.12657 0.12644 0.12629 0.12616 0.12598 0.12579 0.12557 0.12535 0.12509 0.12489 0.12475 0.1246 0.12448 0.12437 0.12424 0.12408 0.12397 0.12386 0.12379 0.12367 0.12356 0.12348 0.12354 0.1236 0.12364 0.12367 0.12367 0.12359 0.12356 0.12355 0.12366 0.12368 0.1237 0.12367 0.12369 0.12381 0.12378 0.12382 0.12379 0.12361 0.12342 0.12325 0.12309 0.12287 0.12263 0.12243 0.12239 0.12246 0.12257 0.12268 0.12274 0.12273 0.12255 0.12241 0.12229 0.12207 0.12199 0.12181 0.12166 0.12155 0.12141 0.12122 0.12101 0.12084 0.12087 0.12094 0.12095 0.12089 0.1208 0.12081 0.12085 0.12086 0.12085 0.12085 0.12076 0.12073 0.12096 0.12115 0.12122 0.1213 0.12128 0.12115 0.12113 0.1211 0.12107 0.12111 0.12105 0.12088 0.12101 0.12098 0.12092
0 0 0 0.08151 0.09586 0.11012 0.12423 0.12466 0.12498 0.12535 0.12571 0.12613 0.12651 0.1265 0.12655 0.12652 0.12658 0.12653 0.12643 0.12639 0.12631 0.12627 0.1261 0.12584 0.12555 0.12526 0.12497 0.12486 0.12469 0.12451 0.12436 0.12421 0.12413 0.12404 0.12398 0.12389 0.12373 0.12362 0.12357 0.12356 0.12361 0.12365 0.1237 0.1237 0.12373 0.12376 0.12384 0.12381 0.12388 0.12394 0.12397 0.12389 0.12392 0.12399 0.12404 0.12406 0.12405 0.12391 0.12373 0.12352 0.12326 0.12307 0.12286 0.12263 0.12256 0.12247 0.12252 0.12258 0.12262 0.12265 0.12262 0.12244 0.12222 0.122 0.12175 0.12166 0.12154 0.12145 0.12146 0.12135 0.12103 0.12082 0.12098 0.12107 0.12109 0.12112 0.12092 0.12087 0.12094 0.12097 0.12097 0.12086 0.12077 0.12057 0.1208 0.12093 0.12095 0.12094 0.121 0.12088 0.12082 0.1208 0.12066 0.12068 0.12061 0.12054 0.1206 0.12067 0.12061
0 0 0 0.09777 0.10737 0.11687 0.12632 0.12637 0.12642 0.12636 0.12641 0.12644 0.12654 0.12647 0.12646 0.12639 0.12644 0.12638 0.12631 0.12621 0.12609 0.12596 0.12572 0.12544 0.12509 0.1248 0.12461 0.12446 0.12433 0.12424 0.12409 0.12403 0.12398 0.12387 0.12375 0.12371 0.12369 0.12368 0.12371 0.12368 0.12371 0.12381 0.12384 0.12396 0.12404 0.12412 0.12415 0.12426 0.1244 0.12441 0.12446 0.12439 0.12431 0.12436 0.12442 0.1244 0.12442 0.12423 0.1241 0.12391 0.1238 0.12364 0.12347 0.12327 0.12311 0.12296 0.12283 0.12284 0.12287 0.12282 0.12274 0.12262 0.12246 0.12228 0.12207 0.12196 0.12181 0.12172 0.12174 0.12177 0.12159 0.12138 0.12152 0.12165 0.12173 0.12184 0.12175 0.12171 0.12172 0.12167 0.12148 0.12152 0.12138 0.12104 0.12113 0.12127 0.12113 0.12112 0.12099 0.12088 0.12087 0.1209 0.12081 0.12073 0.1207 0.12064 0.12074 0.12079 0.1208
0.1255 0.12654 0.1195 0.11413 0.11927 0.12408 0.12883 0.12845 0.12809 0.12758 0.12721 0.12682 0.12652 0.12644 0.12633 0.12622 0.12625 0.1262 0.12613 0.12596 0.12576 0.12558 0.12533 0.12502 0.12464 0.12442 0.12426 0.12409 0.124 0.12389 0.12379 0.12379 0.12378 0.12374 0.12372 0.12374 0.12376 0.12377 0.12374 0.12375 0.12386 0.12386 0.12389 0.12394 0.1241 0.12428 0.12435 0.12451 0.12472 0.12485 0.12492 0.12485 0.12482 0.12477 0.12484 0.12485 0.12481 0.12472 0.12457 0.12446 0.12439 0.12431 0.12414 0.1239 0.12366 0.1235 0.12338 0.12328 0.12319 0.12306 0.12292 0.12282 0.12271 0.12251 0.1223 0.12213 0.12212 0.12214 0.12216 0.12211 0.12216 0.12201 0.12208 0.12223 0.12223 0.12237 0.12233 0.12234 0.12228 0.12215 0.12209 0.12198 0.1218 0.1216 0.12144 0.12132 0.12114 0.12105 0.121 0.12092 0.1209 0.12088 0.12071 0.12067 0.12061 0.12058 0.12071 0.12078 0.12089
0.12445 0.12655 0.12862 0.13045 0.13097 0.13089 0.13081 0.12992 0.12912 0.12845 0.12789 0.12705 0.12652 0.1264 0.12619 0.12609 0.12603 0.12592 0.12579 0.1256 0.12538 0.12529 0.12502 0.12464 0.12429 0.12408 0.12384 0.1237 0.12365 0.12361 0.12354 0.12358 0.12359 0.12362 0.12364 0.12359 0.12361 0.12356 0.12363 0.12369 0.12384 0.12385 0.12392 0.12414 0.1243 0.12447 0.12462 0.12482 0.12503 0.1251 0.12514 0.1251 0.12517 0.1252 0.12517 0.12527 0.12536 0.12523 0.12509 0.12493 0.12483 0.12476 0.12452 0.12428 0.12417 0.12399 0.12383 0.1237 0.12357 0.12345 0.12334 0.12328 0.12315 0.12287 0.12272 0.12258 0.12255 0.12256 0.12255 0.12258 0.12251 0.12251 0.12268 0.12271 0.12268 0.12289 0.12278 0.12283 0.12273 0.12265 0.12261 0.1224 0.1222 0.12197 0.12171 0.12132 0.12119 0.12107 0.12093 0.12076 0.12088 0.12077 0.12057 0.12054 0.1205 0.12052 0.1207 0.12083 0.12094
0.12462 0.12635 0.12817 0.12992 0.13045 0.13055 0.13069 0.13003 0.12949 0.12894 0.12824 0.12756 0.12686 0.12654 0.12625 0.12602 0.12587 0.12573 0.12553 0.12529 0.12504 0.12493 0.12462 0.12426 0.12396 0.12382 0.12368 0.12357 0.12354 0.12351 0.12348 0.1235 0.12358 0.1237 0.12379 0.12383 0.12379 0.12373 0.12379 0.12384 0.12392 0.124 0.12415 0.12436 0.12462 0.12483 0.12499 0.12521 0.12534 0.12544 0.12548 0.1255 0.12559 0.12565 0.12569 0.12576 0.12576 0.1257 0.12556 0.12551 0.12547 0.12534 0.12517 0.12501 0.12488 0.12472 0.12463 0.12448 0.12443 0.1243 0.12421 0.12412 0.12392 0.12384 0.12369 0.12349 0.12346 0.12338 0.12333 0.12335 0.12342 0.12336 0.12355 0.12364 0.12368 0.12388 0.12396 0.12414 0.12407 0.12392 0.12379 0.12341 0.123 0.12253 0.1223 0.12196 0.12163 0.12158 0.12156 0.12147 0.12156 0.12167 0.12163 0.1216 0.12144 0.12132 0.12148 0.12153 0.12161
0.12475 0.12629 0.1278 0.12921 0.12978 0.13031 0.13078 0.13032 0.12981 0.12928 0.12852 0.12784 0.12713 0.12665 0.12625 0.12579 0.12558 0.12536 0.1251 0.12494 0.12472 0.12454 0.12422 0.12394 0.12376 0.12364 0.12355 0.1234 0.12337 0.12342 0.12349 0.12357 0.12371 0.12381 0.12387 0.12393 0.12395 0.12397 0.12404 0.12414 0.12424 0.12434 0.12452 0.12473 0.12497 0.12519 0.12537 0.12551 0.1256 0.12574 0.12582 0.1259 0.12595 0.126 0.12611 0.1262 0.12632 0.1263 0.12616 0.12615 0.12609 0.12605 0.12592 0.12582 0.12568 0.1256 0.1254 0.12524 0.12511 0.12489 0.12478 0.12473 0.12467 0.12464 0.12448 0.12421 0.12413 0.12411 0.124 0.12409 0.12409 0.12406 0.12421 0.12428 0.12432 0.12476 0.12508 0.12522 0.12514 0.12508 0.12498 0.12436 0.1237 0.12299 0.1227 0.12242 0.12208 0.12212 0.12217 0.12214 0.1224 0.12249 0.12258 0.12248 0.12234 0.1222 0.12223 0.12214 0.1221
0.1248 0.12587 0.12699 0.12814 0.12899 0.12978 0.1305 0.13021 0.12996 0.12964 0.12886 0.12807 0.12744 0.12686 0.12631 0.12563 0.12537 0.12513 0.12482 0.12464 0.12444 0.12426 0.12404 0.12381 0.12365 0.12359 0.12352 0.12343 0.12348 0.12355 0.12365 0.12374 0.12383 0.12395 0.12401 0.12409 0.1242 0.12426 0.12439 0.1245 0.12462 0.12478 0.12494 0.12517 0.12539 0.12566 0.12588 0.12604 0.12618 0.12627 0.12642 0.12647 0.12653 0.12661 0.12677 0.12683 0.12669 0.12669 0.12666 0.12665 0.12656 0.12646 0.12634 0.12615 0.12599 0.12587 0.12578 0.12565 0.12542 0.12515 0.12505 0.12496 0.12494 0.12486 0.12473 0.12459 0.12456 0.1245 0.12432 0.12424 0.12426 0.1242 0.12442 0.12458 0.12474 0.12506 0.12569 0.12612 0.12533 0.12515 0.1257 0.12499 0.12424 0.12327 0.12299 0.12271 0.12235 0.12239 0.12254 0.12271 0.12086 0.12157 0.12338 0.12265 0.1225 0.12284 0.12293 0.12274 0.12238
0.12551 0.12636 0.12724 0.1281 0.12881 0.12937 0.12989 0.12952 0.12932 0.12923 0.12851 0.12778 0.12722 0.12672 0.12621 0.12562 0.12534 0.12512 0.12489 0.12474 0.12458 0.12448 0.12435 0.1242 0.124 0.12403 0.12405 0.12404 0.12414 0.12425 0.12433 0.12444 0.12455 0.1246 0.12468 0.12479 0.12486 0.12491 0.12497 0.12505 0.12521 0.12532 0.12545 0.12585 0.12621 0.12648 0.12668 0.12683 0.12706 0.12716 0.12723 0.12728 0.1274 0.12745 0.12746 0.12756 0.12741 0.12745 0.12749 0.12752 0.12754 0.12747 0.12732 0.1272 0.12698 0.12687 0.12671 0.12648 0.12612 0.12567 0.12561 0.12545 0.12532 0.12527 0.1251 0.12487 0.12479 0.12465 0.12456 0.12464 0.12477 0.12473 0.12499 0.12528 0.12555 0.12522 0.12544 0.1254 0.12504 0.12479 0.12473 0.12414 0.12364 0.12309 0.11976 0.11642 0.11305 0.11314 0.11331 0.11342 0.11736 0.11882 0.12067 0.12183 0.12218 0.12255 0.1235 0.12365 0.12509
0.12595 0.12676 0.12728 0.12781 0.12834 0.12874 0.12912 0.12891 0.12867 0.12854 0.12805 0.12752 0.12703 0.12659 0.12607 0.12557 0.12537 0.12522 0.12502 0.12494 0.12484 0.12473 0.1247 0.12455 0.12449 0.12451 0.12454 0.12453 0.12467 0.12481 0.12495 0.1251 0.12523 0.12534 0.12538 0.12543 0.12543 0.12552 0.1256 0.12572 0.12588 0.12602 0.12606 0.12643 0.12694 0.12734 0.1275 0.1278 0.12804 0.12813 0.1282 0.12828 0.12822 0.12817 0.1281 0.12821 0.12817 0.12828 0.1283 0.12842 0.12852 0.12843 0.12836 0.12834 0.12796 0.1277 0.12752 0.1272 0.12674 0.12631 0.12597 0.12567 0.12548 0.12545 0.12549 0.12527 0.12516 0.12499 0.12487 0.12499 0.12503 0.12506 0.1255 0.12593 0.12649 0.12428 0.12363 0.12506 0 0 0.1238 0.12356 0.1233 0.12295 0.11637 0.10991 0.10335 0.10349 0.10368 0 0 0.11842 0.11682 0.11907 0.12157 0.12284 0.12414 0.12602 0.12779
