ncols        20
nrows        20
xllcorner    0
yllcorner    -3.59929275513
cellsize     0.179964631796
NODATA_value -9999
-9999.0 -9999 -9999 -9999 -9999 -9999 -9999 -9999 -9999 -9999 -9999 -9999 -9999 -9999 -9999 -9999 -9999 -9999 -9999 -9999
-9999 -9999 -9999 -9999 0.13024 0.130033 0.130649 0.131819 0.133035 0.134336 0.13563 0.1412715 0.14241 0.14276 0.14276 0.14354725 0.14399 -9999 -9999 -9999
-9999 -9999 -9999 -9999 0.129199 0.129763 0.130642 0.131703 0.133363 0.135559 0.137608 0.141854 0.143214 0.143423 0.142664 0.14337 0.144165 0.147969 -9999 -9999
-9999 -9999 -9999 0.1312195 0.129464 0.128929 0.130301 0.131922 0.133705 0.136225 0.140396 0.143855 0.145716 0.145148 0.143706 0.143738 0.147013 0.148225 -9999 -9999
-9999 -9999 -9999 0.134908 0.131307 0.12943 0.130541 0.132028 0.133792 0.136827 0.141728 0.147936 0.148805 0.14668 0.144893 0.145553 0.147478 0.137937 -9999 -9999
-9999 -9999 0.13696575 0.1364 0.134183 0.132071 0.13086 0.131959 0.133118 0.13673 0.142033 0.147407 0.150704 0.147918 0.145536 0.146427 0.141547 0.12 0.12695 -9999
-9999 -9999 0.139247 0.137308 0.13642 0.1348 0.133266 0.130785 0.131943 0.135351 0.140693 0.143462 0.146556 0.149013 0.146941 0.14408 0.129741 0.129214 0.1259 -9999
-9999 -9999 0.14248 0.141453 0.139115 0.138507 0.134942 0.131804 0.130313 0.134016 0.136316 0.139041 0.142142 0.144023 0.14443 0.137991 0.130483 0.126706 0.125255 -9999
-9999 0.14156 0.143345 0.147026 0.144672 0.14167 0.139925 0.135453 0.130198 0.129542 0.131953 0.134817 0.137883 0.141278 0.14138 0.137459 0.129259 0.125698 0.122781 -9999
-9999 0.141605 0.142496 0.147015 0.145693 0.143044 0.143076 0.140604 0.133388 0.12695 0.12792 0.131143 0.138099 0.141757 0.141628 0.133883 0.126849 0.125076 0.122307 -9999
-9999 0.141712 0.141777 0.145529 0.14693 0.143563 0.142927 0.143637 0.136612 0.130056 0.12368 0.133318 0.140097 0.143521 0.141866 0.131379 0.125175 0.123552 0.120865 -9999
-9999 0.141626 0.141377 0.144213 0.147191 0.144078 0.14289 0.144039 0.138948 0.133244 0.129023 0.134617 0.143015 0.146272 0.138934 0.129632 0.1241 0.12249 0.11779 -9999
-9999 0.141083 0.141342 0.143058 0.146511 0.144649 0.143089 0.143807 0.143313 0.137234 0.133497 0.136694 0.146933 0.150261 0.138826 0.129086 0.123192 0.119519 0.113846 -9999
-9999 0.140521 0.141361 0.141927 0.145751 0.145335 0.143568 0.142901 0.142987 0.141027 0.137234 0.13903 0.150274 0.15323 0.14112 0.13138 0.124962 0.114726 0.11144 -9999
-9999 0.13984 0.141044 0.141287 0.145183 0.144898 0.144684 0.143121 0.141733 0.141352 0.140534 0.141079 0.15037 0.156734 0.145615 0.134554 0.126272 0.110854 -9999 -9999
-9999 0.139105 0.140552 0.140969 0.142352 0.144316 0.143896 0.14187 0.14069 0.140757 0.14157 0.142163 0.149186 0.152473 0.151724 0.139057 0.126759 0.11198 -9999 -9999
-9999 0.13837 0.139519 0.140443 0.140872 0.142661 0.142037 0.139844 0.14 0.140119 0.140778 0.141809 0.146679 0.14874 0.14957 0.144123 0.130582 0.11377 0.11654 0.11906
-9999 -9999 0.138163 0.139199 0.140207 0.141482 0.140442 0.138589 0.138734 0.139242 0.139937 0.140786 0.142886 0.145343 0.146128 0.144839 0.142047 0.132188 0.12877 0.13028
-9999 -9999 0.13817375 0.137953 0.139003 0.140267 0.138909 0.137372 0.137014 0.137533 0.138003 0.138737 0.140377 0.14124 0.142067 0.141833 0.14058 0.139137 0.140718 0.14209
-9999 -9999 -9999 0.13738 0.137596 0.138201 0.13735 0.136493 0.135704 0.135171 0.135918 0.136762 0.138626 0.139136 0.139996 0.139698 0.139552 0.138868 0.139011 0.141
