ncols        20
nrows        20
xllcorner    0
yllcorner    -3.59929275513
cellsize     0.179964631796
NODATA_value -9999
-9999.0 -9999 -9999 -9999 -9999 -9999 -9999 -9999 -9999 -9999 -9999 -9999 -9999 -9999 -9999 -9999 -9999 -9999 -9999 -9999
-9999 -9999 -9999 -9999 0.11366 0.112951 0.113772 0.11552 0.11715 0.118302 0.119181 0.122662 0.12333 0.1233 0.1233 0.122272 0.12186 -9999 -9999 -9999
-9999 -9999 -9999 -9999 0.110996 0.112289 0.113658 0.115656 0.117317 0.119087 0.12052 0.123038 0.12376 0.123734 0.122944 0.122442 0.121842 0.121297 -9999 -9999
-9999 -9999 -9999 0.1117975 0.11055 0.110047 0.113486 0.115555 0.11748 0.119441 0.122265 0.124179 0.125166 0.124663 0.123453 0.122716 0.122081 0.123888 -9999 -9999
-9999 -9999 -9999 0.114204 0.11144 0.11056 0.113137 0.115429 0.11731 0.119993 0.122944 0.126274 0.12674 0.125671 0.124399 0.123516 0.124622 0.119513 -9999 -9999
-9999 -9999 0.11919375 0.116022 0.11518 0.114042 0.112133 0.114762 0.11708 0.119791 0.122954 0.1257 0.127616 0.126213 0.125086 0.125379 0.122853 0.108913 0.12042 -9999
-9999 -9999 0.125285 0.121264 0.120391 0.118156 0.115713 0.113003 0.116001 0.118608 0.121466 0.123393 0.125153 0.126477 0.125575 0.125118 0.118226 0.121293 0.119921 -9999
-9999 -9999 0.129346 0.127377 0.124362 0.122816 0.119789 0.116298 0.114449 0.116978 0.118715 0.120641 0.122485 0.123865 0.125246 0.125272 0.121366 0.120304 0.119805 -9999
-9999 0.13063 0.131025 0.132131 0.129411 0.126735 0.124924 0.121161 0.115681 0.114066 0.115853 0.117773 0.120176 0.124992 0.12815 0.126485 0.121701 0.119845 0.117853 -9999
-9999 0.130997 0.130867 0.132766 0.13114 0.128494 0.128106 0.126178 0.119918 0.112908 0.112946 0.115499 0.123162 0.128257 0.130685 0.125412 0.120085 0.119716 0.11749 -9999
-9999 0.131368 0.130669 0.132278 0.132308 0.129147 0.128211 0.128792 0.123257 0.116922 0.10985 0.119434 0.125901 0.13222 0.132681 0.124264 0.118673 0.118565 0.116134 -9999
-9999 0.131759 0.130694 0.131774 0.132812 0.129893 0.128308 0.129095 0.125383 0.120103 0.115873 0.121684 0.130826 0.136549 0.131698 0.122987 0.118326 0.117564 0.112932 -9999
-9999 0.132367 0.13098 0.131281 0.132719 0.130773 0.128547 0.128937 0.12899 0.12401 0.120863 0.124538 0.13579 0.141558 0.132486 0.123104 0.117845 0.114611 0.108269 -9999
-9999 0.133024 0.131301 0.130834 0.132618 0.131813 0.12913 0.128463 0.128757 0.127462 0.124838 0.127371 0.13956 0.144765 0.134953 0.12636 0.119737 0.10947 0.10518 -9999
-9999 0.133788 0.131767 0.130758 0.132393 0.131971 0.130882 0.128821 0.128315 0.127941 0.127825 0.129695 0.139781 0.147988 0.138809 0.128868 0.120993 0.10504 -9999 -9999
-9999 0.134607 0.132319 0.131022 0.131085 0.131912 0.131529 0.12841 0.127993 0.127952 0.129153 0.13057 0.138655 0.143856 0.143421 0.132129 0.121091 0.105806 -9999 -9999
-9999 0.13545 0.133564 0.132001 0.130982 0.13121 0.130349 0.127756 0.127826 0.128297 0.12934 0.130428 0.136214 0.139955 0.140744 0.135148 0.12394 0.10733 0.10936 0.11075
-9999 -9999 0.135366 0.13357 0.131919 0.130678 0.129155 0.127802 0.127869 0.128704 0.129553 0.130568 0.131974 0.135713 0.136727 0.134658 0.132084 0.12366 0.11986 0.12083
-9999 -9999 0.1352435 0.135268 0.133159 0.130706 0.128625 0.127889 0.128072 0.129146 0.129893 0.130472 0.13125 0.131523 0.131091 0.131374 0.130321 0.128852 0.129794 0.13061
-9999 -9999 -9999 0.13677 0.134022 0.131415 0.12913 0.128309 0.128454 0.129639 0.130684 0.130738 0.13113 0.130959 0.130569 0.129722 0.128865 0.128709 0.129375 0.1303
