ncols        20
nrows        20
xllcorner    0
yllcorner    -3.59929275513
cellsize     0.179964631796
NODATA_value -9999
-9999.0 -9999 -9999 -9999 -9999 -9999 -9999 -9999 -9999 -9999 -9999 -9999 -9999 -9999 -9999 -9999 -9999 -9999 -9999 -9999
-9999 -9999 -9999 -9999 0.12253 0.122045 0.122681 0.124012 0.125476 0.126752 0.127817 0.132675 0.13373 0.1339 0.1339 0.13432525 0.13461 -9999 -9999 -9999
-9999 -9999 -9999 -9999 0.121154 0.121604 0.122605 0.123913 0.125606 0.127692 0.129384 0.13318 0.134406 0.134502 0.133743 0.13422 0.134728 0.137295 -9999 -9999
-9999 -9999 -9999 0.12291775 0.121281 0.120467 0.1223 0.123884 0.12569 0.128035 0.131727 0.134787 0.136521 0.136042 0.134666 0.134598 0.136893 0.138507 -9999 -9999
-9999 -9999 -9999 0.126387 0.122849 0.120733 0.1221 0.123687 0.125546 0.128574 0.132823 0.138173 0.139193 0.137376 0.135769 0.13627 0.138258 0.131378 -9999 -9999
-9999 -9999 0.129358 0.127991 0.125871 0.123595 0.121837 0.123301 0.124972 0.128375 0.133055 0.137831 0.140616 0.13824 0.136325 0.137819 0.134596 0.116636 0.12525 -9999
-9999 -9999 0.132878 0.130176 0.128937 0.126737 0.124511 0.121995 0.123814 0.127032 0.131733 0.134207 0.136869 0.139087 0.138087 0.136885 0.126122 0.12697 0.124366 -9999
-9999 -9999 0.136379 0.134741 0.131804 0.130213 0.127128 0.123777 0.12222 0.1256 0.127745 0.130225 0.133057 0.135388 0.137218 0.133776 0.127979 0.125045 0.123692 -9999
-9999 0.13727 0.137987 0.140005 0.13694 0.133461 0.131567 0.127695 0.12275 0.121648 0.123758 0.126313 0.129711 0.135008 0.136758 0.134251 0.127317 0.124183 0.121124 -9999
-9999 0.137436 0.137614 0.140557 0.138551 0.13533 0.134874 0.132674 0.126216 0.119486 0.120049 0.123226 0.131553 0.136737 0.138115 0.131868 0.125139 0.123492 0.120607 -9999
-9999 0.137618 0.13726 0.139732 0.139998 0.136047 0.134996 0.135428 0.129273 0.122825 0.11622 0.126547 0.134039 0.139374 0.139345 0.129676 0.12345 0.121861 0.119081 -9999
-9999 0.137707 0.137173 0.138935 0.140589 0.136889 0.135147 0.135854 0.131509 0.125973 0.121727 0.128194 0.137742 0.142898 0.137204 0.128002 0.122375 0.120702 0.115785 -9999
-9999 0.137662 0.137345 0.13818 0.14039 0.137891 0.135468 0.13578 0.135433 0.129823 0.126381 0.130442 0.141719 0.147163 0.137218 0.127589 0.121344 0.117651 0.111285 -9999
-9999 0.137622 0.137521 0.137457 0.140143 0.139061 0.136168 0.135375 0.135387 0.133572 0.130252 0.132936 0.144895 0.149961 0.139447 0.13018 0.123091 0.112617 0.10845 -9999
-9999 0.137461 0.137534 0.137201 0.139837 0.139281 0.138141 0.135884 0.134913 0.134128 0.133561 0.135046 0.1449 0.153025 0.143405 0.132699 0.124317 0.108438 -9999 -9999
-9999 0.137242 0.137492 0.137317 0.137893 0.139225 0.138639 0.13542 0.13456 0.134088 0.13501 0.13612 0.143816 0.148749 0.14847 0.136286 0.124475 0.109248 -9999 -9999
-9999 0.13703 0.137292 0.137384 0.13732 0.13816 0.137358 0.134459 0.134367 0.134436 0.13511 0.136138 0.14153 0.144935 0.145855 0.140265 0.127642 0.11076 0.11282 0.11426
-9999 -9999 0.136813 0.137149 0.137282 0.137444 0.136144 0.134265 0.134144 0.13456 0.135299 0.136235 0.137644 0.140911 0.141829 0.140088 0.137413 0.127926 0.123975 0.1248
-9999 -9999 0.13652725 0.136627 0.13694 0.136879 0.135262 0.134111 0.133862 0.134427 0.135051 0.135767 0.136535 0.136707 0.136728 0.13674 0.135677 0.133678 0.134591 0.13555
-9999 -9999 -9999 0.13552 0.136252 0.136102 0.134925 0.134024 0.133846 0.134133 0.134668 0.135132 0.135794 0.135639 0.135617 0.134708 0.134024 0.133542 0.133673 0.13488
