ncols        20
nrows        20
xllcorner    0
yllcorner    -3.59929275513
cellsize     0.179964631796
NODATA_value -9999
-9999.0 -9999 -9999 -9999 -9999 -9999 -9999 -9999 -9999 -9999 -9999 -9999 -9999 -9999 -9999 -9999 -9999 -9999 -9999 -9999
-9999 -9999 -9999 -9999 0.11936 0.118754 0.119402 0.120906 0.122532 0.123722 0.124615 0.1288285 0.1297 0.12999 0.12999 0.130046 0.13015 -9999 -9999 -9999
-9999 -9999 -9999 -9999 0.117351 0.118156 0.119248 0.120882 0.122615 0.124508 0.126076 0.129282 0.130256 0.130431 0.129792 0.130013 0.130229 0.131641 -9999 -9999
-9999 -9999 -9999 0.11882775 0.117243 0.11649 0.119038 0.120783 0.122702 0.124798 0.128167 0.130715 0.131992 0.131593 0.130509 0.130325 0.131559 0.133134 -9999 -9999
-9999 -9999 -9999 0.122071 0.118646 0.117015 0.118638 0.120473 0.122402 0.125212 0.129039 0.133645 0.134339 0.132763 0.131452 0.131429 0.133212 0.127172 -9999 -9999
-9999 -9999 0.12538925 0.123563 0.121855 0.120033 0.1179 0.119903 0.122094 0.125122 0.129229 0.133241 0.135655 0.133585 0.131994 0.132987 0.130326 0.114669 0.12445 -9999
-9999 -9999 0.129366 0.126557 0.125549 0.12344 0.120985 0.118229 0.120915 0.123883 0.127884 0.130159 0.132353 0.134046 0.133144 0.132519 0.123851 0.125693 0.123776 -9999
-9999 -9999 0.132496 0.13121 0.128745 0.127117 0.124227 0.120924 0.119314 0.122342 0.124324 0.126573 0.12883 0.130782 0.132721 0.130994 0.126209 0.124294 0.123335 -9999
-9999 0.13312 0.13395 0.135586 0.133065 0.130471 0.128866 0.125282 0.120107 0.118762 0.12079 0.12306 0.125875 0.131266 0.133903 0.131798 0.126048 0.123644 0.121001 -9999
-9999 0.133035 0.133715 0.136132 0.13456 0.132237 0.132137 0.130311 0.123916 0.117005 0.117372 0.120224 0.128346 0.133829 0.135691 0.130013 0.124218 0.123175 0.120563 -9999
-9999 0.13293 0.133424 0.135488 0.135692 0.132796 0.13218 0.132999 0.127114 0.1207 0.1138 0.123778 0.131074 0.137008 0.137201 0.128468 0.122655 0.121727 0.119174 -9999
-9999 0.132804 0.13325 0.134895 0.136197 0.133436 0.132216 0.133272 0.129285 0.12392 0.119524 0.125609 0.135279 0.140857 0.135692 0.127098 0.12189 0.120716 0.115908 -9999
-9999 0.132638 0.133166 0.134359 0.136083 0.134159 0.132394 0.133037 0.133078 0.127832 0.124373 0.128253 0.139666 0.14551 0.13622 0.126981 0.121213 0.117786 0.111221 -9999
-9999 0.132487 0.13307 0.13383 0.135923 0.134985 0.132896 0.132368 0.132684 0.131309 0.128364 0.131016 0.143186 0.148465 0.138622 0.12994 0.123086 0.112749 0.10829 -9999
-9999 0.132207 0.132872 0.133498 0.1358 0.135242 0.134358 0.132648 0.132004 0.131609 0.131452 0.133368 0.143473 0.151575 0.142558 0.132387 0.124318 0.108494 -9999 -9999
-9999 0.131861 0.132653 0.133291 0.134295 0.135385 0.134767 0.132094 0.131475 0.13122 0.132597 0.134312 0.142309 0.147311 0.147282 0.135779 0.124382 0.109095 -9999 -9999
-9999 0.13152 0.132174 0.132778 0.133399 0.134583 0.134005 0.131201 0.130835 0.130916 0.132458 0.134062 0.13984 0.143455 0.144622 0.139263 0.127208 0.11042 0.11213 0.11374
-9999 -9999 0.131472 0.132087 0.132794 0.133885 0.133112 0.131013 0.13037 0.13067 0.132043 0.133753 0.135852 0.139501 0.140645 0.139008 0.136588 0.126682 0.12276 0.12402
-9999 -9999 0.131511 0.131415 0.132124 0.133224 0.132087 0.130777 0.129968 0.130334 0.131407 0.132496 0.133923 0.134873 0.135573 0.136022 0.135274 0.132555 0.133291 0.13455
-9999 -9999 -9999 0.13107 0.13139 0.131877 0.131195 0.130183 0.129614 0.129783 0.130635 0.13128 0.132109 0.13286 0.133589 0.133521 0.133705 0.132921 0.13307 0.13424
