ncols        20
nrows        20
xllcorner    0
yllcorner    -3.59929275513
cellsize     0.179964631796
NODATA_value -9999
-9999.0 -9999 -9999 -9999 -9999 -9999 -9999 -9999 -9999 -9999 -9999 -9999 -9999 -9999 -9999 -9999 -9999 -9999 -9999 -9999
-9999 -9999 -9999 -9999 0.11551 0.114767 0.115618 0.117277 0.11872 0.119818 0.120654 0.1241095 0.12476 0.12492 0.12492 0.1246765 0.12461 -9999 -9999 -9999
-9999 -9999 -9999 -9999 0.113078 0.114116 0.115499 0.117248 0.118852 0.12056 0.121909 0.124493 0.125276 0.125369 0.124735 0.124751 0.12461 0.124544 -9999 -9999
-9999 -9999 -9999 0.11420575 0.112795 0.112203 0.115289 0.117243 0.119006 0.120844 0.123778 0.125846 0.126909 0.126496 0.12544 0.125069 0.125078 0.126888 -9999 -9999
-9999 -9999 -9999 0.116934 0.114016 0.113051 0.115158 0.117188 0.118814 0.121194 0.124525 0.128329 0.128848 0.12761 0.126399 0.125934 0.12727 0.121631 -9999 -9999
-9999 -9999 0.1213965 0.118743 0.117706 0.116709 0.114507 0.116562 0.118493 0.121256 0.124756 0.127892 0.129922 0.128316 0.126967 0.127447 0.124851 0.1092 0.12002 -9999
-9999 -9999 0.126641 0.123268 0.122761 0.120969 0.118342 0.115116 0.117721 0.120382 0.123468 0.125405 0.127313 0.128876 0.12785 0.127099 0.118652 0.121068 0.119425 -9999
-9999 -9999 0.130381 0.129101 0.126853 0.125982 0.122774 0.1187 0.116378 0.118875 0.120629 0.122526 0.124501 0.126134 0.127404 0.12606 0.121298 0.119882 0.119197 -9999
-9999 0.13044 0.131379 0.133721 0.131913 0.12998 0.128479 0.123836 0.117702 0.115896 0.117657 0.119575 0.122121 0.126592 0.128909 0.126714 0.121378 0.119325 0.116929 -9999
-9999 0.130118 0.131009 0.133809 0.132978 0.131482 0.131935 0.129523 0.122136 0.114672 0.114652 0.117226 0.12469 0.12919 0.130992 0.12519 0.119681 0.119082 0.116437 -9999
-9999 0.129798 0.130664 0.132872 0.1338 0.131777 0.131806 0.132641 0.125796 0.118724 0.11148 0.12085 0.127276 0.132654 0.132771 0.123818 0.118243 0.117617 0.114911 -9999
-9999 0.129609 0.130401 0.132081 0.134006 0.132109 0.131654 0.132957 0.128254 0.122285 0.117519 0.122873 0.13178 0.136792 0.131419 0.122494 0.117626 0.116439 0.11162 -9999
-9999 0.129555 0.130149 0.131461 0.133586 0.132487 0.131644 0.13266 0.132639 0.126744 0.122718 0.125776 0.136587 0.141752 0.13198 0.12245 0.116866 0.113386 0.106959 -9999
-9999 0.129516 0.129862 0.130877 0.133098 0.132949 0.131828 0.131639 0.13218 0.130869 0.127128 0.128843 0.140508 0.145003 0.134556 0.12546 0.118554 0.108228 0.10394 -9999
-9999 0.129365 0.129652 0.130488 0.132747 0.132731 0.132534 0.131541 0.131131 0.131144 0.130865 0.131716 0.14112 0.148477 0.138772 0.12803 0.119626 0.10377 -9999 -9999
-9999 0.129165 0.129531 0.13014 0.131105 0.132305 0.132205 0.130633 0.130033 0.130448 0.132127 0.13321 0.14047 0.144708 0.143894 0.131561 0.119701 0.104497 -9999 -9999
-9999 0.12898 0.129278 0.129561 0.130181 0.131243 0.13106 0.129116 0.129037 0.12983 0.131536 0.133293 0.138374 0.141192 0.141475 0.135225 0.122864 0.10598 0.10792 0.1093
-9999 -9999 0.128878 0.129179 0.129514 0.130328 0.129811 0.12832 0.128202 0.12912 0.130789 0.132555 0.134444 0.137469 0.137843 0.135468 0.132416 0.122595 0.11847 0.11934
-9999 -9999 0.128829 0.128779 0.129014 0.129685 0.128544 0.127678 0.12741 0.12813 0.129477 0.130614 0.132143 0.132987 0.133401 0.13297 0.131673 0.128949 0.128744 0.12945
-9999 -9999 -9999 0.12848 0.128322 0.128427 0.127543 0.126479 0.126253 0.126721 0.127956 0.128875 0.129744 0.130533 0.131144 0.130766 0.130654 0.129716 0.128878 0.1294
