ncols        20
nrows        20
xllcorner    0
yllcorner    -3.59929275513
cellsize     0.179964631796
NODATA_value -9999
-9999.0 -9999 -9999 -9999 -9999 -9999 -9999 -9999 -9999 -9999 -9999 -9999 -9999 -9999 -9999 -9999 -9999 -9999 -9999 -9999
-9999 -9999 -9999 -9999 0.11139 0.110609 0.11142 0.113129 0.11467 0.115826 0.116683 0.1199955 0.12066 0.12084 0.12084 0.1195375 0.11908 -9999 -9999 -9999
-9999 -9999 -9999 -9999 0.109108 0.109887 0.111238 0.113132 0.114818 0.116577 0.117885 0.120345 0.121092 0.121199 0.120334 0.119652 0.119084 0.119045 -9999 -9999
-9999 -9999 -9999 0.1105345 0.108958 0.10782 0.11092 0.113047 0.11496 0.11681 0.119502 0.121415 0.122415 0.121918 0.120637 0.119797 0.119566 0.121325 -9999 -9999
-9999 -9999 -9999 0.113752 0.11032 0.108683 0.110748 0.112932 0.114704 0.117238 0.120156 0.123491 0.123962 0.122852 0.121512 0.120592 0.121672 0.117063 -9999 -9999
-9999 -9999 0.11822475 0.115646 0.114395 0.112543 0.109993 0.11227 0.11443 0.117104 0.120237 0.122996 0.124693 0.123251 0.122035 0.121927 0.119871 0.105564 0.11739 -9999
-9999 -9999 0.123522 0.119979 0.11899 0.116639 0.113847 0.110684 0.113506 0.11609 0.118888 0.120546 0.122112 0.123377 0.122178 0.121798 0.114808 0.118169 0.116917 -9999
-9999 -9999 0.126949 0.125162 0.122499 0.120866 0.118051 0.114151 0.11202 0.114519 0.116074 0.117725 0.119352 0.120631 0.122052 0.121901 0.118043 0.11728 0.116895 -9999
-9999 0.12806 0.12839 0.129418 0.12693 0.124594 0.122973 0.119092 0.113407 0.111463 0.113178 0.114881 0.117043 0.121757 0.124585 0.123139 0.118495 0.116855 0.115015 -9999
-9999 0.128536 0.128212 0.129981 0.12847 0.12614 0.126073 0.124239 0.117842 0.110343 0.110199 0.112547 0.120021 0.124769 0.126977 0.121945 0.117089 0.116844 0.11472 -9999
-9999 0.129038 0.128025 0.129498 0.129512 0.126689 0.126035 0.126932 0.121352 0.114583 0.10701 0.116369 0.122749 0.12855 0.12909 0.120942 0.115943 0.115852 0.113424 -9999
-9999 0.129463 0.128088 0.129009 0.129975 0.127318 0.126001 0.127149 0.123528 0.118049 0.113301 0.118507 0.127559 0.132967 0.128221 0.12002 0.115733 0.114942 0.110178 -9999
-9999 0.129922 0.128464 0.128532 0.129883 0.128049 0.126106 0.126857 0.127189 0.122281 0.118643 0.121741 0.132747 0.138222 0.129117 0.120346 0.115478 0.112 0.105551 -9999
-9999 0.130415 0.128887 0.128105 0.129771 0.128916 0.126543 0.126113 0.126807 0.125962 0.123056 0.125083 0.137019 0.141683 0.131939 0.12355 0.117166 0.106921 0.10262 -9999
-9999 0.13106 0.129311 0.128091 0.129533 0.129117 0.128048 0.126218 0.126223 0.126349 0.126444 0.127938 0.137813 0.145227 0.13626 0.126193 0.11819 0.10256 -9999 -9999
-9999 0.131801 0.129736 0.128478 0.1283 0.129043 0.128673 0.125657 0.125544 0.126096 0.12789 0.129339 0.136938 0.141471 0.141265 0.129591 0.118253 0.10321 -9999 -9999
-9999 0.13258 0.130764 0.129442 0.128396 0.128378 0.127473 0.124869 0.125117 0.126124 0.127866 0.129427 0.134703 0.137934 0.138588 0.132669 0.121134 0.10457 0.10652 0.10844
-9999 -9999 0.132433 0.130701 0.12935 0.127848 0.126234 0.124755 0.124941 0.12621 0.127721 0.129197 0.130769 0.13428 0.134883 0.132669 0.129882 0.120787 0.11708 0.11841
-9999 -9999 0.1323025 0.132276 0.130305 0.127812 0.125412 0.124604 0.12488 0.126078 0.127323 0.128332 0.129358 0.130067 0.130216 0.13023 0.12913 0.126955 0.127461 0.12859
-9999 -9999 -9999 0.1338 0.130844 0.128505 0.125803 0.124515 0.124557 0.125589 0.126922 0.127598 0.128224 0.128675 0.128931 0.128429 0.128038 0.127489 0.127721 0.12863
