ncols        20
nrows        20
xllcorner    0
yllcorner    -3.59929275513
cellsize     0.179964631796
NODATA_value -9999
-9999.0 -9999 -9999 -9999 -9999 -9999 -9999 -9999 -9999 -9999 -9999 -9999 -9999 -9999 -9999 -9999 -9999 -9999 -9999 -9999
-9999 -9999 -9999 -9999 0.10305 0.101925 0.102834 0.104748 0.106135 0.106878 0.107198 0.10803725 0.10814 0.10851 0.10851 0.10557475 0.10438 -9999 -9999 -9999
-9999 -9999 -9999 -9999 0.099873 0.100908 0.102534 0.104809 0.106112 0.107112 0.107631 0.108182 0.108196 0.10843 0.107724 0.105984 0.104211 0.100122 -9999 -9999
-9999 -9999 -9999 0.1006725 0.099399 0.097921 0.102485 0.104607 0.106177 0.107149 0.10829 0.108352 0.108206 0.108155 0.107481 0.106013 0.102189 0.104788 -9999 -9999
-9999 -9999 -9999 0.103121 0.100297 0.099401 0.102121 0.104413 0.105756 0.107431 0.108181 0.108097 0.108215 0.108791 0.108309 0.105861 0.106471 0.105082 -9999 -9999
-9999 -9999 0.1101485 0.105292 0.105502 0.10463 0.100807 0.103211 0.105879 0.107416 0.108099 0.107751 0.108366 0.108957 0.109248 0.108519 0.108274 0.100711 0.11621 -9999
-9999 -9999 0.118637 0.113544 0.113055 0.11073 0.106532 0.101561 0.105461 0.107016 0.106821 0.107661 0.108274 0.10882 0.109253 0.110373 0.110306 0.11617 0.115939 -9999
-9999 -9999 0.123188 0.121025 0.118428 0.117387 0.113343 0.107621 0.104196 0.105321 0.106277 0.107205 0.107899 0.109241 0.110491 0.116532 0.115432 0.116147 0.116425 -9999
-9999 0.12424 0.124633 0.125478 0.12339 0.121981 0.119982 0.114664 0.107397 0.104327 0.105445 0.10635 0.108119 0.113155 0.118563 0.119665 0.116786 0.115955 0.11521 -9999
-9999 0.124631 0.12459 0.125997 0.124927 0.123574 0.123581 0.12108 0.113694 0.105168 0.104065 0.105827 0.11315 0.118686 0.1233 0.119992 0.115653 0.116467 0.115157 -9999
-9999 0.124978 0.124473 0.125598 0.125722 0.123943 0.123675 0.124176 0.118106 0.110664 0.10226 0.111037 0.116466 0.124652 0.12686 0.11962 0.114507 0.116044 0.114191 -9999
-9999 0.125323 0.124535 0.125233 0.126075 0.12432 0.12365 0.124523 0.120526 0.11451 0.109551 0.114255 0.12339 0.130454 0.127126 0.118767 0.114889 0.115472 0.111145 -9999
-9999 0.125907 0.124838 0.124933 0.125974 0.124772 0.123728 0.124343 0.12455 0.119311 0.115607 0.118278 0.129729 0.136483 0.128601 0.119557 0.115297 0.112821 0.10641 -9999
-9999 0.12653 0.125164 0.124687 0.125853 0.12536 0.123958 0.123671 0.124339 0.123217 0.120358 0.122084 0.134572 0.140417 0.13153 0.12379 0.117726 0.107787 0.10298 -9999
-9999 0.127121 0.125629 0.124778 0.125673 0.12546 0.124739 0.123657 0.1238 0.123664 0.123786 0.125469 0.135718 0.14416 0.135537 0.126415 0.119216 0.10331 -9999 -9999
-9999 0.127681 0.126171 0.125141 0.124842 0.125367 0.125159 0.122848 0.123053 0.12343 0.125213 0.126925 0.135047 0.140383 0.139961 0.129546 0.119381 0.103916 -9999 -9999
-9999 0.12824 0.127162 0.126046 0.125168 0.124886 0.124385 0.122064 0.122499 0.123399 0.125252 0.12691 0.132821 0.136757 0.137403 0.131989 0.121937 0.10526 0.106715 0.10801
-9999 -9999 0.128331 0.12729 0.126119 0.124545 0.123578 0.122148 0.122355 0.123422 0.125044 0.126802 0.128715 0.132862 0.133704 0.131703 0.12944 0.120629 0.116725 0.11756
-9999 -9999 0.1283655 0.128401 0.127182 0.124887 0.12317 0.122335 0.122432 0.123533 0.124695 0.125787 0.127173 0.128273 0.128402 0.128766 0.128149 0.125821 0.12621 0.12672
-9999 -9999 -9999 0.12944 0.128 0.12614 0.12401 0.122603 0.122457 0.123816 0.124827 0.125285 0.125961 0.12658 0.126927 0.126683 0.126438 0.12591 0.126149 0.12686
