ncols        20
nrows        20
xllcorner    0
yllcorner    -3.59929275513
cellsize     0.179964631796
NODATA_value -9999
-9999.0 -9999 -9999 -9999 -9999 -9999 -9999 -9999 -9999 -9999 -9999 -9999 -9999 -9999 -9999 -9999 -9999 -9999 -9999 -9999
-9999 -9999 -9999 -9999 0.11826 0.117674 0.11833 0.119794 0.121333 0.122645 0.123757 0.128034 0.12884 0.12903 0.12903 0.128736 0.12878 -9999 -9999 -9999
-9999 -9999 -9999 -9999 0.116334 0.117116 0.118189 0.119749 0.121557 0.123662 0.125423 0.128452 0.129421 0.129532 0.128681 0.128655 0.128828 0.129981 -9999 -9999
-9999 -9999 -9999 0.117975 0.116368 0.115602 0.117812 0.119817 0.121837 0.124199 0.127423 0.129896 0.131241 0.130671 0.129213 0.128758 0.129986 0.131615 -9999 -9999
-9999 -9999 -9999 0.121356 0.117842 0.116277 0.117877 0.119808 0.121778 0.124747 0.128363 0.132803 0.133388 0.131725 0.130107 0.129998 0.13148 0.125341 -9999 -9999
-9999 -9999 0.12494725 0.123049 0.121293 0.119479 0.117526 0.119338 0.121209 0.124501 0.128519 0.132307 0.134486 0.132358 0.130649 0.131118 0.128511 0.11217 0.12204 -9999
-9999 -9999 0.129096 0.126288 0.125316 0.123145 0.120867 0.117855 0.120219 0.123379 0.127233 0.129237 0.131237 0.132762 0.131738 0.130715 0.121978 0.123505 0.12113 -9999
-9999 -9999 0.132381 0.131254 0.128605 0.127426 0.124151 0.120478 0.118587 0.121852 0.123773 0.125757 0.127872 0.129676 0.131093 0.129457 0.124327 0.121829 0.120723 -9999
-9999 0.13261 0.133399 0.135899 0.133735 0.131147 0.129493 0.125173 0.11944 0.118141 0.120217 0.122325 0.124986 0.12979 0.132081 0.130524 0.123883 0.120971 0.118264 -9999
-9999 0.132656 0.133125 0.136074 0.134931 0.132787 0.132852 0.130569 0.123686 0.116528 0.116812 0.119554 0.12722 0.132071 0.134128 0.128357 0.121785 0.12058 0.117717 -9999
-9999 0.132678 0.132852 0.135079 0.135925 0.133261 0.132808 0.13347 0.127143 0.120547 0.11321 0.122846 0.129764 0.135381 0.135873 0.126283 0.120136 0.118974 0.116114 -9999
-9999 0.132676 0.132728 0.134284 0.136233 0.133748 0.132757 0.133791 0.129407 0.123867 0.119247 0.124675 0.134168 0.139441 0.134044 0.124627 0.119245 0.117738 0.11282 -9999
-9999 0.132703 0.132745 0.133716 0.135844 0.13427 0.132867 0.133557 0.133449 0.127969 0.124267 0.127421 0.138826 0.144123 0.134124 0.124321 0.118346 0.114623 0.108354 -9999
-9999 0.132769 0.132771 0.133183 0.135374 0.134886 0.133249 0.132734 0.133039 0.131584 0.128396 0.130263 0.142551 0.147309 0.136422 0.12709 0.120044 0.109534 0.10544 -9999
-9999 0.132736 0.132735 0.132918 0.135127 0.134831 0.134309 0.132864 0.132017 0.131837 0.131564 0.132809 0.142792 0.150635 0.140315 0.129582 0.121261 0.105274 -9999 -9999
-9999 0.132642 0.132691 0.13283 0.133564 0.134621 0.134229 0.13189 0.131115 0.131339 0.132623 0.133982 0.141715 0.146169 0.145325 0.1331 0.121409 0.106062 -9999 -9999
-9999 0.13255 0.132622 0.132697 0.132889 0.133799 0.133067 0.13049 0.130452 0.130889 0.132142 0.133794 0.139291 0.142367 0.142779 0.13692 0.124472 0.1076 0.10965 0.11167
-9999 -9999 0.132482 0.132537 0.132678 0.133183 0.131946 0.129981 0.129698 0.130197 0.131593 0.133152 0.135412 0.138651 0.139033 0.136878 0.133972 0.1244 0.120515 0.12207
-9999 -9999 0.132471 0.132405 0.132415 0.132576 0.131053 0.129612 0.128842 0.129268 0.130368 0.131624 0.133322 0.134357 0.134701 0.134452 0.133183 0.131028 0.13142 0.13273
-9999 -9999 -9999 0.13246 0.13193 0.131495 0.130444 0.12902 0.128061 0.128072 0.129091 0.130135 0.131525 0.132421 0.132842 0.132326 0.132069 0.131436 0.13121 0.13218
