ncols        20
nrows        20
xllcorner    0
yllcorner    -3.59929275513
cellsize     0.179964631796
NODATA_value -9999
-9999.0 -9999 -9999 -9999 -9999 -9999 -9999 -9999 -9999 -9999 -9999 -9999 -9999 -9999 -9999 -9999 -9999 -9999 -9999 -9999
-9999 -9999 -9999 -9999 0.11746 0.116683 0.117306 0.118798 0.120369 0.121618 0.122585 0.126175 0.1269 0.1274 0.1274 0.1267855 0.12654 -9999 -9999 -9999
-9999 -9999 -9999 -9999 0.115549 0.11601 0.11712 0.118851 0.120548 0.122449 0.123794 0.126539 0.127467 0.127774 0.12712 0.126893 0.126589 0.127278 -9999 -9999
-9999 -9999 -9999 0.1166485 0.115437 0.114312 0.116882 0.118734 0.120595 0.122576 0.12557 0.127792 0.129061 0.12869 0.127685 0.127219 0.127544 0.129326 -9999 -9999
-9999 -9999 -9999 0.119088 0.11652 0.114927 0.11651 0.118484 0.120309 0.123001 0.126327 0.130244 0.13091 0.129704 0.128524 0.128024 0.129771 0.124321 -9999 -9999
-9999 -9999 0.1233425 0.120719 0.119645 0.118199 0.115699 0.117868 0.120067 0.122905 0.126454 0.129777 0.131908 0.130278 0.128976 0.130002 0.12754 0.112817 0.12345 -9999
-9999 -9999 0.128467 0.125096 0.12454 0.122469 0.119491 0.116193 0.119039 0.121806 0.125096 0.12709 0.129042 0.130516 0.129961 0.129691 0.122111 0.124458 0.122855 -9999
-9999 -9999 0.132129 0.130814 0.128522 0.127395 0.123996 0.119643 0.117543 0.120302 0.122117 0.124057 0.126038 0.127823 0.129686 0.129084 0.124742 0.123312 0.1225 -9999
-9999 0.13227 0.133299 0.135333 0.133354 0.131244 0.129421 0.124792 0.118883 0.11724 0.119045 0.120997 0.123614 0.128931 0.131966 0.130035 0.124838 0.122742 0.120188 -9999
-9999 0.131906 0.132995 0.135663 0.134598 0.132889 0.133026 0.13066 0.123429 0.115979 0.11597 0.118625 0.126597 0.132005 0.134161 0.128643 0.123114 0.122347 0.11968 -9999
-9999 0.131526 0.132659 0.134882 0.135492 0.133278 0.133017 0.133749 0.127106 0.119957 0.11266 0.122494 0.129416 0.135658 0.135988 0.127316 0.121536 0.120881 0.118115 -9999
-9999 0.131282 0.132361 0.134194 0.135818 0.13371 0.13296 0.134077 0.12953 0.123549 0.118763 0.124631 0.134216 0.139838 0.134723 0.125931 0.12083 0.11962 0.114795 -9999
-9999 0.131188 0.132039 0.13362 0.135565 0.134186 0.13302 0.13381 0.133795 0.127985 0.124027 0.127557 0.13893 0.144803 0.135364 0.125831 0.120017 0.116497 0.110009 -9999
-9999 0.131105 0.131686 0.13306 0.135266 0.134741 0.133321 0.132987 0.133403 0.131956 0.128418 0.130637 0.142699 0.147966 0.13789 0.12885 0.121713 0.111242 0.10685 -9999
-9999 0.130924 0.131437 0.132593 0.135067 0.134733 0.134277 0.133048 0.132541 0.132128 0.131941 0.133437 0.143163 0.151227 0.141874 0.131324 0.12289 0.106734 -9999 -9999
-9999 0.130697 0.131275 0.132098 0.133454 0.134677 0.134239 0.132295 0.131616 0.131494 0.13329 0.134896 0.14246 0.147278 0.146754 0.134737 0.123022 0.107405 -9999 -9999
-9999 0.13048 0.130943 0.131413 0.132214 0.133713 0.133503 0.131087 0.130874 0.131171 0.133046 0.13496 0.14032 0.143713 0.144325 0.138156 0.126001 0.10885 0.11074 0.11177
-9999 -9999 0.130495 0.130905 0.131444 0.132871 0.132682 0.130582 0.130251 0.130802 0.132542 0.134388 0.136457 0.139983 0.140709 0.138338 0.135093 0.125425 0.121415 0.12213
-9999 -9999 0.1306375 0.13048 0.130916 0.132141 0.13159 0.130084 0.129572 0.130074 0.131548 0.1327 0.134303 0.13531 0.135941 0.135811 0.134435 0.131739 0.131826 0.13227
-9999 -9999 -9999 0.13067 0.130323 0.13063 0.130229 0.129042 0.128455 0.12876 0.130138 0.131162 0.132178 0.133066 0.13371 0.133489 0.133376 0.132215 0.131564 0.13213
