ncols        20
nrows        20
xllcorner    0
yllcorner    -3.59929275513
cellsize     0.179964631796
NODATA_value -9999
-9999.0 -9999 -9999 -9999 -9999 -9999 -9999 -9999 -9999 -9999 -9999 -9999 -9999 -9999 -9999 -9999 -9999 -9999 -9999 -9999
-9999 -9999 -9999 -9999 0.11794 0.117085 0.1177 0.11907 0.120406 0.121498 0.122345 0.126289 0.12712 0.12771 0.12771 0.1278635 0.12803 -9999 -9999 -9999
-9999 -9999 -9999 -9999 0.115928 0.116376 0.11747 0.118941 0.120421 0.122215 0.123608 0.126719 0.127709 0.128073 0.127505 0.127817 0.128102 0.129676 -9999 -9999
-9999 -9999 -9999 0.1177935 0.11607 0.114817 0.117241 0.118796 0.120372 0.122395 0.125653 0.128134 0.129411 0.129133 0.128224 0.128166 0.129577 0.131327 -9999 -9999
-9999 -9999 -9999 0.121331 0.117845 0.115543 0.116947 0.118577 0.12018 0.122815 0.126525 0.130994 0.131751 0.130331 0.129264 0.129501 0.131489 0.125641 -9999 -9999
-9999 -9999 0.12449775 0.122744 0.12107 0.118958 0.116486 0.118012 0.119817 0.122727 0.126731 0.130646 0.13301 0.131259 0.13012 0.131172 0.128458 0.112283 0.12219 -9999
-9999 -9999 0.128383 0.125533 0.124468 0.122206 0.119811 0.116501 0.118635 0.121514 0.125404 0.127735 0.130036 0.132143 0.131127 0.130287 0.121717 0.123614 0.12142 -9999
-9999 -9999 0.131863 0.130122 0.127467 0.125606 0.122847 0.118923 0.116914 0.120019 0.122044 0.124411 0.126883 0.128681 0.130401 0.129175 0.12433 0.122011 0.121085 -9999
-9999 0.13369 0.133978 0.135157 0.131947 0.128935 0.127049 0.12313 0.117766 0.116496 0.118614 0.121008 0.123806 0.129017 0.131758 0.130202 0.124124 0.121287 0.118806 -9999
-9999 0.13403 0.133905 0.136065 0.133857 0.130828 0.13032 0.128213 0.121624 0.11478 0.115247 0.118156 0.126107 0.131595 0.133759 0.128423 0.122187 0.12097 0.118357 -9999
-9999 0.134388 0.133746 0.13561 0.1353 0.131546 0.130521 0.130917 0.124845 0.118394 0.11164 0.121582 0.128914 0.134916 0.135471 0.126705 0.120622 0.119576 0.11692 -9999
-9999 0.13462 0.133785 0.135109 0.136031 0.132446 0.130686 0.131354 0.127092 0.121636 0.117315 0.123458 0.133318 0.138953 0.133955 0.125213 0.119889 0.118524 0.113757 -9999
-9999 0.13473 0.134031 0.134594 0.136112 0.133521 0.13099 0.13132 0.131018 0.12567 0.122209 0.126168 0.137835 0.143701 0.134462 0.125036 0.11912 0.115584 0.109414 -9999
-9999 0.134855 0.134312 0.134113 0.136183 0.134739 0.131726 0.130964 0.131054 0.129461 0.126348 0.129097 0.141471 0.147006 0.136976 0.12795 0.121071 0.110662 0.10657 -9999
-9999 0.134886 0.134447 0.133932 0.13609 0.135233 0.133893 0.131525 0.130754 0.13015 0.129804 0.131618 0.141904 0.150522 0.141091 0.130663 0.12242 0.10653 -9999 -9999
-9999 0.13487 0.13454 0.134084 0.134595 0.135596 0.13475 0.131388 0.130511 0.130205 0.131387 0.132896 0.141003 0.146284 0.146254 0.13433 0.122627 0.107359 -9999 -9999
-9999 0.13486 0.134665 0.134359 0.134101 0.134872 0.133896 0.130821 0.13024 0.130349 0.131696 0.132998 0.138811 0.142529 0.143623 0.138318 0.125761 0.10889 0.1108 0.11278
-9999 -9999 0.134688 0.13453 0.134238 0.134287 0.132909 0.130866 0.13019 0.130569 0.131801 0.132965 0.134923 0.138652 0.139661 0.138105 0.135755 0.125738 0.12199 0.12314
-9999 -9999 0.1345315 0.134508 0.134274 0.133887 0.132054 0.130757 0.13032 0.130816 0.131802 0.132688 0.133716 0.13439 0.134723 0.134931 0.134016 0.131928 0.132826 0.13392
-9999 -9999 -9999 0.1344 0.133903 0.133363 0.131855 0.130945 0.130502 0.130917 0.13171 0.13232 0.133123 0.133247 0.133477 0.132925 0.132621 0.131924 0.132012 0.13335
