ncols        20
nrows        20
xllcorner    0
yllcorner    -3.59929275513
cellsize     0.179964631796
NODATA_value -9999
-9999.0 -9999 -9999 -9999 -9999 -9999 -9999 -9999 -9999 -9999 -9999 -9999 -9999 -9999 -9999 -9999 -9999 -9999 -9999 -9999
-9999 -9999 -9999 -9999 0.1098 0.108963 0.109738 0.11143 0.112955 0.113962 0.114595 0.11685225 0.11728 0.11742 0.11742 0.1164635 0.11612 -9999 -9999 -9999
-9999 -9999 -9999 -9999 0.107236 0.108192 0.109541 0.111473 0.113011 0.114487 0.115463 0.1171 0.117566 0.11765 0.117051 0.116642 0.116041 0.114298 -9999 -9999
-9999 -9999 -9999 0.10831625 0.106951 0.105735 0.109459 0.11141 0.113078 0.114598 0.116609 0.117785 0.118406 0.11818 0.117468 0.116936 0.115544 0.117981 -9999 -9999
-9999 -9999 -9999 0.11106 0.108018 0.106736 0.109156 0.111265 0.112775 0.114905 0.116927 0.118909 0.11932 0.119077 0.118403 0.117571 0.119007 0.115572 -9999 -9999
-9999 -9999 0.116464 0.112894 0.11233 0.111095 0.10825 0.110403 0.112594 0.114754 0.116947 0.1185 0.12008 0.119608 0.11908 0.119785 0.118656 0.106655 0.11996 -9999
-9999 -9999 0.123026 0.118876 0.117892 0.115636 0.11273 0.108817 0.111735 0.113915 0.115674 0.117257 0.118711 0.119837 0.120059 0.120527 0.116277 0.120538 0.119593 -9999
-9999 -9999 0.126965 0.125113 0.122013 0.120486 0.117372 0.11303 0.110192 0.112365 0.113909 0.115484 0.116981 0.118813 0.120418 0.123017 0.120258 0.119875 0.11987 -9999
-9999 0.12731 0.128326 0.12962 0.127101 0.124597 0.122787 0.11856 0.112444 0.110326 0.111885 0.113402 0.115826 0.121131 0.125412 0.124997 0.121053 0.119574 0.118237 -9999
-9999 0.127206 0.128093 0.130184 0.128826 0.126561 0.126191 0.12399 0.117605 0.110103 0.109672 0.111912 0.119916 0.125397 0.128845 0.124547 0.119689 0.11988 0.118093 -9999
-9999 0.127062 0.127777 0.129681 0.129878 0.127194 0.126332 0.126897 0.121206 0.114696 0.10718 0.116586 0.12307 0.130142 0.131623 0.123777 0.118496 0.119151 0.117075 -9999
-9999 0.127033 0.127543 0.129166 0.130334 0.127867 0.126491 0.127217 0.123479 0.118034 0.113688 0.119174 0.128668 0.135191 0.131262 0.122769 0.118581 0.118491 0.11403 -9999
-9999 0.12727 0.127393 0.128661 0.13024 0.128628 0.126816 0.127053 0.127284 0.122254 0.119165 0.122563 0.134122 0.140707 0.132208 0.123281 0.118667 0.115827 0.109471 -9999
-9999 0.127546 0.127252 0.128174 0.130122 0.12952 0.127425 0.126678 0.127057 0.126205 0.123696 0.125946 0.138379 0.144148 0.134926 0.12703 0.120918 0.110933 0.10633 -9999
-9999 0.12775 0.127317 0.127822 0.12992 0.129673 0.128877 0.127188 0.126601 0.126617 0.126933 0.128982 0.139354 0.147643 0.13904 0.129714 0.122322 0.10667 -9999 -9999
-9999 0.127902 0.127478 0.127506 0.128512 0.129595 0.129345 0.126742 0.126018 0.126242 0.12813 0.130386 0.138564 0.143868 0.143893 0.133133 0.122592 0.107273 -9999 -9999
-9999 0.12805 0.127789 0.127535 0.127592 0.128728 0.128597 0.125936 0.125574 0.12613 0.128002 0.130277 0.13631 0.14033 0.141453 0.13625 0.125521 0.10864 0.110405 0.1119
-9999 -9999 0.128067 0.127842 0.127625 0.128032 0.12772 0.125672 0.125176 0.125908 0.127575 0.129725 0.132305 0.136423 0.137688 0.136165 0.134082 0.124847 0.12106 0.12184
-9999 -9999 0.12803825 0.128064 0.127789 0.127774 0.126796 0.125398 0.124857 0.12547 0.126587 0.128193 0.130045 0.131637 0.132514 0.1332 0.132652 0.130292 0.130969 0.13177
-9999 -9999 -9999 0.12818 0.127635 0.12703 0.125969 0.124901 0.124531 0.12485 0.125736 0.126952 0.128327 0.129522 0.130524 0.130842 0.131072 0.130379 0.130535 0.13163
