ncols        20
nrows        20
xllcorner    0
yllcorner    -3.59929275513
cellsize     0.179964631796
NODATA_value -9999
-9999.0 -9999 -9999 -9999 -9999 -9999 -9999 -9999 -9999 -9999 -9999 -9999 -9999 -9999 -9999 -9999 -9999 -9999 -9999 -9999
-9999 -9999 -9999 -9999 0.11593 0.115212 0.115753 0.117016 0.118336 0.119357 0.120139 0.12381175 0.12458 0.12473 0.12473 0.1242735 0.12413 -9999 -9999 -9999
-9999 -9999 -9999 -9999 0.113918 0.114596 0.115548 0.11694 0.118388 0.120035 0.121372 0.12421 0.125085 0.125171 0.124456 0.124366 0.124142 0.124414 -9999 -9999
-9999 -9999 -9999 0.11550225 0.113798 0.112752 0.11523 0.11684 0.118402 0.120226 0.123226 0.125443 0.126645 0.126209 0.125126 0.124703 0.124796 0.126313 -9999 -9999
-9999 -9999 -9999 0.118923 0.11537 0.113567 0.115011 0.116644 0.118147 0.12068 0.123983 0.127843 0.128503 0.127298 0.126061 0.125496 0.126704 0.121225 -9999 -9999
-9999 -9999 0.1223175 0.120585 0.118888 0.117047 0.114609 0.116112 0.117843 0.120583 0.124104 0.127401 0.129546 0.127961 0.12655 0.127064 0.124316 0.10909 0.11997 -9999
-9999 -9999 0.126309 0.123453 0.122892 0.120801 0.118226 0.114752 0.116888 0.119477 0.122769 0.124804 0.126849 0.128545 0.127358 0.126538 0.118312 0.121005 0.119401 -9999
-9999 -9999 0.129701 0.128173 0.126107 0.12509 0.122038 0.117819 0.115443 0.118017 0.11979 0.121831 0.123964 0.125568 0.12702 0.125663 0.121225 0.119838 0.119178 -9999
-9999 0.13051 0.130991 0.132548 0.130367 0.12845 0.126758 0.122352 0.116567 0.11489 0.116727 0.118787 0.12147 0.126192 0.128684 0.12672 0.12137 0.119305 0.116881 -9999
-9999 0.130619 0.130768 0.132969 0.131566 0.129627 0.129787 0.127583 0.120632 0.113507 0.113655 0.11629 0.123981 0.128917 0.130765 0.125189 0.119705 0.119066 0.116407 -9999
-9999 0.130714 0.130548 0.132314 0.132533 0.129968 0.129684 0.130501 0.124013 0.117246 0.11033 0.119988 0.126628 0.132376 0.132501 0.123862 0.118285 0.117613 0.114911 -9999
-9999 0.130735 0.130502 0.131711 0.13294 0.130438 0.129536 0.130738 0.12639 0.1206 0.116181 0.12201 0.131146 0.136419 0.131293 0.122594 0.117683 0.116445 0.111638 -9999
-9999 0.130675 0.130625 0.131186 0.132781 0.131012 0.129491 0.130393 0.130559 0.124793 0.121187 0.124878 0.135907 0.141344 0.131987 0.122583 0.116886 0.113384 0.107031 -9999
-9999 0.130625 0.130744 0.130707 0.132588 0.131681 0.129752 0.129446 0.129998 0.128867 0.125424 0.127931 0.139791 0.144733 0.134629 0.1256 0.1186 0.108267 0.10403 -9999
-9999 0.130696 0.130728 0.130566 0.132367 0.131839 0.130983 0.129362 0.129017 0.129074 0.129188 0.130609 0.140475 0.14833 0.138874 0.128145 0.119728 0.10394 -9999 -9999
-9999 0.130852 0.130669 0.130683 0.130969 0.131852 0.13129 0.128481 0.128036 0.128443 0.130563 0.132045 0.139772 0.144531 0.143986 0.131703 0.119805 0.10461 -9999 -9999
-9999 0.13104 0.13067 0.130644 0.13069 0.131109 0.13024 0.127159 0.127173 0.127929 0.130018 0.132118 0.137787 0.140998 0.141373 0.135093 0.122753 0.10601 0.107895 0.10921
-9999 -9999 0.131038 0.130658 0.130602 0.130522 0.129154 0.126634 0.12638 0.127294 0.129335 0.131594 0.134001 0.137332 0.137758 0.135317 0.132076 0.122407 0.118355 0.11923
-9999 -9999 0.1311585 0.131008 0.130498 0.129849 0.12802 0.126 0.125434 0.12633 0.128079 0.129731 0.131576 0.13288 0.133249 0.132813 0.13127 0.128667 0.128794 0.12937
-9999 -9999 -9999 0.13193 0.130259 0.129065 0.12716 0.125059 0.124202 0.124806 0.12634 0.127707 0.12914 0.130084 0.130739 0.130574 0.130463 0.129288 0.128699 0.12935
