ncols        109
nrows        82
xllcorner    -1.041666666667
yllcorner    37.041665395101
cellsize     0.083333333333
NODATA_value -9999
0.0 0 0 0 0 0 0 0 0 0 0 0 0 0 0 0 0 0 0 0 0 0 0 0 0 0 0 0 0 0 0 0 0 0 0 0 0 0 0 0 0 0 0 0 0 0 0 0 0 0 0 0 0 0 0 0 0 0 0 0 0 0 0 0 0 0 0 0 0 0 0 0 0 0 0 0 0 0 0 0 0 0 0 0 0 0 0 0 0 0 0 0 0 0 0 0 0 0 0 0 0 0 0 0 0 17.98323 16.60117 15.04543 15.02952
0 0 0 0 0 0 0 0 0 0 0 0 0 0 0 0 0 0 0 0 0 0 0 0 0 0 0 0 0 0 0 0 0 0 0 0 0 0 0 0 0 0 0 0 0 0 0 0 0 0 0 0 0 0 0 0 0 0 0 0 0 0 0 0 0 0 0 0 0 0 0 0 0 0 0 0 0 0 0 0 0 0 0 0 0 0 0 0 0 0 0 0 0 0 0 0 0 0 0 0 0 15.20305 15.22216 14.98265 14.99405 15.00355 14.99991 14.98449 14.94467
0 0 0 0 0 0 0 0 0 0 0 0 0 0 0 0 0 0 0 0 0 0 0 0 0 0 0 0 0 0 0 0 0 0 0 0 0 0 0 0 0 0 0 0 0 0 0 0 0 0 0 0 0 0 0 0 0 0 0 0 0 0 0 0 0 0 0 0 0 0 0 0 0 0 0 0 0 0 0 0 0 0 0 0 0 0 0 0 0 0 0 0 0 0 0 0 0 0 14.98708 14.97803 14.9657 14.94459 14.91343 14.89032 14.87531 14.8623 14.84217 14.82228 14.79183
0 0 0 0 0 0 0 0 0 0 0 0 0 0 0 0 0 0 0 0 0 0 0 0 0 0 0 0 0 0 0 0 0 0 0 0 0 0 0 0 0 0 0 0 0 0 0 0 0 0 0 0 0 0 0 0 0 0 0 0 0 0 0 0 0 0 0 0 0 0 0 0 0 0 0 0 0 0 0 0 0 0 0 0 0 0 0 0 0 0 0 0 0 0 0 0 0 16.85503 14.95452 14.91788 14.86508 14.81973 14.78426 14.7633 14.73957 14.7222 14.70174 14.67993 14.65812
0 0 0 0 0 0 0 0 0 0 0 0 0 0 0 0 0 0 0 0 0 0 0 0 0 0 0 0 0 0 0 0 0 0 0 0 0 0 0 0 0 0 0 0 0 0 0 0 0 0 0 0 0 0 0 0 0 0 16.68006 16.28772 15.98286 16.12336 0 0 0 0 0 0 0 0 0 0 0 0 0 0 0 0 0 0 0 0 0 0 0 0 0 0 0 0 0 0 0 0 0 15.4931 14.98217 14.95384 14.89026 14.8343 14.77668 14.72132 14.67005 14.61753 14.58693 14.55905 14.54203 14.5355 14.52568
0 0 0 0 0 0 0 0 0 0 0 0 0 0 0 0 0 0 0 0 0 0 0 0 0 0 0 0 0 0 0 0 0 0 0 0 0 0 0 0 0 0 0 0 0 0 0 0 0 0 0 0 0 0 0 0 16.18585 16.20876 15.87356 15.60228 15.49072 15.48456 15.60007 15.84074 16.08034 16.1911 16.1848 0 0 0 0 16.55779 0 0 0 0 0 0 0 0 0 0 0 0 0 0 0 0 0 0 0 0 0 16.19102 14.95381 14.96761 14.9195 14.85086 14.78059 14.71204 14.64708 14.59201 14.54954 14.50088 14.47995 14.46527 14.45758 14.44956 14.44775
0 0 0 0 0 0 0 0 0 0 0 0 0 0 0 0 0 0 0 0 0 0 0 0 0 0 0 0 0 0 0 0 0 0 0 0 0 0 0 0 0 0 0 0 0 0 0 0 0 0 0 0 0 0 0 16.29987 15.8533 15.46953 15.23858 14.94318 14.99227 15.01245 15.21087 15.36904 15.54094 15.67209 15.77609 15.98862 16.21926 16.18499 16.13304 15.85387 15.5896 15.6375 15.82362 15.55008 15.58489 0 0 0 0 0 0 0 0 0 0 0 0 0 0 0 15.37561 14.98037 14.94401 14.8887 14.82372 14.75456 14.68115 14.60714 14.54382 14.48033 14.43677 14.39721 14.39152 14.39038 14.39046 14.39518 14.39747
0 0 0 0 0 0 0 0 0 0 0 0 0 0 0 0 0 0 0 0 0 0 0 0 0 0 0 0 0 0 0 0 0 0 0 0 0 0 0 0 0 0 0 0 0 0 0 0 0 0 0 15.92624 16.13962 16.2614 15.95264 15.47221 15.20377 14.90389 14.77034 14.83261 14.86875 14.88139 14.87993 15.10736 15.12524 15.33492 15.3163 15.30731 15.33901 15.22386 15.08438 15.10701 14.90769 15.12807 15.16774 15.41924 0 0 0 0 0 0 0 0 0 0 0 0 0 0 0 0 14.96013 14.95545 14.87149 14.78455 14.70442 14.6231 14.54867 14.48466 14.4334 14.3883 14.36231 14.35008 14.35084 14.35352 14.35976 14.36593 14.37427
0 0 0 0 0 0 0 0 0 0 0 0 0 0 0 0 0 0 0 0 0 0 0 0 0 0 0 0 0 0 0 0 0 0 0 0 0 0 0 0 0 0 0 0 0 0 0 0 0 0 16.0818 15.96265 15.67644 15.57258 15.43723 15.10736 14.74223 14.80462 14.63102 14.68018 14.71778 14.73473 14.7452 14.94845 14.95127 15.17979 15.18254 15.19385 15.02465 14.85533 14.88223 14.91695 14.728 14.95227 14.96767 15.24372 15.29187 15.09313 15.15505 15.66985 16.26359 17.20422 0 0 0 0 0 0 0 16.15367 15.46618 14.98715 14.97289 14.90481 14.78764 14.68961 14.60122 14.5247 14.45757 14.39729 14.35843 14.33356 14.32183 14.32317 14.32746 14.33524 14.34934 14.36105 14.37526
0 0 0 0 0 0 0 0 0 0 0 0 0 0 0 0 0 0 0 0 0 0 0 0 0 0 0 0 0 0 0 0 0 0 0 0 0 0 0 0 0 0 0 0 0 0 0 0 0 16.95217 15.77591 15.63648 15.55232 15.21487 15.03068 14.82736 14.87524 14.68805 14.72413 14.76313 14.79928 14.8187 14.82925 15.05181 15.06009 15.05463 15.06355 15.06552 15.07657 14.89424 14.91538 14.73737 14.54335 14.55352 14.56286 14.59986 14.63273 14.68491 14.74159 14.77448 15.26543 15.96365 0 15.78155 16.47651 17.08976 17.43477 17.11426 16.55587 14.97218 14.99269 14.98119 14.91691 14.81287 14.68594 14.59291 14.5061 14.45057 14.39761 14.36313 14.34102 14.33362 14.33116 14.33941 14.34859 14.36603 14.38092 14.39165 14.40472
0 0 0 0 0 0 0 0 0 0 0 0 0 0 0 0 0 0 0 0 0 0 0 0 0 0 0 0 0 0 0 0 0 0 0 0 0 0 0 0 0 0 0 0 0 0 0 0 0 16.63423 15.69413 15.38659 15.06063 14.89677 14.94035 14.74751 14.77146 14.80728 14.84584 14.87007 14.89675 14.90955 14.91365 14.91361 14.92014 14.72031 14.53931 14.71015 14.71813 14.72012 14.72986 14.52502 14.51775 14.51882 14.5508 14.57575 14.61275 14.6481 14.68787 14.72114 14.75671 14.79895 14.83632 14.86616 14.90542 14.92661 16.15371 16.39008 15.93658 14.92383 14.90359 14.84863 14.77371 14.68433 14.60304 14.53088 14.46744 14.41437 14.38001 14.36072 14.35835 14.36196 14.37093 14.38145 14.3946 14.40766 14.41791 14.43009 14.4414
0 0 0 0 0 0 0 0 0 0 0 0 0 0 0 0 0 0 0 0 0 0 0 0 0 0 0 0 0 0 0 0 0 0 0 0 0 0 0 0 0 0 0 0 0 0 0 0 0 16.3489 15.60342 15.27981 14.90654 14.98705 14.81355 14.86234 14.87699 14.91274 14.93823 14.96721 14.76345 14.77037 14.76965 14.76828 14.75736 14.55058 14.54648 14.5446 14.52575 14.51501 14.50697 14.49856 14.49592 14.50015 14.55409 14.55914 14.56553 14.57654 14.59558 14.61644 14.64586 14.68431 14.72041 14.75671 14.79348 14.8239 14.84673 14.86486 14.85482 14.82119 14.77891 14.71754 14.63873 14.57346 14.50884 14.46212 14.42294 14.39067 14.37988 14.38123 14.38724 14.3972 14.40907 14.41963 14.43536 14.4469 14.45583 14.46751 14.47833
0 0 0 0 0 0 0 0 0 0 0 0 0 0 0 0 0 0 0 0 0 0 0 0 0 0 0 0 0 0 0 0 0 0 0 0 0 0 0 0 0 0 0 0 0 0 0 0 0 16.2313 15.46266 15.1144 14.95346 14.80878 14.89239 14.96189 14.76358 14.77959 14.57502 14.5795 14.58448 14.58578 14.58444 14.57864 14.56715 14.55303 14.54486 14.53466 14.50761 14.47903 14.47579 14.4681 14.45792 14.44743 14.48179 14.47086 14.4712 14.48572 14.50386 14.52568 14.54801 14.5753 14.60185 14.62814 14.64099 14.6567 14.67007 14.67201 14.66374 14.64615 14.61933 14.58068 14.53208 14.48668 14.45009 14.41624 14.39879 14.38471 14.39054 14.40143 14.40849 14.42582 14.44608 14.46424 14.47632 14.48495 14.4967 14.50341 14.51659
0 0 0 0 0 0 0 0 0 0 0 0 0 0 0 0 0 0 0 0 0 0 0 0 0 0 0 0 0 0 0 0 0 0 0 0 0 0 0 0 0 0 0 0 0 0 0 0 0 16.07638 15.49429 15.12285 14.98407 14.8435 14.92571 14.76486 14.58176 14.59581 14.59741 14.59214 14.58193 14.57245 14.56294 14.54838 14.53635 14.52784 14.51931 14.50616 14.49026 14.47496 14.45856 14.43865 14.42509 14.40864 14.39558 14.37722 14.36627 14.36703 14.37672 14.38623 14.4045 14.4263 14.44972 14.47501 14.49379 14.51043 14.52159 14.53176 14.53053 14.51354 14.49329 14.46623 14.43918 14.41079 14.39012 14.3852 14.38903 14.40003 14.41368 14.42823 14.43975 14.45406 14.47203 14.4921 14.5076 14.51917 14.5352 14.54463 14.5576
0 0 0 0 0 0 0 0 0 0 0 0 0 0 0 0 0 0 0 0 0 0 0 0 0 0 0 0 0 0 0 0 0 0 0 0 0 0 0 0 0 0 0 0 0 0 0 0 0 16.13842 15.29842 14.90262 15.02352 14.87952 14.95326 14.75459 14.5598 14.56704 14.57044 14.55829 14.54028 14.53092 14.51917 14.50749 14.49904 14.48562 14.46658 14.44833 14.42669 14.39982 14.37677 14.34757 14.32899 14.31967 14.30858 14.30044 14.29825 14.29961 14.30062 14.30163 14.30627 14.31255 14.32593 14.33844 14.35481 14.36653 14.37744 14.3908 14.39628 14.39651 14.39746 14.39312 14.38478 14.38166 14.38129 14.3836 14.39549 14.41294 14.43707 14.4499 14.46341 14.47836 14.49713 14.51479 14.53307 14.54851 14.56091 14.57406 14.58885
0 0 0 0 0 0 0 0 0 0 0 0 0 0 0 0 0 0 0 0 0 0 0 0 0 0 0 0 0 0 0 0 0 0 0 0 0 0 0 0 0 0 0 0 0 0 0 0 0 15.60484 15.37768 14.95015 14.82921 14.70161 14.74555 14.53323 14.53685 14.53605 14.52351 14.50889 14.49067 14.47479 14.46697 14.46315 14.4586 14.44832 14.42671 14.39963 14.37229 14.34456 14.313 14.28171 14.25559 14.24113 14.23517 14.23444 14.23555 14.23704 14.23505 14.2336 14.23728 14.24079 14.25034 14.26091 14.27767 14.29053 14.3091 14.3222 14.33063 14.33365 14.34249 14.35173 14.36159 14.37049 14.38158 14.39786 14.41618 14.43349 14.44915 14.46785 14.48401 14.49415 14.51264 14.53414 14.5555 14.57525 14.59064 14.60735 14.62597
0 0 0 0 0 0 0 0 0 0 0 0 0 0 0 0 0 0 0 0 0 0 0 0 0 0 0 0 0 0 0 0 0 0 0 0 0 0 0 0 0 0 0 0 0 0 0 0 0 0 15.09336 15.0243 14.88674 14.52664 14.53922 14.53102 14.52894 14.51318 14.5 14.47986 14.46343 14.44821 14.43492 14.42322 14.41464 14.39981 14.37952 14.36005 14.33466 14.30636 14.27533 14.24571 14.22616 14.21474 14.20531 14.20703 14.21103 14.21069 14.20736 14.20399 14.20146 14.20225 14.20507 14.21633 14.23016 14.24423 14.26234 14.28021 14.2954 14.30513 14.32531 14.34167 14.35467 14.37317 14.39263 14.41516 14.43237 14.44899 14.46338 14.48091 14.49776 14.51515 14.53204 14.55551 14.57657 14.59493 14.61092 14.63212 14.65546
0 0 0 0 0 0 0 0 0 0 0 0 0 0 0 0 0 0 0 0 0 0 0 0 0 0 0 0 0 0 0 0 0 0 0 0 0 0 0 0 0 0 0 0 0 0 0 0 0 0 15.28774 14.82694 14.50561 14.55329 14.55016 14.53128 14.5118 14.49321 14.47076 14.44767 14.43059 14.41454 14.40915 14.40615 14.39917 14.38743 14.37154 14.3582 14.33619 14.31058 14.2767 14.24357 14.22079 14.20951 14.20086 14.20252 14.20484 14.20561 14.19936 14.1956 14.19032 14.18968 14.1942 14.19761 14.2059 14.21679 14.23918 14.25825 14.27714 14.29455 14.31569 14.34171 14.36351 14.38592 14.40643 14.42861 14.44864 14.46334 14.47704 14.49514 14.51313 14.52851 14.5447 14.5665 14.58669 14.60704 14.62805 14.65287 14.67589
0 0 0 0 0 0 0 0 0 0 0 0 0 0 0 0 0 0 0 0 0 0 0 0 0 0 0 0 0 0 0 0 0 0 0 0 0 0 0 0 0 0 0 0 0 0 0 0 0 0 0 0 14.53398 14.54943 14.53349 14.51756 14.50159 14.47934 14.45343 14.43296 14.41403 14.40067 14.39532 14.39603 14.39549 14.39114 14.38365 14.36909 14.35145 14.32315 14.29204 14.26218 14.23774 14.22034 14.21382 14.21075 14.21395 14.20899 14.20288 14.19867 14.19165 14.18511 14.1855 14.18685 14.19509 14.20412 14.22374 14.25159 14.27142 14.29569 14.32043 14.35114 14.38228 14.40969 14.43366 14.45461 14.47571 14.48794 14.50741 14.52289 14.53464 14.54736 14.55792 14.57694 14.59634 14.61593 14.63589 14.65739 14.68809
0 0 0 0 0 0 0 0 0 0 0 0 0 0 0 0 0 0 0 0 0 0 0 0 0 0 0 0 0 0 0 0 0 0 0 0 0 0 0 0 0 0 0 0 0 0 0 0 0 0 17.01342 15.2853 14.79325 14.56714 14.54049 14.51324 14.49254 14.46794 14.44207 14.41985 14.40588 14.39633 14.39663 14.40013 14.40751 14.40939 14.40526 14.39756 14.38349 14.36448 14.33642 14.30716 14.27947 14.25988 14.24788 14.2413 14.23217 14.2215 14.2122 14.20604 14.20119 14.19268 14.18797 14.19598 14.20297 14.21528 14.23385 14.2593 14.28422 14.31504 14.34866 14.38549 14.4165 14.44368 14.466 14.48486 14.49891 14.5129 14.52811 14.54488 14.55446 14.5669 14.57469 14.59176 14.61025 14.62654 14.64641 14.66928 14.69959
0 0 0 0 0 0 0 0 0 0 0 0 0 0 0 0 0 0 0 0 0 0 0 0 0 0 0 0 0 0 0 0 0 0 0 0 0 0 0 0 0 0 0 0 0 0 0 0 0 0 16.31811 15.31083 15.05741 14.57382 14.54193 14.51473 14.49242 14.45655 14.43086 14.41609 14.40666 14.40779 14.40875 14.41934 14.43148 14.44153 14.44359 14.44052 14.42809 14.40774 14.37841 14.34755 14.32176 14.30103 14.28445 14.26424 14.24945 14.23125 14.22277 14.21711 14.2116 14.20452 14.20212 14.20931 14.21883 14.23039 14.25258 14.27583 14.3069 14.34188 14.38558 14.4225 14.45564 14.48174 14.50295 14.52576 14.53955 14.5495 14.5641 14.57288 14.57739 14.58303 14.59174 14.60392 14.62356 14.6428 14.66069 14.68443 14.71614
0 0 0 0 0 0 0 0 0 0 0 0 0 0 0 0 0 0 0 0 0 0 0 0 0 0 0 0 0 0 0 0 0 0 0 0 0 0 0 0 0 0 0 0 0 0 0 0 0 0 0 15.35165 14.83186 14.58428 14.54808 14.51845 14.49373 14.4606 14.43726 14.42348 14.42277 14.42541 14.4339 14.44813 14.46656 14.47515 14.47978 14.48607 14.48541 14.47043 14.43993 14.40802 14.3738 14.34318 14.3163 14.28639 14.26319 14.24537 14.23485 14.23071 14.22437 14.21975 14.21927 14.22737 14.23982 14.26014 14.2828 14.31426 14.351 14.39257 14.43776 14.47043 14.49924 14.52354 14.54177 14.55989 14.57532 14.5821 14.59144 14.59458 14.59915 14.60424 14.60872 14.62635 14.64206 14.66214 14.68287 14.7059 14.73951
0 0 0 0 0 0 0 0 0 0 0 0 0 0 0 0 0 0 0 0 0 0 0 0 0 0 0 0 0 0 0 0 0 0 0 0 0 0 0 0 0 0 0 0 0 0 0 0 0 0 0 15.11645 14.62587 14.59617 14.56139 14.53155 14.50286 14.47314 14.45448 14.44915 14.45232 14.46123 14.47473 14.4933 14.51182 14.52431 14.53459 14.53703 14.5352 14.51869 14.4826 14.45052 14.4174 14.38452 14.34788 14.31713 14.28907 14.27654 14.26716 14.25956 14.25041 14.24554 14.24737 14.25556 14.2678 14.28518 14.31612 14.3565 14.40072 14.44639 14.49075 14.52866 14.55938 14.57587 14.59477 14.60473 14.61574 14.62242 14.62124 14.61694 14.61641 14.62263 14.62754 14.64455 14.66637 14.68576 14.70414 14.72855 14.75723
0 0 0 0 0 0 0 0 0 0 0 0 0 0 0 0 0 0 0 0 0 0 0 0 0 0 0 0 0 0 0 0 0 0 0 0 0 0 0 0 0 0 0 0 0 0 0 0 0 0 0 14.69789 14.65218 14.61776 14.58145 14.54641 14.51694 14.48776 14.46828 14.46838 14.4796 14.49288 14.51465 14.54378 14.57011 14.59544 14.60871 14.61074 14.60759 14.58537 14.54454 14.49715 14.46078 14.42339 14.38124 14.34723 14.31669 14.30168 14.28875 14.28437 14.28504 14.28199 14.28979 14.30119 14.31576 14.33988 14.37468 14.41694 14.46023 14.50653 14.54325 14.58305 14.60232 14.61847 14.63438 14.6446 14.65432 14.65855 14.65631 14.65256 14.65058 14.64967 14.66012 14.67411 14.69911 14.71447 14.7297 14.74982 14.77249
0 0 0 0 0 0 0 0 0 0 0 0 0 0 0 0 0 0 0 0 0 0 0 0 0 0 0 0 0 0 0 0 0 0 0 0 0 0 0 0 0 0 0 0 0 0 0 0 0 16.87064 15.8202 14.72342 14.68349 14.64153 14.59635 14.56529 14.53674 14.50872 14.4918 14.49626 14.50702 14.5293 14.55653 14.58702 14.61924 14.64342 14.65963 14.67264 14.6675 14.64486 14.61174 14.56561 14.51999 14.47665 14.43336 14.39207 14.35946 14.33931 14.32944 14.32238 14.32259 14.32743 14.33276 14.34954 14.36756 14.39409 14.43259 14.47621 14.52555 14.56636 14.60397 14.63466 14.64811 14.6671 14.68107 14.68998 14.69909 14.70016 14.69599 14.69093 14.68422 14.68396 14.68902 14.70615 14.72382 14.74381 14.75843 14.77448 14.79443
0 0 0 0 0 0 0 0 0 0 0 0 0 0 0 0 0 0 0 0 0 0 0 0 0 0 0 0 0 0 0 0 0 0 0 0 0 0 0 0 0 0 0 0 0 0 0 0 15.89793 15.30615 15.02804 14.74629 14.71277 14.65967 14.60892 14.57418 14.54748 14.52757 14.52038 14.53224 14.55219 14.58344 14.61104 14.65404 14.69086 14.71913 14.73346 14.73675 14.72987 14.7063 14.67268 14.62547 14.57508 14.52604 14.48134 14.44199 14.40693 14.3845 14.37884 14.37631 14.38783 14.39985 14.41122 14.42849 14.45128 14.47182 14.5078 14.54656 14.58254 14.61706 14.64686 14.67143 14.69048 14.70493 14.72036 14.73106 14.73538 14.7392 14.73858 14.73557 14.73017 14.72742 14.72782 14.7409 14.75402 14.76511 14.77942 14.79416 14.81426
0 0 0 0 0 0 0 0 0 0 0 0 0 0 0 0 0 0 0 0 0 0 0 0 0 0 0 0 0 0 0 0 0 0 0 0 0 0 0 0 0 0 0 0 0 15.50215 15.37629 15.94886 15.35673 15.3667 15.07864 14.79397 14.74674 14.68858 14.63636 14.59136 14.56686 14.55317 14.55653 14.56999 14.59616 14.62815 14.67048 14.71266 14.74971 14.77536 14.79714 14.80344 14.79086 14.76854 14.73342 14.69048 14.64622 14.59782 14.54906 14.49924 14.46174 14.43806 14.43212 14.43224 14.43794 14.45314 14.47091 14.4948 14.52207 14.55171 14.59125 14.62702 14.65053 14.67564 14.69873 14.71564 14.73625 14.75049 14.76276 14.76642 14.7677 14.76963 14.77664 14.77362 14.76906 14.76646 14.76531 14.77308 14.78743 14.79849 14.80871 14.82087 14.83492
0 0 0 0 0 0 0 0 0 0 0 0 0 0 0 0 0 0 0 0 0 0 0 0 0 0 0 0 0 0 0 0 0 0 0 0 0 0 0 0 0 0 17.7372 17.38685 16.35051 15.42341 14.8584 14.86156 15.42275 15.13081 14.85036 14.81448 14.76616 14.71235 14.66161 14.6185 14.59515 14.59101 14.60368 14.62978 14.66532 14.7011 14.74573 14.78471 14.81288 14.83624 14.85039 14.8484 14.83369 14.80874 14.78004 14.73801 14.69583 14.64906 14.6035 14.55961 14.5224 14.50375 14.50039 14.51083 14.51884 14.53375 14.5505 14.57126 14.6014 14.62844 14.65963 14.68878 14.70852 14.72431 14.7398 14.75664 14.77572 14.78963 14.80181 14.80839 14.80983 14.81211 14.82163 14.82413 14.82067 14.80913 14.80082 14.80153 14.81328 14.82099 14.83277 14.84235 14.85434
0 0 0 0 0 0 0 0 0 0 0 0 0 0 0 0 0 0 0 0 0 0 0 0 0 0 0 0 0 0 0 0 0 0 0 0 0 0 0 0 16.8025 17.22563 17.4462 16.42888 15.4709 14.8978 14.91206 14.92182 14.92099 14.9066 14.87908 14.84474 14.79396 14.7381 14.68654 14.6506 14.62941 14.62935 14.65337 14.68609 14.72515 14.76564 14.81263 14.84856 14.87708 14.89072 14.90108 14.90278 14.88594 14.86399 14.82745 14.79625 14.75386 14.7072 14.66044 14.62255 14.58746 14.56469 14.55956 14.56584 14.58601 14.60016 14.62412 14.64849 14.67847 14.71154 14.73612 14.75641 14.77087 14.78528 14.79729 14.80618 14.81244 14.8216 14.83198 14.83448 14.84117 14.84304 14.84968 14.85292 14.8487 14.84153 14.83053 14.83164 14.83675 14.8444 14.85769 14.86979 14.88255
0 0 0 0 0 0 0 0 0 0 0 0 0 0 0 0 0 0 0 0 0 0 0 0 0 0 0 0 0 0 0 0 0 0 0 0 0 0 0 17.0562 16.77632 16.15185 15.84086 14.92133 14.92422 14.93436 14.94924 14.9594 14.95025 14.92969 14.89518 14.85842 14.81716 14.77395 14.73307 14.70604 14.69773 14.70676 14.73056 14.76288 14.79966 14.83632 14.8739 14.9074 14.93169 14.94882 14.95561 14.95325 14.93628 14.90846 14.88244 14.85087 14.8192 14.77973 14.74038 14.70688 14.67747 14.65108 14.6425 14.64025 14.65195 14.66976 14.68716 14.70661 14.73655 14.76632 14.78924 14.80712 14.81938 14.83146 14.84215 14.84542 14.84745 14.86155 14.87007 14.87548 14.87735 14.87668 14.87693 14.87497 14.86831 14.85955 14.85267 14.8516 14.85643 14.86537 14.8848 14.89624 14.90989
0 0 0 0 0 0 0 0 0 0 0 0 0 0 0 0 0 0 0 0 0 0 0 0 0 0 0 0 0 0 0 0 0 0 0 0 0 0 16.21341 15.8653 15.55193 14.95024 14.96085 14.97047 14.97354 14.97514 14.97907 14.97818 14.96538 14.94554 14.9205 14.88644 14.85288 14.81927 14.79098 14.7708 14.76466 14.78087 14.80677 14.83468 14.87153 14.90754 14.93859 14.96978 14.99164 15.00674 15.0124 15.00594 14.99187 14.96682 14.93921 14.90865 14.87235 14.84308 14.80662 14.77705 14.74593 14.72104 14.7101 14.70666 14.72072 14.73997 14.76078 14.7783 14.79878 14.82079 14.8391 14.851 14.85798 14.86606 14.87439 14.88095 14.88396 14.89068 14.90044 14.90496 14.90702 14.9048 14.90273 14.90195 14.89603 14.88783 14.87938 14.87819 14.88382 14.89745 14.91637 14.93328 14.94504
0 0 0 0 0 0 0 0 0 0 0 0 0 0 0 0 0 0 0 0 0 0 0 0 0 0 0 0 0 0 0 0 0 0 18.00577 18.62202 17.72476 15.92463 14.98197 14.98195 14.97749 14.98651 14.99437 15.00199 15.00571 15.00348 15.00323 14.99581 14.98662 14.97308 14.9547 14.93579 14.91341 14.89129 14.8771 14.86462 14.86122 14.86802 14.88608 14.91251 14.94274 14.96433 14.99237 15.02096 15.04029 15.05411 15.05428 15.05565 15.04365 15.02776 15.00394 14.98259 14.95224 14.92245 14.89269 14.86278 14.83228 14.80829 14.79001 14.7829 14.78985 14.79962 14.81699 14.83467 14.85361 14.86692 14.88261 14.8892 14.90207 14.90877 14.91949 14.92927 14.93393 14.94041 14.94179 14.94254 14.94192 14.93105 14.92752 14.92236 14.91866 14.91254 14.90392 14.90292 14.91275 14.93107 14.95493 14.97827 14.98235
0 0 0 0 0 0 0 0 0 0 0 0 0 0 0 0 0 0 0 0 0 0 0 0 0 0 0 0 0 18.5658 18.13711 17.90147 17.86666 17.6204 17.30475 16.67749 15.02344 15.01688 15.01517 15.01925 15.02558 15.0217 15.02375 15.0289 15.03146 15.01849 15.01641 15.00837 15.00527 14.9967 14.97494 14.96655 14.959 14.95454 14.9563 14.9623 14.97119 14.97743 14.99205 15.00964 15.01849 15.03623 15.06073 15.08292 15.09843 15.10037 15.09927 15.0915 15.0801 15.06989 15.05661 15.03813 15.01297 14.98943 14.96664 14.94205 14.92045 14.90178 14.8867 14.87756 14.88247 14.88864 14.89833 14.90722 14.91537 14.91899 14.92376 14.92307 14.93125 14.93916 14.9503 14.96225 14.97276 14.97542 14.97915 14.98061 14.97898 14.96905 14.95752 14.95215 14.95149 14.94298 14.93554 14.93692 14.94847 14.96595 14.98895 15.00603 15.00032
0 0 0 0 0 0 0 0 0 0 0 0 0 0 0 0 0 0 0 0 0 0 0 0 0 18.34003 17.57771 17.56166 16.56222 15.82854 15.46088 15.11617 15.10405 15.08689 15.0714 15.05565 15.0465 15.0419 15.04625 15.05212 15.04699 15.04089 15.03578 15.03907 15.04399 15.03686 15.03388 15.03189 15.0228 15.01653 15.00349 15.00008 15.00903 15.01727 15.02586 15.03916 15.05085 15.05236 15.05829 15.05951 15.06467 15.08501 15.1107 15.13284 15.14661 15.15373 15.1505 15.14479 15.1391 15.13026 15.12224 15.10409 15.08461 15.06027 15.03809 15.01666 14.99117 14.97278 14.95982 14.95319 14.95287 14.95634 14.96436 14.96905 14.9697 14.96854 14.96779 14.96899 14.97504 14.98353 14.99742 15.00583 15.00806 15.01182 15.01455 15.01026 15.00449 14.99059 14.98111 14.97405 14.9718 14.96823 14.9627 14.97023 14.98584 15.00916 15.02641 15.0264 14.9966
0 0 0 0 0 0 0 0 0 0 0 0 0 0 0 0 0 0 0 0 0 0 0 18.54799 17.65187 17.02759 16.65249 16.27813 15.19375 15.17001 15.14486 15.12453 15.11013 15.09516 15.07687 15.06662 15.05898 15.05737 15.06253 15.06515 15.06323 15.05603 15.04364 15.04113 15.04644 15.04835 15.04998 15.04678 15.04486 15.04272 15.03707 15.04202 15.05642 15.0712 15.09511 15.11047 15.12765 15.1195 15.10914 15.10372 15.10778 15.11968 15.13888 15.16564 15.17599 15.1807 15.18399 15.17953 15.17752 15.17479 15.16974 15.15922 15.14105 15.12737 15.11133 15.09305 15.07371 15.06188 15.05296 15.0435 15.0413 15.03464 15.03288 15.03066 15.02167 15.01494 15.00977 15.00861 15.01614 15.02397 15.03109 15.03734 15.04363 15.04879 15.04925 15.04196 15.03385 15.02213 15.01015 15.0028 14.99623 14.99327 14.99238 15.00376 15.01934 15.03651 15.04389 15.02775 14.98191
0 0 0 0 0 0 0 0 0 0 0 0 0 0 0 0 0 0 0 0 0 0 17.96916 17.08068 16.71103 16.68511 16.31092 15.91883 15.18707 15.15547 15.12976 15.11233 15.09661 15.08573 15.07347 15.06296 15.05818 15.05706 15.06189 15.06426 15.05789 15.05741 15.0524 15.06162 15.06254 15.06522 15.06583 15.05736 15.05793 15.06086 15.05894 15.06685 15.08315 15.10639 15.12896 15.15758 15.16984 15.16427 15.15038 15.14529 15.14404 15.15216 15.16932 15.18784 15.2004 15.21273 15.21939 15.21582 15.21946 15.21669 15.21138 15.19774 15.18691 15.16934 15.15853 15.14746 15.13809 15.12783 15.12826 15.12447 15.11819 15.11724 15.10705 15.10006 15.09139 15.08715 15.07729 15.0713 15.07214 15.07189 15.07021 15.06796 15.06937 15.07293 15.06867 15.06189 15.05498 15.04551 15.03938 15.02957 15.02896 15.02876 15.03117 15.04545 15.06243 15.07163 15.06309 15.02582 14.96947
0 0 0 0 0 0 0 0 0 0 0 0 0 0 0 0 0 0 0 0 0 19.22675 18.18425 17.07419 16.36637 16.32077 15.92562 15.90069 15.16734 15.14007 15.12033 15.10371 15.08299 15.0701 15.06208 15.05462 15.047 15.04601 15.0463 15.05587 15.05708 15.06307 15.06665 15.0735 15.07934 15.08408 15.08279 15.08176 15.08294 15.08635 15.09079 15.10163 15.12194 15.14304 15.16709 15.18411 15.19552 15.19476 15.18546 15.17597 15.17556 15.17757 15.18881 15.20748 15.22338 15.23406 15.24133 15.24902 15.25542 15.25657 15.25542 15.25097 15.24415 15.23387 15.22408 15.22104 15.21183 15.20887 15.19872 15.1938 15.17997 15.17219 15.16011 15.14643 15.14151 15.13978 15.13639 15.13361 15.12965 15.12503 15.11924 15.11437 15.11107 15.10958 15.10376 15.09583 15.08772 15.07602 15.06945 15.0586 15.0577 15.06147 15.06707 15.08272 15.09101 15.09563 15.07409 15.02733 14.96144
0 0 0 0 0 0 0 0 0 0 0 0 0 0 0 0 0 0 0 0 0 0 0 17.68323 16.72937 16.32378 15.91537 15.54597 15.15489 15.12871 15.11144 15.09622 15.07201 15.05713 15.04838 15.03923 15.03858 15.03675 15.03911 15.04393 15.04914 15.06196 15.07172 15.08376 15.09217 15.09895 15.09767 15.0969 15.09552 15.10278 15.10619 15.13042 15.15489 15.17397 15.1967 15.2111 15.22365 15.2241 15.22327 15.22351 15.22509 15.22482 15.22801 15.24087 15.25423 15.2608 15.27133 15.28254 15.28932 15.2972 15.29679 15.2946 15.29548 15.2927 15.29739 15.29653 15.29139 15.28917 15.28307 15.27168 15.25837 15.24573 15.23079 15.22062 15.21028 15.20384 15.19726 15.18908 15.17593 15.16775 15.16015 15.15004 15.14485 15.14073 15.13629 15.13021 15.12257 15.11563 15.10771 15.09982 15.10143 15.10668 15.11426 15.1259 15.12833 15.12032 15.08592 15.03156 14.9561
0 0 0 0 0 0 0 0 0 0 0 0 0 0 0 0 0 0 0 0 0 19.60215 19.27625 18.26857 16.76037 16.34372 15.93384 15.90806 15.50006 15.12753 15.10607 15.08425 15.06683 15.0554 15.04566 15.03873 15.03788 15.03758 15.04045 15.04214 15.04949 15.06516 15.08122 15.09435 15.10156 15.10797 15.11081 15.11563 15.12128 15.12848 15.13894 15.16516 15.19033 15.20855 15.2242 15.24163 15.24722 15.25003 15.2543 15.26162 15.26018 15.26347 15.2701 15.27929 15.28983 15.30249 15.3081 15.32259 15.32805 15.33385 15.3395 15.3427 15.34641 15.35487 15.35713 15.35852 15.3545 15.34564 15.33942 15.32937 15.31899 15.30791 15.2965 15.28837 15.28169 15.27383 15.26649 15.25401 15.23826 15.22038 15.20389 15.19409 15.1858 15.17639 15.17245 15.16381 15.15788 15.15128 15.14609 15.13781 15.13908 15.14557 15.15164 15.16028 15.15725 15.14228 15.10335 15.04309 14.95462
0 0 0 0 0 0 0 0 0 0 0 0 0 0 0 0 0 0 0 19.6426 19.54023 19.41347 18.55738 17.4532 16.77336 16.36271 15.95072 16.27526 15.15987 15.1221 15.10012 15.07574 15.06586 15.05684 15.04716 15.03539 15.03556 15.04151 15.04346 15.04807 15.05997 15.07428 15.09193 15.10427 15.11345 15.12195 15.12873 15.14051 15.1561 15.17241 15.18688 15.21327 15.23812 15.25972 15.27476 15.28253 15.29064 15.28882 15.2962 15.29862 15.29892 15.29836 15.30388 15.30971 15.32102 15.33085 15.3378 15.3459 15.35188 15.36099 15.3692 15.38166 15.39345 15.40634 15.41673 15.42423 15.42218 15.41931 15.41285 15.40282 15.38929 15.37612 15.36318 15.34933 15.33668 15.325 15.31136 15.29405 15.27563 15.25954 15.24405 15.23305 15.22545 15.21743 15.21351 15.21297 15.20458 15.19816 15.19336 15.18713 15.18914 15.19042 15.19108 15.18996 15.1834 15.16069 15.11958 15.05378 14.96194
0 0 0 0 0 0 0 0 0 0 0 0 0 0 0 0 0 0 19.10788 18.97819 18.58607 18.10066 17.46453 16.78829 16.42236 16.37014 15.97178 15.55586 15.16662 15.12109 15.09438 15.0721 15.06147 15.05436 15.04698 15.04041 15.04234 15.04837 15.05474 15.06496 15.07801 15.09443 15.1106 15.12982 15.14284 15.15597 15.16233 15.17662 15.19582 15.21389 15.23132 15.25918 15.28225 15.29833 15.31494 15.32717 15.33672 15.34036 15.33805 15.34301 15.34562 15.34392 15.34968 15.35471 15.35975 15.36591 15.36968 15.37049 15.37449 15.38046 15.39602 15.40912 15.42275 15.44181 15.45953 15.46897 15.47628 15.47652 15.47768 15.47444 15.46604 15.45387 15.43993 15.42337 15.40815 15.38617 15.36426 15.34706 15.32232 15.30096 15.28724 15.27146 15.25642 15.24951 15.24622 15.24644 15.24198 15.23414 15.23038 15.22697 15.233 15.23285 15.22892 15.22964 15.21661 15.19139 15.14763 15.08172 14.99377
0 0 0 0 0 0 0 0 0 0 0 0 0 0 0 0 0 19.56924 18.99706 18.35231 17.80903 17.14377 16.79421 16.78466 16.77737 16.3709 15.96684 15.20772 15.15453 15.11527 15.08618 15.06635 15.05786 15.05066 15.04564 15.04538 15.05618 15.06601 15.07125 15.08382 15.10381 15.12341 15.13802 15.1541 15.17609 15.18636 15.19876 15.21178 15.23175 15.25638 15.27928 15.30575 15.32563 15.34459 15.36096 15.37089 15.37555 15.37729 15.37796 15.38405 15.38307 15.37992 15.38656 15.38984 15.3939 15.39471 15.39815 15.39909 15.40065 15.40885 15.4213 15.44327 15.46463 15.48346 15.49817 15.50991 15.51891 15.53051 15.53469 15.53528 15.52757 15.51766 15.5023 15.48277 15.46336 15.43427 15.4161 15.39648 15.3725 15.35316 15.33359 15.3207 15.3093 15.29871 15.29347 15.29162 15.28629 15.27731 15.27041 15.26512 15.2649 15.26609 15.26109 15.25908 15.24873 15.22257 15.17902 15.1156 15.03957
0 0 0 0 0 0 0 0 0 0 0 0 0 0 0 0 19.05774 19.04636 18.17549 17.55218 17.18657 16.82733 16.79626 16.79497 16.7784 16.37868 15.96024 15.2024 15.14373 15.1106 15.08289 15.06385 15.05994 15.04968 15.05381 15.0636 15.07735 15.08537 15.0926 15.10518 15.12351 15.14269 15.16364 15.18427 15.20788 15.22573 15.24287 15.25939 15.27392 15.29597 15.32136 15.35004 15.37128 15.39133 15.40716 15.42012 15.42087 15.42752 15.43037 15.43032 15.43125 15.42831 15.42695 15.4235 15.4205 15.41748 15.41716 15.4152 15.41968 15.43067 15.44491 15.46509 15.49219 15.51287 15.53495 15.55102 15.56974 15.5816 15.59144 15.59751 15.59291 15.58338 15.5655 15.54566 15.52037 15.4896 15.45965 15.43563 15.41029 15.39023 15.3708 15.35573 15.34609 15.3386 15.3343 15.33023 15.32725 15.31964 15.31119 15.30686 15.30438 15.30381 15.30248 15.30201 15.29178 15.26562 15.22462 15.16063 15.08361
0 0 0 0 0 0 0 0 0 0 0 0 0 0 0 19.61714 18.87609 18.17985 17.54957 17.20117 16.84071 16.82513 16.79916 16.42088 16.3941 15.99531 15.22026 15.18204 15.13756 15.10729 15.08176 15.06557 15.0581 15.05712 15.06463 15.07915 15.09636 15.11141 15.12236 15.13801 15.16066 15.18196 15.20697 15.23442 15.26393 15.28368 15.30362 15.32359 15.34104 15.36126 15.38052 15.40202 15.42048 15.43496 15.44607 15.45598 15.46608 15.47552 15.48614 15.49169 15.49079 15.49038 15.47966 15.4691 15.45658 15.44578 15.44218 15.43924 15.43995 15.44565 15.45989 15.48327 15.51202 15.53766 15.56097 15.58403 15.60523 15.62178 15.6328 15.63844 15.6365 15.626 15.61116 15.59089 15.56937 15.54138 15.51052 15.4847 15.45686 15.4325 15.41624 15.40128 15.39154 15.37995 15.37042 15.36526 15.35755 15.34982 15.34187 15.3358 15.33108 15.32957 15.32856 15.33134 15.32633 15.30518 15.26523 15.20803 15.1343
0 0 0 0 0 0 0 0 0 0 0 0 0 0 18.93232 18.93388 18.21393 17.54586 17.19081 16.82647 16.8139 16.42205 16.39821 16.38935 16.0039 15.5805 15.2007 15.16651 15.13377 15.10816 15.08574 15.07335 15.06658 15.0714 15.08014 15.09544 15.11406 15.12992 15.15122 15.1719 15.20196 15.23605 15.27607 15.31004 15.34006 15.36717 15.38966 15.41216 15.43254 15.44788 15.46115 15.47706 15.48663 15.49461 15.50105 15.50745 15.51453 15.52649 15.54127 15.55237 15.55507 15.55768 15.54739 15.52896 15.50351 15.48233 15.46992 15.45839 15.45704 15.46047 15.47107 15.49292 15.52688 15.56026 15.59394 15.62231 15.64967 15.66405 15.67468 15.67716 15.66995 15.66034 15.64557 15.62617 15.60736 15.58157 15.55596 15.52917 15.4998 15.47511 15.46034 15.44699 15.4354 15.42104 15.41045 15.3997 15.39228 15.38624 15.37739 15.36993 15.36252 15.36223 15.35753 15.35677 15.34991 15.32548 15.29012 15.23522 15.16053
0 0 0 0 0 0 0 0 0 0 0 0 0 18.7914 18.97531 18.20296 17.52726 17.17876 16.80716 16.79983 16.41595 16.39318 16.38062 16.37173 15.9679 15.20763 15.17792 15.15223 15.13266 15.11354 15.10302 15.09264 15.09024 15.09566 15.11032 15.12879 15.14628 15.16661 15.19326 15.225 15.26934 15.31562 15.35736 15.38872 15.42681 15.45153 15.47445 15.4963 15.51531 15.53084 15.54136 15.54666 15.55288 15.5524 15.55204 15.54864 15.54876 15.57144 0 0 0 15.55338 15.55981 15.60521 15.57869 15.53588 15.50221 15.48432 15.47262 15.47026 15.4784 15.49914 15.53779 15.57437 15.61336 15.65328 15.67745 15.69514 15.70667 15.71042 15.70687 15.69548 15.68315 15.66959 15.65128 15.63229 15.60774 15.58434 15.55452 15.52592 15.50698 15.49185 15.47638 15.45714 15.44363 15.4326 15.42287 15.41389 15.40762 15.40004 15.39437 15.39633 15.39189 15.39134 15.38222 15.35713 15.31726 15.2612 15.18438
0 0 0 0 0 0 0 0 0 0 0 0 0 19.17726 18.22163 17.53942 17.14408 16.75929 16.75617 16.35951 16.36031 16.36436 16.366 15.22629 15.20906 15.1869 15.16221 15.14138 15.1269 15.11558 15.11692 15.11359 15.11753 15.13157 15.14474 15.16543 15.18673 15.218 15.25874 15.2964 15.34756 15.39397 15.43257 15.47421 15.50863 15.53148 15.55222 15.57396 15.58724 15.60308 15.61321 16.45784 15.61701 15.59539 15.57867 15.96824 16.80809 17.66979 0 0 0 0 0 16.04934 15.6297 15.5832 15.53972 15.50909 15.49619 15.48623 15.49343 15.5139 15.54561 15.58743 15.63644 15.67503 15.70244 15.72333 15.73397 15.73708 15.73474 15.72438 15.71674 15.70527 15.68999 15.67239 15.65424 15.63437 15.61341 15.589 15.56971 15.55142 15.53243 15.51386 15.49516 15.48044 15.46721 15.45551 15.44739 15.43671 15.42997 15.42627 15.42183 15.41782 15.40735 15.3862 15.34344 15.28314 15.20224
0 0 0 0 0 0 0 0 0 0 0 0 19.33921 18.54023 17.54491 17.13943 16.71755 16.32689 16.33098 16.34163 16.35049 16.35895 15.96441 15.21519 15.19577 15.18041 15.16485 15.14367 15.1335 15.13015 15.13314 15.14074 15.14892 15.16244 15.17715 15.19635 15.22921 15.26211 15.30811 15.35762 15.41433 15.46292 15.4983 15.53416 15.5717 15.59541 15.60245 0 0 15.60118 0 17.39841 16.51284 16.04828 16.44139 16.41077 17.23185 17.69407 18.72791 16.37049 15.58887 0 0 0 17.38375 15.60139 15.5553 15.52452 15.50799 15.50719 15.51474 15.53318 15.56634 15.60729 15.65477 15.69284 15.72897 15.75371 15.76146 15.76568 15.76504 15.75926 15.75174 15.74358 15.73144 15.71296 15.69589 15.68028 15.6615 15.63961 15.62095 15.6039 15.5836 15.5642 15.54836 15.53078 15.52002 15.50854 15.49823 15.48357 15.47808 15.47162 15.46121 15.45517 15.44077 15.41815 15.37671 15.30824 15.21818
0 0 0 0 0 0 0 0 0 0 0 18.62092 18.56993 17.55029 17.13514 16.31314 16.30496 16.31263 16.32511 16.34127 16.36408 15.60786 15.23307 15.21632 15.19701 15.18663 15.17349 15.16042 15.15441 15.15531 15.1585 15.17218 15.17975 15.19724 15.21347 15.24217 15.27896 15.32219 15.37673 15.43328 15.48559 15.5305 15.55965 15.58725 16.46952 0 0 0 0 0 18.23688 19.07536 18.80229 18.15368 17.74113 17.27032 17.24466 15.96878 15.57676 15.58561 15.59169 15.58931 15.58077 17.73602 18.11209 15.59621 15.56278 15.54006 15.53189 15.52461 15.5326 15.55232 15.58486 15.62572 15.66842 15.71029 15.74506 15.76889 15.78051 15.78739 15.79087 15.7881 15.78274 15.77573 15.76416 15.75439 15.74747 15.73366 15.7191 15.70002 15.67866 15.65623 15.63833 15.61478 15.59147 15.57209 15.55749 15.54838 15.5395 15.52645 15.51886 15.51233 15.50361 15.49347 15.47653 15.45278 15.40713 15.34013 15.24281
0 0 0 0 0 0 0 0 0 0 19.32297 18.60426 17.55141 16.72922 16.31482 15.92586 15.9279 15.94877 15.9657 15.98667 16.0024 15.2616 15.25081 15.23053 15.21005 15.20008 15.19068 15.18547 15.1837 15.18031 15.18446 15.19146 15.19865 15.21566 15.24373 15.28757 15.3276 15.38403 15.436 15.49428 15.55237 15.59253 16.02453 0 0 0 0 0 0 0 0 0 0 0 18.1307 17.71984 16.84366 15.58104 15.5954 15.6071 15.60842 15.60186 15.59641 15.59537 15.59308 15.58863 15.574 15.56338 15.55904 15.55762 15.56459 15.58329 15.61308 15.64836 15.68448 15.72258 15.75921 15.78262 15.80015 15.80764 15.81246 15.81144 15.80604 15.80042 15.7932 15.78904 15.78696 15.77997 15.77112 15.75283 15.73076 15.70982 15.68747 15.66495 15.64114 15.62273 15.60951 15.60449 15.59297 15.58355 15.57301 15.55921 15.55007 15.53055 15.51081 15.47741 15.43239 15.36365 15.27025
0 0 0 0 0 0 0 0 0 0 18.87791 17.56753 16.74332 16.31064 15.5583 15.56142 15.21909 15.24278 15.27405 15.2805 15.28158 15.2841 15.27149 15.259 15.24134 15.22722 15.22067 15.22027 15.22131 15.22016 15.22514 15.2279 15.2342 15.25106 15.2896 15.33127 15.37378 15.42334 15.48401 15.54212 16.86988 0 0 0 0 0 0 0 0 0 0 0 0 0 18.78673 17.3325 15.60578 15.61332 15.63044 15.64505 15.65011 15.64385 15.63661 15.62732 15.61562 15.60826 15.59658 15.59601 15.59153 15.59249 15.59957 15.62044 15.64243 15.67496 15.70823 15.74374 15.77407 15.80174 15.8196 15.83106 15.83654 15.84041 15.83646 15.8352 15.83344 15.83308 15.8273 15.81793 15.8064 15.79012 15.76973 15.74694 15.72547 15.70137 15.67986 15.66697 15.65419 15.6503 15.64332 15.63726 15.62648 15.61379 15.59551 15.57189 15.54729 15.50795 15.45685 15.38753 15.29751
0 0 0 0 0 0 0 0 0 18.96775 18.32523 17.1624 16.30658 15.53752 15.19998 15.21318 15.23129 15.2497 15.26903 15.2818 15.28942 15.29613 15.28926 15.28308 15.2699 15.2558 15.24881 15.25523 15.2611 15.25903 15.26632 15.2689 15.27956 15.30499 15.34383 15.38014 15.4186 15.46822 15.52936 16.40376 16.64808 0 0 0 0 0 0 0 0 0 0 0 0 18.04023 17.79623 16.48151 15.62015 15.63865 15.66507 15.67853 15.685 15.68244 15.67557 15.66699 15.65633 15.644 15.63099 15.62647 15.63414 15.63126 15.64071 15.65596 15.67443 15.70111 15.7297 15.75893 15.79096 15.8189 15.83729 15.85082 15.85862 15.86137 15.86318 15.86714 15.8681 15.87112 15.86859 15.85673 15.84379 15.83088 15.81126 15.78988 15.76822 15.74489 15.72643 15.71354 15.69792 15.68883 15.68739 15.67895 15.66889 15.65055 15.63054 15.60684 15.57332 15.53016 15.47167 15.4029 15.31694
0 0 0 0 0 0 0 0 19.74282 18.70502 17.20686 16.30168 15.86897 15.14971 15.17227 15.20625 15.23123 15.25158 15.27014 15.28403 15.29339 15.30131 15.29461 15.2942 15.28836 15.28364 15.28522 15.29432 15.3014 15.30535 15.30403 15.30869 15.32111 15.34663 15.37672 15.41867 15.45168 15.49504 15.93932 16.39984 16.89098 17.78191 0 18.67081 19.29102 0 0 0 0 0 0 0 18.86031 17.81375 16.94413 15.63201 15.63802 15.66705 15.69134 15.70737 15.71204 15.70846 15.70254 15.69069 15.68238 15.67702 15.66726 15.66601 15.66992 15.67521 15.68717 15.70144 15.71888 15.73775 15.76765 15.79929 15.82368 15.85026 15.87133 15.88395 15.89302 15.89829 15.89926 15.90133 15.90242 15.90503 15.90076 15.89172 15.87989 15.8655 15.85045 15.8302 15.81049 15.79544 15.78089 15.76301 15.74891 15.74001 15.73398 15.72555 15.71392 15.69675 15.66885 15.63895 15.59511 15.54787 15.48731 15.41611 15.33463
0 0 0 0 0 0 0 0 19.76958 18.72559 17.19539 16.28005 15.13531 15.13526 15.16241 15.20247 15.23347 15.25447 15.27112 15.28683 15.29976 15.31221 15.30716 15.30386 15.31165 15.31736 15.32856 15.3419 15.35503 15.36256 15.36897 15.3832 15.38916 15.40178 15.42515 15.451 15.48444 15.51263 15.54095 15.98115 16.42395 16.8854 17.35099 17.81033 18.64425 0 0 0 0 0 0 18.24088 17.39691 17.38467 15.63447 15.65288 15.67498 15.70429 15.72724 15.74184 15.74481 15.74122 15.7305 15.72121 15.71164 15.70344 15.69918 15.70237 15.70184 15.71254 15.72296 15.73781 15.7556 15.7805 15.80675 15.83552 15.86044 15.88794 15.91152 15.92778 15.93608 15.94376 15.94753 15.94571 15.94722 15.94454 15.93649 15.92819 15.91842 15.90426 15.88618 15.871 15.85118 15.83566 15.82079 15.80402 15.7917 15.78065 15.77293 15.76497 15.75204 15.7303 15.69867 15.65984 15.6162 15.56181 15.49801 15.42575 15.34611
0 0 0 0 0 0 0 0 0 18.75828 17.20426 16.29274 15.1261 15.12423 15.15417 15.20071 15.23288 15.25211 15.2692 15.28766 15.3073 15.31593 15.31438 15.31842 15.32739 15.34386 15.36415 15.38627 15.40832 15.42917 15.4451 15.45025 15.45466 15.46087 15.47959 15.49921 15.5275 15.54541 15.56544 15.57012 15.57499 15.57962 15.58876 16.00554 16.90387 17.78306 18.63862 18.98204 0 0 18.56268 17.3783 16.48581 15.62754 15.64973 15.6789 15.71005 15.74044 15.76098 15.77203 15.77502 15.77161 15.76525 15.75689 15.74689 15.74019 15.73867 15.74264 15.74654 15.75389 15.76268 15.77673 15.79501 15.81973 15.84367 15.8688 15.89634 15.9229 15.94913 15.96657 15.97878 15.98536 15.98537 15.98858 15.98581 15.98174 15.97671 15.9697 15.96138 15.94841 15.93112 15.91512 15.89767 15.88072 15.86534 15.84872 15.8355 15.82312 15.8109 15.79822 15.78159 15.75614 15.71751 15.67624 15.62934 15.57061 15.50511 15.43105 15.35236
0 0 0 0 0 0 0 0 0 19.63729 18.03957 16.75563 15.49351 15.12738 15.14768 15.19237 15.22593 15.24703 15.26616 15.28696 15.30424 15.31328 15.32183 15.3335 15.35707 15.38252 15.4149 15.44544 15.4706 15.49188 15.50254 15.50636 15.497 15.50287 15.51634 15.53822 15.55774 15.56546 15.57839 15.58416 15.59235 15.58974 15.58448 15.58323 16.00624 16.45504 16.90675 17.33526 18.57539 17.36167 16.00846 15.60197 15.62309 15.65152 15.68261 15.71085 15.74103 15.76578 15.78174 15.79236 15.79872 15.795 15.79235 15.78633 15.77984 15.77443 15.77615 15.77987 15.78261 15.79004 15.80236 15.82111 15.83397 15.85559 15.88279 15.91053 15.93779 15.96546 15.99061 16.0092 16.01884 16.02664 16.026 16.02563 16.01914 16.01585 16.0085 16.00122 15.99426 15.98363 15.96985 15.95208 15.93394 15.91878 15.90399 15.8912 15.87842 15.8635 15.84843 15.8308 15.81032 15.78139 15.7409 15.69401 15.64308 15.57791 15.50846 15.43074 15.34841
0 0 0 0 0 0 0 0 0 19.75388 19.02598 17.22539 15.90894 15.15092 15.15369 15.18725 15.21435 15.23889 15.25763 15.27644 15.29499 15.31083 15.33533 15.36204 15.39205 15.43662 15.47771 15.51423 15.5559 15.56305 15.56618 15.56255 15.5537 15.54845 15.55096 15.56611 15.58104 15.58896 15.59743 15.60001 15.60249 15.60117 15.59486 15.59178 15.593 15.60186 16.03045 0 17.36522 16.02432 15.61292 15.63381 15.66481 15.6945 15.7231 15.75053 15.77538 15.79048 15.80403 15.8102 15.81806 15.8214 15.82025 15.81774 15.81137 15.81056 15.80762 15.80656 15.81144 15.82203 15.836 15.84785 15.86581 15.8899 15.91971 15.94941 15.977 16.00363 16.02415 16.04406 16.05963 16.06317 16.06342 16.0589 16.05569 16.05304 16.04309 16.03481 16.0265 16.01229 15.99985 15.98358 15.9703 15.95357 15.93593 15.92154 15.90979 15.89412 15.87681 15.85783 15.83315 15.80138 15.7579 15.70779 15.65079 15.58365 15.50932 15.43162 15.33749
0 0 0 0 0 0 0 0 0 0 19.49501 18.09324 16.37493 15.56065 15.19342 15.18891 15.19534 15.21342 15.23773 15.26211 15.28444 15.31548 15.35289 15.38841 15.43035 15.47258 15.52585 15.5735 0 0 0 15.8238 15.59814 15.59094 15.5906 15.59526 15.60701 15.61715 15.61952 15.61975 15.61312 15.60949 15.60972 15.60963 15.61335 15.62294 15.63761 16.06583 15.64372 15.64454 15.65691 15.68265 15.7075 15.73755 15.76437 15.78784 15.80518 15.81806 15.82491 15.83161 15.83749 15.84541 15.84755 15.85031 15.84833 15.8418 15.84194 15.84618 15.85142 15.86023 15.87611 15.88819 15.90742 15.9278 15.95251 15.97783 16.00263 16.03183 16.05226 16.06642 16.08071 16.08699 16.08711 16.08836 16.08206 16.07924 16.07143 16.06255 16.05298 16.04071 16.02796 16.01458 16.00238 15.9892 15.97378 15.95946 15.94481 15.92783 15.90854 15.88632 15.85931 15.82308 15.77601 15.71847 15.65914 15.58937 15.51461 15.43272 15.33161
0 0 0 0 0 0 0 0 0 0 0 19.44425 18.1419 16.42198 15.57499 15.19528 15.16671 15.18505 15.2133 15.24469 15.28913 15.33328 15.38129 15.42238 15.45875 15.5088 15.95178 16.38222 0 0 0 16.54682 16.83843 15.6159 15.61537 15.62095 15.6325 15.64218 15.64973 15.64582 15.63414 15.62877 15.62455 15.62896 15.63678 15.65063 15.66428 15.67715 15.68005 15.68883 15.70915 15.7329 15.75921 15.78374 15.80306 15.81867 15.8345 15.84511 15.85255 15.86015 15.86766 15.86927 15.86975 15.87312 15.87428 15.87164 15.87002 15.87597 15.88653 15.89586 15.9118 15.9283 15.94565 15.95906 15.98044 16.00426 16.03279 16.05336 16.07242 16.08752 16.09869 16.10438 16.10774 16.10778 16.10428 16.09835 16.09243 16.0841 16.07531 16.06482 16.05264 16.04024 16.0272 16.0154 16.00434 15.99088 15.97672 15.9556 15.93516 15.90716 15.87876 15.83987 15.79155 15.73701 15.67707 15.60871 15.5308 15.44429 15.34494
0 0 0 0 0 0 0 0 0 0 0 0 19.6178 18.56919 16.39279 15.56622 15.15914 15.16543 15.19329 15.23258 15.29142 15.355 15.40829 15.44717 15.47701 15.53749 16.36529 0 0 18.08429 18.15887 16.49068 15.648 15.62767 15.62802 15.63743 15.64801 15.66013 15.66671 15.66971 15.65929 15.64797 15.64539 15.64905 15.65829 15.67393 15.69135 15.7012 15.71271 15.72935 15.75079 15.77676 15.80322 15.82649 15.84246 15.85701 15.8715 15.87762 15.89182 15.8981 15.90193 15.90242 15.89939 15.90138 15.90374 15.90181 15.90196 15.90733 15.91484 15.92721 15.94328 15.95892 15.97089 15.98469 16.00819 16.03539 16.0599 16.07563 16.09291 16.10736 16.11443 16.12011 16.12074 16.12274 16.11969 16.11646 16.1126 16.10535 16.09645 16.08744 16.07883 16.06879 16.05746 16.04251 16.03042 16.0176 15.99962 15.9813 15.95553 15.92778 15.89645 15.8525 15.80503 15.75509 15.69684 15.6325 15.55739 15.47038 15.38227
0 0 0 0 0 0 0 0 0 0 0 0 0 0 0 16.34512 15.50231 15.14886 15.18709 15.23236 15.30619 15.37074 15.42677 15.45876 15.48107 15.91911 15.98429 16.4217 16.84401 19.16366 18.17059 16.49047 15.65475 15.63875 15.64112 15.65093 15.66914 15.67973 15.68841 15.69245 15.68189 15.67446 15.67204 15.67497 15.68115 15.69365 15.7095 15.72565 15.74283 15.76213 15.78981 15.81267 15.84156 15.86009 15.87528 15.88991 15.89843 15.91372 15.92277 15.92925 15.93013 15.92791 15.92516 15.92559 15.93286 15.93867 15.94107 15.94546 15.95446 15.96339 15.97974 15.99221 16.00432 16.0209 16.04778 16.0732 16.09186 16.10529 16.11585 16.12461 16.13308 16.13844 16.13787 16.13912 16.13717 16.13402 16.13205 16.12658 16.11701 16.11 16.10168 16.0925 16.08148 16.07348 16.05928 16.04332 16.02747 16.00586 15.98091 15.95417 15.91836 15.88107 15.82833 15.78152 15.72713 15.66275 15.59091 15.50903 15.42305
0 0 0 0 0 0 0 0 0 0 0 0 0 0 0 17.20397 16.28924 15.14146 15.18671 15.24222 15.31871 15.39194 15.44436 15.47214 15.50685 15.55497 16.39429 16.45026 16.88327 0 18.22264 15.68391 15.66722 15.65221 15.67426 15.66678 15.68482 15.69589 15.71289 15.71028 15.70013 15.69743 15.69599 15.69787 15.70278 15.71464 15.73226 15.7502 15.7715 15.79696 15.82721 15.85169 15.87706 15.89492 15.90879 15.92023 15.93004 15.93979 15.94539 15.94764 15.95072 15.94523 15.94588 15.94872 15.95646 15.96045 15.96434 15.97128 15.98429 15.99097 16.00822 16.02821 16.04503 16.06585 16.08894 16.11625 16.12829 16.13919 16.14356 16.15029 16.15589 16.15912 16.16023 16.1563 16.15488 16.15641 16.15389 16.1482 16.13628 16.12581 16.11978 16.11207 16.10635 16.09525 16.08449 16.06858 16.05207 16.02944 16.0049 15.98142 15.94757 15.9111 15.86548 15.82045 15.77191 15.71397 15.64729 15.57498 15.4927
0 0 0 0 0 0 0 0 0 0 0 0 0 18.53088 18.10377 17.17571 16.31355 15.14691 15.19136 15.2667 15.34937 15.42507 15.47652 15.51212 15.54574 15.59337 16.85446 17.32303 17.77511 17.66546 18.66202 16.09601 15.67337 15.67239 15.68195 15.69499 15.70539 15.72001 15.72809 15.72436 15.71629 15.71693 15.71776 15.71428 15.7201 15.73738 15.75771 15.77863 15.79926 15.82437 15.85514 15.8793 15.89612 15.91635 15.92978 15.94621 15.96037 15.96833 15.97 15.97249 15.97005 15.97244 15.97272 15.97562 15.98017 15.98254 15.98804 15.998 16.00806 16.0206 16.03828 16.05567 16.07612 16.09638 16.12291 16.14017 16.15338 16.16229 16.17123 16.1764 16.18109 16.18013 16.17594 16.17653 16.17496 16.17984 16.17472 16.17141 16.15795 16.14702 16.13802 16.13189 16.1235 16.11815 16.10848 16.09457 16.08016 16.06354 16.0405 16.01267 15.97686 15.93879 15.89336 15.85436 15.81026 15.75905 15.70166 15.63605 15.5678
0 0 0 0 0 0 0 0 0 0 0 0 17.70262 17.23921 17.2234 16.76481 15.95079 15.20127 15.2463 15.31677 15.38163 15.4532 15.50401 15.54568 15.58046 15.63423 16.51995 16.55079 17.37281 18.22409 16.51831 15.67627 15.6864 15.70165 15.71889 15.73033 15.73946 15.74068 15.74677 15.75291 15.74354 15.73654 15.73414 15.7372 15.74117 15.75936 15.78198 15.7993 15.82039 15.84379 15.86747 15.89017 15.91316 15.93219 15.9474 15.96166 15.97421 15.98388 15.98502 15.98607 15.99008 15.99192 15.99313 15.99605 16.00045 16.0018 16.01006 16.02017 16.03325 16.04946 16.07023 16.08753 16.10724 16.13145 16.15385 16.16933 16.17704 16.18505 16.19319 16.19607 16.19527 16.19634 16.19152 16.18878 16.18758 16.18435 16.18308 16.17428 16.16388 16.15195 16.14625 16.13944 16.13101 16.12547 16.12051 16.10996 16.10162 16.0884 16.06927 16.04231 16.01087 15.97989 15.93982 15.90302 15.86235 15.81297 15.75627 15.69507 15.63209
0 0 0 0 0 0 0 0 19.56342 18.99438 17.75998 16.83552 16.80392 16.79067 16.3805 16.40956 16.03084 15.28196 15.32377 15.37928 15.44327 15.4992 15.54913 15.58713 15.62828 15.67738 15.71446 15.73306 15.72062 15.71539 15.69505 15.70803 15.72675 15.74035 15.75222 15.75946 15.76557 15.76511 15.76929 15.76184 15.75634 15.7492 15.74656 15.75272 15.75706 15.77429 15.80049 15.82293 15.84328 15.8646 15.88152 15.89883 15.91735 15.9402 15.95565 15.96902 15.97985 15.98957 15.997 16.0007 16.00258 16.00261 16.0056 16.00815 16.01367 16.01833 16.02884 16.03969 16.05348 16.07125 16.09199 16.11457 16.13981 16.16151 16.18326 16.19489 16.20192 16.20896 16.21467 16.21641 16.21714 16.21351 16.21171 16.20646 16.20358 16.19594 16.1855 16.1768 16.16464 16.15886 16.15157 16.1455 16.13922 16.13557 16.13238 16.12578 16.11768 16.10753 16.09239 16.07169 16.04611 16.01877 15.98919 15.95548 15.9196 15.87182 15.82153 15.76489 15.70493
0 0 0 0 0 0 0 18.56239 18.68392 16.87922 16.41653 16.39214 16.38212 16.38988 16.43397 16.0919 15.34066 15.36622 15.41032 15.45347 15.50215 15.54232 15.58836 15.6283 15.67126 15.71297 15.75111 15.7705 15.76309 15.75376 15.75503 15.76214 15.77728 15.78283 15.78511 15.7879 15.78682 15.78518 15.78103 15.77354 15.76411 15.76358 15.75764 15.76019 15.76882 15.78823 15.80996 15.83555 15.85704 15.87257 15.88773 15.9032 15.91812 15.93659 15.95833 15.97495 15.98797 15.99406 15.99798 16.0025 16.0063 16.00916 16.01489 16.02076 16.03126 16.03992 16.04971 16.06297 16.07838 16.09309 16.1132 16.14034 16.16453 16.18937 16.207 16.21699 16.22078 16.2271 16.23087 16.22486 16.22478 16.22464 16.22414 16.22065 16.21487 16.20886 16.19754 16.18423 16.17029 16.16549 16.16231 16.15517 16.15284 16.15088 16.14876 16.14456 16.13759 16.13054 16.12005 16.10244 16.08154 16.05827 16.02642 15.99815 15.96317 15.92467 15.87463 15.82136 15.76334
0 0 0 0 0 0 19.08278 19.11202 16.89021 16.38017 16.33617 16.33312 16.38358 16.04375 15.7373 15.4244 15.41135 15.44351 15.478 15.51077 15.54436 15.56991 15.61362 15.6499 15.70017 15.74413 15.78691 15.80907 15.81456 15.81278 15.81582 15.82347 15.82732 15.82031 15.81928 15.81113 15.80671 15.8055 15.79546 15.78799 15.77988 15.77761 15.77345 15.77537 15.78196 15.7951 15.81629 15.83959 15.85857 15.87598 15.89009 15.91174 15.92522 15.94091 15.95346 15.97143 15.98852 15.9987 16.00327 16.00898 16.01677 16.02294 16.02684 16.03641 16.04956 16.06383 16.07466 16.09272 16.10626 16.12371 16.14425 16.17334 16.20426 16.22464 16.23642 16.24011 16.24094 16.2426 16.24128 16.23791 16.23197 16.23157 16.22906 16.22425 16.22021 16.21384 16.19963 16.19327 16.18267 16.1755 16.16925 16.16667 16.16407 16.16768 16.16788 16.16657 16.16317 16.1591 16.14836 16.13487 16.1188 16.09688 16.07123 16.04594 16.01939 15.98353 15.94119 15.8881 15.83258
0 0 0 0 0 0 19.86478 18.27155 16.81887 16.29756 15.86343 15.9245 15.62709 15.35858 15.44517 15.50736 15.52361 15.53684 15.55101 15.56639 15.5801 15.59908 15.63447 15.68348 15.73104 15.77589 15.81675 15.8448 15.85083 15.84879 15.84921 15.85683 15.85099 15.85242 15.84813 15.83226 15.82186 15.81221 15.80286 15.79261 15.79684 15.7959 15.78995 15.7894 15.78973 15.80541 15.82507 15.84508 15.86312 15.87764 15.89277 15.91341 15.93129 15.9476 15.95985 15.97472 15.99042 15.99719 16.0063 16.01434 16.02179 16.0307 16.03631 16.04955 16.06759 16.08667 16.10217 16.11921 16.13832 16.15946 16.18313 16.20835 16.23372 16.25204 16.26285 16.26291 16.26772 16.2634 16.25659 16.24576 16.2433 16.23958 16.23582 16.2259 16.22058 16.21632 16.20657 16.20253 16.19507 16.18791 16.18325 16.17989 16.17939 16.18466 16.18852 16.18804 16.18536 16.18402 16.1743 16.16551 16.15057 16.13507 16.11551 16.09513 16.06973 16.03882 16.00404 15.96459 15.91196
0 0 0 0 0 19.99267 19.57529 18.24451 16.7972 16.30159 15.54244 15.24942 15.33064 15.41876 15.49973 15.575 15.60664 15.61485 15.62288 15.6244 15.63463 15.64366 15.68198 15.7334 15.78259 15.82598 15.85364 15.87434 15.87294 15.87335 15.87793 15.87806 15.87791 15.87592 15.85747 15.84452 15.82894 15.81707 15.80662 15.8022 15.80609 15.80291 15.79749 15.79168 15.79414 15.80606 15.82166 15.83776 15.85216 15.86845 15.881 15.89868 15.92008 15.94294 15.96032 15.97023 15.9805 15.99014 15.99882 16.01092 16.02354 16.0369 16.04946 16.06734 16.08504 16.10837 16.12926 16.14756 16.16768 16.19084 16.21359 16.23912 16.26023 16.27437 16.28475 16.28572 16.28697 16.27916 16.27025 16.2594 16.25016 16.24948 16.24779 16.23976 16.23125 16.22653 16.2237 16.22139 16.2183 16.21252 16.20725 16.20576 16.20826 16.21232 16.21447 16.21841 16.21815 16.2153 16.20674 16.19704 16.18871 16.1763 16.15802 16.14118 16.11816 16.08861 16.05946 16.02491 15.97717
0 0 0 0 19.11966 18.88512 16.95033 16.41347 15.95143 15.20078 15.24058 15.31439 15.39798 15.47228 15.54991 15.61884 15.64943 15.65865 15.66972 15.68528 15.69856 15.70698 15.74585 15.78835 15.82747 15.85477 15.87675 15.8908 15.8879 15.88787 15.88891 15.88534 15.88366 15.86834 15.86509 15.84981 15.8381 15.82742 15.81915 15.81309 15.80833 15.80449 15.79927 15.79575 15.7913 15.7968 15.81247 15.82485 15.83851 15.85131 15.86724 15.8856 15.9064 15.93035 15.953 15.96734 15.97934 15.98884 15.99825 16.00852 16.02446 16.04458 16.05981 16.08055 16.10348 16.12805 16.15295 16.17547 16.19785 16.22176 16.24248 16.26269 16.28184 16.2937 16.30037 16.30079 16.29752 16.29332 16.27967 16.26845 16.26648 16.26155 16.26109 16.25081 16.24262 16.23836 16.23766 16.23861 16.24117 16.2363 16.23189 16.23238 16.23546 16.23955 16.2452 16.24568 16.24819 16.24834 16.24325 16.24215 16.2346 16.22446 16.21287 16.20349 16.18154 16.15411 16.12412 16.08911 16.05068
0 0 0 0 20.10987 17.491 15.32894 15.27805 15.24262 15.26536 15.31309 15.39224 15.46409 15.53058 15.59308 15.655 15.67598 15.69557 15.72075 15.73566 15.74714 15.76332 15.79699 15.82713 15.85035 15.86577 15.88169 15.89284 15.89288 15.89343 15.88661 15.88384 15.88047 15.87513 15.87105 15.85598 15.84646 15.83747 15.82968 15.8159 15.80991 15.79904 15.79019 15.78384 15.78463 15.78893 15.80092 15.81075 15.82665 15.8381 15.84609 15.86541 15.89248 15.91832 15.93884 15.95546 15.97099 15.98209 15.99543 16.00905 16.029 16.05082 16.07068 16.09173 16.11408 16.14056 16.16336 16.18689 16.21007 16.23749 16.25891 16.27835 16.2955 16.30703 16.30815 16.30625 16.30112 16.29306 16.28422 16.27686 16.27651 16.27297 16.26958 16.2633 16.25637 16.25435 16.25623 16.26061 16.25994 16.25983 16.25436 16.25636 16.25751 16.25876 16.26235 16.26329 16.2667 16.27096 16.27402 16.27825 16.27522 16.26976 16.26251 16.25599 16.24379 16.2203 16.19506 16.16478 16.12667
0 0 0 19.38228 19.03604 16.9929 15.29067 15.25925 15.28234 15.33925 15.38707 15.46073 15.52229 15.58675 15.64347 15.69495 15.72074 15.73284 15.748 15.76965 15.7928 15.80279 15.82681 15.84456 15.85383 15.86224 15.88118 15.89287 15.89783 15.89293 15.87756 15.87363 15.8826 15.88528 15.87258 15.85864 15.84587 15.83681 15.82237 15.81249 15.80298 15.79018 15.78215 15.77865 15.7746 15.77955 15.79061 15.80414 15.81113 15.82206 15.8346 15.85402 15.87583 15.89984 15.91873 15.93738 15.95547 15.97283 15.98993 16.00689 16.02862 16.05372 16.07749 16.0991 16.1202 16.14196 16.16619 16.1895 16.21796 16.2407 16.26347 16.28083 16.29553 16.30205 16.30627 16.3062 16.29988 16.29354 16.29125 16.28454 16.28268 16.28254 16.27913 16.2743 16.27048 16.26918 16.27387 16.28035 16.28437 16.28161 16.28233 16.28284 16.2844 16.28887 16.28677 16.28858 16.29444 16.30092 16.30848 16.31461 16.31447 16.31453 16.30946 16.30708 16.29169 16.27822 16.2581 16.22844 16.19088
0 0 0 19.37849 19.00471 16.949 16.01681 15.26366 15.3231 15.39722 15.44673 15.5155 15.57162 15.6301 15.68405 15.71744 15.74118 15.7585 15.77594 15.79169 15.8019 15.81152 15.83364 15.83879 15.84175 15.85689 15.87073 15.8865 15.89004 15.87343 15.87153 15.88029 15.88288 15.87245 15.86672 15.85512 15.83987 15.82736 15.81213 15.80118 15.78359 15.7761 15.76796 15.7623 15.76111 15.76924 15.78051 15.7908 15.79941 15.80962 15.8203 15.84366 15.86255 15.88187 15.90071 15.9214 15.9439 15.96809 15.98183 16.00103 16.02713 16.05346 16.07762 16.10045 16.12069 16.14256 16.16361 16.18498 16.20917 16.23398 16.25669 16.27343 16.28688 16.2949 16.29836 16.2983 16.29178 16.29152 16.29011 16.28498 16.28483 16.28592 16.28417 16.28218 16.27837 16.28139 16.28713 16.29517 16.29507 16.2954 16.30334 16.30863 16.31527 16.31619 16.31793 16.31924 16.32533 16.33596 16.34449 16.35039 16.35646 16.36157 16.36236 16.35843 16.35221 16.33479 16.31787 16.29492 16.2642
0 0 0 20.01707 19.23363 16.92015 15.57841 15.24457 15.32989 15.42054 15.49444 15.55971 15.61049 15.66362 15.71627 15.7341 15.75296 15.76948 15.78849 15.80138 15.81465 15.82541 15.83516 15.84106 15.8525 15.86092 15.87737 15.89155 15.87909 15.86927 15.8646 15.87172 15.87097 15.87452 15.87159 15.85623 15.84459 15.82874 15.8085 15.79056 15.77408 15.76343 15.75647 15.7526 15.74729 15.75414 15.76414 15.77671 15.78689 15.79858 15.81388 15.83629 15.8537 15.87146 15.89159 15.91273 15.9396 15.96434 15.98444 16.00459 16.03061 16.05651 16.08073 16.1041 16.12497 16.14551 16.16622 16.18597 16.20505 16.23172 16.25246 16.2691 16.27746 16.28443 16.29021 16.2933 16.29381 16.28989 16.29312 16.28781 16.28938 16.2906 16.28941 16.29111 16.29476 16.29406 16.30021 16.30911 16.31078 16.31381 16.32351 16.33549 16.3371 16.33951 16.34455 16.34365 16.35067 16.36378 16.37774 16.38669 16.39707 16.40587 16.40648 16.40525 16.3977 16.38529 16.37414 16.35495 16.33175
0 0 0 20.07834 17.8883 15.99494 15.22694 15.2888 15.37163 15.4601 15.53042 15.58873 15.63263 15.68735 15.7288 15.75325 15.76548 15.77935 15.78944 15.7924 15.8027 15.81763 15.81776 15.81346 15.84319 15.86982 15.88024 15.90442 15.89194 15.8808 15.87458 15.87329 15.89049 15.89708 15.89468 15.87544 15.85649 15.84021 15.822 15.79726 15.77844 15.76416 15.75822 15.75165 15.74719 15.75684 15.76677 15.77689 15.78984 15.80427 15.82163 15.84392 15.86091 15.87965 15.89894 15.92388 15.95055 15.97756 16.00319 16.02457 16.0493 16.0747 16.09926 16.12334 16.14567 16.16142 16.17884 16.19571 16.21835 16.24249 16.26176 16.27507 16.28294 16.28797 16.29385 16.2959 16.29906 16.29977 16.30383 16.29875 16.30193 16.30182 16.30207 16.30639 16.30613 16.31572 16.32371 16.33203 16.3368 16.34808 16.36061 16.37218 16.38019 16.38015 16.37975 16.38553 16.3923 16.40575 16.41913 16.43186 16.44579 16.45343 16.4569 16.45192 16.4444 16.43337 16.41702 16.4003 16.37825
15.31227 15.30832 16.7823 17.90917 15.61001 15.21419 15.25522 15.32674 15.41829 15.49899 15.56374 15.61319 15.66037 15.69931 15.72849 15.76089 15.77477 15.78612 15.80015 15.80174 15.80596 15.79857 15.80077 15.80387 15.83095 15.86049 15.88432 15.89055 15.90608 15.90902 15.89248 15.89536 15.91136 15.91438 15.90883 15.89572 15.87273 15.85068 15.83592 15.81431 15.79329 15.77838 15.7654 15.75855 15.75318 15.7668 15.77481 15.78506 15.80418 15.8191 15.83725 15.86008 15.87431 15.9001 15.91427 15.94057 15.96802 15.99967 16.02412 16.05216 16.07055 16.09321 16.116 16.14449 16.16324 16.18169 16.19445 16.2131 16.23256 16.24944 16.26833 16.28 16.29032 16.29296 16.29188 16.29742 16.30274 16.30606 16.31282 16.31228 16.31358 16.31475 16.31979 16.32052 16.3253 16.33379 16.34751 16.35212 16.36385 16.378 16.39357 16.40777 16.41622 16.42231 16.42735 16.43467 16.44512 16.45457 16.46521 16.4752 16.48797 16.50015 16.50896 16.50475 16.49915 16.48824 16.47152 16.45125 16.42999
15.31804 15.30651 15.30041 15.31706 15.26088 15.26697 15.32284 15.40349 15.47933 15.54317 15.59485 15.63889 15.68129 15.71181 15.73876 15.76552 15.78047 15.78899 15.79054 15.78729 15.79327 15.8024 15.80474 15.81529 15.82506 15.85349 15.879 15.90556 15.90384 15.91542 15.91989 15.9239 15.92868 15.92657 15.91916 15.91418 15.89727 15.87026 15.84906 15.83547 15.81732 15.80378 15.78886 15.77696 15.77718 15.78327 15.7879 15.80005 15.81726 15.83488 15.85332 15.87572 15.89915 15.91564 15.93822 15.9589 15.98677 16.0146 16.04157 16.07084 16.09443 16.11216 16.13394 16.15795 16.17737 16.19871 16.21458 16.22945 16.24268 16.26245 16.27726 16.29101 16.29914 16.30305 16.30407 16.30646 16.31026 16.31891 16.323 16.3231 16.32502 16.32603 16.3282 16.33284 16.34338 16.35533 16.37013 16.38191 16.39812 16.41387 16.42923 16.44044 16.45067 16.45977 16.46539 16.47238 16.47702 16.48353 16.49591 16.50953 16.52446 16.54031 16.55002 16.55017 16.54442 16.53425 16.52194 16.50193 16.47926
15.35402 15.36326 15.37579 15.38672 15.36725 15.39275 15.44111 15.4955 15.54241 15.58612 15.62549 15.66321 15.69491 15.72173 15.74567 15.76437 15.78186 15.80007 15.79574 15.78689 15.78773 15.78773 15.79786 15.80961 15.81657 15.85374 15.86666 15.89945 15.91986 15.935 15.95328 15.95333 15.94914 15.94271 15.93388 15.92929 15.92107 15.89189 15.86032 15.8469 15.84341 15.82423 15.81158 15.7979 15.79295 15.79575 15.80708 15.81533 15.83386 15.85144 15.87451 15.89625 15.91818 15.93918 15.96319 15.98607 16.01071 16.03848 16.06875 16.09514 16.11858 16.13161 16.14654 16.16676 16.18923 16.21476 16.233 16.24628 16.2598 16.27751 16.29531 16.31026 16.31078 16.31174 16.31489 16.3156 16.32169 16.32446 16.32886 16.33496 16.33787 16.34239 16.35228 16.36323 16.37264 16.38452 16.40358 16.42116 16.44374 16.46027 16.47704 16.48841 16.49785 16.50244 16.50854 16.51055 16.51298 16.51919 16.53194 16.54995 16.56534 16.58249 16.59108 16.58642 16.57755 16.56697 16.55529 16.53759 16.51785
15.41886 15.43317 15.45171 15.48043 15.49853 15.51088 15.53418 15.55943 15.58403 15.61428 15.63844 15.6744 15.69871 15.72302 15.74521 15.7633 15.7775 15.79193 15.80005 15.79597 15.79071 15.78343 15.80119 15.81734 15.82935 15.85439 15.87365 15.89946 15.91687 15.93613 15.96237 15.97565 15.98614 15.97525 15.95275 15.94849 15.93902 15.89886 15.86969 15.85455 15.85436 15.8438 15.82943 15.81495 15.81273 15.81546 15.82561 15.83981 15.8586 15.88376 15.90363 15.92392 15.94948 15.96881 15.99632 16.01782 16.04135 16.06545 16.09302 16.12011 16.14214 16.16047 16.17386 16.19183 16.21458 16.23492 16.25233 16.2676 16.27795 16.29401 16.30392 16.31557 16.3245 16.32842 16.3339 16.33591 16.33984 16.34478 16.34638 16.34829 16.35975 16.36773 16.37634 16.39157 16.40924 16.4302 16.4474 16.47012 16.49096 16.51211 16.52962 16.54151 16.54931 16.55201 16.55375 16.55986 16.56405 16.57401 16.5922 16.61262 16.63066 16.63999 16.64208 16.63501 16.62595 16.61615 16.6024 16.58538 16.57262
15.51599 15.52807 15.545 15.55963 15.56525 15.56996 15.5743 15.57752 15.5965 15.61285 15.64172 15.67019 15.68917 15.71185 15.73436 15.75946 15.76658 15.78914 15.7878 15.79924 15.79389 15.79107 15.80581 15.8204 15.84183 15.8705 15.8889 15.90219 15.91804 15.94328 15.97204 15.99716 16.00686 16.00885 16.00228 15.98099 15.96562 15.93 15.90735 15.89035 15.88075 15.87594 15.85914 15.85112 15.85104 15.85566 15.87124 15.88094 15.89941 15.91953 15.94019 15.95998 15.9819 16.00341 16.02714 16.05333 16.07491 16.10214 16.12589 16.14771 16.1675 16.19037 16.20826 16.22312 16.23533 16.25719 16.2746 16.28745 16.29693 16.30453 16.31141 16.32076 16.33479 16.34753 16.34872 16.35289 16.35604 16.35753 16.35913 16.36369 16.3743 16.38611 16.40462 16.42239 16.45016 16.47177 16.49972 16.52587 16.55287 16.5778 16.59529 16.60716 16.60929 16.6064 16.60764 16.60748 16.61579 16.63073 16.65478 16.68161 16.70864 16.71641 16.70954 16.69762 16.68751 16.67403 16.66155 16.64843 16.6417
15.5841 15.59582 15.59778 15.58788 15.58396 15.58503 15.58347 15.58835 15.59688 15.61876 15.64211 15.67129 15.69686 15.71471 15.73708 15.75641 15.76422 15.77981 15.78047 15.79268 15.79103 15.79519 15.80943 15.83027 15.85325 15.88348 15.90736 15.91959 15.93617 15.96176 15.9895 16.0135 16.029 16.03715 16.02499 16.01384 15.99832 15.97501 15.9539 15.93412 15.92647 15.91729 15.91392 15.90747 15.91076 15.91832 15.93442 15.95026 15.96367 15.98029 16.00237 16.02482 16.04609 16.07209 16.09524 16.11835 16.14412 16.1705 16.19218 16.20879 16.22908 16.24273 16.26113 16.27323 16.28854 16.30296 16.31359 16.3213 16.32701 16.33239 16.33926 16.34398 16.35741 16.36622 16.36945 16.37314 16.37545 16.38148 16.38482 16.39203 16.40706 16.42625 16.44821 16.47579 16.50975 16.54858 16.58049 16.61849 16.64933 16.67436 16.68773 16.69602 16.70046 16.69733 16.692 16.68892 16.69637 16.70972 16.7384 16.77303 16.79394 16.79553 16.78648 16.77077 16.75337 16.73788 16.72529 16.71239 16.69979
15.59607 15.59897 15.60004 15.59596 15.58292 15.58065 15.58042 15.58287 15.59516 15.61024 15.62669 15.65546 15.67996 15.71037 15.73888 15.76556 15.77436 15.78834 15.79242 15.79619 15.80241 15.8133 15.82952 15.86428 15.9003 15.91473 15.92682 15.9473 15.9727 15.9831 16.01212 16.03684 16.04966 16.05774 16.05718 16.05257 16.04303 16.02402 15.99428 15.9809 15.97859 15.97313 15.97053 15.97814 15.98574 15.99733 16.01695 16.03355 16.04846 16.0647 16.08582 16.10823 16.1314 16.15476 16.18063 16.20102 16.22362 16.25025 16.27349 16.2896 16.30687 16.32158 16.33815 16.34958 16.35953 16.37084 16.37947 16.38449 16.38905 16.3952 16.39661 16.39888 16.39968 16.40207 16.40812 16.40553 16.41077 16.41881 16.42828 16.43928 16.45401 16.47821 16.50356 16.53442 16.56974 16.60906 16.65252 16.6872 0 0 16.75788 16.79051 16.78327 16.78441 16.77977 16.77846 16.78712 16.80661 16.81554 0 0 16.81168 16.87076 16.86184 16.84118 16.82944 16.82721 16.81769 16.80098
