ncols        109
nrows        82
xllcorner    -1.041666666667
yllcorner    37.041665395101
cellsize     0.083333333333
NODATA_value -9999
0.0 0 0 0 0 0 0 0 0 0 0 0 0 0 0 0 0 0 0 0 0 0 0 0 0 0 0 0 0 0 0 0 0 0 0 0 0 0 0 0 0 0 0 0 0 0 0 0 0 0 0 0 0 0 0 0 0 0 0 0 0 0 0 0 0 0 0 0 0 0 0 0 0 0 0 0 0 0 0 0 0 0 0 0 0 0 0 0 0 0 0 0 0 0 0 0 0 0 0 0 0 0 0 0 0 17.99535 16.58673 14.916 14.89516
0 0 0 0 0 0 0 0 0 0 0 0 0 0 0 0 0 0 0 0 0 0 0 0 0 0 0 0 0 0 0 0 0 0 0 0 0 0 0 0 0 0 0 0 0 0 0 0 0 0 0 0 0 0 0 0 0 0 0 0 0 0 0 0 0 0 0 0 0 0 0 0 0 0 0 0 0 0 0 0 0 0 0 0 0 0 0 0 0 0 0 0 0 0 0 0 0 0 0 0 0 15.10793 15.12508 14.87212 14.8764 14.87788 14.8688 14.84979 14.80202
0 0 0 0 0 0 0 0 0 0 0 0 0 0 0 0 0 0 0 0 0 0 0 0 0 0 0 0 0 0 0 0 0 0 0 0 0 0 0 0 0 0 0 0 0 0 0 0 0 0 0 0 0 0 0 0 0 0 0 0 0 0 0 0 0 0 0 0 0 0 0 0 0 0 0 0 0 0 0 0 0 0 0 0 0 0 0 0 0 0 0 0 0 0 0 0 0 0 14.87381 14.86649 14.85641 14.83905 14.8058 14.78021 14.76086 14.73225 14.70238 14.6722 14.64087
0 0 0 0 0 0 0 0 0 0 0 0 0 0 0 0 0 0 0 0 0 0 0 0 0 0 0 0 0 0 0 0 0 0 0 0 0 0 0 0 0 0 0 0 0 0 0 0 0 0 0 0 0 0 0 0 0 0 0 0 0 0 0 0 0 0 0 0 0 0 0 0 0 0 0 0 0 0 0 0 0 0 0 0 0 0 0 0 0 0 0 0 0 0 0 0 0 16.87137 14.8334 14.80419 14.7588 14.7154 14.67239 14.65059 14.62116 14.59641 14.56685 14.54356 14.52109
0 0 0 0 0 0 0 0 0 0 0 0 0 0 0 0 0 0 0 0 0 0 0 0 0 0 0 0 0 0 0 0 0 0 0 0 0 0 0 0 0 0 0 0 0 0 0 0 0 0 0 0 0 0 0 0 0 0 16.45048 16.07035 15.77472 15.90108 0 0 0 0 0 0 0 0 0 0 0 0 0 0 0 0 0 0 0 0 0 0 0 0 0 0 0 0 0 0 0 0 0 15.40452 14.85327 14.82168 14.76894 14.72063 14.66204 14.6104 14.56178 14.52182 14.4873 14.4486 14.4217 14.4118 14.3916
0 0 0 0 0 0 0 0 0 0 0 0 0 0 0 0 0 0 0 0 0 0 0 0 0 0 0 0 0 0 0 0 0 0 0 0 0 0 0 0 0 0 0 0 0 0 0 0 0 0 0 0 0 0 0 0 15.98183 16.00523 15.68795 15.43666 15.3175 15.30858 15.42688 15.65596 15.87068 15.97711 15.96188 0 0 0 0 16.33308 0 0 0 0 0 0 0 0 0 0 0 0 0 0 0 0 0 0 0 0 0 16.14004 14.82082 14.83192 14.78499 14.72471 14.6549 14.58464 14.53456 14.48206 14.44579 14.40843 14.37797 14.35702 14.34258 14.3214 14.31076
0 0 0 0 0 0 0 0 0 0 0 0 0 0 0 0 0 0 0 0 0 0 0 0 0 0 0 0 0 0 0 0 0 0 0 0 0 0 0 0 0 0 0 0 0 0 0 0 0 0 0 0 0 0 0 16.10655 15.67898 15.31364 15.07077 14.73644 14.78352 14.80431 15.01042 15.17741 15.33868 15.45669 15.55628 15.76735 15.98726 15.96625 15.91995 15.65671 15.39482 15.44933 15.65279 15.36376 15.39133 0 0 0 0 0 0 0 0 0 0 0 0 0 0 0 15.26381 14.83974 14.80396 14.7568 14.69251 14.61092 14.54669 14.49622 14.4388 14.38514 14.34712 14.30587 14.28842 14.27546 14.26781 14.26592 14.26
0 0 0 0 0 0 0 0 0 0 0 0 0 0 0 0 0 0 0 0 0 0 0 0 0 0 0 0 0 0 0 0 0 0 0 0 0 0 0 0 0 0 0 0 0 0 0 0 0 0 0 15.70422 15.92169 16.04746 15.77134 15.31869 15.05176 14.72517 14.56592 14.62085 14.65659 14.67489 14.68391 14.90297 14.9 15.09507 15.05483 15.0423 15.07348 14.96328 14.83255 14.87314 14.6855 14.9173 14.96318 15.21725 0 0 0 0 0 0 0 0 0 0 0 0 0 0 0 0 14.80761 14.81164 14.73656 14.64876 14.5622 14.4872 14.42646 14.37708 14.33768 14.30037 14.2733 14.25768 14.24874 14.24177 14.23525 14.23515 14.24171
0 0 0 0 0 0 0 0 0 0 0 0 0 0 0 0 0 0 0 0 0 0 0 0 0 0 0 0 0 0 0 0 0 0 0 0 0 0 0 0 0 0 0 0 0 0 0 0 0 0 15.83517 15.72861 15.46236 15.39774 15.27556 14.94042 14.54291 14.59974 14.42018 14.4679 14.50033 14.51962 14.52957 14.74082 14.72137 14.9414 14.92793 14.92495 14.7458 14.57523 14.61384 14.65698 14.47595 14.7164 14.73533 15.01862 15.0689 14.86821 14.92849 15.45774 16.07177 17.1036 0 0 0 0 0 0 0 16.06079 15.32559 14.81956 14.81265 14.75448 14.63527 14.5447 14.46631 14.40181 14.34566 14.28886 14.25778 14.23914 14.22771 14.2248 14.22634 14.22687 14.2248 14.23094 14.24096
0 0 0 0 0 0 0 0 0 0 0 0 0 0 0 0 0 0 0 0 0 0 0 0 0 0 0 0 0 0 0 0 0 0 0 0 0 0 0 0 0 0 0 0 0 0 0 0 0 16.66132 15.53101 15.41973 15.34194 14.99509 14.80791 14.60763 14.64275 14.4544 14.4908 14.53239 14.56727 14.5846 14.59393 14.82037 14.82092 14.81177 14.80415 14.79715 14.80194 14.61681 14.64595 14.46877 14.27545 14.29343 14.30438 14.34466 14.38385 14.4387 14.49236 14.52608 15.04493 15.77213 0 15.63745 16.34574 16.98463 17.33737 17.00277 16.45178 14.79388 14.81278 14.80602 14.7452 14.63817 14.5268 14.45452 14.36722 14.31847 14.26785 14.23455 14.22032 14.21757 14.21548 14.22514 14.22881 14.22961 14.23276 14.24851 14.25891
0 0 0 0 0 0 0 0 0 0 0 0 0 0 0 0 0 0 0 0 0 0 0 0 0 0 0 0 0 0 0 0 0 0 0 0 0 0 0 0 0 0 0 0 0 0 0 0 0 16.34556 15.45736 15.14629 14.78985 14.61487 14.66582 14.46913 14.50647 14.54379 14.58714 14.6153 14.64696 14.65893 14.66113 14.651 14.64861 14.44369 14.24228 14.41576 14.41718 14.42078 14.43469 14.23924 14.24467 14.25087 14.28224 14.30571 14.34391 14.38757 14.43135 14.47573 14.51876 14.56559 14.62776 14.67062 14.71194 14.73258 15.99856 16.24026 15.76678 14.73179 14.7108 14.65617 14.58371 14.49809 14.43355 14.37731 14.32 14.27527 14.23412 14.21522 14.21677 14.22158 14.23322 14.23894 14.25135 14.25596 14.25781 14.26924 14.27777
0 0 0 0 0 0 0 0 0 0 0 0 0 0 0 0 0 0 0 0 0 0 0 0 0 0 0 0 0 0 0 0 0 0 0 0 0 0 0 0 0 0 0 0 0 0 0 0 0 16.05773 15.36329 15.00533 14.60985 14.68605 14.50061 14.55245 14.58502 14.62537 14.65433 14.67985 14.475 14.48063 14.4739 14.47315 14.45511 14.24143 14.23045 14.21957 14.1974 14.1917 14.19426 14.19464 14.20368 14.21444 14.25919 14.271 14.2866 14.31153 14.33803 14.37076 14.40792 14.4618 14.5114 14.55551 14.59425 14.62995 14.6455 14.65585 14.64703 14.61551 14.57337 14.51089 14.43904 14.38072 14.32962 14.2927 14.25886 14.23457 14.22325 14.22863 14.23623 14.25241 14.26529 14.27213 14.27851 14.28975 14.28946 14.29538 14.30127
0 0 0 0 0 0 0 0 0 0 0 0 0 0 0 0 0 0 0 0 0 0 0 0 0 0 0 0 0 0 0 0 0 0 0 0 0 0 0 0 0 0 0 0 0 0 0 0 0 15.95911 15.19527 14.81052 14.65055 14.49417 14.56605 14.62501 14.43654 14.46328 14.25946 14.26626 14.26344 14.25878 14.25011 14.24627 14.23088 14.21457 14.2004 14.18375 14.15983 14.14293 14.1487 14.14772 14.14897 14.14684 14.17851 14.17885 14.18693 14.2112 14.24323 14.26718 14.29614 14.336 14.38889 14.42516 14.44908 14.46605 14.47019 14.45882 14.44513 14.42112 14.39194 14.35486 14.31163 14.28109 14.25264 14.23242 14.22649 14.2182 14.23021 14.24286 14.25385 14.26885 14.28121 14.29488 14.30283 14.30895 14.32414 14.32345 14.33068
0 0 0 0 0 0 0 0 0 0 0 0 0 0 0 0 0 0 0 0 0 0 0 0 0 0 0 0 0 0 0 0 0 0 0 0 0 0 0 0 0 0 0 0 0 0 0 0 0 15.81916 15.22006 14.82395 14.68149 14.52488 14.59722 14.42127 14.24051 14.256 14.2579 14.25122 14.23836 14.22253 14.20783 14.19649 14.18484 14.16763 14.15543 14.1377 14.12159 14.11183 14.1083 14.10085 14.09694 14.08521 14.07548 14.06682 14.07674 14.08919 14.10814 14.12141 14.14355 14.18028 14.22142 14.26468 14.29848 14.32064 14.32388 14.31518 14.30498 14.27914 14.26266 14.2378 14.21664 14.20272 14.19349 14.19445 14.20793 14.22394 14.2427 14.25544 14.26875 14.28767 14.30377 14.32169 14.32928 14.33749 14.34716 14.3504 14.35654
0 0 0 0 0 0 0 0 0 0 0 0 0 0 0 0 0 0 0 0 0 0 0 0 0 0 0 0 0 0 0 0 0 0 0 0 0 0 0 0 0 0 0 0 0 0 0 0 0 15.87556 14.99751 14.59206 14.70419 14.55619 14.62307 14.42267 14.23794 14.23908 14.23504 14.223 14.20524 14.18912 14.17413 14.15862 14.14581 14.12805 14.10992 14.09142 14.07399 14.05472 14.03494 14.01772 14.0016 13.98879 13.98391 13.99073 14.00696 14.02263 14.03558 14.04376 14.06276 14.07748 14.09929 14.11199 14.13831 14.15694 14.16291 14.16875 14.17314 14.16901 14.16888 14.16706 14.16491 14.1754 14.17892 14.19137 14.2108 14.22819 14.24756 14.26321 14.27978 14.29142 14.32108 14.33718 14.35109 14.35961 14.36338 14.36334 14.36929
0 0 0 0 0 0 0 0 0 0 0 0 0 0 0 0 0 0 0 0 0 0 0 0 0 0 0 0 0 0 0 0 0 0 0 0 0 0 0 0 0 0 0 0 0 0 0 0 0 15.31601 15.07497 14.64001 14.50838 14.38033 14.42909 14.21956 14.22268 14.21221 14.20168 14.1851 14.16105 14.14004 14.12306 14.10988 14.10135 14.08804 14.06906 14.05054 14.03226 14.0099 13.98463 13.96249 13.94309 13.93315 13.92812 13.93653 13.94385 13.95473 13.96149 13.96596 13.98397 13.99802 14.01441 14.02992 14.04804 14.06786 14.07735 14.08762 14.09601 14.10843 14.12615 14.13518 14.14257 14.1591 14.17504 14.19799 14.22127 14.23377 14.25302 14.26823 14.28203 14.30239 14.3281 14.34849 14.36667 14.37843 14.38416 14.39019 14.39951
0 0 0 0 0 0 0 0 0 0 0 0 0 0 0 0 0 0 0 0 0 0 0 0 0 0 0 0 0 0 0 0 0 0 0 0 0 0 0 0 0 0 0 0 0 0 0 0 0 0 14.78492 14.71825 14.56167 14.19898 14.22988 14.22049 14.20881 14.19078 14.17167 14.14989 14.12641 14.11111 14.09774 14.08331 14.06988 14.051 14.03721 14.01841 14.00063 13.9811 13.95931 13.93688 13.91951 13.91242 13.91214 13.91652 13.92522 13.92773 13.92522 13.92802 13.93919 13.94495 13.9458 13.95869 13.98344 14.00294 14.0216 14.03696 14.0598 14.0781 14.10194 14.11553 14.13498 14.15741 14.18102 14.20454 14.22206 14.23898 14.26014 14.28099 14.30502 14.32525 14.34639 14.36922 14.38291 14.39205 14.39879 14.41035 14.43049
0 0 0 0 0 0 0 0 0 0 0 0 0 0 0 0 0 0 0 0 0 0 0 0 0 0 0 0 0 0 0 0 0 0 0 0 0 0 0 0 0 0 0 0 0 0 0 0 0 0 14.97426 14.5171 14.17096 14.21633 14.22518 14.21355 14.19013 14.16614 14.14648 14.11812 14.0955 14.08183 14.07564 14.06903 14.06251 14.05729 14.04717 14.03307 14.01406 13.99726 13.97221 13.948 13.93161 13.91796 13.9114 13.91057 13.9142 13.9093 13.91092 13.91233 13.90962 13.91232 13.92232 13.9329 13.95219 13.97161 13.99465 14.01547 14.04142 14.06541 14.08501 14.10941 14.13185 14.15953 14.19027 14.21414 14.23312 14.24983 14.26933 14.28681 14.31739 14.33983 14.35829 14.37753 14.39433 14.40812 14.41921 14.43231 14.44824
0 0 0 0 0 0 0 0 0 0 0 0 0 0 0 0 0 0 0 0 0 0 0 0 0 0 0 0 0 0 0 0 0 0 0 0 0 0 0 0 0 0 0 0 0 0 0 0 0 0 0 0 14.19996 14.21297 14.21247 14.1969 14.17681 14.1553 14.12855 14.10224 14.08631 14.07948 14.07407 14.07294 14.07648 14.07978 14.08361 14.0753 14.0533 14.04076 14.01735 13.98843 13.96489 13.95046 13.93065 13.92996 13.92638 13.91814 13.91823 13.91626 13.91099 13.90687 13.91263 13.92392 13.94432 13.96277 13.98549 14.00368 14.02583 14.05475 14.08146 14.11376 14.14462 14.17357 14.21062 14.23735 14.25899 14.27116 14.29875 14.31305 14.33252 14.36032 14.37812 14.39479 14.40659 14.42154 14.43251 14.43915 14.4619
0 0 0 0 0 0 0 0 0 0 0 0 0 0 0 0 0 0 0 0 0 0 0 0 0 0 0 0 0 0 0 0 0 0 0 0 0 0 0 0 0 0 0 0 0 0 0 0 0 0 16.70464 14.95914 14.46189 14.24172 14.21629 14.1888 14.16372 14.13713 14.11246 14.09366 14.08622 14.08587 14.08861 14.08897 14.0922 14.10027 14.10314 14.1 14.09169 14.08307 14.0558 14.03384 14.00778 13.98578 13.97336 13.95319 13.93684 13.92912 13.92495 13.92356 13.92147 13.91461 13.91917 13.9316 13.94541 13.96544 13.98793 14.00775 14.03192 14.06435 14.09667 14.13572 14.16891 14.20782 14.23623 14.26412 14.28798 14.30242 14.32029 14.33805 14.3547 14.3743 14.39394 14.41274 14.4311 14.43885 14.44103 14.45509 14.47526
0 0 0 0 0 0 0 0 0 0 0 0 0 0 0 0 0 0 0 0 0 0 0 0 0 0 0 0 0 0 0 0 0 0 0 0 0 0 0 0 0 0 0 0 0 0 0 0 0 0 16.01771 14.99051 14.73194 14.25192 14.21958 14.18582 14.16139 14.13224 14.11094 14.10009 14.09862 14.10447 14.10886 14.11588 14.12309 14.12681 14.13129 14.13535 14.12975 14.1193 14.10578 14.07903 14.04935 14.02671 14.0051 13.98234 13.96404 13.95023 13.93994 13.94334 13.94657 13.94483 13.94553 13.95645 13.97145 13.98349 14.0061 14.02309 14.05193 14.08785 14.13 14.17037 14.21064 14.24299 14.27163 14.30189 14.32543 14.34379 14.35689 14.37201 14.37684 14.39218 14.40463 14.42519 14.44111 14.44555 14.45 14.46847 14.4929
0 0 0 0 0 0 0 0 0 0 0 0 0 0 0 0 0 0 0 0 0 0 0 0 0 0 0 0 0 0 0 0 0 0 0 0 0 0 0 0 0 0 0 0 0 0 0 0 0 0 0 15.04134 14.51462 14.26654 14.2271 14.19158 14.16691 14.14178 14.12068 14.11511 14.11775 14.12572 14.13627 14.15119 14.16026 14.17264 14.17996 14.19088 14.18929 14.17907 14.16142 14.13325 14.09914 14.06481 14.03647 14.01028 13.98469 13.96815 13.96021 13.96417 13.96295 13.96664 13.96672 13.96983 13.98355 14.00528 14.02932 14.05487 14.09438 14.13989 14.18969 14.23094 14.25887 14.28573 14.30966 14.33421 14.35463 14.36636 14.37906 14.39328 14.40111 14.41195 14.42412 14.44555 14.45138 14.46236 14.46729 14.49117 14.51489
0 0 0 0 0 0 0 0 0 0 0 0 0 0 0 0 0 0 0 0 0 0 0 0 0 0 0 0 0 0 0 0 0 0 0 0 0 0 0 0 0 0 0 0 0 0 0 0 0 0 0 14.7998 14.30913 14.27758 14.23529 14.20835 14.1819 14.16038 14.14385 14.14344 14.15035 14.16302 14.17886 14.19747 14.21135 14.22302 14.23775 14.24855 14.25121 14.23685 14.21492 14.18152 14.14974 14.11091 14.07242 14.04818 14.02175 14.00865 13.9983 13.99857 13.99487 13.99334 13.99571 13.99949 14.00608 14.01919 14.04977 14.08838 14.13845 14.19844 14.2459 14.28312 14.30657 14.32567 14.35521 14.37399 14.38432 14.39832 14.40849 14.417 14.42543 14.43926 14.44239 14.45361 14.46732 14.47481 14.48879 14.50927 14.52709
0 0 0 0 0 0 0 0 0 0 0 0 0 0 0 0 0 0 0 0 0 0 0 0 0 0 0 0 0 0 0 0 0 0 0 0 0 0 0 0 0 0 0 0 0 0 0 0 0 0 0 14.37349 14.32965 14.28822 14.25545 14.22582 14.1993 14.17858 14.17047 14.1775 14.18359 14.20029 14.22418 14.24906 14.26803 14.29287 14.31608 14.31963 14.31655 14.30017 14.27518 14.23207 14.18752 14.15011 14.11026 14.07429 14.04749 14.03057 14.0256 14.02463 14.02676 14.03447 14.03943 14.04488 14.05819 14.08032 14.11025 14.15625 14.2071 14.25799 14.2971 14.32966 14.34458 14.3618 14.38405 14.4042 14.42151 14.4305 14.43584 14.44309 14.44999 14.45471 14.46583 14.47412 14.48196 14.49268 14.50461 14.51999 14.54116
0 0 0 0 0 0 0 0 0 0 0 0 0 0 0 0 0 0 0 0 0 0 0 0 0 0 0 0 0 0 0 0 0 0 0 0 0 0 0 0 0 0 0 0 0 0 0 0 0 16.57875 15.51132 14.3975 14.35077 14.30813 14.27822 14.24826 14.22715 14.20853 14.20979 14.21964 14.23318 14.25218 14.27967 14.29982 14.32381 14.35789 14.37691 14.39443 14.37508 14.35915 14.33956 14.299 14.25736 14.20027 14.15964 14.12009 14.09213 14.06836 14.06547 14.06808 14.0766 14.08099 14.08557 14.09226 14.11023 14.13147 14.16773 14.21706 14.26992 14.30808 14.35107 14.3815 14.39564 14.41092 14.4315 14.45289 14.46584 14.47199 14.46674 14.47155 14.47009 14.47548 14.48642 14.49407 14.50207 14.51777 14.52734 14.54349 14.55727
0 0 0 0 0 0 0 0 0 0 0 0 0 0 0 0 0 0 0 0 0 0 0 0 0 0 0 0 0 0 0 0 0 0 0 0 0 0 0 0 0 0 0 0 0 0 0 0 15.58433 14.9831 14.70653 14.41889 14.3776 14.33537 14.29933 14.27321 14.25374 14.24604 14.24783 14.26399 14.28286 14.31328 14.3468 14.37512 14.40394 14.42605 14.44527 14.45278 14.44347 14.39937 14.38361 14.34182 14.297 14.24596 14.19852 14.16028 14.13466 14.11717 14.11703 14.13147 14.14655 14.15537 14.166 14.17665 14.18741 14.20812 14.23957 14.27989 14.31526 14.35499 14.38644 14.41282 14.43314 14.45249 14.47714 14.50015 14.51397 14.51417 14.51673 14.51086 14.51602 14.522 14.52522 14.53144 14.53567 14.54232 14.55083 14.55918 14.57032
0 0 0 0 0 0 0 0 0 0 0 0 0 0 0 0 0 0 0 0 0 0 0 0 0 0 0 0 0 0 0 0 0 0 0 0 0 0 0 0 0 0 0 0 0 15.20691 15.08532 15.6499 15.05346 15.05199 14.75375 14.47061 14.42745 14.39026 14.34829 14.3089 14.29276 14.28185 14.29772 14.30991 14.33508 14.3677 14.40346 14.43177 14.45991 14.47382 14.49789 14.513 14.49894 14.47228 14.43434 14.39233 14.35065 14.30487 14.25593 14.21087 14.18551 14.17572 14.1787 14.19143 14.20136 14.21706 14.22889 14.23887 14.26596 14.28478 14.31764 14.34978 14.38169 14.41357 14.43826 14.46009 14.4777 14.50374 14.52607 14.5416 14.55616 14.55501 14.55529 14.55668 14.56084 14.56542 14.56535 14.5726 14.57347 14.57739 14.57414 14.57454 14.58934
0 0 0 0 0 0 0 0 0 0 0 0 0 0 0 0 0 0 0 0 0 0 0 0 0 0 0 0 0 0 0 0 0 0 0 0 0 0 0 0 0 0 17.42811 17.10182 16.04245 15.13487 14.56498 14.56515 15.12319 14.82519 14.54143 14.51324 14.48304 14.43638 14.39219 14.36394 14.34656 14.35103 14.35127 14.37201 14.39506 14.42775 14.46066 14.48819 14.50816 14.53295 14.55322 14.54923 14.52515 14.49415 14.46932 14.43902 14.39703 14.3545 14.31355 14.27767 14.25281 14.24614 14.25365 14.27023 14.27977 14.2926 14.30474 14.31694 14.34081 14.36323 14.38788 14.41362 14.44177 14.46248 14.47543 14.49627 14.51639 14.54339 14.56186 14.58515 14.59697 14.60409 14.61391 14.61173 14.61014 14.60877 14.60529 14.60328 14.59873 14.59964 14.59562 14.59717 14.61059
0 0 0 0 0 0 0 0 0 0 0 0 0 0 0 0 0 0 0 0 0 0 0 0 0 0 0 0 0 0 0 0 0 0 0 0 0 0 0 0 16.49101 16.91886 17.15017 16.12975 15.16925 14.59411 14.61317 14.62823 14.6251 14.61039 14.59838 14.57133 14.5269 14.48031 14.43511 14.41063 14.39993 14.39469 14.40757 14.42639 14.44742 14.48341 14.51454 14.54538 14.55755 14.57299 14.58112 14.57887 14.56628 14.5499 14.51675 14.49757 14.47157 14.42189 14.36991 14.33771 14.31373 14.29835 14.3089 14.32387 14.34202 14.35657 14.37995 14.39439 14.41307 14.43877 14.46188 14.48193 14.50061 14.51275 14.52818 14.536 14.55546 14.57068 14.59123 14.61016 14.62638 14.63333 14.6465 14.64912 14.65105 14.64943 14.64526 14.64228 14.637 14.63776 14.63807 14.64085 14.64736
0 0 0 0 0 0 0 0 0 0 0 0 0 0 0 0 0 0 0 0 0 0 0 0 0 0 0 0 0 0 0 0 0 0 0 0 0 0 0 16.7379 16.46541 15.84184 15.53377 14.61074 14.61684 14.6272 14.65005 14.67095 14.66814 14.65969 14.64597 14.61166 14.5692 14.52579 14.49689 14.47412 14.46462 14.46906 14.4767 14.49185 14.5102 14.53854 14.56733 14.59151 14.61284 14.62768 14.63274 14.6239 14.61145 14.60083 14.58068 14.56246 14.53418 14.49528 14.45782 14.423 14.40029 14.38359 14.38654 14.39538 14.40719 14.42267 14.43607 14.44609 14.46528 14.48945 14.5146 14.53611 14.54761 14.55891 14.57059 14.57513 14.58745 14.60832 14.62574 14.64167 14.658 14.66323 14.67206 14.67415 14.67332 14.67601 14.67518 14.67056 14.67146 14.67163 14.67453 14.67799 14.68016
0 0 0 0 0 0 0 0 0 0 0 0 0 0 0 0 0 0 0 0 0 0 0 0 0 0 0 0 0 0 0 0 0 0 0 0 0 0 15.88107 15.54662 15.24137 14.6438 14.65724 14.66774 14.67315 14.68793 14.70059 14.71316 14.71598 14.70041 14.68411 14.65923 14.63603 14.58662 14.55653 14.53914 14.53782 14.5391 14.54457 14.56063 14.58755 14.60556 14.63348 14.6598 14.6681 14.68408 14.69005 14.6843 14.67585 14.66615 14.64842 14.62794 14.59414 14.56526 14.51991 14.49089 14.47431 14.45852 14.45646 14.45717 14.46855 14.48889 14.50504 14.51898 14.532 14.55173 14.56728 14.57749 14.587 14.59963 14.60503 14.61015 14.6248 14.64209 14.66053 14.67391 14.68504 14.68829 14.69251 14.7012 14.70515 14.70879 14.7081 14.71067 14.713 14.71885 14.71789 14.72377 14.71815
0 0 0 0 0 0 0 0 0 0 0 0 0 0 0 0 0 0 0 0 0 0 0 0 0 0 0 0 0 0 0 0 0 0 17.61821 18.25357 17.36987 15.58875 14.65869 14.65912 14.67182 14.68765 14.69965 14.71421 14.72953 14.73403 14.74225 14.75473 14.76146 14.7628 14.74836 14.7364 14.71591 14.68055 14.65015 14.63457 14.62258 14.61831 14.62868 14.63601 14.65661 14.67397 14.69186 14.71155 14.72691 14.74236 14.74221 14.74165 14.73627 14.73001 14.7194 14.6998 14.67053 14.65035 14.61977 14.58407 14.56826 14.54789 14.53268 14.52929 14.53251 14.54413 14.56003 14.57133 14.58834 14.59867 14.61586 14.62563 14.63502 14.64189 14.65669 14.66929 14.6801 14.69478 14.7048 14.71073 14.71775 14.71665 14.71768 14.72267 14.72964 14.7306 14.72908 14.73578 14.74571 14.75317 14.76457 14.77272 14.76327
0 0 0 0 0 0 0 0 0 0 0 0 0 0 0 0 0 0 0 0 0 0 0 0 0 0 0 0 0 18.13537 17.71613 17.48457 17.45994 17.22006 16.91335 16.3044 14.6919 14.69324 14.69421 14.70282 14.71142 14.72494 14.73872 14.75096 14.76632 14.76849 14.78443 14.7945 14.80815 14.81119 14.80211 14.7981 14.791 14.76505 14.7322 14.72323 14.70959 14.709 14.73187 14.72822 14.73984 14.75084 14.76806 14.78634 14.79836 14.79819 14.79505 14.78359 14.77171 14.77215 14.76354 14.75154 14.73455 14.71725 14.69307 14.67284 14.65211 14.63398 14.62372 14.62178 14.62655 14.63214 14.63694 14.64056 14.65089 14.65709 14.65984 14.66631 14.67744 14.68929 14.69697 14.70764 14.72291 14.73116 14.74012 14.74579 14.74626 14.75117 14.7547 14.76049 14.76716 14.76636 14.76745 14.77193 14.77819 14.79215 14.79817 14.80103 14.77701
0 0 0 0 0 0 0 0 0 0 0 0 0 0 0 0 0 0 0 0 0 0 0 0 0 17.90276 17.16415 17.14834 16.14745 15.44112 15.08966 14.75777 14.74679 14.73203 14.71921 14.71342 14.71364 14.71293 14.72341 14.73261 14.74397 14.7481 14.76727 14.79878 14.82511 14.83007 14.84944 14.86284 14.87778 14.88645 14.88272 14.87182 14.87336 14.85168 14.81033 14.8012 14.78675 14.78879 14.78454 14.78574 14.79966 14.81492 14.83124 14.84529 14.85568 14.85786 14.85088 14.83841 14.83374 14.8288 14.82564 14.81163 14.7995 14.78016 14.7625 14.74401 14.72532 14.71205 14.69619 14.69384 14.69591 14.70133 14.70841 14.715 14.71861 14.72112 14.71741 14.72251 14.72872 14.7377 14.74504 14.75334 14.75947 14.76693 14.77431 14.77711 14.78255 14.7827 14.78472 14.78652 14.79463 14.79588 14.79811 14.80552 14.81757 14.82914 14.83866 14.82334 14.77424
0 0 0 0 0 0 0 0 0 0 0 0 0 0 0 0 0 0 0 0 0 0 0 18.11468 17.2324 16.60205 16.22856 15.86097 14.81622 14.80044 14.78583 14.76621 14.74775 14.73336 14.7186 14.71709 14.72304 14.73288 14.74503 14.75371 14.75745 14.76619 14.79233 14.81964 14.84679 14.86145 14.88205 14.90231 14.91589 14.92719 14.92861 14.93484 14.93363 14.91735 14.88759 14.85636 14.8582 14.84844 14.83924 14.83847 14.85236 14.86245 14.87285 14.88844 14.89076 14.89275 14.88921 14.87681 14.87267 14.87557 14.87708 14.87193 14.86189 14.84948 14.83557 14.82265 14.81284 14.80242 14.79497 14.78631 14.78505 14.78075 14.77728 14.77967 14.77978 14.77372 14.76331 14.76475 14.76798 14.77627 14.7834 14.7918 14.80133 14.80923 14.81728 14.82039 14.81953 14.82596 14.81955 14.82016 14.82444 14.82439 14.82534 14.83726 14.84707 14.85686 14.85182 14.8275 14.75886
0 0 0 0 0 0 0 0 0 0 0 0 0 0 0 0 0 0 0 0 0 0 17.56384 16.66733 16.30258 16.26547 15.89449 15.51193 14.80812 14.78565 14.76532 14.74856 14.73165 14.72585 14.72209 14.71789 14.72052 14.73338 14.74727 14.75901 14.76362 14.77597 14.80158 14.83765 14.85982 14.87903 14.898 14.91934 14.94057 14.9472 14.94783 14.94999 14.95245 14.94869 14.93043 14.90895 14.90218 14.8902 14.88266 14.88535 14.8897 14.90017 14.91421 14.92159 14.92562 14.93125 14.92946 14.92132 14.92071 14.922 14.92303 14.91608 14.91174 14.8984 14.88889 14.88031 14.8751 14.87166 14.8677 14.86585 14.86245 14.86289 14.85766 14.85759 14.85091 14.84581 14.83136 14.82752 14.82485 14.83167 14.83335 14.83083 14.83328 14.84258 14.84608 14.84831 14.84825 14.84869 14.84834 14.84661 14.85596 14.85561 14.86008 14.8721 14.88424 14.89185 14.87523 14.82383 14.7474
0 0 0 0 0 0 0 0 0 0 0 0 0 0 0 0 0 0 0 0 0 18.81648 17.77191 16.66845 15.96153 15.9201 15.52791 15.50345 14.79287 14.77334 14.75562 14.74094 14.7312 14.72528 14.71962 14.71668 14.71821 14.73016 14.7422 14.75884 14.77214 14.7874 14.8126 14.83207 14.86107 14.89129 14.92658 14.95466 14.96263 14.96747 14.95742 14.95264 14.9586 14.95808 14.9458 14.92936 14.92964 14.92323 14.91711 14.91587 14.91446 14.92052 14.93155 14.94463 14.95443 14.9635 14.9642 14.96491 14.96728 14.97532 14.97355 14.97065 14.96805 14.9612 14.95955 14.96051 14.95489 14.9524 14.94087 14.9402 14.92609 14.91882 14.91263 14.90845 14.91046 14.90022 14.89088 14.88864 14.88625 14.88323 14.87426 14.87194 14.87395 14.87439 14.8787 14.88621 14.88314 14.88053 14.87891 14.87919 14.88455 14.88901 14.89474 14.90705 14.9155 14.9167 14.88484 14.82188 14.73412
0 0 0 0 0 0 0 0 0 0 0 0 0 0 0 0 0 0 0 0 0 0 0 17.28121 16.32552 15.93416 15.53796 15.15744 14.78297 14.76117 14.74701 14.73849 14.72708 14.72231 14.71626 14.71637 14.71605 14.72779 14.73785 14.75477 14.77087 14.79186 14.80323 14.82643 14.86648 14.91081 14.94225 14.95336 14.95714 14.9562 14.95 14.96357 14.97014 14.96775 14.95628 14.95923 14.96806 14.96559 14.96368 14.96489 14.96497 14.96442 14.968 14.98143 14.99094 14.99191 15.00017 15.00657 15.00871 15.02063 15.02463 15.02342 15.02082 15.02543 15.03594 15.04146 15.03258 15.03026 15.02531 15.01539 15.00527 14.9951 14.98981 14.98451 14.97635 14.96633 14.95706 14.94431 14.93222 14.92083 14.9112 14.90889 14.90651 14.91216 14.92159 14.92654 14.92553 14.91851 14.915 14.91849 14.92551 14.93307 14.93777 14.94729 14.95116 14.93461 14.89156 14.81399 14.72395
0 0 0 0 0 0 0 0 0 0 0 0 0 0 0 0 0 0 0 0 0 19.20204 18.88831 17.87825 16.36289 15.96003 15.56241 15.51607 15.12218 14.75756 14.74426 14.73452 14.72763 14.72382 14.72144 14.71972 14.72319 14.73075 14.74307 14.75851 14.77336 14.79435 14.80423 14.83265 14.85398 14.87302 14.89898 14.91954 14.92333 14.93025 14.94089 14.95702 14.96845 14.97822 14.9717 14.98498 14.99173 14.99531 14.99896 15.00406 15.00215 15.00286 15.01493 15.02154 15.03159 15.03959 15.04302 15.05412 15.05786 15.06586 15.07543 15.07711 15.07998 15.09209 15.09715 15.09941 15.09364 15.0869 15.08324 15.07437 15.06402 15.05478 15.05596 15.05725 15.05182 15.0386 15.02511 15.00996 14.99554 14.98354 14.97374 14.96508 14.96029 14.96455 14.96648 14.96627 14.96215 14.95391 14.95391 14.9594 14.96197 14.96949 14.97465 14.98336 14.97651 14.94922 14.89596 14.81848 14.71855
0 0 0 0 0 0 0 0 0 0 0 0 0 0 0 0 0 0 0 19.25259 19.16201 19.03543 18.17326 17.06553 16.37979 15.99033 15.58471 15.89397 14.79748 14.76116 14.74528 14.73385 14.72495 14.72161 14.72224 14.72477 14.73072 14.74014 14.75028 14.76444 14.78054 14.79408 14.8081 14.81846 14.82627 14.83816 14.85593 14.88077 14.9058 14.92313 14.94057 14.95916 14.98275 15.00397 15.01165 15.02023 15.02718 15.03004 15.04123 15.04284 15.04004 15.04077 15.052 15.05905 15.06722 15.07366 15.08134 15.08667 15.09326 15.10283 15.11232 15.12106 15.13555 15.14988 15.16465 15.16729 15.16369 15.16389 15.1584 15.15149 15.13794 15.12508 15.11981 15.11581 15.10678 15.09162 15.07517 15.05603 15.04035 15.03344 15.02419 15.01597 15.01429 15.01634 15.01916 15.016 15.01649 15.0115 15.01135 15.01505 15.01608 15.01411 15.01449 15.01998 15.00417 14.96365 14.90703 14.82539 14.72422
0 0 0 0 0 0 0 0 0 0 0 0 0 0 0 0 0 0 18.73626 18.5994 18.20617 17.71792 17.0841 16.40603 16.05049 16.00499 15.6012 15.19087 14.81304 14.77277 14.74919 14.7363 14.72921 14.72754 14.72874 14.73997 14.74827 14.76134 14.7721 14.78229 14.79593 14.80701 14.82008 14.83796 14.84281 14.85362 14.86917 14.89049 14.91844 14.94157 14.96306 14.9877 15.01056 15.02867 15.05405 15.05513 15.06349 15.07419 15.07642 15.08163 15.08458 15.08929 15.09942 15.10296 15.10942 15.11687 15.11899 15.1217 15.12536 15.13206 15.14836 15.15564 15.17476 15.19379 15.20582 15.21363 15.22069 15.22244 15.22131 15.22171 15.21566 15.20626 15.19884 15.19088 15.17663 15.16101 15.13678 15.11497 15.0971 15.07976 15.06431 15.0537 15.05176 15.04981 15.05398 15.05854 15.05915 15.05357 15.05411 15.05535 15.05992 15.06326 15.06212 15.05554 15.03741 14.99542 14.92904 14.8465 14.75876
0 0 0 0 0 0 0 0 0 0 0 0 0 0 0 0 0 19.21097 18.63738 17.98099 17.43241 16.76577 16.42191 16.41889 16.41452 16.00654 15.59846 14.85673 14.81126 14.77712 14.75333 14.73849 14.73685 14.73749 14.74435 14.75534 14.76947 14.78493 14.79686 14.81116 14.82172 14.83273 14.84415 14.86618 14.87842 14.89256 14.91044 14.93494 14.95696 14.98416 15.01069 15.03744 15.05321 15.07518 15.08586 15.09524 15.09966 15.1072 15.11356 15.12206 15.12275 15.12763 15.13376 15.13696 15.13766 15.14061 15.14499 15.14649 15.15256 15.15749 15.1732 15.19097 15.21569 15.23256 15.24457 15.25737 15.26112 15.27 15.27506 15.27995 15.27807 15.26876 15.26367 15.24806 15.23125 15.21196 15.18799 15.1686 15.14584 15.12636 15.10889 15.09995 15.09949 15.09908 15.09997 15.10465 15.10533 15.09833 15.09735 15.096 15.09392 15.09649 15.09495 15.08818 15.06553 15.02127 14.95816 14.8832 14.80349
0 0 0 0 0 0 0 0 0 0 0 0 0 0 0 0 18.73673 18.70789 17.82546 17.19165 16.82644 16.46098 16.43767 16.43749 16.4214 16.01784 15.59919 14.86104 14.81059 14.7825 14.76408 14.7475 14.74403 14.75166 14.7645 14.78362 14.79788 14.80811 14.82192 14.83479 14.84643 14.86049 14.87635 14.8942 14.91674 14.93788 14.95557 14.98233 15.00128 15.02436 15.05571 15.08383 15.10441 15.12053 15.13378 15.14038 15.14765 15.1565 15.16231 15.1647 15.17096 15.16738 15.17059 15.1659 15.16407 15.16056 15.16439 15.1653 15.1701 15.17699 15.19259 15.21759 15.23975 15.26128 15.2813 15.2958 15.30822 15.32129 15.33083 15.34205 15.34527 15.34421 15.33242 15.31203 15.2901 15.26765 15.23835 15.21104 15.18209 15.1616 15.14018 15.13525 15.13659 15.14141 15.14053 15.1402 15.13888 15.13889 15.13811 15.14054 15.13645 15.13664 15.13406 15.12464 15.10015 15.06475 15.0071 14.93208 14.85033
0 0 0 0 0 0 0 0 0 0 0 0 0 0 0 19.31888 18.58139 17.86452 17.2234 16.86524 16.49597 16.48357 16.45132 16.08025 16.04663 15.65013 14.88867 14.8527 14.80799 14.78626 14.76837 14.75836 14.75964 14.76974 14.78309 14.80216 14.81682 14.83243 14.84547 14.859 14.88147 14.90317 14.92356 14.94781 14.97348 14.9971 15.01559 15.04043 15.06211 15.08551 15.10958 15.13344 15.14976 15.16353 15.17263 15.18148 15.19543 15.20524 15.21778 15.22946 15.22957 15.23171 15.22231 15.21249 15.20166 15.19234 15.18575 15.18654 15.19031 15.19283 15.20776 15.22969 15.25362 15.28207 15.3035 15.32199 15.33972 15.35744 15.37663 15.38417 15.39176 15.39131 15.37956 15.36516 15.34834 15.32432 15.29558 15.26458 15.23831 15.21225 15.19024 15.18263 15.18375 15.18016 15.17328 15.1763 15.17568 15.17019 15.16624 15.16285 15.16431 15.16697 15.16381 15.15463 15.13821 15.10807 15.05588 14.9829 14.90741
0 0 0 0 0 0 0 0 0 0 0 0 0 0 18.66055 18.66474 17.93883 17.25972 16.88935 16.51047 16.49117 16.10481 16.06024 16.04347 15.66174 15.25292 14.87605 14.84694 14.81787 14.79451 14.78612 14.77734 14.78178 14.79189 14.80363 14.81771 14.8382 14.85547 14.87406 14.89465 14.92682 14.95465 14.98765 15.02333 15.05019 15.07507 15.09908 15.11877 15.14538 15.16839 15.18525 15.20374 15.21692 15.22469 15.23174 15.23962 15.24984 15.2602 15.27187 15.2851 15.29122 15.29344 15.28761 15.27655 15.25104 15.23057 15.21807 15.20962 15.20545 15.20296 15.21333 15.23945 15.27339 15.30188 15.33145 15.36046 15.38827 15.40767 15.42209 15.42747 15.42697 15.42463 15.41563 15.40265 15.38867 15.3662 15.33954 15.31286 15.28143 15.25856 15.23536 15.22517 15.21838 15.21145 15.20665 15.20608 15.2066 15.20129 15.19849 15.19398 15.19508 15.19352 15.19543 15.1851 15.1655 15.13874 15.08307 15.01322 14.93367
0 0 0 0 0 0 0 0 0 0 0 0 0 18.52867 18.70917 17.94941 17.27075 16.90866 16.52132 16.49125 16.09953 16.06874 16.0484 16.04079 15.63733 14.88718 14.8703 14.84708 14.82478 14.81192 14.80863 14.8119 14.81619 14.82731 14.83787 14.85497 14.87107 14.89069 14.9175 14.94562 14.98508 15.0231 15.06093 15.09115 15.12143 15.14456 15.17436 15.2073 15.22889 15.24938 15.26161 15.26758 15.27709 15.28214 15.28117 15.27962 15.28658 15.30703 0 0 0 15.29076 15.30191 15.35004 15.32536 15.28385 15.25202 15.2333 15.21978 15.21086 15.21835 15.24432 15.28202 15.31767 15.35515 15.39344 15.41811 15.43739 15.45875 15.46456 15.46608 15.46357 15.45808 15.44588 15.43341 15.41715 15.38863 15.36224 15.33141 15.30729 15.28247 15.26779 15.25324 15.24161 15.23669 15.23093 15.2254 15.22136 15.21943 15.21941 15.22481 15.22921 15.23048 15.21882 15.20726 15.17871 15.12276 15.04598 14.96075
0 0 0 0 0 0 0 0 0 0 0 0 0 18.91296 17.96389 17.28501 16.88807 16.49114 16.47115 16.06302 16.05301 16.04241 16.0419 14.91221 14.89356 14.8807 14.86292 14.8481 14.83449 14.82419 14.83066 14.84098 14.85574 14.87242 14.8816 14.89799 14.92069 14.94752 14.97832 15.01591 15.05827 15.10162 15.1394 15.17868 15.21325 15.24467 15.26911 15.29139 15.30546 15.31881 15.32929 16.16982 15.33732 15.3223 15.313 15.70461 16.55452 17.41477 0 0 0 0 0 15.80235 15.37696 15.33016 15.28711 15.25552 15.24503 15.23476 15.23926 15.25621 15.2861 15.33159 15.3802 15.41782 15.44599 15.46847 15.48643 15.49344 15.49796 15.49328 15.48752 15.47596 15.46503 15.45026 15.43428 15.4082 15.38462 15.35692 15.33824 15.31803 15.30907 15.29275 15.27955 15.26873 15.25876 15.25085 15.25103 15.25187 15.25943 15.26059 15.25849 15.24808 15.23539 15.20586 15.14987 15.06976 14.97819
0 0 0 0 0 0 0 0 0 0 0 0 19.07674 18.27108 17.2826 16.87594 16.45821 16.05551 16.04775 16.04835 16.04586 16.04145 15.65489 14.90768 14.89011 14.88016 14.869 14.85701 14.8465 14.8477 14.85993 14.87465 14.89051 14.90506 14.91679 14.93621 14.96009 14.99425 15.0382 15.07656 15.12606 15.17042 15.20686 15.24574 15.28526 15.3093 15.31961 0 0 15.31785 0 17.12297 16.23578 15.77743 16.17752 16.14975 16.9846 17.45206 18.50797 16.13527 15.34822 0 0 0 17.15703 15.34841 15.30082 15.27377 15.26198 15.25945 15.26465 15.28172 15.30848 15.35445 15.40508 15.44236 15.47633 15.50113 15.5159 15.52597 15.52743 15.52152 15.51779 15.50519 15.49849 15.48435 15.46675 15.44959 15.426 15.40106 15.3781 15.35929 15.35314 15.33704 15.32286 15.30954 15.29982 15.29776 15.29759 15.29789 15.3036 15.30392 15.2976 15.28904 15.27009 15.23582 15.18014 15.09722 14.99268
0 0 0 0 0 0 0 0 0 0 0 18.37342 18.31552 17.28784 16.86602 16.04311 16.039 16.04024 16.04395 16.04879 16.06391 15.3053 14.93279 14.91662 14.89879 14.89021 14.88161 14.87528 14.87586 14.88398 14.89562 14.91373 14.92522 14.94414 14.96055 14.98421 15.01683 15.06086 15.112 15.15465 15.20603 15.25046 15.27959 15.30433 16.17761 0 0 0 0 0 17.97101 18.81905 18.55003 17.90395 17.50048 17.02475 17.00088 15.72818 15.33448 15.34678 15.35184 15.34604 15.33907 17.50382 17.88884 15.3473 15.31589 15.29348 15.2905 15.28526 15.28532 15.30515 15.33246 15.37202 15.42412 15.4639 15.49647 15.52391 15.53806 15.54621 15.54826 15.54717 15.54424 15.53794 15.52935 15.51924 15.50532 15.4914 15.47597 15.45053 15.42505 15.40943 15.39231 15.3786 15.36311 15.35098 15.34041 15.34105 15.33842 15.33873 15.34476 15.34141 15.33266 15.31926 15.29803 15.26471 15.21303 15.13079 15.01878
0 0 0 0 0 0 0 0 0 0 19.09294 18.36495 17.29634 16.46848 16.0483 15.65241 15.65698 15.67244 15.68303 15.69965 15.71441 14.96795 14.95219 14.93381 14.91573 14.90795 14.90959 14.90727 14.90782 14.91453 14.92574 14.93503 14.95458 14.97136 14.99904 15.0315 15.0746 15.12566 15.17596 15.22669 15.28535 15.31836 15.74691 0 0 0 0 0 0 0 0 0 0 0 17.90864 17.50539 16.61805 15.34205 15.35143 15.36455 15.36731 15.36605 15.35719 15.35293 15.35176 15.35024 15.33463 15.32401 15.32114 15.319 15.32641 15.34258 15.37133 15.40472 15.43909 15.47736 15.51427 15.53913 15.55977 15.56456 15.56626 15.56526 15.56144 15.55914 15.54894 15.54343 15.53842 15.53202 15.51735 15.5017 15.48041 15.46554 15.44655 15.43042 15.41626 15.40192 15.39654 15.39315 15.38965 15.38597 15.38866 15.38185 15.3721 15.34914 15.32278 15.28331 15.23192 15.15068 15.0429
0 0 0 0 0 0 0 0 0 0 18.65427 17.32149 16.49537 16.0518 15.28291 15.28556 14.94091 14.95733 14.98386 14.98942 14.98874 14.99069 14.98167 14.96886 14.95479 14.9472 14.95111 14.95529 14.95899 14.95855 14.96519 14.97723 14.99279 15.01742 15.04812 15.08761 15.12403 15.16683 15.22592 15.28667 16.61531 0 0 0 0 0 0 0 0 0 0 0 0 0 18.57852 17.11481 15.38132 15.38289 15.39918 15.41009 15.40885 15.40637 15.40224 15.3914 15.37858 15.36671 15.36045 15.36036 15.35888 15.35603 15.36479 15.38292 15.4031 15.43249 15.46281 15.49721 15.53061 15.55792 15.57874 15.58725 15.58805 15.58744 15.5865 15.5844 15.58102 15.57618 15.57317 15.5661 15.55589 15.54177 15.5228 15.50556 15.49048 15.47065 15.45516 15.44698 15.44208 15.43934 15.4334 15.43122 15.43058 15.42113 15.40552 15.38103 15.34827 15.29976 15.24547 15.17048 15.07007
0 0 0 0 0 0 0 0 0 18.74808 18.09596 16.9151 16.05458 15.262 14.9202 14.93566 14.95219 14.97211 14.98335 14.99341 15.00223 15.0076 15.00714 14.99957 14.99573 14.99053 14.99202 14.99897 15.00507 15.01054 15.01932 15.02707 15.04266 15.07094 15.10664 15.1418 15.1748 15.22094 15.27498 16.16023 16.40005 0 0 0 0 0 0 0 0 0 0 0 0 17.82754 17.58105 16.25867 15.4061 15.41299 15.43369 15.4424 15.44345 15.4431 15.43556 15.42959 15.41788 15.4078 15.39774 15.39592 15.40345 15.3993 15.40342 15.41879 15.43661 15.45859 15.48349 15.51021 15.54516 15.57235 15.59165 15.60526 15.60794 15.60602 15.60567 15.60641 15.60414 15.60708 15.60645 15.60221 15.59015 15.5813 15.56327 15.54583 15.5272 15.51456 15.50083 15.48986 15.48143 15.47638 15.47353 15.46612 15.46132 15.4504 15.43198 15.39795 15.35867 15.31107 15.25346 15.17702 15.0853
0 0 0 0 0 0 0 0 19.51288 18.47151 16.95321 16.04456 15.61099 14.88223 14.8962 14.92668 14.95091 14.96816 14.98533 14.9962 15.008 15.01656 15.01664 15.02026 15.02346 15.02448 15.03311 15.04213 15.04909 15.05553 15.06099 15.07016 15.08612 15.11318 15.14563 15.17245 15.21018 15.24598 15.68168 16.1548 16.64306 17.54023 0 18.43547 19.05362 0 0 0 0 0 0 0 18.64997 17.5993 16.72884 15.41421 15.42511 15.44095 15.461 15.47886 15.48433 15.48118 15.47179 15.46138 15.45494 15.45185 15.4426 15.438 15.43871 15.44491 15.45289 15.463 15.48125 15.49735 15.51796 15.54542 15.56921 15.5983 15.61833 15.63121 15.63592 15.63671 15.63481 15.63614 15.63362 15.63424 15.6325 15.63106 15.62061 15.60658 15.59144 15.57604 15.56414 15.55699 15.54777 15.53548 15.52755 15.52578 15.52216 15.50821 15.49869 15.47688 15.45875 15.42485 15.37747 15.32529 15.26359 15.18357 15.0989
0 0 0 0 0 0 0 0 19.52816 18.4851 16.94299 16.02541 14.87435 14.86347 14.88084 14.91868 14.94521 14.96641 14.98295 14.9984 15.01496 15.02969 15.03357 15.03797 15.05531 15.06526 15.07669 15.09286 15.10577 15.11527 15.12946 15.14332 15.15374 15.17164 15.1895 15.21016 15.23677 15.26057 15.28287 15.72435 16.18038 16.63823 17.11152 17.57952 18.41061 0 0 0 0 0 0 18.0352 17.18536 17.16641 15.42061 15.43807 15.4609 15.48494 15.50967 15.5253 15.52736 15.52263 15.5127 15.50267 15.49305 15.48679 15.47845 15.4753 15.47317 15.4803 15.4853 15.49483 15.51103 15.53401 15.55365 15.58043 15.60426 15.62765 15.64852 15.66128 15.66586 15.67161 15.67278 15.6731 15.67345 15.67102 15.66551 15.6617 15.65335 15.64082 15.62405 15.61333 15.60357 15.59455 15.58303 15.57192 15.5652 15.55999 15.55394 15.5395 15.5258 15.5088 15.48364 15.44609 15.39384 15.33757 15.26984 15.19036 15.10426
0 0 0 0 0 0 0 0 0 18.51604 16.95107 16.04213 14.86351 14.84702 14.86672 14.90536 14.936 14.95738 14.97508 14.99783 15.01916 15.03866 15.04445 15.05678 15.07399 15.09653 15.11846 15.14323 15.16429 15.18646 15.20619 15.21169 15.22091 15.22266 15.23944 15.25551 15.27111 15.28767 15.30006 15.30837 15.31995 15.33754 15.35308 15.76678 16.66243 17.55018 18.41357 18.77662 0 0 18.37069 17.17747 16.28603 15.42032 15.43773 15.46697 15.49867 15.52565 15.54945 15.56707 15.57018 15.56533 15.55529 15.54769 15.53549 15.52588 15.52056 15.51464 15.51007 15.51175 15.52212 15.53237 15.54556 15.56439 15.5843 15.60933 15.63157 15.65412 15.67797 15.69524 15.69944 15.70392 15.70437 15.70235 15.70172 15.69743 15.69729 15.69613 15.69033 15.68289 15.6675 15.65655 15.64822 15.6352 15.62376 15.6122 15.60268 15.59133 15.58336 15.56917 15.55262 15.53338 15.50032 15.45906 15.40573 15.33798 15.26834 15.19146 15.10778
0 0 0 0 0 0 0 0 0 19.40044 17.80188 16.51354 15.22953 14.84806 14.85426 14.8903 14.92567 14.94951 14.9724 15.00121 15.0262 15.04366 15.05749 15.07613 15.10484 15.14053 15.17515 15.21041 15.23302 15.2536 15.26482 15.26629 15.26256 15.26102 15.27343 15.28869 15.30141 15.30815 15.31622 15.32678 15.33457 15.34154 15.35198 15.35238 15.76733 16.216 16.66717 17.11057 18.38018 17.16136 15.80826 15.396 15.41795 15.44553 15.47988 15.50706 15.53758 15.56489 15.57853 15.58893 15.59336 15.59354 15.58862 15.58084 15.57043 15.56169 15.55823 15.5551 15.55166 15.55707 15.56151 15.57323 15.58226 15.59888 15.6213 15.64788 15.67055 15.69568 15.71257 15.7236 15.73212 15.73399 15.73289 15.7298 15.73019 15.72971 15.72753 15.72511 15.72309 15.71247 15.70226 15.69044 15.67812 15.6688 15.65521 15.64375 15.63432 15.62131 15.61185 15.59888 15.57706 15.54936 15.51742 15.46932 15.41307 15.34389 15.27164 15.1846 15.09658
0 0 0 0 0 0 0 0 0 19.52466 18.79625 16.98339 15.64555 14.86545 14.85252 14.87925 14.91211 14.93875 14.96692 14.99217 15.02068 15.04457 15.07848 15.1098 15.14953 15.19652 15.24329 15.28377 15.32026 15.32529 15.33095 15.32004 15.30994 15.30076 15.30305 15.31679 15.32691 15.3322 15.33989 15.34175 15.3475 15.35091 15.35202 15.35706 15.35752 15.36651 15.80238 0 17.15314 15.81801 15.40852 15.4223 15.44933 15.49092 15.53487 15.56126 15.58366 15.59939 15.60919 15.61586 15.61927 15.61928 15.61933 15.61815 15.61078 15.60543 15.59371 15.58726 15.58162 15.58451 15.59027 15.59633 15.61218 15.62525 15.65083 15.6789 15.70187 15.71863 15.73475 15.74849 15.75616 15.75814 15.75961 15.75916 15.7591 15.75915 15.75725 15.75508 15.74986 15.74151 15.73067 15.71827 15.70696 15.69476 15.68092 15.66419 15.65769 15.65113 15.63447 15.61722 15.5944 15.5592 15.5197 15.47753 15.4176 15.34914 15.2697 15.17772 15.08218
0 0 0 0 0 0 0 0 0 0 19.26253 17.85429 16.10637 15.26147 14.88037 14.87403 14.88267 14.91164 14.94279 14.978 15.01233 15.05264 15.09573 15.13653 15.18419 15.23427 15.28597 15.33346 0 0 0 15.57743 15.3446 15.3362 15.33393 15.34072 15.35131 15.35303 15.36166 15.3674 15.36032 15.35694 15.36291 15.3651 15.37968 15.39247 15.41659 15.85275 15.43204 15.43356 15.44833 15.4737 15.50482 15.54424 15.5718 15.59734 15.62076 15.63337 15.63933 15.64705 15.64838 15.65198 15.65361 15.6556 15.65097 15.63952 15.62885 15.62405 15.61903 15.61799 15.62812 15.63179 15.64814 15.66 15.68199 15.70911 15.72327 15.74164 15.76128 15.76936 15.77457 15.77333 15.77371 15.77636 15.77391 15.77514 15.77624 15.77339 15.76542 15.76268 15.75326 15.74062 15.72881 15.71698 15.70543 15.69286 15.68148 15.67206 15.65924 15.63698 15.60656 15.56538 15.52627 15.4797 15.41717 15.34342 15.2638 15.17387 15.06973
0 0 0 0 0 0 0 0 0 0 0 19.18689 17.86537 16.11046 15.26778 14.88591 14.85159 14.877 14.91355 14.95992 15.01313 15.06928 15.12283 15.16711 15.21074 15.26208 15.70479 16.1404 0 0 0 16.28934 16.58164 15.3562 15.35842 15.36266 15.37357 15.3749 15.38411 15.3873 15.37824 15.38648 15.3813 15.39254 15.40919 15.42775 15.44616 15.4697 15.48334 15.48912 15.50921 15.53661 15.56846 15.59512 15.6158 15.63852 15.65604 15.6666 15.6694 15.67421 15.67731 15.67991 15.68541 15.68619 15.67779 15.66246 15.65448 15.64885 15.65234 15.65767 15.66732 15.6794 15.69076 15.69663 15.71912 15.73757 15.75642 15.77411 15.78803 15.7938 15.7915 15.78985 15.79302 15.79008 15.79003 15.78584 15.78189 15.78048 15.776 15.77013 15.76283 15.75306 15.74234 15.73077 15.72333 15.71598 15.70436 15.68859 15.67316 15.65076 15.61754 15.57722 15.53993 15.49313 15.42984 15.35524 15.26985 15.17806 15.07068
0 0 0 0 0 0 0 0 0 0 0 0 19.32794 18.25187 16.07142 15.25257 14.83795 14.85193 14.89215 14.94448 15.01357 15.09029 15.14099 15.18385 15.22078 15.27997 16.11517 0 0 17.82297 17.90732 16.2292 15.38392 15.37076 15.36982 15.37887 15.38723 15.4009 15.41334 15.41661 15.41075 15.4092 15.41122 15.41752 15.43151 15.45894 15.48201 15.50359 15.51828 15.54086 15.56494 15.58781 15.61899 15.64509 15.6645 15.68141 15.69919 15.70669 15.71266 15.71425 15.71704 15.71794 15.71587 15.71456 15.7063 15.69276 15.68778 15.68779 15.69216 15.69223 15.70016 15.70854 15.71525 15.72901 15.74616 15.76233 15.78018 15.79794 15.80422 15.809 15.80226 15.80529 15.80703 15.80607 15.79925 15.79206 15.78841 15.78563 15.78399 15.78059 15.77607 15.77299 15.76389 15.75221 15.7386 15.72875 15.71711 15.70332 15.68422 15.65977 15.62906 15.59019 15.55094 15.50173 15.43914 15.37061 15.28836 15.19591 15.0959
0 0 0 0 0 0 0 0 0 0 0 0 0 0 0 16.01498 15.17608 14.83975 14.88209 14.94414 15.02413 15.10932 15.15936 15.19403 15.21787 15.65616 15.72498 16.15387 16.57623 18.90021 17.90811 16.22141 15.38921 15.37616 15.37951 15.38775 15.40559 15.41715 15.4336 15.44006 15.43744 15.44638 15.44277 15.45144 15.46411 15.48372 15.50961 15.5381 15.55651 15.57766 15.60719 15.62753 15.66214 15.68047 15.70086 15.71229 15.72834 15.7426 15.74912 15.74733 15.74501 15.74787 15.74466 15.73567 15.73735 15.7289 15.72437 15.72629 15.73202 15.73361 15.74402 15.75181 15.75356 15.76643 15.78361 15.79313 15.81205 15.82122 15.82507 15.8234 15.82298 15.82409 15.82035 15.81657 15.80989 15.80727 15.80387 15.80317 15.80131 15.79744 15.78955 15.78109 15.77318 15.76948 15.76093 15.75183 15.73571 15.71861 15.69829 15.67728 15.65065 15.61716 15.57794 15.5263 15.46472 15.39355 15.31741 15.22539 15.13705
0 0 0 0 0 0 0 0 0 0 0 0 0 0 0 16.83955 15.95586 14.82929 14.88403 14.95587 15.04493 15.13566 15.17997 15.20926 15.23749 15.28584 16.12933 16.17989 16.60726 0 17.94782 15.40945 15.39795 15.38632 15.41404 15.40353 15.41905 15.43183 15.4497 15.45837 15.46447 15.46898 15.47452 15.48123 15.48718 15.51435 15.53865 15.56126 15.59061 15.62125 15.65084 15.67493 15.70307 15.71286 15.73283 15.7475 15.7565 15.76952 15.77478 15.77295 15.77507 15.76838 15.76323 15.76022 15.75714 15.74885 15.74984 15.75597 15.76177 15.76192 15.77384 15.78269 15.79064 15.80425 15.81068 15.8301 15.83863 15.85152 15.85399 15.84927 15.84859 15.84779 15.84306 15.83498 15.83064 15.82929 15.82475 15.82229 15.81267 15.80249 15.79873 15.78815 15.7853 15.77808 15.77486 15.76395 15.75073 15.73316 15.71297 15.69571 15.67366 15.64804 15.61401 15.56612 15.51626 15.44762 15.36304 15.28122 15.20153
0 0 0 0 0 0 0 0 0 0 0 0 0 18.16933 17.7449 16.82258 15.99223 14.84681 14.89404 14.9746 15.07169 15.1672 15.2144 15.24409 15.27229 15.31147 16.57471 17.03191 17.48615 17.375 18.37635 15.82259 15.40334 15.40499 15.4142 15.4284 15.44199 15.45237 15.46706 15.479 15.48567 15.4908 15.49779 15.5038 15.51533 15.54378 15.56302 15.59562 15.6206 15.65207 15.68227 15.69866 15.72167 15.74348 15.75815 15.77233 15.78683 15.79779 15.798 15.7993 15.79335 15.7906 15.78936 15.7851 15.77768 15.77937 15.77807 15.78636 15.79076 15.79181 15.79454 15.80493 15.82323 15.83138 15.84319 15.85737 15.86715 15.87506 15.87944 15.87748 15.8762 15.87089 15.85899 15.85849 15.85244 15.85205 15.84849 15.84084 15.82281 15.81177 15.80082 15.79654 15.79248 15.78955 15.78261 15.77527 15.76398 15.75575 15.73885 15.72036 15.696 15.67072 15.63973 15.59764 15.54804 15.48852 15.41809 15.3398 15.27323
0 0 0 0 0 0 0 0 0 0 0 0 17.37065 16.90264 16.8829 16.44018 15.63569 14.90673 14.9482 15.02051 15.09798 15.18489 15.2368 15.27361 15.30108 15.34008 16.22206 16.24389 17.06152 17.91664 16.22924 15.39557 15.40186 15.42105 15.44035 15.46242 15.47864 15.47718 15.49018 15.50332 15.50326 15.51264 15.52887 15.54657 15.55222 15.57349 15.59464 15.62299 15.64159 15.6607 15.6796 15.69874 15.72027 15.7408 15.76035 15.77592 15.78755 15.80296 15.80719 15.8078 15.80777 15.80712 15.80811 15.80756 15.80746 15.80164 15.80133 15.80622 15.8114 15.81271 15.8226 15.83907 15.85013 15.86155 15.87034 15.88619 15.89258 15.89429 15.88997 15.89176 15.88736 15.87957 15.87279 15.86712 15.8645 15.85966 15.85508 15.84612 15.82999 15.81432 15.80704 15.80325 15.79402 15.78921 15.78489 15.77888 15.7747 15.7664 15.75701 15.74193 15.71852 15.70055 15.67058 15.63251 15.58062 15.52428 15.46062 15.39778 15.33473
0 0 0 0 0 0 0 0 19.14857 18.59731 17.41415 16.51095 16.49439 16.4789 16.05723 16.0722 15.70881 14.98456 15.02377 15.08881 15.15572 15.22437 15.27735 15.3101 15.33719 15.37178 15.40146 15.41212 15.41115 15.41183 15.40019 15.41416 15.42816 15.44935 15.4693 15.48722 15.50067 15.50514 15.51259 15.51787 15.52201 15.5287 15.54214 15.56132 15.57617 15.59389 15.61399 15.6369 15.64956 15.66795 15.68539 15.70556 15.72174 15.73992 15.75887 15.77484 15.79277 15.80176 15.80999 15.81212 15.81533 15.82118 15.82547 15.82606 15.81869 15.81454 15.81754 15.82023 15.8264 15.83446 15.85173 15.87192 15.88395 15.89372 15.90584 15.9153 15.91753 15.91759 15.91663 15.91072 15.90541 15.89959 15.89523 15.89093 15.87831 15.87411 15.86562 15.85369 15.83944 15.82219 15.80999 15.8016 15.79438 15.78964 15.78695 15.78435 15.78082 15.77954 15.77273 15.76193 15.74626 15.72743 15.70546 15.66722 15.62877 15.57807 15.51945 15.46275 15.3993
0 0 0 0 0 0 0 18.15068 18.26524 16.52827 16.08233 16.06265 16.05177 16.06682 16.10318 15.76383 15.02512 15.05899 15.10525 15.15795 15.21777 15.26833 15.31672 15.34956 15.37562 15.40232 15.43002 15.44953 15.45296 15.45264 15.45689 15.4619 15.47405 15.48504 15.50545 15.51712 15.52794 15.52849 15.53103 15.53298 15.53423 15.5484 15.55717 15.57238 15.59298 15.60548 15.61956 15.64166 15.66701 15.68198 15.69452 15.71052 15.72647 15.7442 15.76483 15.78211 15.78819 15.79377 15.80045 15.80979 15.81933 15.83034 15.8393 15.83908 15.83173 15.83258 15.82899 15.83375 15.84306 15.85566 15.87162 15.89355 15.90255 15.9122 15.93132 15.93892 15.93861 15.93653 15.93809 15.93467 15.93451 15.92736 15.9228 15.91242 15.89597 15.88246 15.87571 15.86488 15.8472 15.83156 15.81884 15.80748 15.80098 15.80011 15.79562 15.8004 15.80087 15.79925 15.79749 15.78693 15.77239 15.75694 15.73586 15.70501 15.67182 15.62502 15.57818 15.51843 15.46327
0 0 0 0 0 0 18.66541 18.66521 16.52372 16.02157 15.97376 15.99002 16.04054 15.70044 15.40553 15.09731 15.09624 15.13576 15.17265 15.2118 15.26178 15.29846 15.34024 15.37077 15.40275 15.43116 15.45697 15.48447 15.49441 15.5005 15.50516 15.51732 15.52506 15.52416 15.53597 15.5388 15.54293 15.54756 15.54724 15.5435 15.54776 15.5581 15.57073 15.58474 15.59783 15.60466 15.6277 15.65089 15.66466 15.68762 15.69958 15.72178 15.73421 15.75024 15.76943 15.78293 15.79052 15.79284 15.79924 15.81291 15.82493 15.82763 15.84099 15.84759 15.85157 15.85826 15.86048 15.86781 15.8762 15.88746 15.89641 15.91704 15.93582 15.94907 15.96368 15.96641 15.96329 15.96368 15.95781 15.94973 15.948 15.94264 15.93518 15.91878 15.90744 15.89597 15.87743 15.86368 15.84689 15.83241 15.82268 15.81394 15.8105 15.81249 15.8062 15.81684 15.81619 15.82286 15.82367 15.81037 15.80462 15.79059 15.77347 15.74719 15.71889 15.68005 15.63678 15.58755 15.53378
0 0 0 0 0 0 19.46252 17.86851 16.44572 15.94339 15.52717 15.56891 15.27957 15.02101 15.11173 15.17485 15.19545 15.21843 15.2457 15.27628 15.30459 15.3252 15.35919 15.39215 15.42785 15.45357 15.4799 15.51438 15.52622 15.53257 15.54182 15.54608 15.54875 15.55208 15.55617 15.55525 15.54947 15.5478 15.55414 15.54692 15.55643 15.56729 15.57781 15.59351 15.60214 15.62059 15.64056 15.65769 15.67382 15.69397 15.7125 15.73343 15.75014 15.76053 15.773 15.78535 15.79259 15.7932 15.80085 15.81277 15.82757 15.83678 15.84517 15.84726 15.85994 15.87375 15.88517 15.89509 15.90251 15.91187 15.92723 15.94544 15.97171 15.98476 15.99699 15.99666 15.99487 15.98974 15.97879 15.96299 15.95581 15.94665 15.94014 15.9255 15.91304 15.90132 15.88273 15.86395 15.85002 15.84012 15.83317 15.82934 15.82891 15.8284 15.82923 15.83362 15.83463 15.84097 15.83875 15.83282 15.8265 15.81476 15.79999 15.78391 15.76155 15.73368 15.69654 15.65373 15.6029
0 0 0 0 0 19.55944 19.15052 17.83942 16.42974 15.95487 15.18919 14.89679 14.9899 15.07988 15.16598 15.24154 15.27646 15.29237 15.30988 15.33141 15.35133 15.36832 15.39503 15.43125 15.46401 15.48983 15.51492 15.53931 15.5488 15.56262 15.57109 15.56827 15.56772 15.56962 15.56761 15.55855 15.54954 15.54781 15.55145 15.55678 15.56503 15.57476 15.58915 15.59404 15.60354 15.61938 15.63429 15.65914 15.68084 15.6997 15.71228 15.72827 15.7445 15.76525 15.77829 15.78576 15.79854 15.80584 15.80422 15.81339 15.82567 15.83372 15.84067 15.85196 15.86094 15.88191 15.90087 15.91132 15.93193 15.94837 15.97217 15.99077 16.00872 16.01927 16.02585 16.02584 16.02291 16.00929 15.99603 15.98469 15.97274 15.96046 15.95016 15.93965 15.9233 15.90835 15.8948 15.87895 15.86942 15.86386 15.85597 15.85237 15.85689 15.85702 15.85711 15.86621 15.86403 15.86377 15.86584 15.86527 15.85617 15.84843 15.82784 15.81513 15.80009 15.77486 15.74418 15.7062 15.66006
0 0 0 0 18.65919 18.40654 16.52261 16.0239 15.58611 14.85733 14.8903 14.9759 15.06302 15.14324 15.22153 15.2827 15.3118 15.32717 15.34646 15.36853 15.39199 15.40716 15.44047 15.46976 15.49675 15.51453 15.53495 15.55123 15.5631 15.57546 15.57621 15.57576 15.57461 15.56775 15.56519 15.55892 15.55617 15.55347 15.55393 15.55596 15.5665 15.57736 15.58961 15.60258 15.61134 15.61907 15.63496 15.65728 15.679 15.69595 15.71357 15.72364 15.74249 15.7637 15.78257 15.79133 15.80166 15.80969 15.81219 15.81564 15.82263 15.83442 15.84949 15.85652 15.87397 15.8999 15.92657 15.94187 15.95537 15.97144 15.99496 16.01008 16.0257 16.03437 16.04103 16.0455 16.04226 16.02709 16.01349 15.99693 15.98502 15.97248 15.96293 15.94715 15.93367 15.91923 15.90714 15.89706 15.88968 15.88661 15.87725 15.877 15.88023 15.88284 15.89089 15.89596 15.89896 15.89875 15.90244 15.90589 15.90075 15.88943 15.87638 15.86634 15.85006 15.82628 15.79906 15.76849 15.73026
0 0 0 0 19.64939 17.02137 14.94853 14.91951 14.89494 14.92135 14.97242 15.06097 15.14114 15.21401 15.26952 15.31843 15.33806 15.35719 15.37708 15.39791 15.4232 15.44201 15.46811 15.49424 15.51383 15.52618 15.53674 15.54756 15.56111 15.56898 15.57169 15.57406 15.5719 15.5682 15.56792 15.56348 15.55968 15.55746 15.55551 15.55923 15.56861 15.57663 15.58955 15.59934 15.61684 15.62761 15.64295 15.6559 15.67698 15.69155 15.70391 15.71981 15.73694 15.75992 15.77767 15.79195 15.79896 15.80804 15.81579 15.82192 15.82799 15.84272 15.86036 15.87584 15.89215 15.91554 15.93863 15.96045 15.97667 15.99652 16.01374 16.01763 16.03395 16.04799 16.0467 16.04781 16.04331 16.03005 16.02122 16.01311 16.00051 15.98713 15.97291 15.96288 15.94768 15.9373 15.93014 15.92419 15.92082 15.91676 15.90602 15.905 15.90528 15.91163 15.92463 15.92803 15.92935 15.93513 15.94443 15.94247 15.93569 15.93151 15.92006 15.91373 15.89988 15.88538 15.86609 15.83541 15.80259
0 0 0 18.85654 18.48982 16.52708 14.90804 14.90571 14.93635 15.00895 15.05985 15.13404 15.20633 15.26831 15.30984 15.35285 15.37771 15.38952 15.41283 15.42893 15.45137 15.4671 15.48183 15.49714 15.51201 15.51902 15.5254 15.5349 15.54839 15.55718 15.55742 15.56021 15.56261 15.56819 15.56855 15.56711 15.56097 15.5612 15.56384 15.56572 15.57619 15.57984 15.58917 15.59865 15.61318 15.6203 15.64 15.65436 15.66895 15.6862 15.70688 15.72036 15.73268 15.7512 15.7678 15.78183 15.79278 15.79947 15.80609 15.81952 15.83906 15.86818 15.87933 15.89177 15.91134 15.92804 15.9465 15.96241 15.9815 15.99809 16.01656 16.03192 16.04167 16.04321 16.04917 16.04807 16.04056 16.0332 16.02883 16.01995 16.00857 15.99841 15.9847 15.97491 15.96603 15.96252 15.96176 15.95354 15.9546 15.94783 15.9481 15.94783 15.9428 15.94929 15.95284 15.96202 15.96366 15.96721 15.97106 15.9763 15.97344 15.96598 15.95643 15.95369 15.94571 15.92886 15.91627 15.89336 15.8602
0 0 0 18.84024 18.44669 16.47903 15.61188 14.91082 14.98417 15.07846 15.11977 15.19785 15.25115 15.30168 15.33706 15.36988 15.40377 15.42026 15.43948 15.45252 15.46856 15.48156 15.48912 15.49282 15.49541 15.50087 15.50444 15.51511 15.52677 15.52735 15.5364 15.54396 15.55197 15.55513 15.56512 15.57125 15.56906 15.56564 15.56653 15.57296 15.57448 15.58177 15.58256 15.59363 15.6037 15.61287 15.62881 15.64644 15.67108 15.6912 15.70676 15.72497 15.73693 15.74536 15.76029 15.7699 15.78458 15.79453 15.80639 15.82277 15.85166 15.88305 15.89787 15.90855 15.92368 15.94428 15.95803 15.97557 15.99792 16.00935 16.02567 16.03628 16.03672 16.04653 16.0514 16.05069 16.04015 16.03386 16.0251 16.02172 16.01716 16.00666 16.00037 15.98815 15.98406 15.9766 15.97694 15.97723 15.97588 15.97789 15.97984 15.9794 15.97968 15.98896 15.99409 16.0007 16.00174 16.00738 16.01125 16.01129 16.01005 16.01118 16.00412 15.99831 15.99971 15.98805 15.97442 15.95327 15.9214
0 0 0 19.55277 18.71356 16.47974 15.22215 14.91086 14.99611 15.10337 15.17505 15.243 15.28623 15.32924 15.36828 15.39905 15.41822 15.43596 15.44782 15.46147 15.4693 15.48301 15.48763 15.48682 15.49668 15.4953 15.49695 15.51039 15.5093 15.51273 15.51972 15.53131 15.54173 15.5544 15.56513 15.57068 15.57208 15.56994 15.56674 15.56854 15.57788 15.5794 15.57992 15.58206 15.58756 15.60449 15.62045 15.64167 15.66793 15.68427 15.70507 15.72651 15.73862 15.74272 15.75328 15.76371 15.78502 15.80121 15.81446 15.83743 15.86491 15.88759 15.90522 15.91793 15.93282 15.95139 15.96742 15.98386 16.00174 16.017 16.0302 16.03257 16.03804 16.04035 16.04795 16.04598 16.04107 16.03509 16.03678 16.02569 16.02583 16.01782 16.01315 16.01248 16.01175 16.00548 16.00551 16.00814 16.00684 16.00205 16.00992 16.01183 16.01602 16.02704 16.02822 16.03163 16.03628 16.04126 16.04709 16.04659 16.04526 16.04451 16.0428 16.04573 16.04396 16.03757 16.02549 16.01097 15.99737
0 0 0 19.62873 17.39791 15.60487 14.88708 14.95105 15.0487 15.14444 15.2098 15.27026 15.3215 15.36201 15.39625 15.42604 15.44315 15.45264 15.46054 15.45525 15.45852 15.4641 15.46737 15.47187 15.48015 15.49124 15.49541 15.50756 15.50829 15.51055 15.51348 15.52375 15.53999 15.55641 15.56749 15.56763 15.57423 15.57138 15.56944 15.56407 15.57244 15.57605 15.5868 15.59277 15.59332 15.60698 15.62829 15.64543 15.674 15.69498 15.71629 15.73267 15.74514 15.75226 15.7609 15.77585 15.79509 15.81523 15.8332 15.85829 15.88417 15.907 15.92571 15.94333 15.95782 15.96909 15.97875 15.99234 16.01469 16.02381 16.03314 16.03903 16.04432 16.04606 16.04561 16.04347 16.05042 16.04885 16.05176 16.04589 16.0408 16.03673 16.02509 16.02722 16.03092 16.0384 16.04218 16.04693 16.03932 16.03448 16.04429 16.04766 16.05974 16.06413 16.06876 16.071 16.07178 16.07944 16.08685 16.08989 16.08493 16.08384 16.08364 16.08181 16.07709 16.07226 16.06168 16.05343 16.03478
14.96968 14.9648 16.38483 17.40783 15.21597 14.86398 14.90927 14.98996 15.09727 15.18329 15.2484 15.30273 15.35003 15.38401 15.41487 15.44663 15.46175 15.467 15.46614 15.45411 15.45088 15.44555 15.45008 15.45438 15.46714 15.47927 15.49515 15.49971 15.51058 15.51854 15.51981 15.52791 15.54606 15.56083 15.56604 15.56936 15.56888 15.57175 15.57263 15.57734 15.57898 15.58086 15.58163 15.59363 15.60051 15.6154 15.63158 15.65395 15.68597 15.70382 15.72832 15.74675 15.76008 15.78202 15.78136 15.79221 15.80894 15.83398 15.85719 15.88235 15.9062 15.9263 15.94059 15.96017 15.9685 15.97957 15.99105 16.002 16.01916 16.03122 16.04626 16.0511 16.05164 16.04602 16.04514 16.05001 16.05626 16.05718 16.05839 16.05837 16.05738 16.04889 16.04803 16.04737 16.05278 16.05732 16.06893 16.07221 16.0719 16.07059 16.07528 16.08633 16.09452 16.10217 16.10546 16.10914 16.11438 16.11341 16.11912 16.12408 16.12315 16.12603 16.12929 16.12478 16.12225 16.11868 16.10648 16.09203 16.07813
14.97911 14.96024 14.95505 14.97229 14.90236 14.92513 14.98579 15.07451 15.15952 15.2296 15.28413 15.32616 15.3784 15.40353 15.4376 15.46046 15.47168 15.47175 15.46333 15.45532 15.44894 15.44451 15.4462 15.45901 15.46239 15.48581 15.493 15.50903 15.51038 15.52175 15.52963 15.54151 15.55551 15.56246 15.57429 15.58097 15.58476 15.58165 15.57735 15.58408 15.5924 15.59738 15.60094 15.60626 15.61775 15.63077 15.64109 15.66303 15.68474 15.7114 15.73141 15.7635 15.78665 15.79847 15.80831 15.81664 15.82859 15.84661 15.86764 15.89187 15.91872 15.93354 15.94746 15.96408 15.98342 15.99639 16.00794 16.01431 16.02652 16.03431 16.04576 16.06017 16.06409 16.06436 16.06079 16.06079 16.06594 16.06777 16.07223 16.07381 16.07186 16.06922 16.07341 16.07588 16.08033 16.08692 16.09663 16.0949 16.10092 16.10854 16.11586 16.12104 16.13303 16.13734 16.14166 16.14372 16.14603 16.14726 16.14686 16.151 16.1581 16.16223 16.16855 16.16829 16.16768 16.16585 16.15331 16.14153 16.13226
15.02174 15.02965 15.04497 15.05757 15.03306 15.05866 15.11337 15.17907 15.23495 15.28124 15.31916 15.35623 15.38786 15.41836 15.43517 15.45576 15.46744 15.47851 15.47266 15.45976 15.44807 15.4403 15.45038 15.45525 15.4735 15.49392 15.50351 15.52087 15.52139 15.52557 15.5387 15.55112 15.55822 15.56577 15.5793 15.58953 15.58834 15.59075 15.58183 15.58742 15.60145 15.61276 15.61715 15.62367 15.6378 15.65078 15.6603 15.67683 15.6993 15.72002 15.74592 15.76928 15.7914 15.81329 15.8271 15.842 15.85726 15.87582 15.89056 15.9087 15.93138 15.94861 15.96469 15.98036 16.00013 16.00743 16.01557 16.02827 16.04074 16.04819 16.06062 16.07462 16.07451 16.07776 16.07806 16.07726 16.07649 16.07709 16.08412 16.089 16.08443 16.08397 16.09345 16.09715 16.1007 16.11545 16.13127 16.1405 16.15105 16.16006 16.17136 16.1764 16.18064 16.18287 16.18697 16.18586 16.18568 16.18875 16.19092 16.20407 16.20993 16.21728 16.21717 16.21456 16.21143 16.20988 16.19662 16.18457 16.17351
15.09832 15.11327 15.1314 15.15702 15.17218 15.19429 15.21999 15.2556 15.28892 15.31298 15.33878 15.38028 15.40516 15.42729 15.44977 15.46359 15.47138 15.47922 15.47891 15.46933 15.45496 15.44441 15.45652 15.46999 15.48418 15.50372 15.51627 15.53298 15.52468 15.5334 15.54549 15.56037 15.57168 15.57981 15.59143 15.60498 15.59865 15.60256 15.59282 15.59523 15.61103 15.62436 15.63178 15.64023 15.65595 15.66756 15.68103 15.6926 15.71265 15.73921 15.76362 15.78104 15.80382 15.82417 15.84637 15.86504 15.88146 15.89903 15.91615 15.93872 15.9558 15.97133 15.98632 15.99697 16.00987 16.02541 16.03545 16.04457 16.0554 16.07231 16.07578 16.0797 16.08541 16.09537 16.09934 16.10127 16.10167 16.10033 16.09977 16.10233 16.10632 16.10836 16.11146 16.12277 16.13501 16.15238 16.17182 16.19204 16.20219 16.214 16.23447 16.23618 16.24155 16.24633 16.25023 16.24891 16.25331 16.26935 16.27633 16.28497 16.2949 16.29526 16.29402 16.28429 16.27551 16.26605 16.24876 16.2351 16.22378
15.19688 15.20564 15.22159 15.2334 15.23919 15.25039 15.26289 15.28018 15.30562 15.31905 15.34573 15.37001 15.40097 15.42427 15.44841 15.47546 15.47849 15.48965 15.48576 15.47945 15.46655 15.45615 15.47215 15.48189 15.50664 15.53174 15.54857 15.55606 15.5528 15.5537 15.56698 15.58929 15.59705 15.6133 15.63074 15.6416 15.64111 15.64267 15.63814 15.63836 15.63974 15.65027 15.65515 15.66668 15.683 15.69821 15.71229 15.7234 15.74108 15.76559 15.78482 15.80019 15.81891 15.8433 15.8642 15.88592 15.90503 15.92884 15.94852 15.96635 15.98013 15.99277 16.00803 16.02029 16.02941 16.04296 16.04949 16.05858 16.07085 16.08089 16.08456 16.09031 16.09113 16.1064 16.1133 16.11619 16.11851 16.11656 16.11527 16.11682 16.11851 16.12404 16.13514 16.14742 16.16362 16.19076 16.21881 16.23526 16.25439 16.27363 16.28965 16.30295 16.30663 16.30292 16.29956 16.30216 16.30752 16.31873 16.3364 16.35337 16.36742 16.37614 16.36631 16.35456 16.3454 16.33501 16.32573 16.3126 16.3056
15.26468 15.27377 15.2746 15.2656 15.26518 15.26823 15.275 15.2901 15.30363 15.32737 15.35207 15.3799 15.40487 15.4303 15.46038 15.48057 15.48177 15.48783 15.4841 15.48803 15.48145 15.47507 15.49269 15.50093 15.52188 15.54363 15.5609 15.58133 15.58655 15.59078 15.60296 15.62399 15.63717 15.64857 15.65794 15.67596 15.68956 15.69305 15.69363 15.6867 15.68852 15.69034 15.69484 15.70658 15.72965 15.74454 15.76141 15.78042 15.79472 15.81114 15.82886 15.85297 15.87753 15.90015 15.92285 15.94184 15.96276 15.99223 16.01488 16.02755 16.04066 16.05097 16.06 16.06629 16.07284 16.08039 16.0847 16.09466 16.09809 16.10331 16.10599 16.1109 16.11569 16.12229 16.12909 16.13122 16.13305 16.1345 16.13675 16.13998 16.14638 16.15698 16.17911 16.20197 16.22977 16.26717 16.30033 16.32855 16.35562 16.37785 16.38861 16.39396 16.3958 16.39061 16.37741 16.37126 16.37206 16.38058 16.40666 16.44042 16.45545 16.44841 16.43986 16.4278 16.41667 16.40804 16.40107 16.39255 16.38403
15.2848 15.28446 15.28471 15.28308 15.27179 15.27143 15.27938 15.28708 15.30433 15.3235 15.34374 15.37112 15.4001 15.42915 15.46361 15.4889 15.49668 15.50107 15.50304 15.5056 15.50546 15.51143 15.52557 15.54933 15.56449 15.57974 15.60442 15.61448 15.62389 15.63917 15.65937 15.67432 15.68772 15.69752 15.70995 15.72288 15.7382 15.74 15.74044 15.73728 15.74173 15.74253 15.7532 15.7694 15.78641 15.80794 15.82985 15.84505 15.865 15.87829 15.90537 15.92806 15.9531 15.97403 15.99729 16.01864 16.03885 16.06699 16.08985 16.10581 16.12044 16.1286 16.13528 16.14351 16.14537 16.14761 16.14977 16.15524 16.15528 16.15954 16.15991 16.16197 16.16227 16.16039 16.16646 16.16693 16.16529 16.16683 16.17341 16.18241 16.19021 16.20896 16.23363 16.25594 16.29103 16.33225 16.37332 16.40544 0 0 16.46097 16.48735 16.47188 16.46325 16.44886 16.44336 16.44873 16.47046 16.4769 0 0 16.46746 16.52611 16.51755 16.50033 16.48762 16.48435 16.47887 16.46329
