ncols        109
nrows        82
xllcorner    -1.041666666667
yllcorner    37.041665395101
cellsize     0.083333333333
NODATA_value -9999
0.0 0 0 0 0 0 0 0 0 0 0 0 0 0 0 0 0 0 0 0 0 0 0 0 0 0 0 0 0 0 0 0 0 0 0 0 0 0 0 0 0 0 0 0 0 0 0 0 0 0 0 0 0 0 0 0 0 0 0 0 0 0 0 0 0 0 0 0 0 0 0 0 0 0 0 0 0 0 0 0 0 0 0 0 0 0 0 0 0 0 0 0 0 0 0 0 0 0 0 0 0 0 0 0 0 18.91062 17.64197 16.41162 16.41075
0 0 0 0 0 0 0 0 0 0 0 0 0 0 0 0 0 0 0 0 0 0 0 0 0 0 0 0 0 0 0 0 0 0 0 0 0 0 0 0 0 0 0 0 0 0 0 0 0 0 0 0 0 0 0 0 0 0 0 0 0 0 0 0 0 0 0 0 0 0 0 0 0 0 0 0 0 0 0 0 0 0 0 0 0 0 0 0 0 0 0 0 0 0 0 0 0 0 0 0 0 16.53502 16.552 16.35895 16.37552 16.38727 16.38828 16.38791 16.37315
0 0 0 0 0 0 0 0 0 0 0 0 0 0 0 0 0 0 0 0 0 0 0 0 0 0 0 0 0 0 0 0 0 0 0 0 0 0 0 0 0 0 0 0 0 0 0 0 0 0 0 0 0 0 0 0 0 0 0 0 0 0 0 0 0 0 0 0 0 0 0 0 0 0 0 0 0 0 0 0 0 0 0 0 0 0 0 0 0 0 0 0 0 0 0 0 0 0 16.37097 16.36714 16.35621 16.33924 16.32197 16.31747 16.30933 16.29858 16.27998 16.26079 16.23642
0 0 0 0 0 0 0 0 0 0 0 0 0 0 0 0 0 0 0 0 0 0 0 0 0 0 0 0 0 0 0 0 0 0 0 0 0 0 0 0 0 0 0 0 0 0 0 0 0 0 0 0 0 0 0 0 0 0 0 0 0 0 0 0 0 0 0 0 0 0 0 0 0 0 0 0 0 0 0 0 0 0 0 0 0 0 0 0 0 0 0 0 0 0 0 0 0 17.88627 16.36988 16.35028 16.31031 16.26647 16.23636 16.21994 16.19331 16.17259 16.14875 16.1297 16.10819
0 0 0 0 0 0 0 0 0 0 0 0 0 0 0 0 0 0 0 0 0 0 0 0 0 0 0 0 0 0 0 0 0 0 0 0 0 0 0 0 0 0 0 0 0 0 0 0 0 0 0 0 0 0 0 0 0 0 18.01096 17.64143 17.3356 17.46189 0 0 0 0 0 0 0 0 0 0 0 0 0 0 0 0 0 0 0 0 0 0 0 0 0 0 0 0 0 0 0 0 0 16.79918 16.39341 16.38619 16.3415 16.29756 16.24104 16.18558 16.13334 16.08327 16.04823 16.02012 16.00359 15.98721 15.9718
0 0 0 0 0 0 0 0 0 0 0 0 0 0 0 0 0 0 0 0 0 0 0 0 0 0 0 0 0 0 0 0 0 0 0 0 0 0 0 0 0 0 0 0 0 0 0 0 0 0 0 0 0 0 0 0 17.52444 17.56044 17.2802 17.05656 16.96203 16.94292 17.02892 17.23347 17.4464 17.55063 17.53618 0 0 0 0 17.84254 0 0 0 0 0 0 0 0 0 0 0 0 0 0 0 0 0 0 0 0 0 17.32853 16.35798 16.38852 16.37101 16.32742 16.2592 16.19079 16.12276 16.06152 16.01364 15.96117 15.94471 15.92982 15.92011 15.90597 15.89683
0 0 0 0 0 0 0 0 0 0 0 0 0 0 0 0 0 0 0 0 0 0 0 0 0 0 0 0 0 0 0 0 0 0 0 0 0 0 0 0 0 0 0 0 0 0 0 0 0 0 0 0 0 0 0 17.67819 17.273 16.95698 16.7618 16.49565 16.54984 16.56889 16.7408 16.87497 17.01721 17.11846 17.19338 17.38292 17.58272 17.55606 17.50174 17.25121 17.03891 17.08557 17.24494 16.99876 17.0173 0 0 0 0 0 0 0 0 0 0 0 0 0 0 0 16.7037 16.38994 16.3761 16.3544 16.31754 16.24836 16.1739 16.09568 16.02723 15.95893 15.91243 15.87305 15.86764 15.86296 15.8639 15.86558 15.86924
0 0 0 0 0 0 0 0 0 0 0 0 0 0 0 0 0 0 0 0 0 0 0 0 0 0 0 0 0 0 0 0 0 0 0 0 0 0 0 0 0 0 0 0 0 0 0 0 0 0 0 17.32282 17.47929 17.65611 17.40688 16.97915 16.75081 16.48792 16.37153 16.43473 16.4817 16.49802 16.48927 16.68107 16.67447 16.85508 16.83486 16.82104 16.84777 16.75752 16.64754 16.67716 16.52062 16.71235 16.74245 16.94309 0 0 0 0 0 0 0 0 0 0 0 0 0 0 0 0 16.39478 16.39262 16.34306 16.29065 16.21642 16.13483 16.06102 15.98669 15.9315 15.88658 15.85728 15.83692 15.83869 15.83957 15.84492 15.85024 15.85326
0 0 0 0 0 0 0 0 0 0 0 0 0 0 0 0 0 0 0 0 0 0 0 0 0 0 0 0 0 0 0 0 0 0 0 0 0 0 0 0 0 0 0 0 0 0 0 0 0 0 17.51418 17.3638 17.12536 17.07601 16.96742 16.68134 16.34666 16.41851 16.27116 16.32815 16.36682 16.38298 16.39018 16.58015 16.57138 16.77118 16.77032 16.77785 16.61905 16.48209 16.51406 16.55056 16.4044 16.59429 16.61254 16.84175 16.87044 16.69788 16.72051 17.11561 17.59778 18.35068 0 0 0 0 0 0 0 17.31615 16.78817 16.41235 16.41257 16.36641 16.29252 16.20461 16.12685 16.05119 15.98101 15.92648 15.88454 15.85465 15.83259 15.8314 15.83545 15.84488 15.85662 15.86293 15.87234
0 0 0 0 0 0 0 0 0 0 0 0 0 0 0 0 0 0 0 0 0 0 0 0 0 0 0 0 0 0 0 0 0 0 0 0 0 0 0 0 0 0 0 0 0 0 0 0 0 18.353 17.21779 17.12213 17.06634 16.75625 16.59442 16.42204 16.4792 16.32161 16.35819 16.39969 16.43336 16.45113 16.4624 16.67365 16.69186 16.69586 16.70643 16.71201 16.70829 16.54343 16.5692 16.42244 16.27025 16.27763 16.29048 16.31791 16.34605 16.37586 16.41474 16.43167 16.8176 17.37499 0 17.15695 17.70611 18.20995 18.49363 18.22393 17.69072 16.42782 16.44279 16.44071 16.38865 16.30901 16.20122 16.11853 16.0375 15.9865 15.93271 15.89414 15.86629 15.85755 15.85134 15.85527 15.86009 15.87551 15.88922 15.89438 15.89621
0 0 0 0 0 0 0 0 0 0 0 0 0 0 0 0 0 0 0 0 0 0 0 0 0 0 0 0 0 0 0 0 0 0 0 0 0 0 0 0 0 0 0 0 0 0 0 0 0 18.03236 17.16985 16.88884 16.59507 16.46836 16.51455 16.34838 16.39036 16.43117 16.46839 16.49419 16.52041 16.5379 16.54771 16.55607 16.56739 16.40756 16.26463 16.41933 16.41705 16.41769 16.4236 16.26428 16.26266 16.26288 16.28521 16.29984 16.32977 16.35814 16.39266 16.41474 16.43646 16.46207 16.46212 16.47271 16.49411 16.49681 17.47544 17.65609 17.25739 16.42864 16.39834 16.34257 16.29151 16.20849 16.12916 16.05767 15.99622 15.95098 15.90732 15.88635 15.88601 15.88944 15.89843 15.90484 15.91285 15.92092 15.92635 15.9309 15.933
0 0 0 0 0 0 0 0 0 0 0 0 0 0 0 0 0 0 0 0 0 0 0 0 0 0 0 0 0 0 0 0 0 0 0 0 0 0 0 0 0 0 0 0 0 0 0 0 0 17.77745 17.10614 16.8011 16.47231 16.55469 16.3955 16.43974 16.49692 16.54175 16.57388 16.59614 16.41631 16.43008 16.43184 16.4373 16.43888 16.27367 16.28143 16.28049 16.26099 16.25063 16.25101 16.24785 16.24328 16.24817 16.26982 16.27606 16.2863 16.30294 16.32342 16.347 16.36775 16.38737 16.39226 16.39743 16.41371 16.43183 16.44253 16.43705 16.39519 16.34169 16.29474 16.24411 16.18717 16.11359 16.06026 16.01122 15.97407 15.91818 15.91472 15.92423 15.9299 15.93439 15.94399 15.94948 15.96001 15.96063 15.9632 15.97105 15.97446
0 0 0 0 0 0 0 0 0 0 0 0 0 0 0 0 0 0 0 0 0 0 0 0 0 0 0 0 0 0 0 0 0 0 0 0 0 0 0 0 0 0 0 0 0 0 0 0 0 17.69213 16.97245 16.66308 16.53373 16.39518 16.47602 16.55517 16.41808 16.44506 16.27066 16.27303 16.27913 16.28312 16.28635 16.28563 16.27851 16.27477 16.27618 16.26766 16.25093 16.22638 16.2186 16.20518 16.18581 16.1809 16.21177 16.20243 16.20828 16.21894 16.23626 16.26058 16.27822 16.28345 16.2782 16.27905 16.28055 16.28824 16.29651 16.2849 16.24173 16.20203 16.16175 16.13174 16.09285 16.04548 16.01116 15.97321 15.95055 15.93506 15.94172 15.95361 15.97 15.98376 15.99461 16.00159 16.00637 16.01014 16.0111 16.01189 16.01641
0 0 0 0 0 0 0 0 0 0 0 0 0 0 0 0 0 0 0 0 0 0 0 0 0 0 0 0 0 0 0 0 0 0 0 0 0 0 0 0 0 0 0 0 0 0 0 0 0 17.55927 17.00943 16.69747 16.57336 16.43887 16.5234 16.40957 16.27254 16.29709 16.30769 16.30549 16.29754 16.289 16.28209 16.27636 16.26958 16.26707 16.26713 16.26126 16.24437 16.21816 16.20312 16.18438 16.17093 16.1578 16.14211 16.11285 16.1011 16.1085 16.12612 16.14782 16.16214 16.16202 16.13897 16.13361 16.14251 16.16239 16.16713 16.16704 16.12999 16.08261 16.05108 16.0279 16.00358 15.9906 15.9697 15.9647 15.96853 15.9677 15.97444 15.98534 16.00497 16.03054 16.03707 16.0459 16.0499 16.05616 16.05982 16.06275 16.05832
0 0 0 0 0 0 0 0 0 0 0 0 0 0 0 0 0 0 0 0 0 0 0 0 0 0 0 0 0 0 0 0 0 0 0 0 0 0 0 0 0 0 0 0 0 0 0 0 0 17.60135 16.81963 16.50203 16.62352 16.49782 16.58516 16.42556 16.29034 16.30208 16.30021 16.28583 16.26918 16.25937 16.25326 16.24532 16.237 16.22477 16.20608 16.19299 16.17057 16.15001 16.13235 16.10822 16.09087 16.08107 16.06554 16.06069 16.06008 16.06451 16.07337 16.07819 16.06928 16.0581 16.04587 16.03795 16.0357 16.04805 16.04606 16.03716 16.02427 16.00636 15.99736 15.99121 15.97883 15.97873 15.97984 15.98312 15.99348 16.00182 16.0175 16.02854 16.0456 16.06361 16.07981 16.08928 16.09564 16.09714 16.09653 16.09964 16.10096
0 0 0 0 0 0 0 0 0 0 0 0 0 0 0 0 0 0 0 0 0 0 0 0 0 0 0 0 0 0 0 0 0 0 0 0 0 0 0 0 0 0 0 0 0 0 0 0 0 17.10388 16.89067 16.55018 16.45851 16.37083 16.43738 16.27236 16.30473 16.2967 16.28405 16.26294 16.24292 16.22514 16.20866 16.20006 16.18751 16.1745 16.15609 16.14854 16.12994 16.10504 16.07404 16.04253 16.02458 16.00916 15.99975 15.99067 15.98494 15.98687 15.99704 16.00462 15.99883 16.00039 15.99922 15.99497 15.99806 15.99331 15.99106 15.98419 15.97227 15.9589 15.95585 15.96852 15.97874 15.99271 16.00129 16.01526 16.03588 16.04786 16.05631 16.06901 16.08214 16.09565 16.10964 16.12745 16.13013 16.13504 16.13588 16.14236 16.15296
0 0 0 0 0 0 0 0 0 0 0 0 0 0 0 0 0 0 0 0 0 0 0 0 0 0 0 0 0 0 0 0 0 0 0 0 0 0 0 0 0 0 0 0 0 0 0 0 0 0 16.67275 16.63113 16.54465 16.25698 16.2971 16.30025 16.32127 16.30402 16.27648 16.25662 16.22676 16.20206 16.18336 16.16621 16.15253 16.13641 16.1265 16.11221 16.09287 16.07047 16.04052 16.02044 16.00635 15.99228 15.97638 15.96659 15.96015 15.95797 15.96182 15.97235 15.96617 15.96133 15.95235 15.96012 15.96445 15.963 15.96156 15.96511 15.96375 15.96526 15.96737 15.98 15.9938 16.01436 16.03624 16.05496 16.07232 16.08614 16.10014 16.11208 16.12328 16.13743 16.15276 16.167 16.17217 16.17062 16.17604 16.18685 16.19337
0 0 0 0 0 0 0 0 0 0 0 0 0 0 0 0 0 0 0 0 0 0 0 0 0 0 0 0 0 0 0 0 0 0 0 0 0 0 0 0 0 0 0 0 0 0 0 0 0 0 16.83155 16.4602 16.21246 16.29275 16.32461 16.33945 16.33712 16.30817 16.27871 16.24368 16.21328 16.18235 16.16245 16.15348 16.13364 16.11798 16.10919 16.09845 16.0808 16.06114 16.03874 16.01685 16.00533 15.99022 15.97736 15.96863 15.9617 15.95617 15.95725 15.95987 15.95371 15.95403 15.95589 15.95483 15.95114 15.95001 15.959 15.96874 15.97874 15.9753 15.98663 16.0107 16.02469 16.0438 16.07314 16.08584 16.10528 16.12275 16.13914 16.15725 16.17211 16.18298 16.19538 16.20341 16.20881 16.20786 16.21754 16.2291 16.24079
0 0 0 0 0 0 0 0 0 0 0 0 0 0 0 0 0 0 0 0 0 0 0 0 0 0 0 0 0 0 0 0 0 0 0 0 0 0 0 0 0 0 0 0 0 0 0 0 0 0 0 0 16.24433 16.29715 16.3286 16.35362 16.35559 16.31191 16.27314 16.23885 16.20105 16.17086 16.14975 16.13938 16.12353 16.11105 16.11137 16.10517 16.08424 16.06984 16.05186 16.03553 16.01744 16.00387 15.98713 15.9827 15.97147 15.9655 15.96656 15.97053 15.96818 15.96671 15.96182 15.95676 15.95786 15.95927 15.97078 15.98359 15.99461 16.007 16.02438 16.04312 16.0557 16.08994 16.10996 16.13293 16.15641 16.16392 16.17986 16.19728 16.21231 16.22141 16.23122 16.237 16.24921 16.24634 16.25073 16.25924 16.27599
0 0 0 0 0 0 0 0 0 0 0 0 0 0 0 0 0 0 0 0 0 0 0 0 0 0 0 0 0 0 0 0 0 0 0 0 0 0 0 0 0 0 0 0 0 0 0 0 0 0 18.38677 16.87353 16.47207 16.30994 16.33717 16.35442 16.34099 16.30395 16.26674 16.22626 16.19574 16.16835 16.14777 16.13754 16.12803 16.12062 16.12283 16.10948 16.10254 16.09616 16.07693 16.05673 16.04452 16.03222 16.02111 16.00263 15.98755 15.98066 15.9811 15.98563 15.98705 15.98279 15.98598 15.98066 15.98084 15.98452 15.99756 16.00988 16.02155 16.03678 16.0561 16.07762 16.10387 16.12953 16.15152 16.17768 16.19539 16.20565 16.22251 16.23164 16.24198 16.25018 16.25942 16.27072 16.28054 16.28146 16.2849 16.29862 16.31069
0 0 0 0 0 0 0 0 0 0 0 0 0 0 0 0 0 0 0 0 0 0 0 0 0 0 0 0 0 0 0 0 0 0 0 0 0 0 0 0 0 0 0 0 0 0 0 0 0 0 17.74978 16.88708 16.69782 16.3095 16.32164 16.32049 16.32019 16.27517 16.24542 16.21619 16.19729 16.17872 16.16384 16.15471 16.14788 16.1478 16.1466 16.13254 16.13541 16.12409 16.10498 16.08684 16.07052 16.05591 16.03862 16.02568 16.0215 16.01189 16.00459 16.00775 16.00549 16.01314 16.01161 16.0138 16.02046 16.02445 16.02989 16.03774 16.05209 16.07534 16.10533 16.13563 16.16064 16.18162 16.20322 16.22577 16.24439 16.25508 16.26248 16.27058 16.2782 16.28803 16.30206 16.30886 16.31194 16.31601 16.3216 16.33399 16.35182
0 0 0 0 0 0 0 0 0 0 0 0 0 0 0 0 0 0 0 0 0 0 0 0 0 0 0 0 0 0 0 0 0 0 0 0 0 0 0 0 0 0 0 0 0 0 0 0 0 0 0 16.90114 16.48264 16.30104 16.29835 16.28377 16.29803 16.26131 16.23759 16.22473 16.20907 16.19544 16.19218 16.18958 16.18293 16.18453 16.18169 16.18092 16.17492 16.16561 16.15217 16.12606 16.10691 16.0867 16.06708 16.05079 16.03932 16.03317 16.03336 16.03578 16.03518 16.03808 16.04411 16.04375 16.05514 16.0676 16.07731 16.08514 16.10935 16.14077 16.17582 16.19891 16.22337 16.24753 16.26643 16.28408 16.29558 16.30567 16.31171 16.31389 16.32019 16.32863 16.34006 16.35422 16.35146 16.35468 16.35961 16.37429 16.39503
0 0 0 0 0 0 0 0 0 0 0 0 0 0 0 0 0 0 0 0 0 0 0 0 0 0 0 0 0 0 0 0 0 0 0 0 0 0 0 0 0 0 0 0 0 0 0 0 0 0 0 16.6754 16.28577 16.29992 16.29079 16.27313 16.2806 16.25011 16.24162 16.23391 16.22824 16.23701 16.2431 16.2385 16.23202 16.23123 16.23862 16.23463 16.2261 16.2112 16.19383 16.16992 16.14629 16.12482 16.10595 16.08303 16.07382 16.06846 16.06678 16.0726 16.07544 16.08005 16.0815 16.08947 16.09694 16.10459 16.12232 16.14853 16.1758 16.21006 16.2431 16.26311 16.29446 16.31339 16.32887 16.34578 16.362 16.3694 16.37247 16.36701 16.368 16.37104 16.37591 16.38482 16.38795 16.3849 16.39362 16.41262 16.43093
0 0 0 0 0 0 0 0 0 0 0 0 0 0 0 0 0 0 0 0 0 0 0 0 0 0 0 0 0 0 0 0 0 0 0 0 0 0 0 0 0 0 0 0 0 0 0 0 0 0 0 16.30379 16.30474 16.31228 16.29754 16.2754 16.26807 16.25181 16.25129 16.24976 16.256 16.2758 16.28518 16.27874 16.27325 16.29393 16.30173 16.28823 16.27663 16.26064 16.24505 16.22037 16.19727 16.17325 16.14373 16.12437 16.11269 16.10429 16.10533 16.11233 16.12511 16.1389 16.14694 16.15471 16.16147 16.1735 16.195 16.22451 16.25317 16.28652 16.31194 16.33742 16.35492 16.37018 16.38515 16.40229 16.42203 16.42906 16.43041 16.42919 16.42628 16.41922 16.42115 16.42515 16.42808 16.42986 16.43651 16.44794 16.45875
0 0 0 0 0 0 0 0 0 0 0 0 0 0 0 0 0 0 0 0 0 0 0 0 0 0 0 0 0 0 0 0 0 0 0 0 0 0 0 0 0 0 0 0 0 0 0 0 0 18.24224 17.28793 16.34093 16.32929 16.31137 16.29993 16.27987 16.2709 16.25263 16.26332 16.27732 16.29853 16.31939 16.32961 16.32566 16.32672 16.3454 16.35244 16.34479 16.32615 16.31459 16.30014 16.28408 16.26796 16.23502 16.20567 16.18143 16.1659 16.16121 16.16283 16.16957 16.17844 16.19267 16.20411 16.21403 16.22381 16.2418 16.26573 16.29657 16.32896 16.35689 16.38721 16.41023 16.42616 16.44271 16.45696 16.47561 16.48905 16.49798 16.49426 16.4909 16.48617 16.47791 16.46645 16.46611 16.4694 16.4768 16.48389 16.48312 16.48829
0 0 0 0 0 0 0 0 0 0 0 0 0 0 0 0 0 0 0 0 0 0 0 0 0 0 0 0 0 0 0 0 0 0 0 0 0 0 0 0 0 0 0 0 0 0 0 0 17.3685 16.85282 16.60207 16.37223 16.35254 16.33018 16.30342 16.29413 16.28633 16.27604 16.28413 16.30804 16.33715 16.36142 16.37794 16.38235 16.39122 16.40516 16.41565 16.40426 16.38998 16.36854 16.35469 16.33738 16.31406 16.28866 16.25618 16.22629 16.21422 16.20781 16.21497 16.23005 16.24128 16.26067 16.27469 16.28709 16.30203 16.31673 16.34132 16.36655 16.39412 16.41649 16.4423 16.45923 16.48165 16.5053 16.52398 16.54038 16.5575 16.57083 16.5703 16.56465 16.55639 16.54697 16.53305 16.52409 16.52192 16.51772 16.52139 16.51976 16.52114
0 0 0 0 0 0 0 0 0 0 0 0 0 0 0 0 0 0 0 0 0 0 0 0 0 0 0 0 0 0 0 0 0 0 0 0 0 0 0 0 0 0 0 0 0 17.01184 16.89319 17.42528 16.91293 16.93153 16.6719 16.4143 16.38294 16.34905 16.32719 16.3186 16.3117 16.30352 16.31125 16.33599 16.36967 16.39384 16.41973 16.42425 16.44524 16.45598 16.46454 16.46467 16.45165 16.43894 16.41342 16.39211 16.37302 16.34483 16.31583 16.28792 16.27284 16.26814 16.2741 16.28405 16.2957 16.31546 16.33169 16.34998 16.37522 16.39279 16.41815 16.43725 16.45913 16.48849 16.50633 16.52687 16.55089 16.57415 16.59532 16.60579 16.62975 16.63924 16.63838 16.63705 16.62649 16.61218 16.6006 16.58831 16.57433 16.56829 16.56487 16.5668 16.56392
0 0 0 0 0 0 0 0 0 0 0 0 0 0 0 0 0 0 0 0 0 0 0 0 0 0 0 0 0 0 0 0 0 0 0 0 0 0 0 0 0 0 19.0609 18.74435 17.7593 16.94563 16.44923 16.46783 16.98441 16.72071 16.47484 16.43784 16.40645 16.37534 16.35422 16.34684 16.33989 16.33625 16.35349 16.37998 16.41282 16.4437 16.46316 16.47754 16.49601 16.51316 16.52332 16.51872 16.50393 16.48299 16.4628 16.44482 16.42564 16.40276 16.37761 16.35264 16.33555 16.3335 16.34074 16.35776 16.36863 16.38775 16.40631 16.422 16.44412 16.46593 16.48501 16.50288 16.52553 16.54837 16.5644 16.58985 16.61511 16.64212 16.66042 16.68006 16.69637 16.70839 16.71516 16.70825 16.6961 16.6823 16.6669 16.64734 16.63154 16.61671 16.60962 16.60554 16.60147
0 0 0 0 0 0 0 0 0 0 0 0 0 0 0 0 0 0 0 0 0 0 0 0 0 0 0 0 0 0 0 0 0 0 0 0 0 0 0 0 18.14977 18.54285 18.80026 17.8346 16.99364 16.48305 16.51074 16.53277 16.53124 16.50764 16.48245 16.45805 16.42689 16.39823 16.38102 16.36836 16.36917 16.37589 16.39671 16.42627 16.4611 16.48419 16.51054 16.53114 16.54994 16.56317 16.57088 16.57133 16.56105 16.55029 16.52844 16.5132 16.49827 16.4675 16.43528 16.4101 16.39401 16.38331 16.39497 16.41559 16.43716 16.45144 16.47426 16.49569 16.51478 16.53821 16.55778 16.57773 16.59637 16.61666 16.63761 16.6566 16.67698 16.69634 16.71736 16.74012 16.76594 16.76474 16.77368 16.76973 16.75926 16.75027 16.72953 16.70934 16.68986 16.67338 16.66472 16.6546 16.64489
0 0 0 0 0 0 0 0 0 0 0 0 0 0 0 0 0 0 0 0 0 0 0 0 0 0 0 0 0 0 0 0 0 0 0 0 0 0 0 18.37473 18.1187 17.56278 17.30449 16.49419 16.51003 16.52712 16.54303 16.56272 16.55392 16.52564 16.49401 16.47104 16.45055 16.43095 16.41843 16.41786 16.42386 16.44149 16.4568 16.48435 16.51427 16.5398 16.5672 16.5827 16.60178 16.62091 16.62455 16.62595 16.61757 16.60964 16.60182 16.58429 16.56439 16.53778 16.51118 16.49081 16.4762 16.46801 16.4711 16.48393 16.49967 16.51774 16.53569 16.55513 16.57438 16.60187 16.62218 16.64405 16.65878 16.67642 16.69543 16.71044 16.72878 16.75359 16.78275 16.79972 16.81947 16.82528 16.82857 16.82588 16.81102 16.79261 16.78061 16.75928 16.74248 16.72571 16.71524 16.70689 16.69553
0 0 0 0 0 0 0 0 0 0 0 0 0 0 0 0 0 0 0 0 0 0 0 0 0 0 0 0 0 0 0 0 0 0 0 0 0 0 17.59867 17.30448 17.04168 16.52477 16.54683 16.55723 16.56484 16.56867 16.57458 16.58129 16.57234 16.55617 16.52814 16.5106 16.49276 16.47416 16.46029 16.46004 16.47727 16.49543 16.51717 16.55207 16.57646 16.59896 16.61873 16.64569 16.66413 16.68023 16.69086 16.69415 16.68856 16.68385 16.67473 16.66036 16.6375 16.61276 16.58145 16.56099 16.5509 16.54456 16.54668 16.55344 16.56689 16.58754 16.60591 16.62738 16.64723 16.66889 16.69023 16.70354 16.71825 16.73443 16.7457 16.75913 16.77896 16.80425 16.83258 16.85031 16.86296 16.86807 16.86656 16.86301 16.85648 16.84043 16.82701 16.81467 16.80064 16.78545 16.77704 16.764 16.74745
0 0 0 0 0 0 0 0 0 0 0 0 0 0 0 0 0 0 0 0 0 0 0 0 0 0 0 0 0 0 0 0 0 0 19.28984 19.89866 19.03339 17.3469 16.52398 16.54504 16.56089 16.57066 16.57981 16.58691 16.59381 16.59109 16.59721 16.60425 16.6 16.58939 16.57417 16.57236 16.56057 16.54378 16.53869 16.54192 16.5572 16.57188 16.59238 16.61158 16.6326 16.64841 16.6719 16.69801 16.7157 16.73538 16.75162 16.76477 16.76722 16.76177 16.75568 16.74353 16.72391 16.70966 16.68557 16.66195 16.64854 16.63537 16.62988 16.63216 16.63834 16.65338 16.67272 16.68814 16.70929 16.72578 16.74864 16.76509 16.77678 16.79052 16.81534 16.83404 16.85136 16.87137 16.88835 16.90277 16.91405 16.90968 16.90709 16.89985 16.89367 16.87938 16.86963 16.85779 16.85079 16.83888 16.83179 16.82713 16.79786
0 0 0 0 0 0 0 0 0 0 0 0 0 0 0 0 0 0 0 0 0 0 0 0 0 0 0 0 0 19.76828 19.36358 19.13643 19.13124 18.90769 18.62441 18.03615 16.56174 16.57461 16.58704 16.59943 16.60521 16.60602 16.60884 16.6102 16.61742 16.60855 16.61478 16.61896 16.61836 16.61243 16.61362 16.61695 16.62071 16.62285 16.61443 16.61817 16.62904 16.63781 16.66294 16.68132 16.69616 16.71241 16.73477 16.75541 16.77449 16.79168 16.80694 16.81765 16.82031 16.8226 16.82049 16.81096 16.79664 16.78915 16.77076 16.75619 16.73981 16.72783 16.7276 16.72834 16.73349 16.74284 16.7519 16.76225 16.77886 16.79698 16.80603 16.82077 16.8356 16.85262 16.87285 16.88765 16.90721 16.92328 16.94069 16.94888 16.95155 16.95447 16.95563 16.95381 16.94924 16.93271 16.92486 16.91855 16.9025 16.89296 16.88213 16.86199 16.82754
0 0 0 0 0 0 0 0 0 0 0 0 0 0 0 0 0 0 0 0 0 0 0 0 0 19.52198 18.79803 18.8034 17.86654 17.2115 16.89968 16.61468 16.60862 16.60638 16.60096 16.59954 16.6022 16.61436 16.62838 16.639 16.63687 16.63462 16.6289 16.6272 16.62603 16.61621 16.62769 16.63985 16.6485 16.66121 16.67349 16.68478 16.69037 16.68769 16.673 16.68151 16.68735 16.69771 16.71118 16.73256 16.7483 16.76507 16.78517 16.80917 16.82832 16.85181 16.86766 16.87746 16.88487 16.89136 16.89511 16.89289 16.88254 16.87093 16.8554 16.84266 16.82669 16.81407 16.80772 16.80705 16.81223 16.81935 16.83326 16.84491 16.85599 16.8665 16.87569 16.88915 16.90623 16.92193 16.93561 16.94368 16.95888 16.97073 16.98126 16.99268 16.99912 16.99164 16.99273 16.98873 16.99104 16.99058 16.98792 16.98337 16.96613 16.95834 16.93701 16.90113 16.84061
0 0 0 0 0 0 0 0 0 0 0 0 0 0 0 0 0 0 0 0 0 0 0 19.68899 18.82682 18.25058 17.93142 17.60856 16.66263 16.66011 16.65611 16.64644 16.64104 16.63253 16.62436 16.61989 16.62576 16.64162 16.65812 16.66495 16.65807 16.64415 16.62662 16.62059 16.62114 16.63103 16.64466 16.66386 16.68172 16.70435 16.72423 16.73938 16.74563 16.74399 16.73442 16.73044 16.73848 16.74968 16.76007 16.77613 16.79668 16.81322 16.82848 16.85 16.86987 16.89476 16.91106 16.92655 16.94055 16.95043 16.95701 16.96143 16.95986 16.95854 16.94908 16.93896 16.93125 16.92011 16.91379 16.9067 16.90838 16.90862 16.9102 16.91693 16.92462 16.92874 16.93135 16.94555 16.95859 16.97634 16.98958 16.9999 17.01753 17.02843 17.0406 17.04182 17.041 17.04073 17.03122 17.03365 17.03567 17.03799 17.04515 17.04261 17.01847 17.00063 16.96902 16.91979 16.84334
0 0 0 0 0 0 0 0 0 0 0 0 0 0 0 0 0 0 0 0 0 0 19.0937 18.25322 17.9462 17.95673 17.63978 17.30226 16.67727 16.6661 16.65384 16.64343 16.63529 16.62876 16.62335 16.62396 16.63001 16.64146 16.66023 16.66497 16.6555 16.64807 16.63854 16.63599 16.6364 16.65202 16.6706 16.69447 16.71729 16.74028 16.75701 16.77073 16.77567 16.77744 16.7753 16.77532 16.78061 16.78715 16.7979 16.81112 16.83247 16.85117 16.87276 16.8906 16.91699 16.93869 16.96205 16.98502 17.00048 17.00783 17.01371 17.01806 17.02049 17.02594 17.0226 17.0129 17.00518 17.00336 16.99761 16.99227 16.99239 16.9954 16.99432 17.0035 17.00411 17.00975 17.00941 17.01854 17.02618 17.0372 17.04982 17.05667 17.06998 17.07596 17.07665 17.07564 17.07304 17.0744 17.06855 17.0668 17.07617 17.08688 17.09618 17.09002 17.07087 17.045 17.00098 16.92794 16.84428
0 0 0 0 0 0 0 0 0 0 0 0 0 0 0 0 0 0 0 0 0 20.30306 19.29346 18.23751 17.62443 17.63055 17.304 17.3019 16.67196 16.65997 16.64648 16.63695 16.62529 16.61877 16.61723 16.61789 16.6233 16.6332 16.64965 16.65798 16.65397 16.65172 16.64738 16.65506 16.6607 16.67741 16.69872 16.72305 16.74888 16.76822 16.78459 16.79554 16.80713 16.81413 16.82044 16.82443 16.82384 16.82904 16.83832 16.85463 16.87175 16.89272 16.90889 16.92981 16.95649 16.9845 17.00917 17.03744 17.05428 17.06771 17.0783 17.08085 17.08734 17.09675 17.10099 17.10207 17.0942 17.08964 17.07781 17.06987 17.06296 17.05889 17.05703 17.06173 17.07057 17.07005 17.07472 17.08333 17.09044 17.09498 17.09626 17.10385 17.1111 17.10862 17.11054 17.12002 17.12243 17.11355 17.10537 17.10498 17.10889 17.11705 17.12441 17.11671 17.09539 17.07065 17.01029 16.9265 16.83175
0 0 0 0 0 0 0 0 0 0 0 0 0 0 0 0 0 0 0 0 0 0 0 18.81734 17.93948 17.63149 17.30164 16.98871 16.66322 16.64725 16.63737 16.63093 16.61392 16.61503 16.6115 16.6123 16.6168 16.6316 16.64581 16.65257 16.6563 16.66286 16.66886 16.67291 16.67889 16.69497 16.71902 16.74802 16.7717 16.78999 16.80522 16.82425 16.83805 16.84884 16.85426 16.8595 16.87567 16.88568 16.89088 16.90593 16.92623 16.94019 16.95347 16.9779 17.00296 17.02518 17.05242 17.07892 17.09444 17.11135 17.12459 17.13527 17.14708 17.16028 17.17285 17.17614 17.1727 17.16875 17.16061 17.15455 17.14485 17.1399 17.13886 17.13801 17.1394 17.13906 17.1446 17.14716 17.14736 17.13989 17.14047 17.14249 17.14536 17.14399 17.1573 17.16779 17.16428 17.15656 17.15654 17.1586 17.15699 17.15918 17.16629 17.15772 17.13444 17.09548 17.02229 16.92878 16.82391
0 0 0 0 0 0 0 0 0 0 0 0 0 0 0 0 0 0 0 0 0 20.6658 20.39373 19.43057 17.97475 17.64969 17.313 17.30854 16.95809 16.64051 16.62896 16.61888 16.61406 16.60813 16.61255 16.61436 16.6209 16.6283 16.64706 16.65819 16.66585 16.67388 16.68339 16.69209 16.69652 16.71341 16.7358 16.77246 16.79825 16.81987 16.83914 16.85971 16.87337 16.8885 16.89495 16.91159 16.92389 16.93231 16.94257 16.9519 16.966 16.97893 16.99733 17.02014 17.04807 17.07376 17.09905 17.1231 17.14007 17.15321 17.17067 17.18144 17.19499 17.21652 17.23133 17.2364 17.23575 17.22509 17.21831 17.21166 17.20629 17.20425 17.20882 17.21471 17.21785 17.21317 17.21706 17.21243 17.20505 17.20605 17.20561 17.1974 17.19911 17.2038 17.20386 17.20283 17.20204 17.2018 17.20422 17.20234 17.19826 17.19537 17.19558 17.18697 17.16763 17.11903 17.03689 16.93823 16.82557
0 0 0 0 0 0 0 0 0 0 0 0 0 0 0 0 0 0 0 20.66594 20.5995 20.50784 19.70078 18.62581 18.01073 17.68183 17.33645 17.65741 16.66461 16.63838 16.62294 16.61483 16.61154 16.61021 16.61536 16.61908 16.62416 16.6388 16.65617 16.66977 16.67698 16.68658 16.69529 16.70734 16.71455 16.73664 16.76074 16.79274 16.82483 16.85095 16.87452 16.90358 16.92515 16.94338 16.95534 16.96897 16.98032 16.98611 16.9991 17.00507 17.01264 17.02167 17.0393 17.059 17.08169 17.10515 17.12846 17.15541 17.17461 17.19321 17.20899 17.222 17.24503 17.27315 17.28818 17.29653 17.29949 17.30108 17.29403 17.28977 17.28248 17.27659 17.27748 17.27717 17.27514 17.27021 17.27008 17.26565 17.26355 17.25904 17.25484 17.2531 17.25817 17.25516 17.25631 17.25878 17.2638 17.2627 17.25881 17.25765 17.25257 17.24352 17.23447 17.22285 17.19311 17.1321 17.05022 16.94715 16.83356
0 0 0 0 0 0 0 0 0 0 0 0 0 0 0 0 0 0 20.15926 20.03561 19.68973 19.23721 18.64174 18.01458 17.70804 17.70283 17.35696 17.00169 16.67257 16.63557 16.62098 16.61325 16.6129 16.61317 16.61653 16.62633 16.64027 16.65594 16.67178 16.68441 16.69737 16.70965 16.71913 16.73112 16.74352 16.76816 16.79645 16.82623 16.85953 16.88875 16.91786 16.94826 16.96899 16.99064 17.01348 17.02452 17.03726 17.04933 17.05612 17.06002 17.06608 17.07266 17.08694 17.10532 17.12756 17.14883 17.16953 17.18856 17.20787 17.22259 17.24214 17.25715 17.28681 17.31525 17.33178 17.34231 17.35119 17.35629 17.35784 17.36577 17.36317 17.36208 17.36163 17.35814 17.34898 17.34151 17.32959 17.32162 17.31726 17.31027 17.30271 17.2943 17.2947 17.29551 17.29668 17.30386 17.30966 17.30818 17.30674 17.30444 17.29917 17.29105 17.27981 17.25922 17.22036 17.15559 17.07269 16.97418 16.86704
0 0 0 0 0 0 0 0 0 0 0 0 0 0 0 0 0 20.59996 20.05469 19.4401 18.94862 18.34125 18.02696 18.04496 18.05446 17.69412 17.34447 16.69835 16.6621 16.62997 16.61725 16.61259 16.61072 16.60854 16.61994 16.63494 16.65233 16.66813 16.68487 16.70196 16.7183 16.73221 16.74547 16.76368 16.77887 16.80214 16.83091 16.85787 16.89291 16.92803 16.96046 16.99666 17.02302 17.04523 17.06096 17.07702 17.07868 17.0796 17.0872 17.10311 17.11098 17.11845 17.12202 17.13454 17.15167 17.18006 17.20406 17.2171 17.23303 17.25219 17.2724 17.29413 17.32704 17.34915 17.3643 17.37681 17.38727 17.39748 17.40434 17.41186 17.41668 17.4165 17.41489 17.40907 17.39928 17.38541 17.37225 17.36582 17.35772 17.34876 17.34354 17.34173 17.34074 17.34341 17.34555 17.35014 17.35664 17.34886 17.34181 17.33309 17.32254 17.31536 17.30471 17.28077 17.23501 17.17233 17.09625 17.00543 16.91117
0 0 0 0 0 0 0 0 0 0 0 0 0 0 0 0 20.1039 20.07879 19.23342 18.67676 18.36787 18.04981 18.03416 18.04683 18.05185 17.69517 17.33686 16.69312 16.65192 16.62854 16.61855 16.61527 16.60968 16.6149 16.62762 16.6475 16.66648 16.6855 16.70416 16.72041 16.73843 16.75647 16.77396 16.78969 16.81052 16.83639 16.86398 16.89706 16.93133 16.96894 17.00555 17.04377 17.0727 17.09474 17.11381 17.13245 17.12991 17.13726 17.14745 17.1566 17.16542 17.16808 17.17316 17.17584 17.18668 17.20395 17.21902 17.23237 17.25192 17.2704 17.28977 17.31626 17.34633 17.37337 17.39488 17.41028 17.42177 17.43622 17.44644 17.46659 17.47391 17.47819 17.47385 17.46105 17.44809 17.42938 17.41638 17.40097 17.38826 17.37934 17.37069 17.37136 17.37495 17.37837 17.38299 17.3781 17.38164 17.37552 17.36571 17.35815 17.35451 17.34322 17.33428 17.30774 17.26471 17.20988 17.13603 17.04491 16.95223
0 0 0 0 0 0 0 0 0 0 0 0 0 0 0 20.66424 19.93165 19.24488 18.66588 18.36975 18.04237 18.04758 18.02836 17.69201 17.68994 17.35518 16.69993 16.67834 16.64709 16.62756 16.61814 16.61379 16.61718 16.62595 16.63943 16.6655 16.68749 16.71036 16.7323 16.75216 16.77508 16.79743 16.82145 16.84408 16.86781 16.89535 16.92312 16.95715 16.99121 17.02787 17.05896 17.09199 17.11984 17.14393 17.16701 17.18461 17.19553 17.20721 17.21833 17.2333 17.23267 17.23321 17.24382 17.23862 17.23703 17.24379 17.24883 17.2553 17.27255 17.28475 17.30746 17.333 17.36332 17.39278 17.41843 17.43514 17.45086 17.46993 17.48611 17.50386 17.51715 17.51961 17.51637 17.51369 17.50394 17.4846 17.46844 17.44918 17.43539 17.42243 17.4099 17.40577 17.40813 17.40855 17.40869 17.40783 17.40531 17.39319 17.38185 17.36951 17.36535 17.36225 17.34765 17.32116 17.28852 17.24225 17.17488 17.08965 17.00336
0 0 0 0 0 0 0 0 0 0 0 0 0 0 20.00388 19.99889 19.30188 18.67852 18.35968 18.0201 18.0205 17.67034 17.64984 17.65984 17.33425 17.00052 16.68321 16.66368 16.64487 16.63196 16.62315 16.62304 16.62917 16.64255 16.66551 16.68542 16.71101 16.73597 16.76182 16.7888 16.81909 16.84639 16.87816 16.91044 16.93628 16.97002 17.00234 17.03937 17.07593 17.10446 17.1268 17.15711 17.18333 17.20903 17.23122 17.25068 17.26736 17.27964 17.28689 17.29777 17.30358 17.30592 17.31261 17.31099 17.29613 17.28582 17.28265 17.28314 17.29046 17.29935 17.31626 17.34022 17.37524 17.41289 17.4416 17.46408 17.49089 17.51466 17.53197 17.54013 17.54903 17.55199 17.55243 17.54571 17.53905 17.52371 17.50896 17.48927 17.47136 17.45492 17.44212 17.43591 17.42925 17.42993 17.42899 17.42483 17.41914 17.40865 17.39786 17.38671 17.37908 17.37113 17.35392 17.32482 17.2962 17.26091 17.19593 17.1174 17.03155
0 0 0 0 0 0 0 0 0 0 0 0 0 19.87644 20.04742 19.30498 18.6826 18.3613 18.01727 18.00015 17.64654 17.62625 17.63055 17.64594 17.31423 16.67646 16.66301 16.65648 16.64381 16.63859 16.63803 16.64392 16.65625 16.67083 16.69496 16.72001 16.74512 16.77702 16.81156 16.8439 16.87934 16.9157 16.95196 16.98344 17.01281 17.04632 17.08266 17.11933 17.14739 17.17452 17.19391 17.2218 17.24899 17.27119 17.28762 17.30463 17.32298 17.33428 0 0 0 17.30737 17.32901 17.38653 17.36987 17.34355 17.3243 17.31387 17.30748 17.30608 17.3199 17.34571 17.38287 17.42108 17.45754 17.4919 17.5222 17.54554 17.56577 17.57327 17.58481 17.59115 17.59088 17.58515 17.58004 17.57234 17.55623 17.54083 17.51884 17.49664 17.47827 17.46606 17.45735 17.45234 17.44746 17.43739 17.42897 17.41658 17.40649 17.3963 17.39065 17.37998 17.36078 17.34078 17.32006 17.28431 17.22401 17.14639 17.05862
0 0 0 0 0 0 0 0 0 0 0 0 0 20.25201 19.32988 18.69308 18.3453 17.98646 17.98665 17.63145 17.62277 17.61269 17.62963 16.66445 16.66536 16.66257 16.6582 16.65253 16.65008 16.64928 16.65823 16.66847 16.68012 16.6961 16.71831 16.7499 16.78594 16.82117 16.86829 16.90914 16.95037 16.99327 17.03215 17.07175 17.10607 17.13446 17.16894 17.20265 17.22806 17.24956 17.26372 18.05297 17.29523 17.30904 17.32776 17.71768 18.53019 19.33468 0 0 0 0 0 17.8148 17.41685 17.39153 17.36196 17.3408 17.3279 17.32427 17.3371 17.35957 17.38771 17.43189 17.4774 17.51267 17.54599 17.57011 17.59045 17.59906 17.61109 17.61778 17.61726 17.61249 17.60884 17.60505 17.59988 17.58495 17.56751 17.54301 17.5289 17.5128 17.50598 17.49373 17.48415 17.46809 17.45139 17.43503 17.4239 17.41777 17.41099 17.39277 17.37377 17.35644 17.33172 17.30297 17.24389 17.16544 17.07943
0 0 0 0 0 0 0 0 0 0 0 0 20.39176 19.60136 18.67771 18.33048 17.97907 17.62945 17.62977 17.6318 17.62579 17.62528 17.29641 16.66583 16.66596 16.66049 16.65975 16.66686 16.66753 16.6717 16.67983 16.69436 16.71162 16.72618 16.75059 16.7844 16.8211 16.86831 16.918 16.96026 17.00967 17.05558 17.09984 17.13315 17.1708 17.20064 17.21793 0 0 17.24711 0 18.96232 18.1498 17.73501 18.14233 18.13288 18.93277 19.36936 20.35196 18.1064 17.36358 0 0 0 19.08595 17.40516 17.37322 17.35463 17.33958 17.34173 17.35331 17.37408 17.40697 17.45077 17.494 17.53327 17.56799 17.59606 17.61673 17.62864 17.63749 17.64175 17.64397 17.64007 17.63851 17.63408 17.62777 17.61703 17.59987 17.58355 17.56699 17.55337 17.54624 17.52863 17.51638 17.49652 17.47973 17.46798 17.45349 17.443 17.43594 17.42216 17.40107 17.37577 17.34989 17.31636 17.26217 17.18442 17.0909
0 0 0 0 0 0 0 0 0 0 0 19.62002 19.60407 18.66829 18.32435 17.61623 17.64061 17.64681 17.6498 17.64913 17.6524 16.97702 16.6712 16.67144 16.67118 16.66814 16.67642 16.68651 16.69201 16.70273 16.71098 16.72714 16.74348 16.76025 16.78593 16.82422 16.86863 16.92562 16.98291 17.03097 17.08375 17.12958 17.15979 17.18665 17.99543 0 0 0 0 0 19.75891 20.5555 20.32273 19.75342 19.38114 18.94673 18.93558 17.72755 17.3503 17.35898 17.36434 17.36741 17.37219 19.42194 19.79256 17.39259 17.36796 17.35487 17.35448 17.35781 17.36904 17.39031 17.42313 17.4606 17.50327 17.54699 17.58022 17.60851 17.63328 17.64601 17.65322 17.65956 17.66235 17.66273 17.66684 17.66124 17.65817 17.65413 17.64156 17.62969 17.61298 17.59752 17.57891 17.55876 17.5402 17.5213 17.50232 17.48619 17.47165 17.46247 17.45795 17.43985 17.41412 17.39243 17.36666 17.33189 17.28528 17.20715 17.11102
0 0 0 0 0 0 0 0 0 0 20.33152 19.61899 18.65736 17.94858 17.62497 17.29692 17.32417 17.33638 17.34108 17.34066 17.34031 16.69364 16.68968 16.68647 16.68768 16.68795 16.69728 16.71657 16.72388 16.73244 16.74321 16.75487 16.76961 16.78591 16.81792 16.86319 16.92025 16.9845 17.04072 17.09383 17.14741 17.18536 17.5819 0 0 0 0 0 0 0 0 0 0 0 19.76172 19.38682 18.5633 17.35427 17.36162 17.37348 17.37894 17.37651 17.37678 17.38119 17.38319 17.38653 17.37393 17.36868 17.3745 17.37989 17.38722 17.4078 17.44204 17.48207 17.51491 17.55098 17.58831 17.61857 17.64366 17.65561 17.6626 17.66645 17.66698 17.67262 17.67243 17.67185 17.6726 17.67557 17.66984 17.66154 17.64894 17.63638 17.61395 17.59566 17.57565 17.55473 17.53817 17.52158 17.50753 17.49501 17.48569 17.46333 17.43808 17.40901 17.37964 17.3433 17.29348 17.21785 17.12617
0 0 0 0 0 0 0 0 0 0 19.86577 18.62627 17.93412 17.61449 16.98305 16.99955 16.70271 16.71075 16.72165 16.72171 16.71971 16.70998 16.71236 16.71511 16.71986 16.72159 16.73691 16.75614 16.76383 16.776 16.78511 16.79175 16.80428 16.8256 16.86554 16.91617 16.96923 17.02182 17.07847 17.13431 18.35671 0 0 0 0 0 0 0 0 0 0 0 0 0 20.39412 19.02923 17.38605 17.38819 17.39633 17.40981 17.42027 17.42084 17.41677 17.40771 17.40009 17.39423 17.39522 17.39434 17.39898 17.40184 17.41204 17.43116 17.46037 17.49677 17.53234 17.56718 17.60242 17.6304 17.65367 17.66611 17.6729 17.67717 17.67721 17.68079 17.68099 17.68292 17.69159 17.69663 17.69187 17.68264 17.67017 17.65719 17.64026 17.61884 17.59788 17.57962 17.56563 17.55036 17.53788 17.52468 17.51093 17.49234 17.46446 17.42919 17.39659 17.35615 17.30352 17.23059 17.14042
0 0 0 0 0 0 0 0 0 19.94588 19.32601 18.259 17.57102 16.94853 16.67873 16.69506 16.69793 16.7084 16.72029 16.72859 16.73095 16.72693 16.73772 16.74643 16.75193 16.76156 16.77465 16.79127 16.80202 16.81339 16.82636 16.83443 16.84531 16.86955 16.9131 16.96519 17.01389 17.06208 17.11768 17.92312 18.15813 0 0 0 0 0 0 0 0 0 0 0 0 19.67517 19.45469 18.20552 17.39973 17.40592 17.42352 17.4418 17.45089 17.45523 17.45019 17.43641 17.42776 17.43081 17.42598 17.42666 17.43271 17.43712 17.44588 17.45957 17.48585 17.51326 17.54505 17.57463 17.61159 17.63462 17.65633 17.66785 17.67738 17.68477 17.68619 17.68862 17.69294 17.70193 17.71002 17.71131 17.71171 17.70473 17.69562 17.68089 17.65847 17.64218 17.62382 17.60453 17.58625 17.57177 17.55712 17.54397 17.52808 17.51031 17.47911 17.44333 17.4087 17.36615 17.30778 17.23672 17.14896
0 0 0 0 0 0 0 0 20.81261 19.67501 18.25535 17.52847 17.21366 16.61391 16.63128 16.65964 16.66935 16.67974 16.69156 16.70468 16.71799 16.72697 16.74381 16.7605 16.77105 16.78745 16.80666 16.82689 16.83847 16.8513 16.85413 16.86121 16.87454 16.90059 16.94602 16.99657 17.04123 17.08501 17.48957 17.92592 18.38119 19.2275 0 20.08229 20.68561 0 0 0 0 0 0 0 20.44369 19.44888 18.63445 17.39477 17.40115 17.42615 17.44976 17.46685 17.47142 17.4672 17.45855 17.45284 17.45004 17.45107 17.44646 17.44783 17.46073 17.46776 17.47754 17.4912 17.51823 17.53835 17.57069 17.60389 17.62921 17.65555 17.67248 17.68955 17.69815 17.70162 17.70602 17.70589 17.71277 17.72005 17.7255 17.72855 17.72607 17.71868 17.71117 17.69839 17.68247 17.66962 17.65235 17.63397 17.62516 17.61127 17.60152 17.58116 17.56194 17.53535 17.50541 17.46897 17.42824 17.37981 17.31849 17.24438 17.16049
0 0 0 0 0 0 0 0 20.83486 19.69678 18.24502 17.51092 16.57068 16.58591 16.60311 16.62525 16.6429 16.66002 16.67453 16.69352 16.71214 16.72807 16.74829 16.77044 16.79255 16.81862 16.8471 16.87345 16.88946 16.90036 16.9099 16.91861 16.93162 16.95355 16.98749 17.02723 17.066 17.09608 17.12953 17.54008 17.95924 18.3957 18.84289 19.28706 20.08236 0 0 0 0 0 0 19.81986 19.03484 19.03458 17.38187 17.40376 17.43009 17.46017 17.47933 17.489 17.49081 17.48417 17.48035 17.4787 17.475 17.47568 17.46415 17.47123 17.4809 17.48938 17.49651 17.5148 17.53815 17.56288 17.59395 17.62679 17.6508 17.6733 17.69392 17.71104 17.72227 17.72675 17.73016 17.72978 17.73751 17.74366 17.74858 17.74633 17.74325 17.73619 17.72571 17.71995 17.70217 17.68814 17.67603 17.6596 17.6496 17.63562 17.62242 17.60723 17.58828 17.56092 17.5266 17.48657 17.44163 17.38655 17.32219 17.24743 17.17231
0 0 0 0 0 0 0 0 0 19.71189 18.23995 17.50466 16.55035 16.55973 16.57817 16.60221 16.6248 16.64068 16.66281 16.68771 16.70871 16.73186 16.75239 16.78118 16.80751 16.84315 16.87889 16.91733 16.94436 16.96184 16.97532 16.98714 16.99222 17.00339 17.03366 17.06645 17.09254 17.11239 17.1413 17.15894 17.18061 17.19854 17.21672 17.6064 18.45253 19.29286 20.10883 20.46882 0 0 20.10629 18.9918 18.16331 17.36597 17.38932 17.4206 17.46374 17.48205 17.50087 17.51305 17.51654 17.51208 17.51099 17.51147 17.51005 17.49626 17.49598 17.49653 17.49813 17.51085 17.52782 17.55201 17.57018 17.59492 17.62199 17.64699 17.67073 17.68977 17.70932 17.73065 17.73684 17.74409 17.74572 17.74983 17.75591 17.75881 17.76539 17.76856 17.76769 17.76297 17.75773 17.74809 17.73166 17.71656 17.70564 17.68776 17.67202 17.65814 17.64551 17.62749 17.60474 17.57605 17.53711 17.49754 17.45032 17.39039 17.32579 17.2552 17.17686
0 0 0 0 0 0 0 0 0 20.67922 19.0143 17.8793 16.84395 16.54979 16.55835 16.58363 16.60421 16.62699 16.65089 16.67899 16.70611 16.73054 16.76041 16.79351 16.83071 16.87232 16.92462 16.9717 17.00208 17.02492 17.03817 17.04182 17.04078 17.04975 17.07278 17.09668 17.11845 17.13508 17.15701 17.1645 17.1797 17.19298 17.2145 17.23069 17.62453 18.04996 18.48118 18.89899 20.10502 18.95173 17.70428 17.33145 17.34866 17.38171 17.4166 17.44738 17.4823 17.50783 17.52039 17.52995 17.53584 17.53425 17.52647 17.52413 17.51948 17.52241 17.52514 17.52083 17.52219 17.54151 17.56247 17.58091 17.59818 17.62325 17.65281 17.67592 17.69629 17.71503 17.73294 17.74299 17.75111 17.75965 17.76355 17.76455 17.76577 17.77148 17.7754 17.7787 17.78494 17.78107 17.77334 17.76773 17.7521 17.74017 17.72398 17.70819 17.69306 17.67971 17.66782 17.6464 17.6206 17.58931 17.55508 17.51275 17.46547 17.39985 17.33091 17.25543 17.1751
0 0 0 0 0 0 0 0 0 20.81912 20.00788 18.26824 17.16787 16.54753 16.55129 16.57014 16.58508 16.61246 16.64054 16.67015 16.69756 16.72743 16.76438 16.80677 16.85599 16.91394 16.98199 17.04182 17.08224 17.10075 17.10612 17.1016 17.09649 17.0986 17.11374 17.13323 17.14658 17.15616 17.17096 17.17574 17.18639 17.19663 17.21457 17.23729 17.2506 17.26507 17.67499 0 18.95423 17.72357 17.34633 17.3651 17.38896 17.42631 17.46519 17.49172 17.51898 17.53251 17.54454 17.5509 17.5533 17.55235 17.55208 17.55279 17.54721 17.54457 17.53642 17.53377 17.53975 17.55902 17.57657 17.59441 17.62014 17.64299 17.66878 17.68878 17.70967 17.72541 17.73733 17.75009 17.76076 17.76558 17.76836 17.76977 17.77473 17.78531 17.79285 17.79828 17.79855 17.79469 17.78913 17.78135 17.76768 17.75302 17.73588 17.72083 17.7068 17.69703 17.68084 17.6586 17.633 17.59822 17.5635 17.52751 17.47364 17.40533 17.33335 17.25811 17.16924
0 0 0 0 0 0 0 0 0 0 20.52225 19.05464 17.51512 16.85241 16.56543 16.56848 16.55783 16.58199 16.61099 16.64473 16.68302 16.72042 16.76737 16.8151 16.87282 16.93981 17.01436 17.07707 0 0 0 17.34002 17.12598 17.13052 17.14212 17.15897 17.16965 17.17869 17.18936 17.19754 17.2027 17.21459 17.22756 17.24426 17.26458 17.28752 17.3189 17.73982 17.35181 17.36767 17.39346 17.41893 17.44757 17.48087 17.5013 17.51911 17.53467 17.55497 17.56304 17.57145 17.57602 17.58232 17.57733 17.57864 17.5691 17.56201 17.55826 17.55776 17.56498 17.58135 17.60054 17.61787 17.63809 17.65927 17.67905 17.70841 17.72382 17.73787 17.75321 17.76023 17.76687 17.77021 17.7754 17.78078 17.78577 17.79575 17.80689 17.80962 17.80767 17.81054 17.80517 17.80186 17.78944 17.77214 17.75205 17.73958 17.73046 17.71788 17.69993 17.67424 17.64325 17.60352 17.56914 17.53058 17.47641 17.40935 17.33581 17.25862 17.16631
0 0 0 0 0 0 0 0 0 0 0 20.42145 19.07747 17.53421 16.85036 16.5531 16.52252 16.5492 16.57498 16.61217 16.66309 16.71451 16.76939 16.81623 16.87529 16.94921 17.3767 17.79681 0 0 0 17.97633 18.2699 17.13625 17.15081 17.16419 17.17812 17.18902 17.20136 17.2102 17.21312 17.22526 17.23905 17.26286 17.28814 17.31635 17.3417 17.37034 17.3905 17.40917 17.43977 17.4698 17.4938 17.5196 17.53289 17.55474 17.56951 17.57947 17.5824 17.58244 17.58417 17.58559 17.5935 17.59008 17.58272 17.57819 17.57867 17.58252 17.59404 17.61119 17.6257 17.64784 17.6696 17.68199 17.7025 17.72238 17.73981 17.75956 17.77264 17.77916 17.78199 17.78436 17.79052 17.79985 17.80764 17.81475 17.81954 17.82563 17.83064 17.82687 17.82088 17.81552 17.80328 17.79094 17.77232 17.75889 17.74902 17.73673 17.71464 17.68461 17.65875 17.61979 17.58198 17.53908 17.48541 17.42296 17.34921 17.26926 17.17807
0 0 0 0 0 0 0 0 0 0 0 0 20.61645 19.42623 17.48706 16.81048 16.48159 16.50827 16.54534 16.58965 16.64555 16.7074 16.76225 16.81189 16.86233 16.93721 17.72754 0 0 19.34948 19.47135 17.88783 17.12658 17.13043 17.14166 17.16655 17.18196 17.19976 17.21276 17.222 17.22533 17.23794 17.25443 17.27831 17.31015 17.34996 17.37173 17.39664 17.41865 17.44251 17.47033 17.4992 17.52891 17.55303 17.5716 17.58256 17.6023 17.61408 17.61708 17.60896 17.6043 17.60717 17.61262 17.60677 17.60185 17.59785 17.5996 17.6048 17.61505 17.63339 17.64788 17.66538 17.68633 17.70592 17.71946 17.73502 17.7555 17.77634 17.78753 17.7966 17.80066 17.80679 17.81264 17.82106 17.82767 17.83305 17.83996 17.84303 17.84703 17.84587 17.84447 17.83565 17.82379 17.80916 17.79352 17.77811 17.76238 17.74728 17.72493 17.69961 17.66543 17.62906 17.5914 17.54635 17.49448 17.43593 17.36648 17.2923 17.21072
0 0 0 0 0 0 0 0 0 0 0 0 0 0 0 17.4075 16.73577 16.46869 16.51801 16.57097 16.63463 16.69794 16.75016 16.7969 16.84008 17.25262 17.32906 17.74905 18.16078 20.3121 19.4537 17.857 17.11319 17.1204 17.13343 17.15727 17.1813 17.20362 17.21783 17.23259 17.24145 17.25437 17.27433 17.29899 17.32797 17.35822 17.38343 17.41004 17.43336 17.46152 17.49491 17.52348 17.55573 17.58115 17.60125 17.60832 17.62035 17.63298 17.63777 17.63109 17.62547 17.62523 17.62297 17.61565 17.61864 17.61409 17.62401 17.63522 17.64769 17.66454 17.67537 17.69194 17.70556 17.72392 17.74183 17.75711 17.77871 17.79245 17.80325 17.81369 17.82134 17.83152 17.83557 17.84068 17.84355 17.8464 17.85455 17.85944 17.85445 17.85339 17.85248 17.84973 17.8385 17.8229 17.81247 17.79822 17.78113 17.76246 17.7379 17.71336 17.68511 17.64834 17.60714 17.56625 17.51852 17.45804 17.3962 17.32461 17.25371
0 0 0 0 0 0 0 0 0 0 0 0 0 0 0 18.08404 17.37494 16.43829 16.50353 16.5606 16.6279 16.69761 16.74708 16.78978 16.82692 16.88667 17.66477 17.73211 18.15549 0 19.47835 17.09695 17.10503 17.11341 17.14146 17.15185 17.1794 17.20731 17.2251 17.24147 17.25731 17.2723 17.29515 17.318 17.33866 17.36724 17.39399 17.41667 17.45382 17.48471 17.52073 17.54411 17.57015 17.59882 17.61982 17.63191 17.6396 17.64363 17.65041 17.6473 17.64647 17.63466 17.62246 17.62297 17.62774 17.63231 17.64409 17.65733 17.66884 17.6793 17.69731 17.70987 17.72509 17.74976 17.76683 17.78301 17.79799 17.81825 17.83285 17.84125 17.85096 17.85614 17.86335 17.86544 17.86488 17.8654 17.872 17.87099 17.86134 17.8565 17.85461 17.85119 17.84146 17.83033 17.82486 17.81002 17.79467 17.77285 17.75252 17.72891 17.69636 17.6699 17.63746 17.60325 17.56166 17.51085 17.44644 17.38451 17.32103
0 0 0 0 0 0 0 0 0 0 0 0 0 19.26961 18.90344 18.07871 17.38284 16.43285 16.49677 16.56331 16.63446 16.70269 16.75332 16.79441 16.83083 16.87437 18.01676 18.46399 18.93406 18.87079 19.84899 17.44248 17.09152 17.11113 17.13584 17.16181 17.19152 17.21824 17.23657 17.25224 17.26963 17.28349 17.30701 17.33299 17.35879 17.38077 17.40034 17.43065 17.46551 17.499 17.53184 17.54994 17.57338 17.59262 17.60297 17.62295 17.64292 17.65724 17.65328 17.65398 17.65267 17.64572 17.64048 17.6467 17.6486 17.65389 17.65793 17.66928 17.68819 17.69612 17.70648 17.7249 17.74707 17.7695 17.79074 17.8072 17.82316 17.83998 17.85425 17.86568 17.87141 17.87573 17.87863 17.88183 17.87834 17.87964 17.88033 17.87501 17.86915 17.86314 17.86127 17.85994 17.84678 17.84025 17.83264 17.81996 17.80147 17.78828 17.77235 17.74341 17.71752 17.68782 17.65331 17.62295 17.58375 17.54553 17.49521 17.4434 17.39227
0 0 0 0 0 0 0 0 0 0 0 0 18.45395 18.08199 18.1099 17.75762 17.07899 16.47339 16.53209 16.5945 16.65438 16.7168 16.76882 16.80829 16.84468 16.88828 17.65977 17.70823 18.52821 19.35802 17.79238 17.05097 17.08218 17.1206 17.15342 17.18236 17.20938 17.23134 17.24856 17.26584 17.28379 17.30381 17.32351 17.34957 17.37778 17.39533 17.42236 17.44345 17.47118 17.49642 17.51436 17.52981 17.54981 17.57448 17.60113 17.61741 17.63633 17.64605 17.64469 17.64601 17.65054 17.65583 17.65885 17.66789 17.67073 17.67536 17.68168 17.6933 17.70317 17.71627 17.73909 17.75579 17.77559 17.8012 17.82116 17.84017 17.8552 17.86406 17.86776 17.8788 17.88434 17.88417 17.88436 17.8893 17.89471 17.8894 17.88578 17.87999 17.86914 17.86376 17.86338 17.86331 17.8474 17.84221 17.83688 17.83052 17.81517 17.79708 17.781 17.76793 17.73955 17.71516 17.67682 17.64471 17.61169 17.57079 17.52645 17.48136 17.43482
0 0 0 0 0 0 0 0 20.02766 19.40528 18.32369 17.60253 17.65532 17.67791 17.38193 17.45359 17.15735 16.53884 16.59224 16.64664 16.70161 16.75606 16.79837 16.83523 16.8723 16.91363 16.95286 16.97211 17.00013 17.01795 17.03072 17.06044 17.09904 17.13871 17.16613 17.19717 17.22255 17.24306 17.25862 17.27504 17.29611 17.31885 17.34 17.36756 17.3973 17.41673 17.43847 17.45098 17.47004 17.49603 17.51537 17.53049 17.54763 17.56327 17.58073 17.59787 17.61329 17.62472 17.63172 17.64242 17.65338 17.65976 17.6676 17.67895 17.68367 17.69617 17.70368 17.71289 17.7272 17.74901 17.76272 17.78225 17.80818 17.83579 17.85629 17.86663 17.88407 17.89221 17.89798 17.89931 17.90099 17.89945 17.90102 17.90811 17.90031 17.89968 17.89373 17.88472 17.87229 17.86667 17.85766 17.85233 17.84761 17.84381 17.83932 17.8308 17.82086 17.80923 17.79596 17.78742 17.7677 17.74197 17.71236 17.67564 17.64344 17.60735 17.56631 17.52424 17.48383
0 0 0 0 0 0 0 18.97819 19.02278 17.51106 17.18146 17.20545 17.25633 17.33998 17.42653 17.16859 16.56219 16.60386 16.64934 16.69803 16.75345 16.79401 16.8326 16.87533 16.9128 16.94852 16.98372 17.01033 17.03465 17.05709 17.07818 17.10673 17.13698 17.16255 17.18994 17.21025 17.23084 17.24898 17.26847 17.28455 17.29915 17.32412 17.34862 17.37242 17.39997 17.42215 17.44003 17.45236 17.46114 17.4723 17.48569 17.50095 17.51628 17.53496 17.55673 17.58158 17.58918 17.60203 17.61782 17.62853 17.64172 17.65819 17.67271 17.68133 17.69078 17.70002 17.70872 17.72958 17.75167 17.76909 17.7854 17.81201 17.83668 17.85936 17.88157 17.90074 17.90881 17.91009 17.91895 17.91793 17.92474 17.92282 17.92375 17.91973 17.91664 17.90572 17.89786 17.88781 17.87611 17.87549 17.86806 17.85664 17.85372 17.84661 17.83842 17.83821 17.83673 17.83283 17.82808 17.81202 17.79537 17.76753 17.73967 17.71049 17.68238 17.64578 17.60872 17.55939 17.51777
0 0 0 0 0 0 19.43889 19.37887 17.48344 17.11306 17.11351 17.17504 17.27337 17.05207 16.8302 16.57533 16.61541 16.6607 16.70033 16.74598 16.78975 16.82487 16.8626 16.89765 16.93717 16.97539 17.00885 17.0384 17.06859 17.09185 17.11755 17.14362 17.16705 17.18273 17.20509 17.22158 17.24312 17.25952 17.2789 17.29633 17.31132 17.33026 17.35166 17.37467 17.39595 17.4099 17.42341 17.43258 17.43827 17.44688 17.45513 17.46942 17.49009 17.5154 17.53535 17.55276 17.56453 17.57866 17.59526 17.6136 17.64011 17.65855 17.67407 17.68106 17.69274 17.70825 17.72486 17.74513 17.76494 17.79109 17.81787 17.84994 17.87779 17.89924 17.91918 17.92806 17.93105 17.9281 17.93367 17.93668 17.93534 17.9319 17.93272 17.92425 17.91763 17.90319 17.89342 17.88234 17.87108 17.87373 17.86601 17.86118 17.8564 17.8566 17.84992 17.84627 17.84821 17.85628 17.84641 17.83517 17.82124 17.79908 17.77776 17.75646 17.72898 17.6977 17.65752 17.6104 17.56776
0 0 0 0 0 0 20.35425 18.58354 17.43878 17.07163 16.7807 16.87915 16.68624 16.49289 16.57221 16.63776 16.68119 16.71144 16.75094 16.78863 16.82294 16.85496 16.88762 16.92126 16.95741 16.98952 17.02848 17.059 17.08762 17.11201 17.1393 17.16136 17.17629 17.18873 17.20585 17.22589 17.24148 17.25413 17.27764 17.29218 17.31056 17.3265 17.35152 17.37371 17.39512 17.40794 17.40929 17.41349 17.41757 17.42595 17.43624 17.44841 17.47185 17.49106 17.52817 17.54168 17.54533 17.55838 17.57776 17.60089 17.61638 17.64117 17.6547 17.66877 17.6899 17.70968 17.73167 17.75664 17.78317 17.81441 17.84063 17.87552 17.90537 17.9304 17.94823 17.95265 17.95022 17.95136 17.95181 17.94832 17.94663 17.93849 17.93191 17.92345 17.91231 17.90069 17.89183 17.87682 17.8696 17.87004 17.86712 17.86739 17.8661 17.86531 17.86688 17.86158 17.86065 17.86667 17.86 17.85007 17.8365 17.82397 17.81016 17.79632 17.77471 17.7424 17.70838 17.6683 17.63141
0 0 0 0 0 20.39598 19.84572 18.5428 17.44242 17.11788 16.56148 16.35485 16.43915 16.52093 16.59869 16.66731 16.71332 16.75318 16.79222 16.82581 16.85852 16.88352 16.91675 16.94799 16.98276 17.01441 17.04058 17.07221 17.1 17.12657 17.147 17.16687 17.17716 17.19015 17.2042 17.22016 17.23636 17.2519 17.27053 17.28951 17.30318 17.3231 17.34325 17.35809 17.38058 17.39404 17.39073 17.39707 17.4091 17.4199 17.42706 17.44548 17.45715 17.472 17.4927 17.5093 17.53457 17.56157 17.57618 17.59128 17.60881 17.6265 17.64575 17.67656 17.70098 17.72812 17.75052 17.77691 17.81027 17.84424 17.86803 17.88379 17.91936 17.9381 17.95463 17.96435 17.96968 17.97014 17.96737 17.95547 17.94417 17.93296 17.92682 17.91667 17.90394 17.88682 17.87558 17.87535 17.86386 17.86025 17.85943 17.86592 17.87426 17.87535 17.87798 17.8814 17.88043 17.88232 17.87909 17.87167 17.86503 17.85562 17.83066 17.81863 17.80581 17.78356 17.74723 17.71536 17.67713
0 0 0 0 19.35722 18.87772 17.38509 17.07951 16.80558 16.27317 16.34068 16.42053 16.49802 16.56405 16.63526 16.69827 16.73978 16.77883 16.81697 16.84851 16.8715 16.89897 16.93904 16.97006 17.00364 17.03227 17.05601 17.08065 17.1086 17.13204 17.14456 17.16362 17.17529 17.18881 17.20618 17.21893 17.23274 17.24393 17.26049 17.27661 17.29568 17.31064 17.32744 17.33898 17.36001 17.36801 17.37231 17.37219 17.38728 17.40396 17.41259 17.43001 17.4452 17.46842 17.4891 17.50504 17.51237 17.52024 17.54465 17.56466 17.58441 17.60097 17.62449 17.66698 17.70052 17.73162 17.76206 17.79681 17.83207 17.85952 17.87431 17.89021 17.91412 17.93759 17.95626 17.97005 17.98249 17.9772 17.96571 17.95524 17.94336 17.93148 17.91973 17.90749 17.89722 17.88184 17.8805 17.87695 17.86572 17.86732 17.86587 17.87741 17.8814 17.88159 17.88558 17.8867 17.88976 17.89271 17.89193 17.89079 17.89249 17.87815 17.85933 17.85426 17.8433 17.82154 17.79689 17.77079 17.73948
0 0 0 0 20.43854 17.71663 16.19247 16.21974 16.28054 16.3436 16.41588 16.4947 16.55883 16.62127 16.68677 16.7458 16.7804 16.80575 16.8422 16.8737 16.8963 16.92223 16.95613 16.98596 17.01198 17.0358 17.05627 17.07574 17.09808 17.11785 17.13685 17.1519 17.16942 17.18542 17.20037 17.21598 17.22668 17.23836 17.25154 17.26972 17.284 17.29294 17.29996 17.31661 17.34219 17.35317 17.36174 17.36074 17.3699 17.36959 17.37539 17.39473 17.42063 17.44539 17.46759 17.48664 17.50137 17.51208 17.5233 17.53984 17.56029 17.58446 17.62749 17.6726 17.70774 17.73868 17.7802 17.81532 17.83761 17.85878 17.87281 17.89199 17.91587 17.93877 17.95121 17.96362 17.97368 17.97198 17.96113 17.94563 17.93994 17.93029 17.90633 17.89518 17.88374 17.87622 17.88152 17.88567 17.88307 17.87973 17.88218 17.88524 17.88907 17.89057 17.895 17.90181 17.90104 17.90028 17.90169 17.9013 17.89582 17.8982 17.89298 17.88817 17.88014 17.87001 17.85192 17.83224 17.80655
0 0 0 19.33186 18.85548 17.33513 16.17785 16.2473 16.32941 16.42091 16.49142 16.55841 16.62173 16.67906 16.7347 16.78264 16.80894 16.82828 16.86065 16.89298 16.91759 16.94172 16.96746 16.99739 17.01805 17.03099 17.05281 17.06893 17.0881 17.10719 17.1234 17.14114 17.1593 17.18033 17.19756 17.21248 17.21792 17.23 17.24441 17.25964 17.27123 17.27803 17.28849 17.29964 17.31879 17.33167 17.34823 17.34432 17.34807 17.34668 17.35354 17.37217 17.39858 17.41608 17.44026 17.46154 17.48032 17.4931 17.50636 17.53091 17.5564 17.5903 17.62655 17.66374 17.70368 17.74466 17.77506 17.79293 17.82016 17.84632 17.87014 17.88785 17.91444 17.93142 17.95817 17.96837 17.96088 17.95967 17.952 17.93649 17.92323 17.90849 17.88934 17.88242 17.87861 17.88004 17.89101 17.89384 17.89399 17.89576 17.89975 17.89998 17.89832 17.9028 17.90884 17.9178 17.91795 17.91518 17.91533 17.91808 17.91062 17.91226 17.9103 17.91263 17.91537 17.90724 17.88788 17.8729 17.85343
0 0 0 19.22822 18.8052 17.28323 16.71586 16.2712 16.39961 16.49967 16.55775 16.62264 16.67029 16.71523 16.76596 16.79659 16.82713 16.84447 16.8675 16.89603 16.92341 16.94786 16.96986 16.99089 17.00981 17.02549 17.04096 17.05594 17.07452 17.08681 17.1074 17.12838 17.14806 17.16609 17.18503 17.19765 17.20384 17.21727 17.22935 17.23725 17.24958 17.26157 17.27253 17.28104 17.29905 17.31227 17.32576 17.32974 17.32912 17.32596 17.32402 17.3465 17.37669 17.39795 17.41589 17.43347 17.45745 17.47629 17.48992 17.51723 17.55196 17.58883 17.61789 17.67682 17.71717 17.74175 17.75151 17.78971 17.82809 17.85461 17.886 17.90811 17.92097 17.93732 17.96188 17.96789 17.94678 17.93817 17.92605 17.91037 17.91098 17.90221 17.89616 17.8893 17.88902 17.89863 17.90274 17.90776 17.91198 17.90975 17.91332 17.91857 17.92277 17.92709 17.93109 17.93999 17.94118 17.94074 17.94348 17.94081 17.94243 17.94563 17.94383 17.94422 17.95056 17.94822 17.93389 17.91234 17.89642
0 0 0 20.20535 19.0575 17.27788 16.44247 16.27664 16.39787 16.51924 16.6131 16.65937 16.70037 16.7406 16.7788 16.80516 16.82875 16.84767 16.86875 16.8942 16.91931 16.93657 16.95286 16.96565 16.98674 17.0042 17.01909 17.03693 17.05446 17.06971 17.09124 17.11306 17.12634 17.14617 17.16612 17.1819 17.19313 17.20515 17.21349 17.22285 17.22921 17.24061 17.25158 17.26581 17.27784 17.29291 17.30309 17.30796 17.30009 17.29376 17.29657 17.32501 17.35604 17.38124 17.40074 17.42099 17.44646 17.46706 17.48055 17.51105 17.5525 17.58471 17.63515 17.67896 17.7061 17.7276 17.7683 17.79703 17.81597 17.84957 17.87709 17.90184 17.92076 17.93497 17.94496 17.95261 17.92521 17.90493 17.90441 17.90133 17.90695 17.90711 17.90192 17.90234 17.91057 17.91326 17.91901 17.9278 17.93322 17.93276 17.9371 17.93969 17.94747 17.95507 17.95949 17.96149 17.9674 17.97041 17.97237 17.97472 17.98008 17.98092 17.978 17.98058 17.98362 17.98051 17.97623 17.96113 17.94844
0 0 0 20.24579 17.89947 16.6585 16.20239 16.3204 16.44667 16.5512 16.62885 16.66905 16.70763 16.73728 16.76991 16.79522 16.81636 16.83059 16.84776 16.86643 16.88515 16.90148 16.90978 16.92696 16.94376 16.96003 16.9821 16.9995 17.02294 17.04436 17.06862 17.08782 17.10918 17.12611 17.14655 17.15983 17.17297 17.18303 17.1956 17.20555 17.21189 17.2244 17.23766 17.25241 17.26801 17.27499 17.28422 17.29389 17.29137 17.27896 17.30251 17.33346 17.35733 17.38196 17.40054 17.42185 17.44146 17.46898 17.49311 17.52498 17.55947 17.59466 17.63968 17.67758 17.72343 17.74285 17.76789 17.798 17.81475 17.82893 17.86708 17.88728 17.91449 17.92631 17.9175 17.91745 17.91042 17.90035 17.89987 17.89328 17.89821 17.90715 17.90041 17.9056 17.91693 17.93005 17.94246 17.96112 17.96507 17.96648 17.97452 17.98241 17.99264 17.99619 18.00137 18.00432 18.01178 18.01623 18.01926 18.03058 18.03674 18.03896 18.03327 18.0338 18.0348 18.03542 18.03014 18.02334 18.00776
16.18966 16.19287 17.35258 17.91019 16.3227 16.14777 16.25709 16.38469 16.49233 16.58477 16.64346 16.67507 16.70102 16.72432 16.74475 16.77235 16.78695 16.80287 16.81758 16.83071 16.84338 16.85415 16.87077 16.88974 16.90935 16.92347 16.94471 16.96593 16.99334 17.02042 17.04662 17.0686 17.08773 17.10686 17.12548 17.14029 17.15012 17.16408 17.1753 17.1893 17.1966 17.21008 17.22532 17.23719 17.24998 17.26074 17.26899 17.27817 17.28821 17.2979 17.3083 17.33553 17.35505 17.38438 17.40751 17.4305 17.44752 17.47904 17.5055 17.53279 17.56267 17.58915 17.64322 17.67937 17.71117 17.73575 17.76025 17.78987 17.8138 17.83208 17.85777 17.87811 17.8955 17.90292 17.90309 17.89223 17.89485 17.88635 17.88043 17.87765 17.88485 17.89235 17.90287 17.91059 17.92932 17.93896 17.96092 17.97694 17.98778 17.99749 18.00709 18.02325 18.03375 18.04275 18.04931 18.05035 18.05829 18.06405 18.0747 18.08388 18.08923 18.094 18.09571 18.09755 18.09578 18.09261 18.08915 18.08088 18.06733
16.19274 16.18658 16.19928 16.22109 16.22357 16.29927 16.39082 16.48261 16.56097 16.62674 16.6663 16.68346 16.69572 16.70576 16.7251 16.74379 16.75537 16.75893 16.77601 16.78832 16.79384 16.80877 16.82365 16.83862 16.85917 16.88637 16.90687 16.93477 16.9628 16.99574 17.02246 17.04263 17.06666 17.08619 17.10655 17.12295 17.13229 17.14294 17.15953 17.17182 17.18103 17.19889 17.21515 17.22811 17.2431 17.2539 17.26095 17.26612 17.28109 17.30038 17.31514 17.34191 17.36555 17.39094 17.42113 17.44571 17.46813 17.5004 17.52655 17.54251 17.5611 17.59886 17.63168 17.66575 17.69587 17.72048 17.74999 17.7793 17.79653 17.82149 17.84459 17.8606 17.87944 17.88734 17.88822 17.88541 17.88069 17.879 17.8728 17.86656 17.87335 17.88759 17.9101 17.92516 17.94024 17.95859 17.98574 18.00659 18.02438 18.04109 18.05428 18.06456 18.07694 18.0863 18.0887 18.09443 18.0987 18.10417 18.11313 18.12683 18.13915 18.14966 18.15854 18.15855 18.15327 18.14757 18.14375 18.13479 18.12705
16.31519 16.32867 16.35347 16.38619 16.39615 16.44888 16.50405 16.56016 16.60677 16.65516 16.67424 16.67652 16.68105 16.69401 16.70631 16.72105 16.73864 16.73866 16.7382 16.74049 16.74328 16.75539 16.77169 16.7933 16.8151 16.83951 16.8682 16.9003 16.92942 16.95896 16.98909 17.01929 17.04393 17.06737 17.08529 17.10324 17.11819 17.13105 17.14528 17.16037 17.17416 17.19139 17.2067 17.22709 17.24618 17.25791 17.26076 17.26796 17.28618 17.30327 17.32801 17.36103 17.38888 17.41447 17.43665 17.46479 17.49098 17.52149 17.54207 17.5511 17.56732 17.59157 17.62067 17.65514 17.68525 17.70892 17.74174 17.76801 17.79205 17.81277 17.83001 17.84244 17.8539 17.87027 17.88045 17.86842 17.87191 17.87623 17.87162 17.87423 17.88814 17.90167 17.91679 17.93686 17.96082 17.9907 18.01388 18.04166 18.07196 18.09095 18.1119 18.12566 18.13578 18.14361 18.14227 18.14877 18.15845 18.16901 18.177 18.19182 18.20394 18.21479 18.21859 18.21882 18.21264 18.20669 18.20102 18.19132 18.1847
16.40122 16.41868 16.45311 16.48579 16.50875 16.53258 16.56597 16.59289 16.62099 16.64769 16.65471 16.65652 16.65655 16.66509 16.68072 16.68763 16.69429 16.69049 16.69618 16.70166 16.70393 16.70677 16.72981 16.74948 16.77767 16.80316 16.83036 16.86612 16.896 16.93046 16.96177 16.99379 17.02361 17.05128 17.07619 17.09615 17.11199 17.12757 17.14166 17.15298 17.17216 17.19216 17.20947 17.22886 17.24876 17.26045 17.26603 17.27494 17.29962 17.32481 17.34902 17.37953 17.41282 17.44562 17.46218 17.47891 17.50396 17.52789 17.54145 17.56856 17.57857 17.60346 17.62686 17.64744 17.67993 17.70807 17.73719 17.76341 17.79007 17.81317 17.82178 17.83721 17.85297 17.87224 17.88043 17.87641 17.87766 17.87573 17.87605 17.88127 17.89344 17.90881 17.93455 17.95144 17.97548 18.01128 18.04316 18.07507 18.11127 18.14136 18.17175 18.18719 18.19995 18.20355 18.20454 18.21573 18.22853 18.24531 18.26026 18.2785 18.30177 18.31147 18.31159 18.30279 18.3001 18.29392 18.28803 18.27963 18.27326
16.47146 16.48915 16.4988 16.50792 16.52023 16.53464 16.55719 16.57325 16.59073 16.60224 16.61301 16.61551 16.61586 16.62532 16.63774 16.64289 16.64834 16.65511 16.67215 16.67733 16.67764 16.6868 16.70876 16.73287 16.76057 16.7925 16.8269 16.86363 16.89999 16.92836 16.96252 16.99607 17.02439 17.05094 17.07815 17.10439 17.11976 17.13918 17.15772 17.17428 17.18384 17.20137 17.22193 17.24579 17.26607 17.27909 17.29135 17.30763 17.3293 17.35301 17.38022 17.41098 17.43964 17.46832 17.48211 17.5026 17.53625 17.55282 17.57962 17.60238 17.62486 17.64523 17.66255 17.68984 17.72243 17.75496 17.77415 17.78668 17.81077 17.83165 17.8379 17.85561 17.86819 17.8849 17.88267 17.88802 17.88685 17.88386 17.88221 17.88491 17.90438 17.92065 17.9509 17.98647 18.02412 18.05525 18.08551 18.11855 18.16853 18.20857 18.23708 18.25337 18.25456 18.2554 18.26459 18.27404 18.28507 18.29851 18.32088 18.34728 18.38079 18.39626 18.39285 18.38217 18.38171 18.37987 18.3794 18.36962 18.362
16.47974 16.485 16.48756 16.49355 16.50294 16.51269 16.52518 16.53857 16.54364 16.55556 16.56593 16.56834 16.5692 16.58272 16.58815 16.59356 16.61328 16.63403 16.63742 16.65442 16.65957 16.67581 16.69917 16.73493 16.76305 16.79858 16.83681 16.87641 16.91176 16.94382 16.97552 17.00756 17.03296 17.05964 17.08787 17.11182 17.13408 17.15546 17.17704 17.19416 17.21057 17.22867 17.24964 17.27072 17.30277 17.32004 17.34022 17.36295 17.38808 17.41086 17.43494 17.45827 17.48571 17.50828 17.52884 17.54882 17.59184 17.62295 17.64444 17.66414 17.6977 17.71235 17.73131 17.7441 17.77038 17.79655 17.81372 17.83425 17.84557 17.85709 17.87276 17.87752 17.88444 17.8941 17.8786 17.88354 17.88315 17.88577 17.88935 17.89836 17.94132 17.96486 17.99408 18.03398 18.07843 18.11671 18.15727 18.20717 18.25512 18.28768 18.31316 18.33645 18.3435 18.34293 18.35128 18.35305 18.35932 18.369 18.3889 18.41835 18.44859 18.45973 18.46527 18.46522 18.466 18.46307 18.46506 18.45457 18.44858
16.46789 16.46944 16.46959 16.46388 16.46424 16.47123 16.48266 16.49897 16.50953 16.5212 16.53801 16.53103 16.53044 16.5419 16.54693 16.56001 16.57837 16.59469 16.60713 16.62665 16.64786 16.67035 16.71099 16.74854 16.78672 16.82206 16.85878 16.90239 16.93984 16.97446 17.00479 17.03142 17.0552 17.08166 17.10759 17.13458 17.15926 17.17887 17.20043 17.21833 17.24033 17.2599 17.28459 17.31889 17.34686 17.36983 17.39762 17.42225 17.44756 17.46526 17.49597 17.51644 17.54694 17.58045 17.60044 17.61976 17.64919 17.67823 17.71101 17.74004 17.76442 17.78026 17.80504 17.82578 17.84813 17.86434 17.87665 17.88564 17.89096 17.89274 17.90035 17.91386 17.91858 17.91484 17.90289 17.90297 17.90625 17.90982 17.9214 17.93654 17.97047 17.99252 18.03371 18.07074 18.11775 18.16263 18.21011 18.25751 0 0 18.35341 18.38804 18.39234 18.39964 18.4095 18.41012 18.41692 18.42867 18.43358 0 0 18.47633 18.53171 18.53414 18.53517 18.54073 18.56013 18.56255 18.55686
