ncols        109
nrows        82
xllcorner    -1.041666666667
yllcorner    37.041665395101
cellsize     0.083333333333
NODATA_value -9999
0.0 0 0 0 0 0 0 0 0 0 0 0 0 0 0 0 0 0 0 0 0 0 0 0 0 0 0 0 0 0 0 0 0 0 0 0 0 0 0 0 0 0 0 0 0 0 0 0 0 0 0 0 0 0 0 0 0 0 0 0 0 0 0 0 0 0 0 0 0 0 0 0 0 0 0 0 0 0 0 0 0 0 0 0 0 0 0 0 0 0 0 0 0 0 0 0 0 0 0 0 0 0 0 0 0 18.37541 16.95137 15.32814 15.30924
0 0 0 0 0 0 0 0 0 0 0 0 0 0 0 0 0 0 0 0 0 0 0 0 0 0 0 0 0 0 0 0 0 0 0 0 0 0 0 0 0 0 0 0 0 0 0 0 0 0 0 0 0 0 0 0 0 0 0 0 0 0 0 0 0 0 0 0 0 0 0 0 0 0 0 0 0 0 0 0 0 0 0 0 0 0 0 0 0 0 0 0 0 0 0 0 0 0 0 0 0 15.51542 15.53193 15.27178 15.27561 15.27918 15.27729 15.25481 15.20794
0 0 0 0 0 0 0 0 0 0 0 0 0 0 0 0 0 0 0 0 0 0 0 0 0 0 0 0 0 0 0 0 0 0 0 0 0 0 0 0 0 0 0 0 0 0 0 0 0 0 0 0 0 0 0 0 0 0 0 0 0 0 0 0 0 0 0 0 0 0 0 0 0 0 0 0 0 0 0 0 0 0 0 0 0 0 0 0 0 0 0 0 0 0 0 0 0 0 15.28088 15.27127 15.25585 15.23358 15.19861 15.17279 15.1543 15.13414 15.10429 15.07804 15.04983
0 0 0 0 0 0 0 0 0 0 0 0 0 0 0 0 0 0 0 0 0 0 0 0 0 0 0 0 0 0 0 0 0 0 0 0 0 0 0 0 0 0 0 0 0 0 0 0 0 0 0 0 0 0 0 0 0 0 0 0 0 0 0 0 0 0 0 0 0 0 0 0 0 0 0 0 0 0 0 0 0 0 0 0 0 0 0 0 0 0 0 0 0 0 0 0 0 17.22281 15.24031 15.2011 15.14744 15.10258 15.06507 15.04067 15.01713 14.99619 14.96727 14.94736 14.93005
0 0 0 0 0 0 0 0 0 0 0 0 0 0 0 0 0 0 0 0 0 0 0 0 0 0 0 0 0 0 0 0 0 0 0 0 0 0 0 0 0 0 0 0 0 0 0 0 0 0 0 0 0 0 0 0 0 0 16.37323 16.01039 15.71763 15.8532 0 0 0 0 0 0 0 0 0 0 0 0 0 0 0 0 0 0 0 0 0 0 0 0 0 0 0 0 0 0 0 0 0 15.8051 15.2683 15.23627 15.16905 15.11095 15.05767 14.99613 14.95069 14.89908 14.86727 14.8434 14.82256 14.81755 14.81309
0 0 0 0 0 0 0 0 0 0 0 0 0 0 0 0 0 0 0 0 0 0 0 0 0 0 0 0 0 0 0 0 0 0 0 0 0 0 0 0 0 0 0 0 0 0 0 0 0 0 0 0 0 0 0 0 15.87577 15.91157 15.63861 15.40748 15.32016 15.3196 15.42426 15.64951 15.86535 15.98736 16.00153 0 0 0 0 16.39499 0 0 0 0 0 0 0 0 0 0 0 0 0 0 0 0 0 0 0 0 0 16.50443 15.23678 15.2473 15.19549 15.12233 15.04809 14.9784 14.92692 14.87331 14.83099 14.78377 14.76619 14.75456 14.74241 14.73418 14.73538
0 0 0 0 0 0 0 0 0 0 0 0 0 0 0 0 0 0 0 0 0 0 0 0 0 0 0 0 0 0 0 0 0 0 0 0 0 0 0 0 0 0 0 0 0 0 0 0 0 0 0 0 0 0 0 16.00383 15.60086 15.27148 15.06428 14.79817 14.86584 14.89311 15.08072 15.2353 15.3916 15.52647 15.62912 15.83587 16.05029 16.02461 15.97968 15.72048 15.50039 15.55963 15.74888 15.46695 15.49631 0 0 0 0 0 0 0 0 0 0 0 0 0 0 0 15.66159 15.25177 15.21747 15.16061 15.08714 15.00662 14.94068 14.88318 14.82657 14.76783 14.72846 14.68679 14.67698 14.67193 14.67262 14.67762 14.68555
0 0 0 0 0 0 0 0 0 0 0 0 0 0 0 0 0 0 0 0 0 0 0 0 0 0 0 0 0 0 0 0 0 0 0 0 0 0 0 0 0 0 0 0 0 0 0 0 0 0 0 15.6271 15.80624 15.96073 15.70493 15.27437 15.02946 14.75081 14.6373 14.71869 14.77597 14.79684 14.80271 14.99944 15.00774 15.20871 15.19854 15.18738 15.21257 15.10746 15.00381 15.05345 14.89459 15.10901 15.14484 15.37138 0 0 0 0 0 0 0 0 0 0 0 0 0 0 0 0 15.22533 15.22856 15.14307 15.0449 14.95303 14.86997 14.80858 14.76492 14.71744 14.67342 14.64547 14.63487 14.6327 14.63536 14.64378 14.656 14.66785
0 0 0 0 0 0 0 0 0 0 0 0 0 0 0 0 0 0 0 0 0 0 0 0 0 0 0 0 0 0 0 0 0 0 0 0 0 0 0 0 0 0 0 0 0 0 0 0 0 0 15.79098 15.65956 15.4155 15.35596 15.25283 14.93776 14.59107 14.67036 14.52926 14.5868 14.63681 14.66796 14.6887 14.8882 14.88622 15.0869 15.08532 15.09549 14.94214 14.80966 14.85234 14.8937 14.73938 14.9614 14.98251 15.23559 15.27815 15.12029 15.18754 15.67092 16.25415 17.22521 0 0 0 0 0 0 0 16.43394 15.73245 15.2446 15.23083 15.17087 15.04758 14.93867 14.85288 14.78083 14.71998 14.66426 14.63167 14.60974 14.60387 14.61064 14.61416 14.62402 14.64032 14.65518 14.67297
0 0 0 0 0 0 0 0 0 0 0 0 0 0 0 0 0 0 0 0 0 0 0 0 0 0 0 0 0 0 0 0 0 0 0 0 0 0 0 0 0 0 0 0 0 0 0 0 0 16.63894 15.48113 15.38429 15.33198 15.02541 14.85231 14.67203 14.71312 14.55755 14.60843 14.65843 14.70344 14.73685 14.7575 14.97109 14.97672 14.98732 14.99492 15.00124 15.02377 14.85961 14.89488 14.73358 14.57303 14.59803 14.60905 14.64544 14.68513 14.7512 14.81007 14.85205 15.34 16.01806 0 15.92051 16.61145 17.25915 17.60971 17.3147 16.78323 15.21618 15.23835 15.23361 15.16924 15.06309 14.94197 14.8533 14.76393 14.70659 14.65949 14.6282 14.61617 14.61481 14.61778 14.62445 14.63362 14.65416 14.67488 14.68854 14.70736
0 0 0 0 0 0 0 0 0 0 0 0 0 0 0 0 0 0 0 0 0 0 0 0 0 0 0 0 0 0 0 0 0 0 0 0 0 0 0 0 0 0 0 0 0 0 0 0 0 16.30815 15.41739 15.14437 14.84403 14.70712 14.7638 14.59508 14.62526 14.67017 14.71352 14.75226 14.7909 14.81411 14.82884 14.8304 14.84036 14.67326 14.51815 14.68503 14.69253 14.70252 14.71676 14.54793 14.5562 14.5689 14.59857 14.62795 14.67265 14.72017 14.76902 14.81303 14.85824 14.9103 14.98282 15.0306 15.07692 15.10676 16.33372 16.57887 16.17127 15.15491 15.1404 15.08399 15.01516 14.92847 14.85323 14.78874 14.73149 14.67457 14.64024 14.62689 14.63509 14.64353 14.6565 14.66801 14.68296 14.69894 14.7139 14.73504 14.74429
0 0 0 0 0 0 0 0 0 0 0 0 0 0 0 0 0 0 0 0 0 0 0 0 0 0 0 0 0 0 0 0 0 0 0 0 0 0 0 0 0 0 0 0 0 0 0 0 0 16.02034 15.33436 15.03829 14.7013 14.7908 14.63816 14.69581 14.72421 14.77201 14.80435 14.83645 14.66125 14.68081 14.69093 14.69409 14.69408 14.51931 14.52407 14.52361 14.50986 14.51116 14.51671 14.5235 14.53293 14.54855 14.5988 14.61173 14.63782 14.66833 14.69807 14.73013 14.76562 14.81996 14.8731 14.92335 14.96679 15.00562 15.03413 15.06455 15.06721 15.0404 14.99865 14.93897 14.87091 14.81268 14.75657 14.71661 14.68089 14.64616 14.64216 14.65194 14.66307 14.67716 14.69295 14.70825 14.7261 14.74376 14.75495 14.76961 14.78215
0 0 0 0 0 0 0 0 0 0 0 0 0 0 0 0 0 0 0 0 0 0 0 0 0 0 0 0 0 0 0 0 0 0 0 0 0 0 0 0 0 0 0 0 0 0 0 0 0 15.91235 15.19542 14.86995 14.75283 14.63332 14.71559 14.7823 14.62562 14.65591 14.48106 14.49405 14.50484 14.51209 14.51494 14.51829 14.51342 14.51076 14.51146 14.50775 14.49414 14.47808 14.48477 14.48943 14.49172 14.49545 14.53159 14.535 14.55273 14.58452 14.62031 14.64938 14.67561 14.71359 14.76061 14.79645 14.82141 14.83549 14.85817 14.86862 14.86675 14.85401 14.82984 14.79332 14.75326 14.71773 14.68705 14.66382 14.65214 14.64117 14.65662 14.67111 14.68346 14.70487 14.72714 14.75094 14.76772 14.78078 14.79237 14.80058 14.81683
0 0 0 0 0 0 0 0 0 0 0 0 0 0 0 0 0 0 0 0 0 0 0 0 0 0 0 0 0 0 0 0 0 0 0 0 0 0 0 0 0 0 0 0 0 0 0 0 0 15.7694 15.22638 14.89106 14.78533 14.67461 14.75502 14.61573 14.46381 14.4856 14.49882 14.50468 14.50534 14.50122 14.4961 14.49304 14.48971 14.48928 14.4872 14.48237 14.47269 14.46833 14.46647 14.46188 14.45956 14.45893 14.45229 14.4427 14.45197 14.47408 14.5021 14.52003 14.53898 14.56491 14.60484 14.64613 14.67846 14.69717 14.71051 14.72485 14.73652 14.72248 14.70247 14.67591 14.65105 14.63634 14.62455 14.62572 14.63452 14.64944 14.67141 14.69073 14.70853 14.72861 14.7521 14.77494 14.79139 14.81234 14.82938 14.84084 14.85722
0 0 0 0 0 0 0 0 0 0 0 0 0 0 0 0 0 0 0 0 0 0 0 0 0 0 0 0 0 0 0 0 0 0 0 0 0 0 0 0 0 0 0 0 0 0 0 0 0 15.82704 15.03673 14.69536 14.83321 14.71967 14.7966 14.63093 14.46873 14.48515 14.49052 14.48715 14.48288 14.47599 14.46717 14.46509 14.46608 14.46244 14.45343 14.4429 14.4285 14.4097 14.39553 14.38123 14.37563 14.3725 14.37279 14.37989 14.39255 14.40839 14.42384 14.43821 14.45255 14.4667 14.48743 14.50758 14.53496 14.55419 14.57146 14.58903 14.60005 14.60306 14.60644 14.6038 14.60079 14.60625 14.61034 14.62061 14.63906 14.66348 14.69057 14.71303 14.73283 14.75119 14.77617 14.79905 14.82105 14.841 14.85807 14.86933 14.88751
0 0 0 0 0 0 0 0 0 0 0 0 0 0 0 0 0 0 0 0 0 0 0 0 0 0 0 0 0 0 0 0 0 0 0 0 0 0 0 0 0 0 0 0 0 0 0 0 0 15.32862 15.12209 14.75682 14.67174 14.57411 14.63398 14.46066 14.46559 14.47157 14.47417 14.46382 14.44973 14.43739 14.43344 14.43519 14.43719 14.43339 14.42038 14.40368 14.38603 14.36732 14.34741 14.33021 14.31758 14.31192 14.31161 14.31802 14.32652 14.3392 14.35261 14.36569 14.38253 14.39438 14.41185 14.43525 14.45897 14.47735 14.50026 14.51797 14.53044 14.53828 14.5508 14.56424 14.58006 14.59729 14.61415 14.6399 14.66789 14.6871 14.71102 14.73158 14.7508 14.77087 14.79538 14.81919 14.84308 14.8632 14.88272 14.90156 14.9218
0 0 0 0 0 0 0 0 0 0 0 0 0 0 0 0 0 0 0 0 0 0 0 0 0 0 0 0 0 0 0 0 0 0 0 0 0 0 0 0 0 0 0 0 0 0 0 0 0 0 14.89687 14.84768 14.75005 14.43918 14.47496 14.4774 14.46438 14.46248 14.45655 14.44121 14.42774 14.41812 14.41393 14.41289 14.40665 14.40235 14.39041 14.38154 14.36927 14.35207 14.33084 14.31214 14.3006 14.29589 14.29617 14.30136 14.30995 14.31713 14.32396 14.33452 14.3443 14.35398 14.36614 14.38625 14.40711 14.42999 14.4532 14.47443 14.49431 14.51298 14.53662 14.55711 14.57822 14.6049 14.63225 14.66178 14.68308 14.70451 14.72641 14.74927 14.77434 14.79553 14.81974 14.84327 14.8643 14.87734 14.89913 14.92336 14.94878
0 0 0 0 0 0 0 0 0 0 0 0 0 0 0 0 0 0 0 0 0 0 0 0 0 0 0 0 0 0 0 0 0 0 0 0 0 0 0 0 0 0 0 0 0 0 0 0 0 0 15.07828 14.67948 14.40817 14.47302 14.48732 14.4845 14.46436 14.45244 14.4389 14.42116 14.40723 14.39892 14.39753 14.39997 14.40102 14.40258 14.40187 14.39569 14.38377 14.36789 14.34563 14.32305 14.30971 14.30254 14.30258 14.30352 14.31247 14.31736 14.3231 14.32793 14.33448 14.3425 14.35162 14.36545 14.383 14.40068 14.42594 14.45202 14.48164 14.50346 14.52644 14.55965 14.58673 14.61689 14.64596 14.67551 14.70095 14.72246 14.74346 14.76704 14.79134 14.81657 14.83899 14.86013 14.8749 14.89247 14.91202 14.93681 14.96538
0 0 0 0 0 0 0 0 0 0 0 0 0 0 0 0 0 0 0 0 0 0 0 0 0 0 0 0 0 0 0 0 0 0 0 0 0 0 0 0 0 0 0 0 0 0 0 0 0 0 0 0 14.43839 14.47006 14.48074 14.47484 14.46093 14.44408 14.4273 14.41285 14.40128 14.39271 14.39663 14.40522 14.41576 14.42333 14.42916 14.42565 14.41573 14.39839 14.37846 14.35429 14.3304 14.31636 14.31456 14.31686 14.32396 14.32531 14.32839 14.33198 14.33368 14.33761 14.34319 14.3535 14.37 14.38768 14.41449 14.44834 14.47892 14.50686 14.53527 14.57272 14.60839 14.64401 14.67303 14.7013 14.72775 14.74721 14.77729 14.79935 14.822 14.84435 14.8613 14.88031 14.89346 14.90952 14.92771 14.94739 14.97546
0 0 0 0 0 0 0 0 0 0 0 0 0 0 0 0 0 0 0 0 0 0 0 0 0 0 0 0 0 0 0 0 0 0 0 0 0 0 0 0 0 0 0 0 0 0 0 0 0 0 16.75656 15.12857 14.68716 14.49839 14.49382 14.47099 14.45538 14.43675 14.42176 14.40971 14.40123 14.39949 14.40642 14.41848 14.43674 14.44927 14.45621 14.45632 14.44961 14.43527 14.41613 14.39546 14.37215 14.35107 14.34503 14.34486 14.3379 14.33503 14.33734 14.3375 14.34009 14.34224 14.34789 14.35939 14.37788 14.39651 14.42397 14.45775 14.48941 14.52633 14.56919 14.61226 14.64703 14.67774 14.70341 14.73122 14.75694 14.77705 14.80378 14.82608 14.84977 14.87064 14.88456 14.9037 14.92111 14.93283 14.94496 14.96473 14.99385
0 0 0 0 0 0 0 0 0 0 0 0 0 0 0 0 0 0 0 0 0 0 0 0 0 0 0 0 0 0 0 0 0 0 0 0 0 0 0 0 0 0 0 0 0 0 0 0 0 0 16.12071 15.16666 14.94769 14.52528 14.50848 14.48214 14.46084 14.43714 14.42026 14.4152 14.41571 14.41885 14.42834 14.44965 14.47286 14.48728 14.49267 14.49702 14.4922 14.47995 14.46204 14.43671 14.41431 14.39157 14.3782 14.3697 14.3601 14.35326 14.3512 14.35409 14.35752 14.36139 14.36528 14.37975 14.39929 14.41469 14.44369 14.4753 14.51487 14.55437 14.60595 14.65123 14.68621 14.71944 14.74481 14.77943 14.80505 14.82418 14.8428 14.86255 14.87448 14.89453 14.90832 14.92726 14.93942 14.9527 14.96835 14.98375 15.01938
0 0 0 0 0 0 0 0 0 0 0 0 0 0 0 0 0 0 0 0 0 0 0 0 0 0 0 0 0 0 0 0 0 0 0 0 0 0 0 0 0 0 0 0 0 0 0 0 0 0 0 15.23361 14.76425 14.54951 14.52335 14.49771 14.46833 14.44735 14.43436 14.43534 14.43714 14.44269 14.46082 14.4844 14.50933 14.52947 14.54204 14.55235 14.55227 14.54278 14.52286 14.49309 14.46501 14.43366 14.40999 14.39344 14.38067 14.3722 14.37001 14.37082 14.37238 14.37901 14.38854 14.40238 14.42112 14.44631 14.47355 14.51209 14.55686 14.60755 14.6571 14.70185 14.74031 14.76581 14.78771 14.81252 14.83792 14.85381 14.86997 14.88606 14.89955 14.91701 14.92813 14.95229 14.96189 14.97895 14.99217 15.01828 15.04686
0 0 0 0 0 0 0 0 0 0 0 0 0 0 0 0 0 0 0 0 0 0 0 0 0 0 0 0 0 0 0 0 0 0 0 0 0 0 0 0 0 0 0 0 0 0 0 0 0 0 0 15.02168 14.58517 14.57393 14.5466 14.52333 14.48806 14.4695 14.46129 14.46435 14.47181 14.48693 14.50966 14.53541 14.56361 14.58181 14.60066 14.60914 14.60813 14.59408 14.5675 14.53765 14.50236 14.46995 14.44128 14.42609 14.41125 14.40575 14.40612 14.40387 14.40527 14.40794 14.41798 14.43375 14.45275 14.47553 14.50994 14.55559 14.60559 14.66023 14.71383 14.75807 14.80043 14.82069 14.84221 14.85887 14.87732 14.88882 14.89784 14.91088 14.926 14.94073 14.94962 14.96832 14.98806 15.00078 15.01747 15.04252 15.06662
0 0 0 0 0 0 0 0 0 0 0 0 0 0 0 0 0 0 0 0 0 0 0 0 0 0 0 0 0 0 0 0 0 0 0 0 0 0 0 0 0 0 0 0 0 0 0 0 0 0 0 14.63265 14.61615 14.60375 14.57149 14.54001 14.50572 14.48896 14.48613 14.49034 14.50755 14.52934 14.55361 14.58847 14.62248 14.64971 14.67355 14.67983 14.67624 14.65436 14.62219 14.5832 14.54302 14.51032 14.47719 14.45596 14.44036 14.43265 14.43222 14.43162 14.44071 14.44729 14.46417 14.48178 14.50528 14.53725 14.57464 14.62278 14.67391 14.72653 14.76943 14.81 14.83801 14.8585 14.88561 14.90011 14.91465 14.9266 14.93773 14.94494 14.95546 14.9649 14.98067 14.99874 15.01598 15.02962 15.04357 15.06137 15.08697
0 0 0 0 0 0 0 0 0 0 0 0 0 0 0 0 0 0 0 0 0 0 0 0 0 0 0 0 0 0 0 0 0 0 0 0 0 0 0 0 0 0 0 0 0 0 0 0 0 16.68966 15.68271 14.66544 14.64935 14.61501 14.58509 14.55386 14.53008 14.51672 14.51395 14.52575 14.54737 14.57052 14.60144 14.64458 14.67605 14.70519 14.7253 14.73059 14.72671 14.70946 14.68 14.64323 14.60791 14.56534 14.53285 14.50135 14.4806 14.47193 14.47088 14.47112 14.47914 14.49177 14.50665 14.52895 14.55473 14.58919 14.63378 14.68306 14.74232 14.78588 14.82784 14.86166 14.88567 14.91144 14.93641 14.95238 14.96663 14.9734 14.97832 14.98078 14.98619 14.99503 15.01049 15.02762 15.04432 15.06118 15.07414 15.09187 15.11137
0 0 0 0 0 0 0 0 0 0 0 0 0 0 0 0 0 0 0 0 0 0 0 0 0 0 0 0 0 0 0 0 0 0 0 0 0 0 0 0 0 0 0 0 0 0 0 0 15.79561 15.22479 14.96305 14.71513 14.68242 14.64198 14.60232 14.57241 14.55166 14.5414 14.54719 14.56633 14.59231 14.62643 14.67072 14.70898 14.74897 14.78137 14.79727 14.79149 14.79141 14.77134 14.74146 14.70285 14.66363 14.61667 14.57815 14.55222 14.52748 14.51663 14.52315 14.52742 14.54359 14.56182 14.58539 14.60817 14.63617 14.66961 14.71185 14.75298 14.79788 14.83948 14.87891 14.90448 14.93034 14.96026 14.98455 15.00395 15.0146 15.02469 15.02781 15.02863 15.0379 15.04762 15.05482 15.07481 15.08431 15.09332 15.10618 15.11954 15.13243
0 0 0 0 0 0 0 0 0 0 0 0 0 0 0 0 0 0 0 0 0 0 0 0 0 0 0 0 0 0 0 0 0 0 0 0 0 0 0 0 0 0 0 0 0 15.50265 15.36135 15.90117 15.3257 15.33159 15.05236 14.77348 14.73096 14.67874 14.63398 14.60234 14.58343 14.57125 14.58648 14.61059 14.64004 14.6788 14.72385 14.76179 14.80412 14.83552 14.85421 14.86076 14.85451 14.83533 14.80742 14.77113 14.73247 14.68724 14.64686 14.60964 14.57919 14.57187 14.5744 14.58192 14.5978 14.62186 14.64783 14.67574 14.71226 14.74701 14.79168 14.8304 14.86583 14.90112 14.93237 14.95586 14.98068 15.01186 15.03431 15.04606 15.05501 15.06532 15.07527 15.07983 15.08968 15.09979 15.10262 15.11786 15.12932 15.13734 15.14053 15.14566 15.16225
0 0 0 0 0 0 0 0 0 0 0 0 0 0 0 0 0 0 0 0 0 0 0 0 0 0 0 0 0 0 0 0 0 0 0 0 0 0 0 0 0 0 17.69487 17.36051 16.33227 15.43131 14.88566 14.88629 15.42747 15.13842 14.86778 14.81422 14.76498 14.71583 14.67227 14.63798 14.61748 14.62221 14.64229 14.66881 14.70622 14.7449 14.78839 14.83024 14.86737 14.8973 14.91191 14.91011 14.89997 14.8826 14.86097 14.82575 14.78725 14.74376 14.70632 14.67279 14.65194 14.6408 14.64599 14.6613 14.67961 14.70521 14.72745 14.75183 14.78791 14.82142 14.85624 14.89115 14.92584 14.9513 14.97365 15.0022 15.02749 15.05577 15.07835 15.09857 15.10995 15.12092 15.1337 15.14257 15.1495 15.15319 15.14818 15.15262 15.16046 15.16847 15.17365 15.17983 15.19005
0 0 0 0 0 0 0 0 0 0 0 0 0 0 0 0 0 0 0 0 0 0 0 0 0 0 0 0 0 0 0 0 0 0 0 0 0 0 0 0 16.79706 17.19331 17.42771 16.42642 15.50132 14.94141 14.95254 14.96099 14.95679 14.93468 14.90699 14.85436 14.80388 14.75524 14.71199 14.6809 14.66313 14.66813 14.69458 14.7223 14.76327 14.80224 14.84653 14.89066 14.93005 14.94965 14.95749 14.9637 14.95531 14.93831 14.90918 14.88662 14.85366 14.81044 14.77128 14.74185 14.71859 14.70397 14.71022 14.71998 14.74239 14.7625 14.79734 14.82339 14.85326 14.89143 14.92864 14.96083 14.98826 15.00857 15.03214 15.0504 15.06898 15.08863 15.11353 15.13025 15.14724 15.16008 15.17206 15.18215 15.18865 15.18557 15.18266 15.18876 15.19548 15.20632 15.21736 15.22252 15.23333
0 0 0 0 0 0 0 0 0 0 0 0 0 0 0 0 0 0 0 0 0 0 0 0 0 0 0 0 0 0 0 0 0 0 0 0 0 0 0 17.05573 16.77932 16.15989 15.86041 14.96969 14.97283 14.98353 14.99803 15.00338 14.99282 14.96542 14.92609 14.88453 14.84384 14.80591 14.77311 14.74628 14.73716 14.74753 14.76689 14.80098 14.83349 14.87032 14.90707 14.9478 14.98105 15.00479 15.01396 15.01682 15.0068 14.9878 14.96966 14.94726 14.91926 14.88742 14.85466 14.83017 14.81054 14.79318 14.78328 14.78683 14.80315 14.82403 14.85202 14.87652 14.90834 14.94458 14.97977 15.01047 15.03404 15.05823 15.07878 15.09232 15.10255 15.12698 15.1493 15.17121 15.18778 15.19573 15.20577 15.21025 15.20795 15.20846 15.20697 15.21609 15.22877 15.24161 15.25609 15.26575 15.27046
0 0 0 0 0 0 0 0 0 0 0 0 0 0 0 0 0 0 0 0 0 0 0 0 0 0 0 0 0 0 0 0 0 0 0 0 0 0 16.2298 15.89573 15.59599 15.00989 15.02253 15.02412 15.02668 15.03684 15.03737 15.03388 15.02207 15.0003 14.9675 14.93213 14.89829 14.86455 14.83837 14.8179 14.81111 14.82649 14.84778 14.87775 14.91592 14.94964 14.98353 15.02174 15.05478 15.07528 15.08258 15.0837 15.07696 15.06218 15.04111 15.01807 14.98602 14.96268 14.93155 14.91454 14.89323 14.87267 14.86354 14.86179 14.87726 14.90112 14.92409 14.95251 14.97806 15.00928 15.03603 15.05967 15.07826 15.10231 15.11806 15.13117 15.14315 15.16162 15.18439 15.20319 15.2155 15.22168 15.2304 15.23616 15.24113 15.24653 15.24954 15.26004 15.27002 15.28594 15.29625 15.30717 15.30328
0 0 0 0 0 0 0 0 0 0 0 0 0 0 0 0 0 0 0 0 0 0 0 0 0 0 0 0 0 0 0 0 0 0 17.99308 18.6264 17.73496 15.96822 15.04975 15.05161 15.0501 15.05646 15.05542 15.06471 15.07018 15.07371 15.07452 15.06874 15.05787 15.04409 15.02201 14.99814 14.97505 14.94888 14.93288 14.91863 14.9137 14.92446 14.94703 14.97263 15.00342 15.02581 15.05445 15.09364 15.11997 15.13897 15.14701 15.15297 15.14916 15.1409 15.12531 15.10425 15.07854 15.06018 15.03487 15.00937 14.98961 14.97019 14.95344 14.95201 14.95771 14.97208 14.9893 15.01292 15.03758 15.06051 15.08694 15.10859 15.13063 15.15173 15.172 15.18798 15.19954 15.21435 15.22626 15.23859 15.25055 15.25432 15.25997 15.26124 15.26915 15.27843 15.27935 15.28867 15.30652 15.32312 15.33605 15.34608 15.33886
0 0 0 0 0 0 0 0 0 0 0 0 0 0 0 0 0 0 0 0 0 0 0 0 0 0 0 0 0 18.51772 18.09572 17.86287 17.838 17.60767 17.29962 16.687 15.09055 15.08811 15.0886 15.09063 15.10136 15.09998 15.10825 15.11364 15.11297 15.09919 15.10008 15.0942 15.08852 15.07733 15.05821 15.04782 15.03815 15.02979 15.02567 15.0262 15.0246 15.03768 15.05414 15.07655 15.09226 15.1156 15.13994 15.165 15.18794 15.20406 15.21317 15.21256 15.20566 15.20223 15.19346 15.17896 15.1614 15.14172 15.12339 15.10186 15.08335 15.07028 15.06259 15.05489 15.06081 15.07331 15.08472 15.09329 15.11028 15.12317 15.13835 15.15593 15.17565 15.1933 15.20928 15.22213 15.24239 15.26161 15.2765 15.28232 15.28993 15.29609 15.29826 15.29972 15.30654 15.31433 15.31781 15.32885 15.3435 15.35851 15.36714 15.37038 15.35236
0 0 0 0 0 0 0 0 0 0 0 0 0 0 0 0 0 0 0 0 0 0 0 0 0 18.29429 17.53415 17.52346 16.5506 15.8456 15.4948 15.16517 15.1549 15.1386 15.12498 15.11525 15.10776 15.10411 15.11263 15.12023 15.12709 15.14348 15.14406 15.14726 15.14918 15.12785 15.13008 15.12925 15.12774 15.12224 15.11393 15.11135 15.11336 15.1112 15.10722 15.10801 15.10721 15.11731 15.12648 15.13638 15.15388 15.1741 15.20144 15.2275 15.25232 15.26674 15.27203 15.27505 15.27613 15.27274 15.27073 15.25746 15.24407 15.22565 15.20476 15.18398 15.16767 15.15488 15.14497 15.14113 15.14533 15.15392 15.16524 15.17834 15.1831 15.18795 15.19754 15.21338 15.2306 15.2461 15.2607 15.27376 15.28693 15.30208 15.31966 15.32243 15.32296 15.32036 15.32239 15.32828 15.33577 15.34524 15.35285 15.36238 15.37927 15.39613 15.40389 15.38665 15.34227
0 0 0 0 0 0 0 0 0 0 0 0 0 0 0 0 0 0 0 0 0 0 0 18.50848 17.61497 16.99686 16.62093 16.2576 15.22614 15.21284 15.18942 15.16812 15.15003 15.13584 15.12497 15.12618 15.12487 15.12283 15.12229 15.12975 15.14262 15.1567 15.15863 15.15595 15.16185 15.15242 15.15495 15.15808 15.16313 15.16699 15.1689 15.17325 15.18114 15.17973 15.18278 15.19264 15.20062 15.20524 15.20495 15.19784 15.2116 15.22338 15.24889 15.28471 15.30304 15.31382 15.3231 15.32465 15.32732 15.32923 15.32981 15.32708 15.31935 15.30501 15.29461 15.27757 15.26528 15.25796 15.24798 15.23861 15.24172 15.24244 15.24714 15.25181 15.25002 15.24738 15.24867 15.26124 15.27532 15.29617 15.30787 15.31836 15.33334 15.34596 15.35819 15.35818 15.35945 15.35937 15.35675 15.36 15.36621 15.37374 15.38396 15.39717 15.40835 15.42233 15.41567 15.38407 15.3215
0 0 0 0 0 0 0 0 0 0 0 0 0 0 0 0 0 0 0 0 0 0 17.9479 17.06987 16.70551 16.6662 16.285 15.90541 15.20924 15.18389 15.16434 15.15152 15.138 15.12855 15.1188 15.11747 15.11367 15.11941 15.1226 15.13288 15.14171 15.15425 15.1649 15.1719 15.17716 15.18364 15.18848 15.19219 15.1965 15.20256 15.2051 15.2133 15.22538 15.23158 15.24243 15.26038 15.26582 15.2649 15.25701 15.25812 15.26443 15.27334 15.30032 15.32653 15.34785 15.3683 15.37419 15.37415 15.38251 15.38505 15.38451 15.37945 15.37742 15.36772 15.36075 15.34796 15.34047 15.33657 15.33084 15.32443 15.32889 15.33277 15.33181 15.3334 15.32587 15.3296 15.32884 15.32959 15.33746 15.35215 15.36 15.36257 15.3688 15.38121 15.38575 15.38991 15.38858 15.39159 15.39056 15.3877 15.39746 15.40788 15.42392 15.43752 15.45262 15.45077 15.42832 15.37773 15.30917
0 0 0 0 0 0 0 0 0 0 0 0 0 0 0 0 0 0 0 0 0 19.20927 18.16882 17.06739 16.37382 16.32908 15.93202 15.89482 15.20107 15.18152 15.16834 15.16071 15.14847 15.14007 15.13315 15.13437 15.13456 15.14009 15.14774 15.16254 15.17054 15.18773 15.19724 15.20576 15.21577 15.22587 15.2295 15.23555 15.23927 15.24345 15.24991 15.26106 15.27122 15.28602 15.30583 15.31379 15.32046 15.31894 15.31289 15.31106 15.31518 15.32156 15.34466 15.36641 15.38947 15.40523 15.41113 15.41657 15.42471 15.4343 15.43927 15.44244 15.4394 15.43366 15.42944 15.42907 15.4194 15.41778 15.41003 15.40854 15.40166 15.3995 15.39626 15.39463 15.39732 15.39628 15.4042 15.40857 15.41368 15.41235 15.41054 15.41263 15.41594 15.42491 15.43138 15.43609 15.43822 15.43129 15.42869 15.42845 15.43136 15.44761 15.46575 15.47718 15.4803 15.47304 15.43864 15.37503 15.29489
0 0 0 0 0 0 0 0 0 0 0 0 0 0 0 0 0 0 0 0 0 0 0 17.6798 16.73724 16.35017 15.9496 15.55951 15.19841 15.18442 15.17743 15.1712 15.16018 15.15885 15.15235 15.14851 15.15272 15.1607 15.16811 15.17996 15.19253 15.20985 15.22078 15.23668 15.24983 15.25818 15.26715 15.27138 15.27406 15.28364 15.28588 15.30506 15.32269 15.33482 15.34851 15.36168 15.36561 15.37537 15.37092 15.37658 15.38349 15.38923 15.3995 15.41777 15.43518 15.43837 15.44762 15.45401 15.46237 15.47879 15.48712 15.49795 15.49806 15.49915 15.50848 15.51113 15.50434 15.50749 15.50769 15.50048 15.49635 15.49321 15.487 15.48168 15.48078 15.47815 15.48395 15.4827 15.47689 15.46326 15.45691 15.45716 15.46089 15.46553 15.47226 15.47997 15.4791 15.47695 15.47509 15.47507 15.48478 15.49803 15.50968 15.51953 15.51759 15.49361 15.45005 15.37778 15.28574
0 0 0 0 0 0 0 0 0 0 0 0 0 0 0 0 0 0 0 0 0 19.60423 19.28393 18.28175 16.77676 16.38117 15.9749 15.92114 15.54182 15.1937 15.18639 15.17867 15.18109 15.18 15.17191 15.17435 15.18597 15.18999 15.19716 15.20439 15.21738 15.2333 15.24754 15.26979 15.2851 15.29289 15.30323 15.30774 15.31406 15.32446 15.33719 15.3572 15.37812 15.39282 15.40521 15.40918 15.40859 15.41628 15.42555 15.4304 15.43275 15.44123 15.45155 15.46238 15.47418 15.48497 15.48509 15.49693 15.50928 15.52566 15.54171 15.54949 15.55734 15.56965 15.57148 15.57549 15.57853 15.57614 15.57643 15.57366 15.56984 15.56644 15.56732 15.5722 15.57146 15.57011 15.56851 15.5637 15.55478 15.54581 15.53733 15.52362 15.52112 15.52118 15.52463 15.5219 15.52285 15.52104 15.51837 15.5227 15.52816 15.53842 15.55051 15.55749 15.54838 15.51537 15.46308 15.38724 15.2825
0 0 0 0 0 0 0 0 0 0 0 0 0 0 0 0 0 0 0 19.64024 19.54515 19.42361 18.56609 17.46903 16.80008 16.4057 15.99177 16.29663 15.22263 15.20171 15.19373 15.18993 15.19435 15.19713 15.19085 15.19638 15.2014 15.21586 15.2244 15.23328 15.24655 15.25742 15.27525 15.29226 15.30446 15.31684 15.33011 15.3488 15.35903 15.37571 15.39503 15.42361 15.4447 15.45597 15.46577 15.46672 15.47122 15.46972 15.48387 15.48643 15.49047 15.49128 15.49672 15.50498 15.51681 15.52561 15.52817 15.53255 15.53954 15.56046 15.58035 15.59508 15.61224 15.63132 15.64574 15.6542 15.65677 15.66536 15.66386 15.66342 15.6574 15.65599 15.65342 15.64812 15.64154 15.63394 15.63083 15.62638 15.6217 15.61716 15.60461 15.59398 15.58466 15.58014 15.57992 15.58147 15.58349 15.58211 15.58144 15.58074 15.58477 15.58977 15.59301 15.58873 15.57388 15.53312 15.47705 15.39462 15.29113
0 0 0 0 0 0 0 0 0 0 0 0 0 0 0 0 0 0 19.11524 18.97663 18.59451 18.09946 17.47652 16.81709 16.46385 16.41547 16.00649 15.60317 15.2389 15.21354 15.2056 15.20454 15.20957 15.21025 15.20873 15.21337 15.22072 15.23913 15.25532 15.26355 15.28053 15.29383 15.30963 15.32658 15.34015 15.35214 15.36874 15.3871 15.41181 15.43167 15.45209 15.47545 15.4978 15.51128 15.52457 15.53274 15.53827 15.54429 15.5417 15.54893 15.5527 15.55061 15.55467 15.56241 15.56747 15.57211 15.57174 15.56904 15.57509 15.58953 15.61303 15.6291 15.65595 15.68012 15.69792 15.71241 15.72706 15.73439 15.74183 15.74688 15.7501 15.74848 15.74438 15.73779 15.73073 15.71807 15.70742 15.69488 15.68531 15.67473 15.65976 15.64785 15.63451 15.63085 15.62519 15.62554 15.6277 15.6283 15.62777 15.62868 15.63621 15.63903 15.63983 15.62966 15.6103 15.56817 15.50898 15.42166 15.32278
0 0 0 0 0 0 0 0 0 0 0 0 0 0 0 0 0 19.58159 19.00994 18.3678 17.82098 17.16346 16.82921 16.82267 16.81706 16.41409 16.01884 15.28023 15.24229 15.22288 15.21529 15.21014 15.21862 15.22445 15.22766 15.23332 15.24747 15.2651 15.27625 15.29567 15.31173 15.32957 15.34689 15.3673 15.38347 15.39614 15.41245 15.43044 15.45557 15.47697 15.49599 15.52645 15.5491 15.56465 15.57958 15.58833 15.5793 15.58609 15.58698 15.59417 15.58942 15.58866 15.59864 15.60412 15.6057 15.60135 15.60322 15.60282 15.61553 15.6276 15.64589 15.67058 15.70174 15.72405 15.74496 15.76437 15.7769 15.79209 15.80609 15.81625 15.82257 15.821 15.8203 15.8081 15.79825 15.7891 15.77189 15.76191 15.7423 15.72858 15.71393 15.70153 15.69509 15.68924 15.68211 15.68054 15.67951 15.67704 15.67413 15.66999 15.67037 15.67535 15.67646 15.67076 15.64908 15.60665 15.54328 15.4599 15.36834
0 0 0 0 0 0 0 0 0 0 0 0 0 0 0 0 19.08215 19.06502 18.19036 17.5759 17.22675 16.86949 16.84246 16.8428 16.82899 16.43371 16.02501 15.29224 15.25163 15.23542 15.22725 15.22344 15.23366 15.23899 15.2584 15.27325 15.28565 15.29788 15.30942 15.3254 15.34504 15.36288 15.38545 15.40803 15.4332 15.45045 15.46361 15.48598 15.49867 15.51992 15.55218 15.58173 15.60382 15.62451 15.63772 15.64828 15.63468 15.63902 15.64778 15.64715 15.64662 15.63985 15.63885 15.63742 15.64195 15.63514 15.63157 15.63195 15.6458 15.65686 15.67716 15.70183 15.73114 15.75917 15.78927 15.81283 15.83102 15.85103 15.87121 15.89094 15.90013 15.90273 15.89384 15.88016 15.86618 15.84859 15.82687 15.80465 15.78398 15.77108 15.75189 15.74129 15.73683 15.73384 15.73234 15.72791 15.72472 15.72118 15.71821 15.71781 15.7171 15.71893 15.71733 15.71678 15.70019 15.65544 15.59417 15.50848 15.41411
0 0 0 0 0 0 0 0 0 0 0 0 0 0 0 19.64204 18.90883 18.21328 17.58567 17.24932 16.89279 16.88748 16.84888 16.4866 16.46231 16.07627 15.32343 15.28772 15.25914 15.24887 15.24552 15.24463 15.25316 15.26756 15.28515 15.29953 15.31746 15.33458 15.34595 15.36064 15.38799 15.4145 15.44172 15.47129 15.50299 15.52507 15.54148 15.56072 15.5738 15.59533 15.61406 15.64164 15.66316 15.67633 15.68831 15.69754 15.70587 15.71483 15.72266 15.732 15.72573 15.72392 15.71206 15.70165 15.68839 15.68166 15.67663 15.67659 15.67429 15.67975 15.69879 15.72413 15.7542 15.78984 15.82158 15.84726 15.87301 15.89791 15.92244 15.9411 15.9499 15.95502 15.94849 15.94006 15.92718 15.90895 15.88704 15.86178 15.83715 15.81855 15.80169 15.7866 15.77846 15.7742 15.76943 15.76354 15.7595 15.75786 15.75664 15.75243 15.75014 15.75515 15.75849 15.7623 15.74041 15.70385 15.64125 15.56064 15.47012
0 0 0 0 0 0 0 0 0 0 0 0 0 0 18.96975 18.97334 18.25933 17.59723 17.24814 16.88632 16.88261 16.50016 16.45974 16.45477 16.08599 15.68919 15.32131 15.2898 15.27216 15.27399 15.27349 15.27329 15.28415 15.29911 15.3154 15.33069 15.35388 15.37227 15.39623 15.41703 15.45174 15.48193 15.51833 15.55625 15.59022 15.6176 15.64088 15.66003 15.67904 15.69547 15.71047 15.72651 15.74081 15.74768 15.75824 15.75926 15.77093 15.78051 15.78679 15.79699 15.80387 15.80573 15.79387 15.781 15.74666 15.72806 15.71782 15.70456 15.69476 15.69718 15.71309 15.74158 15.78157 15.82064 15.85549 15.88912 15.9246 15.95141 15.97537 15.98909 15.99396 15.99528 15.99294 15.98437 15.97291 15.95331 15.93511 15.91114 15.88011 15.86145 15.84543 15.82878 15.81752 15.81002 15.80961 15.80411 15.80119 15.79548 15.79769 15.79579 15.79544 15.79645 15.80174 15.79611 15.77086 15.73256 15.66582 15.59156 15.49806
0 0 0 0 0 0 0 0 0 0 0 0 0 18.84012 19.01344 18.25017 17.57207 17.23725 16.87055 16.86867 16.493 16.46514 16.45222 16.45827 16.07276 15.33128 15.31249 15.29659 15.29677 15.29515 15.30316 15.31395 15.32361 15.34129 15.3549 15.38319 15.39969 15.42263 15.45441 15.4834 15.52301 15.55933 15.60526 15.64558 15.68422 15.70838 15.73173 15.75513 15.77023 15.78726 15.797 15.80459 15.81301 15.81664 15.81568 15.81094 15.81919 15.84019 0 0 0 15.80115 15.81023 15.86031 15.83229 15.78637 15.75037 15.73093 15.71601 15.71142 15.72624 15.75442 15.79907 15.84037 15.88484 15.92676 15.96436 15.99457 16.01957 16.034 16.04173 16.04171 16.04163 16.0375 16.0234 16.00872 15.99093 15.96383 15.93312 15.90687 15.88645 15.87107 15.85428 15.8491 15.84832 15.84098 15.83542 15.8337 15.83072 15.82946 15.83269 15.83581 15.83925 15.83249 15.81335 15.77084 15.70289 15.61916 15.52214
0 0 0 0 0 0 0 0 0 0 0 0 0 19.22876 18.27815 17.58136 17.20122 16.81416 16.82176 16.43777 16.43892 16.44459 16.46036 15.34204 15.33497 15.32574 15.31128 15.30795 15.30752 15.31332 15.33331 15.34746 15.36756 15.38914 15.41043 15.4297 15.45551 15.48837 15.51883 15.54803 15.59075 15.63235 15.67419 15.73285 15.77775 15.80393 15.81894 15.83397 15.8468 15.86594 15.88169 16.72243 15.87613 15.85341 15.83821 16.24224 17.10526 17.97981 0 0 0 0 0 16.31647 15.8876 15.83617 15.78829 15.75504 15.74789 15.73888 15.74886 15.7725 15.81006 15.85836 15.91485 15.96135 16.0022 16.03257 16.05498 16.06928 16.07778 16.07604 16.0764 16.07358 16.0679 16.05351 16.03875 16.01514 15.99153 15.96173 15.94554 15.92688 15.91667 15.90386 15.89847 15.89188 15.88026 15.87247 15.86852 15.86488 15.86426 15.86733 15.87086 15.86425 15.84192 15.79968 15.7301 15.64029 15.53822
0 0 0 0 0 0 0 0 0 0 0 0 19.40487 18.59493 17.5967 17.20052 16.78896 16.41094 16.4177 16.43159 16.44056 16.45749 16.08265 15.34404 15.33804 15.32892 15.3252 15.31898 15.3244 15.34252 15.36423 15.38202 15.39957 15.43045 15.44842 15.47196 15.49545 15.52421 15.56939 15.60513 15.65647 15.7018 15.74246 15.79056 15.83689 15.86184 15.86625 0 0 15.86481 0 17.68939 16.78521 16.31821 16.72135 16.69249 17.52854 18.005 19.06821 16.66555 15.86507 0 0 0 17.68567 15.85721 15.80746 15.77644 15.76611 15.7699 15.78166 15.802 15.83363 15.88352 15.94013 15.99029 16.03538 16.07225 16.09779 16.11159 16.11474 16.11576 16.11675 16.11053 16.10978 16.09727 16.08032 16.06183 16.03939 16.00999 15.99481 15.97985 15.97157 15.95417 15.94648 15.93554 15.92716 15.92173 15.91797 15.91266 15.91371 15.90839 15.90736 15.90349 15.8765 15.83244 15.76018 15.66826 15.55611
0 0 0 0 0 0 0 0 0 0 0 18.68701 18.64141 17.62326 17.21519 16.39748 16.39491 16.41031 16.42587 16.44418 16.4779 15.72667 15.36294 15.35803 15.34882 15.34621 15.34634 15.34693 15.35906 15.376 15.40203 15.4264 15.44614 15.46746 15.49033 15.5164 15.55053 15.59194 15.64115 15.68133 15.73705 15.78331 15.81519 15.84501 16.73113 0 0 0 0 0 18.55251 19.41563 19.12816 18.47436 18.058 17.57315 17.54615 16.25643 15.85655 15.86794 15.86947 15.85778 15.84493 18.03088 18.41806 15.85525 15.81947 15.80115 15.79645 15.79517 15.80618 15.83263 15.8655 15.91054 15.9665 16.01932 16.06306 16.10033 16.12638 16.13697 16.14565 16.14777 16.14872 16.14346 16.14022 16.12826 16.11881 16.10957 16.09422 16.07626 16.05804 16.04036 16.02576 16.00822 15.99146 15.98148 15.97068 15.96713 15.9624 15.95785 15.95929 15.94896 15.94321 15.93136 15.90556 15.86097 15.79077 15.7003 15.58368
0 0 0 0 0 0 0 0 0 0 19.3933 18.6769 17.62985 16.81427 16.42089 16.04039 16.03788 16.06514 16.08783 16.11486 16.13594 15.40159 15.39004 15.38394 15.37452 15.37618 15.37575 15.38073 15.40088 15.41412 15.43446 15.45549 15.47863 15.50215 15.52961 15.56202 15.59738 15.64799 15.70453 15.76351 15.82131 15.8569 16.29637 0 0 0 0 0 0 0 0 0 0 0 18.46663 18.04913 17.16436 15.86903 15.87466 15.88652 15.88721 15.88138 15.87071 15.86579 15.8626 15.86035 15.84656 15.84176 15.83477 15.84021 15.85173 15.87069 15.90614 15.94836 15.98872 16.03702 16.08414 16.1204 16.14831 16.1616 16.16685 16.16971 16.16615 16.16817 16.16177 16.15744 16.15511 16.15222 16.14474 16.13348 16.11879 16.1002 16.08256 16.06394 16.04872 16.03674 16.02961 16.02764 16.02069 16.01278 16.01313 15.99781 15.98345 15.95917 15.92973 15.87958 15.81409 15.71959 15.60814
0 0 0 0 0 0 0 0 0 0 18.91303 17.60006 16.80834 16.41804 15.6794 15.69355 15.34834 15.37279 15.40627 15.42175 15.4264 15.43009 15.42946 15.4275 15.4295 15.42423 15.42601 15.43919 15.45304 15.46285 15.47935 15.49749 15.52289 15.54627 15.57572 15.60522 15.64552 15.6917 15.75791 15.82078 17.17511 0 0 0 0 0 0 0 0 0 0 0 0 0 19.13127 17.66357 15.9065 15.91001 15.92206 15.9327 15.92724 15.92072 15.9169 15.90531 15.89315 15.87927 15.87289 15.87265 15.87319 15.88171 15.89411 15.91702 15.94375 15.98016 16.01861 16.06396 16.10678 16.1409 16.16709 16.18368 16.18863 16.19219 16.1926 16.19199 16.19332 16.19249 16.19502 16.18873 16.18205 16.17081 16.1566 16.14232 16.12847 16.10543 16.09118 16.0816 16.0797 16.08001 16.07273 16.06612 16.06025 16.04599 16.02179 15.99434 15.95615 15.90368 15.83435 15.74429 15.63842
0 0 0 0 0 0 0 0 0 18.9849 18.32988 17.16905 16.38899 15.65983 15.33813 15.34874 15.36574 15.38872 15.41553 15.43222 15.44926 15.45439 15.46122 15.46674 15.46784 15.46807 15.47403 15.48988 15.50403 15.51578 15.53353 15.55163 15.57132 15.59538 15.62528 15.6612 15.69805 15.74738 15.80677 16.71644 16.95876 0 0 0 0 0 0 0 0 0 0 0 0 18.38431 18.13312 16.7979 15.92626 15.9383 15.95797 15.96722 15.96195 15.96052 15.9531 15.94672 15.93344 15.91883 15.90617 15.9023 15.91912 15.92654 15.93626 15.95748 15.98503 16.01416 16.04526 16.0839 16.12833 16.1611 16.18515 16.20019 16.21002 16.21407 16.21686 16.21728 16.21813 16.22528 16.224 16.22325 16.21605 16.20766 16.19693 16.1818 16.16904 16.15509 16.14288 16.13009 16.12403 16.12137 16.11615 16.10444 16.09384 16.07896 16.05518 16.01873 15.97155 15.9174 15.84666 15.75914 15.65961
0 0 0 0 0 0 0 0 19.77705 18.73012 17.19131 16.34768 15.96078 15.27607 15.3073 15.33948 15.36152 15.39168 15.41627 15.43919 15.46739 15.47771 15.48425 15.48809 15.49417 15.49979 15.5129 15.5288 15.54836 15.56344 15.57801 15.597 15.61227 15.63886 15.66435 15.69422 15.72931 15.77434 16.22675 16.71269 17.2071 18.12042 0 19.03264 19.67519 0 0 0 0 0 0 0 19.22251 18.15976 17.27489 15.94212 15.94527 15.96405 15.98182 15.99661 16.00024 15.98967 15.97961 15.96787 15.96096 15.95663 15.94881 15.94382 15.95681 15.97159 15.98901 16.00795 16.03602 16.05838 16.08998 16.12805 16.15874 16.19376 16.21435 16.2349 16.24495 16.24786 16.24876 16.25177 16.25387 16.25179 16.24926 16.24598 16.24229 16.23496 16.22588 16.21204 16.19845 16.19209 16.18369 16.17172 16.16706 16.16841 16.15947 16.14423 16.12912 16.10937 16.08605 16.04222 15.98602 15.92612 15.85466 15.76623 15.66906
0 0 0 0 0 0 0 0 19.82884 18.78362 17.19142 16.33678 15.24614 15.26845 15.30916 15.33179 15.36002 15.39141 15.41926 15.45215 15.47987 15.49809 15.50526 15.50556 15.51761 15.53216 15.55485 15.57776 15.60336 15.62954 15.65299 15.67087 15.67918 15.6903 15.71064 15.73405 15.76713 15.7938 15.81598 16.27287 16.73311 17.21003 17.68957 18.16839 19.01544 0 0 0 0 0 0 18.60647 17.76259 17.73107 15.9561 15.96313 15.98259 16.00936 16.02568 16.03688 16.04088 16.03592 16.01809 16.01161 15.99693 15.99111 15.9823 15.98442 15.99184 16.00668 16.02405 16.04723 16.07277 16.103 16.13023 16.16272 16.19286 16.22362 16.24959 16.27123 16.27829 16.28664 16.28862 16.28832 16.29053 16.28578 16.2818 16.27625 16.27303 16.26639 16.25391 16.24657 16.2348 16.22659 16.21708 16.20577 16.20054 16.20007 16.19092 16.17553 16.1577 16.1362 16.10539 16.05769 16.00235 15.93488 15.85837 15.7674 15.67198
0 0 0 0 0 0 0 0 0 18.84244 17.21629 16.36079 15.24638 15.25446 15.30311 15.33144 15.36019 15.39346 15.42776 15.46106 15.49192 15.51505 15.51634 15.52969 15.54168 15.56789 15.59361 15.62261 15.65736 15.69568 15.71978 15.73063 15.73878 15.74682 15.76711 15.78537 15.80413 15.82288 15.84181 15.85307 15.86777 15.88421 15.90331 16.3304 17.25398 18.15908 19.02396 19.38667 0 0 18.95937 17.76505 16.85186 15.96571 15.97761 16.00626 16.0284 16.05353 16.06648 16.07729 16.07798 16.07295 16.06193 16.05542 16.04144 16.03135 16.02369 16.02235 16.02726 16.0408 16.06002 16.08476 16.105 16.13417 16.16405 16.19532 16.22657 16.25137 16.27734 16.29883 16.30981 16.31738 16.31864 16.31992 16.3174 16.30929 16.31094 16.31185 16.31092 16.30641 16.29708 16.28946 16.28149 16.27426 16.26299 16.24572 16.2381 16.22671 16.21572 16.19808 16.17777 16.15066 16.10894 16.06078 16.00419 15.9303 15.84874 15.75702 15.66698
0 0 0 0 0 0 0 0 0 19.73296 18.08379 16.82908 15.61919 15.26151 15.2945 15.32041 15.35188 15.38953 15.42646 15.46632 15.49928 15.52994 15.54134 15.56154 15.58577 15.61348 15.64995 15.68819 15.72434 15.75671 15.77645 15.78517 15.78106 15.78991 15.80762 15.81962 15.8316 15.85045 15.86785 15.87509 15.8895 15.89523 15.90753 15.91112 16.34481 16.80406 17.26457 17.70736 18.97859 17.75747 16.38249 15.95555 15.96983 15.9994 16.03448 16.05087 16.07034 16.08908 16.10336 16.1158 16.11128 16.10437 16.09558 16.08743 16.07669 16.0669 16.06413 16.0621 16.06257 16.08132 16.09947 16.12244 16.14444 16.17292 16.20523 16.23685 16.2617 16.28835 16.30768 16.32578 16.33509 16.34151 16.34529 16.34357 16.34135 16.34067 16.33761 16.33594 16.33485 16.33143 16.32449 16.31801 16.3094 16.30558 16.29068 16.27952 16.2643 16.2517 16.24032 16.21906 16.19336 16.16348 16.12166 16.06751 16.00168 15.92516 15.84037 15.74635 15.65197
0 0 0 0 0 0 0 0 0 19.83102 19.10753 17.30886 16.03509 15.29543 15.29993 15.32021 15.34611 15.37882 15.41531 15.45761 15.5011 15.54385 15.57407 15.60151 15.63303 15.67381 15.7185 15.76176 15.80834 15.82363 15.83794 15.84152 15.83854 15.83889 15.84319 15.85256 15.85935 15.87637 15.88999 15.89753 15.90771 15.91248 15.9171 15.93047 15.93308 15.93903 16.37672 0 17.75248 16.38836 15.97172 15.99019 16.01687 16.0445 16.07923 16.09994 16.11743 16.12882 16.13448 16.13879 16.13806 16.13162 16.12499 16.11532 16.10774 16.10203 16.09489 16.08897 16.09362 16.10665 16.12778 16.14467 16.17422 16.19952 16.23404 16.26759 16.29484 16.31386 16.32913 16.34657 16.35827 16.36091 16.36611 16.36438 16.36442 16.3683 16.36441 16.36222 16.35958 16.3543 16.34773 16.33626 16.33128 16.32244 16.30863 16.29354 16.28071 16.27287 16.25457 16.23364 16.20463 16.16782 16.12069 16.06912 15.99782 15.9184 15.83027 15.73424 15.62634
0 0 0 0 0 0 0 0 0 0 19.58552 18.19919 16.5249 15.74122 15.34938 15.32645 15.34026 15.36624 15.40106 15.4506 15.49968 15.55239 15.59702 15.63113 15.67374 15.71835 15.77153 15.81792 0 0 0 16.10391 15.87786 15.87646 15.87652 15.88396 15.88849 15.9059 15.91334 15.92083 15.92585 15.92919 15.94029 15.94728 15.96294 15.97617 15.99266 16.43646 16.00225 16.00122 16.02184 16.04387 16.06753 16.09788 16.1221 16.14205 16.16037 16.16727 16.16551 16.15969 16.15583 16.16145 16.15708 16.15619 16.14566 16.13546 16.12702 16.12264 16.12704 16.14019 16.16425 16.1849 16.21079 16.23555 16.26264 16.29812 16.3146 16.33573 16.35643 16.36402 16.37078 16.37384 16.37726 16.38289 16.37695 16.37942 16.38247 16.37872 16.37408 16.37027 16.36385 16.3551 16.35082 16.34123 16.32619 16.31296 16.30383 16.29239 16.27706 16.24943 16.21626 16.17471 16.12559 16.06396 15.99198 15.90992 15.82117 15.72524 15.61268
0 0 0 0 0 0 0 0 0 0 0 19.5675 18.30371 16.6119 15.76592 15.36782 15.33791 15.35429 15.39009 15.44316 15.50095 15.56744 15.61452 15.66198 15.70269 15.74906 16.1931 16.62799 0 0 0 16.82051 17.12369 15.89345 15.8974 15.90039 15.90952 15.92194 15.934 15.94363 15.94215 15.94735 15.95333 15.97304 15.99482 16.0103 16.02428 16.04379 16.0553 16.05945 16.08279 16.1038 16.1239 16.14949 16.16375 16.18073 16.19678 16.2038 16.19816 16.19545 16.19721 16.19357 16.19302 16.18709 16.17464 16.16119 16.15596 16.15347 16.16297 16.17959 16.20517 16.22959 16.25213 16.26773 16.29557 16.32166 16.34163 16.36193 16.3783 16.38618 16.38795 16.38842 16.39284 16.39458 16.39272 16.38662 16.38602 16.38724 16.38287 16.37619 16.36971 16.36655 16.36221 16.35183 16.3425 16.33455 16.32434 16.30773 16.28681 16.26141 16.22648 16.18246 16.13248 16.07172 16.0003 15.91689 15.82701 15.72965 15.61915
0 0 0 0 0 0 0 0 0 0 0 0 19.78099 18.74645 16.61049 15.78414 15.3437 15.34571 15.38707 15.4434 15.51045 15.5947 15.64639 15.68547 15.72081 15.77583 16.60516 0 0 18.34995 18.43959 16.75204 15.90935 15.90226 15.89466 15.90185 15.91543 15.9275 15.94791 15.96534 15.96338 15.9666 15.98051 15.9991 16.02085 16.04318 16.05721 16.0748 16.09 16.11155 16.13087 16.15354 16.18269 16.19569 16.21082 16.22677 16.24106 16.24268 16.24561 16.23767 16.23528 16.23402 16.22687 16.22096 16.21165 16.19817 16.19238 16.18987 16.19744 16.21342 16.2356 16.25708 16.27786 16.29694 16.32186 16.3398 16.36348 16.38366 16.3945 16.39935 16.3983 16.40169 16.40151 16.40501 16.39855 16.3939 16.39179 16.39009 16.38793 16.38649 16.38378 16.38204 16.37838 16.36813 16.35899 16.34886 16.33586 16.32095 16.29431 16.26816 16.23371 16.18777 16.13803 16.07894 16.01293 15.93526 15.847 15.7569 15.65145
0 0 0 0 0 0 0 0 0 0 0 0 0 0 0 16.58294 15.71417 15.34685 15.38852 15.4528 15.52959 15.61283 15.66924 15.70105 15.7222 16.15956 16.21633 16.65066 17.08771 19.43477 18.43771 16.73945 15.90662 15.90325 15.89982 15.91344 15.93202 15.94676 15.96351 15.97302 15.98062 15.99539 16.01019 16.02605 16.04555 16.06364 16.08239 16.10204 16.12239 16.14427 16.17309 16.1934 16.22256 16.23454 16.2509 16.26005 16.26383 16.26783 16.27863 16.27635 16.27473 16.26496 16.25227 16.24622 16.24734 16.23936 16.2381 16.23317 16.23877 16.25261 16.27385 16.29407 16.31243 16.33413 16.35641 16.36833 16.38681 16.4023 16.41061 16.41197 16.41557 16.41897 16.41596 16.41511 16.41051 16.40774 16.40834 16.40774 16.40401 16.40026 16.3957 16.39014 16.38523 16.38089 16.37345 16.36474 16.35284 16.33289 16.30909 16.28172 16.24877 16.20566 16.1509 16.09536 16.03369 15.95791 15.88177 15.79187 15.69206
0 0 0 0 0 0 0 0 0 0 0 0 0 0 0 17.44546 16.52693 15.35363 15.39623 15.46632 15.55037 15.64057 15.69179 15.71374 15.74869 15.78448 16.62225 16.66426 17.10421 0 18.47556 15.92296 15.9108 15.90012 15.92851 15.9211 15.94362 15.96315 15.97746 15.98908 16.00512 16.01655 16.03185 16.04914 16.06297 16.08231 16.10508 16.12644 16.15534 16.18526 16.21109 16.22951 16.25352 16.26846 16.2818 16.29483 16.29427 16.30107 16.30168 16.29776 16.29631 16.28182 16.27259 16.26773 16.26532 16.25943 16.25749 16.25664 16.26576 16.28234 16.30578 16.32954 16.34981 16.36867 16.38314 16.40375 16.41462 16.42815 16.43337 16.43301 16.43801 16.43947 16.43662 16.42868 16.42613 16.42637 16.42428 16.42439 16.41532 16.40494 16.40429 16.39853 16.39167 16.38367 16.38087 16.37241 16.36298 16.34378 16.32196 16.29578 16.26284 16.22806 16.18183 16.12885 16.07051 16.00181 15.92604 15.84144 15.75205
0 0 0 0 0 0 0 0 0 0 0 0 0 18.7544 18.33451 17.41595 16.56402 15.37909 15.40587 15.48144 15.58098 15.66732 15.72292 15.75585 15.78403 15.81664 17.07496 17.53055 17.98892 17.89417 18.91283 16.33153 15.90922 15.91549 15.92809 15.94224 15.96238 15.98499 15.99514 16.009 16.02073 16.03589 16.05288 16.06719 16.0818 16.10448 16.12866 16.15214 16.18071 16.20647 16.24044 16.26027 16.27395 16.28345 16.29664 16.30623 16.32152 16.32636 16.32056 16.31808 16.31671 16.30767 16.30072 16.29444 16.28588 16.28232 16.28105 16.28739 16.29805 16.31209 16.32977 16.3571 16.38054 16.39175 16.41255 16.42835 16.44406 16.44705 16.45325 16.45546 16.4596 16.45871 16.45074 16.45144 16.44772 16.44987 16.44635 16.44072 16.42402 16.41164 16.4069 16.40257 16.39566 16.39339 16.38528 16.38019 16.37103 16.35834 16.34219 16.31201 16.28323 16.24892 16.20423 16.15675 16.10194 16.04143 15.9723 15.89793 15.81369
0 0 0 0 0 0 0 0 0 0 0 0 17.93499 17.48312 17.48245 17.02156 16.19292 15.4329 15.4576 15.53135 15.61613 15.70502 15.75537 15.79727 15.82458 15.85808 16.73802 16.74763 17.57979 18.45187 16.74599 15.89941 15.9168 15.93645 15.95764 15.98323 16.00042 16.01123 16.02058 16.03063 16.04051 16.05358 16.06668 16.08675 16.10294 16.12509 16.14864 16.17109 16.19396 16.22178 16.24871 16.26705 16.28177 16.29233 16.30085 16.31351 16.3228 16.32435 16.3258 16.32569 16.32742 16.32509 16.32142 16.31494 16.31333 16.30795 16.3095 16.31255 16.32479 16.33892 16.36765 16.39405 16.40985 16.42707 16.43986 16.45807 16.464 16.46734 16.46431 16.47152 16.47011 16.46634 16.46064 16.45765 16.45732 16.4547 16.45413 16.44444 16.43022 16.41507 16.40709 16.40588 16.39868 16.39612 16.39016 16.3872 16.38682 16.37826 16.36346 16.34496 16.31974 16.2867 16.2465 16.20515 16.15213 16.09125 16.02374 15.95397 15.87608
0 0 0 0 0 0 0 0 19.67918 19.13724 17.95016 17.0346 17.03184 17.02476 16.61776 16.63558 16.24398 15.49393 15.52785 15.6013 15.6853 15.75625 15.81266 15.85207 15.87523 15.90507 15.91882 15.91892 15.91224 15.91949 15.90692 15.92642 15.95101 15.97421 15.99102 16.00995 16.02179 16.02855 16.04238 16.0428 16.05173 16.06649 16.0801 16.09836 16.11903 16.14176 16.16537 16.19383 16.21495 16.23232 16.25545 16.26973 16.27786 16.29231 16.29833 16.30297 16.31548 16.32252 16.32921 16.33265 16.33407 16.33511 16.33271 16.32745 16.32798 16.32737 16.33044 16.33374 16.34159 16.3627 16.39562 16.42428 16.44346 16.46053 16.47497 16.4856 16.48919 16.49015 16.49417 16.49495 16.48943 16.48507 16.48283 16.47641 16.46807 16.46046 16.45225 16.44491 16.43131 16.42012 16.41074 16.40576 16.40156 16.39775 16.39846 16.39863 16.39633 16.39426 16.38689 16.37475 16.3508 16.3221 16.2882 16.24995 16.20331 16.14681 16.08479 16.01976 15.94768
0 0 0 0 0 0 0 18.6877 18.81941 17.04094 16.58768 16.57801 16.57662 16.59064 16.6334 16.28319 15.52657 15.56293 15.61585 15.6793 15.75573 15.81161 15.86707 15.89475 15.91603 15.94205 15.9543 15.95746 15.95169 15.95277 15.95808 15.97235 15.99262 16.00682 16.01922 16.02995 16.03878 16.04124 16.04498 16.04487 16.05605 16.07164 16.08043 16.09924 16.12202 16.14978 16.17625 16.19685 16.22107 16.23805 16.25361 16.26543 16.27601 16.28649 16.29747 16.29971 16.30823 16.31114 16.32481 16.33263 16.33849 16.34159 16.34419 16.34573 16.34564 16.34703 16.34817 16.35569 16.37196 16.39311 16.41835 16.44406 16.4594 16.47765 16.49584 16.50672 16.50865 16.5068 16.51419 16.50504 16.50498 16.50181 16.49897 16.49023 16.47935 16.4692 16.46085 16.44976 16.43401 16.42802 16.42307 16.4121 16.40724 16.40781 16.40942 16.41264 16.41533 16.41353 16.41082 16.39722 16.37716 16.35532 16.32266 16.28764 16.24671 16.19633 16.13852 16.07265 16.00697
0 0 0 0 0 0 19.18656 19.20923 17.04297 16.52019 16.47886 16.49091 16.55188 16.21214 15.89982 15.58523 15.58999 15.64382 15.69132 15.7461 15.80582 15.84882 15.89085 15.91393 15.94555 15.96565 15.98477 15.99725 16.00244 16.00726 16.01672 16.02767 16.03652 16.03925 16.04495 16.0462 16.04672 16.05337 16.05367 16.0586 16.06951 16.08092 16.09311 16.1105 16.13139 16.15528 16.17526 16.19365 16.22182 16.23689 16.24717 16.26812 16.28051 16.28901 16.29194 16.30319 16.30882 16.31099 16.32188 16.33152 16.33933 16.34537 16.35027 16.35452 16.35902 16.36534 16.36959 16.38253 16.39526 16.42027 16.44365 16.46783 16.49063 16.50779 16.52197 16.53043 16.53123 16.52847 16.52332 16.51677 16.51201 16.50656 16.50506 16.49274 16.48569 16.47284 16.45808 16.45099 16.43773 16.43114 16.42551 16.42071 16.41862 16.42171 16.42341 16.43041 16.43303 16.43912 16.43644 16.42531 16.41456 16.39147 16.36517 16.3355 16.30119 16.25502 16.19693 16.13772 16.07407
0 0 0 0 0 0 19.96695 18.38351 16.96724 16.43271 16.00898 16.05827 15.76368 15.49879 15.59351 15.65826 15.69476 15.73213 15.77438 15.81515 15.85695 15.88219 15.91045 15.9418 15.97157 15.99094 16.00818 16.02387 16.03291 16.03609 16.04463 16.05516 16.05436 16.06155 16.06184 16.06327 16.0622 16.0545 16.06393 16.06776 16.08186 16.09125 16.10598 16.12232 16.13904 16.15791 16.17733 16.19974 16.22068 16.23471 16.2464 16.26188 16.27382 16.2895 16.30054 16.31375 16.32366 16.31947 16.32699 16.33466 16.33758 16.34729 16.34722 16.35106 16.36691 16.37703 16.38404 16.40262 16.41963 16.4452 16.46983 16.49399 16.51803 16.5411 16.55353 16.55606 16.55485 16.54967 16.53927 16.52581 16.52207 16.51464 16.50655 16.49525 16.48474 16.47237 16.46259 16.45175 16.44267 16.43675 16.43644 16.4329 16.43237 16.43682 16.44453 16.44659 16.44614 16.45414 16.45289 16.44924 16.43822 16.42211 16.40217 16.37812 16.34805 16.306 16.26326 16.21178 16.15295
0 0 0 0 0 20.06812 19.6651 18.35534 16.94104 16.4454 15.66677 15.37095 15.4536 15.54673 15.63652 15.72086 15.77178 15.80615 15.83723 15.86753 15.89834 15.91988 15.94195 15.96994 15.99841 16.01861 16.03616 16.04717 16.06032 16.07077 16.07712 16.08375 16.08296 16.0794 16.0765 16.07427 16.06395 16.06271 16.06985 16.07579 16.09332 16.10266 16.11853 16.13378 16.14881 16.16572 16.18431 16.20172 16.21837 16.2377 16.25097 16.26144 16.27444 16.28942 16.30158 16.31388 16.32091 16.3226 16.32865 16.32735 16.33444 16.338 16.34222 16.35873 16.37148 16.39226 16.41143 16.42951 16.44712 16.47548 16.50246 16.53152 16.55766 16.56998 16.5768 16.57906 16.57998 16.57006 16.55622 16.54418 16.53341 16.52374 16.51755 16.50814 16.49365 16.4828 16.47518 16.46898 16.46482 16.46064 16.45815 16.4577 16.46536 16.46655 16.47176 16.47698 16.47384 16.47685 16.48147 16.47561 16.46845 16.45822 16.43445 16.41574 16.39512 16.35934 16.31971 16.27594 16.22281
0 0 0 0 19.17427 18.9459 17.0485 16.53467 16.07991 15.32977 15.35635 15.43375 15.52445 15.60901 15.68892 15.76063 15.80097 15.83181 15.86268 15.89416 15.92841 15.95251 15.97334 15.99919 16.02126 16.0351 16.0523 16.06452 16.07471 16.08838 16.08684 16.09133 16.08879 16.08194 16.08233 16.07666 16.07245 16.07006 16.0757 16.09118 16.1003 16.1141 16.12572 16.14117 16.16012 16.17687 16.19301 16.20735 16.21472 16.23176 16.24997 16.26002 16.27294 16.28413 16.29889 16.31554 16.3157 16.32369 16.32575 16.33053 16.3367 16.34467 16.35034 16.36916 16.38855 16.41414 16.43597 16.45949 16.4834 16.50757 16.53284 16.55572 16.57193 16.58357 16.58918 16.59489 16.59514 16.58452 16.57099 16.55367 16.54656 16.53715 16.52841 16.51424 16.5022 16.4923 16.48866 16.48666 16.48747 16.48542 16.48154 16.4853 16.49114 16.49714 16.49988 16.50138 16.50462 16.51024 16.51223 16.51592 16.51388 16.50202 16.48604 16.47396 16.45124 16.42921 16.39513 16.35102 16.30223
0 0 0 0 20.14177 17.54129 15.4265 15.38736 15.36227 15.38258 15.43439 15.51826 15.59877 15.67328 15.73157 15.78975 15.81864 15.84529 15.88115 15.90991 15.94084 15.96921 15.99484 16.0124 16.02923 16.0422 16.04684 16.06554 16.08137 16.08436 16.08624 16.08982 16.08792 16.08313 16.08402 16.07854 16.07803 16.07944 16.0809 16.09823 16.1115 16.11657 16.12993 16.15168 16.1764 16.18187 16.1969 16.21274 16.22272 16.24149 16.25978 16.26814 16.27914 16.29281 16.29767 16.30563 16.31314 16.3154 16.32224 16.32865 16.33931 16.35415 16.37265 16.38754 16.40552 16.42925 16.4492 16.47755 16.50159 16.52685 16.54776 16.56496 16.58104 16.59687 16.59628 16.59682 16.5946 16.5834 16.575 16.56247 16.55627 16.54381 16.53307 16.52291 16.51114 16.50521 16.50898 16.51007 16.50898 16.50993 16.50527 16.5045 16.51199 16.51255 16.51834 16.51691 16.5205 16.53185 16.54106 16.54544 16.54254 16.54256 16.53399 16.52431 16.50901 16.48772 16.46087 16.42842 16.38575
0 0 0 19.36565 19.01946 17.02256 15.37579 15.35979 15.39504 15.46298 15.51521 15.58996 15.66191 15.71974 15.76679 15.81422 15.84138 15.86475 15.89381 15.92287 15.95537 15.97227 15.98797 16.00206 16.01941 16.02827 16.03515 16.04958 16.0647 16.06726 16.06896 16.07444 16.07609 16.07722 16.08055 16.08605 16.07994 16.07847 16.07979 16.09006 16.10292 16.11921 16.13369 16.15489 16.16889 16.17653 16.19597 16.21657 16.22595 16.24572 16.26208 16.26896 16.27891 16.28593 16.29196 16.2948 16.30312 16.3061 16.32255 16.33039 16.34878 16.37623 16.39194 16.40759 16.42636 16.4413 16.46253 16.48234 16.50735 16.53173 16.55363 16.56967 16.58487 16.58601 16.59051 16.5884 16.58473 16.57984 16.57397 16.56162 16.55179 16.54482 16.53489 16.5247 16.51707 16.51343 16.5227 16.52877 16.53327 16.53165 16.53402 16.53145 16.53038 16.53903 16.5401 16.54078 16.54369 16.55184 16.5654 16.57449 16.57205 16.57544 16.56956 16.56496 16.55396 16.53995 16.52225 16.49266 16.44954
0 0 0 19.32997 18.97138 16.96089 16.06881 15.36202 15.44075 15.52748 15.57573 15.65236 15.70344 15.75212 15.79117 15.82176 15.85434 15.87976 15.90863 15.92941 15.94763 15.96587 15.9776 15.98971 16.00279 16.016 16.02067 16.03294 16.04685 16.04294 16.05392 16.06129 16.06363 16.06289 16.07046 16.07321 16.07544 16.07433 16.08032 16.08411 16.09106 16.10162 16.11461 16.13053 16.15135 16.17277 16.18672 16.20319 16.21604 16.23571 16.24154 16.26096 16.26776 16.27213 16.28234 16.28009 16.28347 16.30076 16.31618 16.33201 16.36273 16.39301 16.41139 16.42409 16.43317 16.45303 16.47025 16.48432 16.50566 16.525 16.5473 16.56133 16.5654 16.5707 16.57658 16.57851 16.56938 16.56612 16.56034 16.55094 16.55225 16.54391 16.53872 16.52532 16.52206 16.52376 16.53168 16.54076 16.54333 16.54559 16.55067 16.55441 16.5571 16.56209 16.56124 16.56669 16.57043 16.57928 16.58844 16.59846 16.60869 16.61235 16.6137 16.60946 16.60779 16.5953 16.57804 16.5562 16.52144
0 0 0 19.99106 19.189 16.92461 15.64073 15.33862 15.43788 15.54649 15.63053 15.69179 15.73155 15.77537 15.81415 15.83447 15.85924 15.88699 15.91081 15.92572 15.93599 15.94927 15.9622 15.96912 15.98904 15.98929 15.99784 16.02045 16.02545 16.02971 16.0419 16.04369 16.04751 16.05699 16.0676 16.06769 16.07638 16.07935 16.07648 16.08238 16.08845 16.09465 16.10643 16.11836 16.12773 16.14912 16.16887 16.18958 16.20486 16.22067 16.23635 16.25674 16.26385 16.25995 16.26681 16.27271 16.28057 16.30113 16.31866 16.34939 16.37511 16.40331 16.41823 16.43329 16.44199 16.45747 16.47417 16.49136 16.50395 16.5242 16.54087 16.54921 16.55421 16.55468 16.56327 16.56305 16.56191 16.55902 16.5622 16.55266 16.55429 16.54282 16.5382 16.53608 16.53862 16.53125 16.53893 16.54859 16.55704 16.55767 16.56659 16.57179 16.57604 16.58182 16.58427 16.5845 16.59071 16.605 16.62251 16.63535 16.64211 16.65192 16.65423 16.65594 16.65345 16.64414 16.6306 16.61014 16.58546
0 0 0 20.04783 17.85996 16.03311 15.30812 15.38316 15.47577 15.58282 15.65756 15.71272 15.75917 15.80025 15.83046 15.8537 15.87408 15.89065 15.91106 15.90752 15.91487 15.92587 15.9307 15.94078 15.9494 15.96864 15.98059 15.99896 16.01222 16.01862 16.02534 16.03071 16.04604 16.05808 16.06361 16.06624 16.06794 16.0738 16.08094 16.0821 16.08905 16.09344 16.10566 16.11201 16.12875 16.14132 16.15972 16.17878 16.20411 16.228 16.26187 16.27501 16.27668 16.27578 16.27291 16.28637 16.30081 16.32223 16.34479 16.37101 16.40534 16.42384 16.44809 16.46183 16.47575 16.48025 16.48588 16.49815 16.51482 16.53007 16.54364 16.55469 16.55915 16.55937 16.56113 16.56211 16.56994 16.56745 16.5748 16.56762 16.56138 16.55475 16.54685 16.5445 16.54716 16.55364 16.56123 16.57325 16.57962 16.58494 16.5993 16.60585 16.61594 16.62134 16.62268 16.62627 16.63219 16.6454 16.66444 16.68019 16.69221 16.69951 16.70722 16.70328 16.69891 16.6874 16.67316 16.66251 16.63731
15.36189 15.36165 16.80978 17.901 15.62279 15.28047 15.34522 15.42374 15.52354 15.61537 15.68488 15.73565 15.78287 15.81757 15.84288 15.86993 15.88909 15.90295 15.91195 15.90956 15.90962 15.90389 15.91376 15.92188 15.93384 15.9461 15.96979 15.97943 15.99881 16.01992 16.01762 16.02087 16.03568 16.04726 16.04875 16.05424 16.05066 16.06031 16.06922 16.07922 16.08334 16.09683 16.10411 16.11136 16.1208 16.1383 16.15904 16.17848 16.21238 16.2424 16.2742 16.28611 16.28513 16.29362 16.29759 16.30669 16.31868 16.33925 16.36795 16.39387 16.41918 16.44516 16.46341 16.48582 16.48977 16.49563 16.50755 16.51709 16.52938 16.54076 16.55448 16.56113 16.56489 16.56538 16.56389 16.5698 16.57605 16.57544 16.57626 16.57366 16.57393 16.56576 16.56054 16.55963 16.56479 16.57145 16.58626 16.59551 16.60761 16.61783 16.63186 16.64492 16.65204 16.66348 16.66674 16.67061 16.68015 16.68728 16.70147 16.71591 16.72665 16.73954 16.74673 16.74424 16.73965 16.73124 16.7231 16.70839 16.68907
15.36413 15.35965 15.36116 15.37927 15.33029 15.34935 15.4158 15.50065 15.58396 15.65693 15.71281 15.75377 15.80155 15.82628 15.85298 15.88574 15.89802 15.91025 15.9123 15.90492 15.90202 15.89867 15.90614 15.91373 15.92113 15.94586 15.95943 15.97686 15.98854 15.99993 16.00845 16.01175 16.02156 16.02877 16.03803 16.05005 16.04945 16.04993 16.06017 16.06855 16.07639 16.09707 16.11241 16.11683 16.1325 16.14328 16.16082 16.18281 16.21706 16.2431 16.26165 16.28694 16.29914 16.30487 16.31491 16.32341 16.33308 16.34924 16.36948 16.40068 16.43471 16.45476 16.47149 16.48539 16.50423 16.51565 16.52642 16.53286 16.54035 16.54987 16.55872 16.56841 16.57215 16.57193 16.57074 16.57308 16.57926 16.58279 16.58725 16.5854 16.58426 16.58028 16.57988 16.58168 16.58722 16.59699 16.6141 16.62627 16.63842 16.65207 16.66913 16.67903 16.69339 16.69891 16.70812 16.71386 16.71372 16.71915 16.72847 16.7378 16.75524 16.7737 16.78247 16.78035 16.77403 16.77074 16.76572 16.74791 16.72758
15.42235 15.43656 15.449 15.46072 15.44153 15.48385 15.53491 15.58726 15.63761 15.69319 15.74183 15.77984 15.80465 15.83067 15.85531 15.87519 15.8931 15.90725 15.90762 15.90475 15.89544 15.88624 15.88852 15.89281 15.91432 15.9399 15.95603 15.96684 15.98089 15.99022 16.00515 16.00542 16.01176 16.02185 16.03544 16.03311 16.04199 16.05144 16.04699 16.06328 16.07676 16.09443 16.10394 16.11955 16.13598 16.15292 16.16254 16.1876 16.21054 16.23606 16.26066 16.28508 16.30197 16.31222 16.32272 16.3366 16.34819 16.36684 16.38312 16.40856 16.43504 16.46382 16.48014 16.49271 16.51088 16.5213 16.53347 16.54434 16.55028 16.55525 16.56693 16.57575 16.57462 16.57714 16.5781 16.58104 16.58482 16.5825 16.58943 16.58984 16.59665 16.59545 16.59542 16.59977 16.6112 16.62679 16.64734 16.65984 16.67702 16.69696 16.71219 16.72536 16.73834 16.74662 16.75649 16.75338 16.75214 16.75476 16.76671 16.78451 16.80013 16.81486 16.81645 16.81166 16.80769 16.80219 16.79245 16.77577 16.76092
15.4805 15.501 15.52953 15.56329 15.58042 15.59486 15.62006 15.64912 15.67912 15.71726 15.75186 15.78381 15.80848 15.82845 15.85339 15.87309 15.88831 15.90418 15.90548 15.90609 15.89448 15.87757 15.87802 15.8915 15.90842 15.9358 15.9561 15.96836 15.96874 15.97253 15.98441 16.00178 16.01664 16.02302 16.02561 16.03083 16.03513 16.04426 16.05136 16.05788 16.07157 16.08044 16.09509 16.11658 16.13574 16.14837 16.16156 16.18174 16.21044 16.23622 16.26757 16.28516 16.30871 16.31658 16.33117 16.34348 16.35268 16.37352 16.39857 16.43067 16.45374 16.47775 16.49668 16.50616 16.5174 16.53274 16.54167 16.54882 16.5582 16.56797 16.56951 16.57921 16.58515 16.58541 16.58954 16.59057 16.59158 16.59463 16.59715 16.59693 16.60581 16.60935 16.61802 16.62787 16.64517 16.66515 16.6822 16.70125 16.72064 16.74343 16.76543 16.77452 16.78613 16.79876 16.80344 16.80884 16.80975 16.81547 16.82759 16.84572 16.86131 16.86711 16.86667 16.85737 16.85161 16.84485 16.83216 16.82011 16.80751
15.5791 15.59759 15.61261 15.62542 15.63427 15.64184 15.65431 15.67291 15.69518 15.72442 15.75039 15.7722 15.79208 15.8139 15.84028 15.87036 15.88293 15.89904 15.90512 15.90531 15.89495 15.88757 15.89185 15.90748 15.92886 15.95809 15.97987 15.9809 15.98062 15.98764 15.99608 16.02431 16.03868 16.04267 16.05818 16.05954 16.06586 16.07337 16.08903 16.09375 16.09189 16.09957 16.1121 16.13191 16.15742 16.17349 16.18752 16.20315 16.22813 16.25345 16.28026 16.29751 16.31092 16.33137 16.3456 16.36327 16.3819 16.40495 16.43146 16.45955 16.48144 16.50094 16.51942 16.52898 16.53071 16.54803 16.55547 16.56286 16.57334 16.58035 16.58201 16.58892 16.58822 16.59553 16.60408 16.60421 16.61007 16.60839 16.61217 16.6143 16.62023 16.63198 16.65071 16.66294 16.68488 16.70975 16.73559 16.76056 16.78384 16.80675 16.82805 16.8406 16.84528 16.85025 16.84928 16.84529 16.85353 16.86679 16.88847 16.90924 16.93037 16.93382 16.92473 16.91285 16.90539 16.89568 16.88503 16.87703 16.87169
15.6449 15.65774 15.66321 15.66099 15.65462 15.65976 15.66435 15.6791 15.68671 15.71573 15.73577 15.7625 15.78879 15.81506 15.84161 15.85844 15.87528 15.89028 15.90259 15.90728 15.90317 15.9019 15.9076 15.92588 15.94947 15.9715 15.99078 16.00348 16.007 16.02078 16.03462 16.05876 16.06612 16.08015 16.08122 16.092 16.10737 16.11889 16.12731 16.12945 16.14009 16.14329 16.15384 16.17116 16.19683 16.21016 16.23039 16.25106 16.26749 16.29246 16.31592 16.33353 16.35611 16.37639 16.39801 16.4122 16.44272 16.46929 16.49592 16.51834 16.53772 16.54971 16.56006 16.56709 16.57234 16.58307 16.58636 16.59471 16.5997 16.60437 16.60967 16.60965 16.61562 16.62132 16.62034 16.6227 16.62626 16.62975 16.63182 16.64303 16.6587 16.67106 16.69103 16.71526 16.74782 16.78529 16.8195 16.86111 16.89219 16.91732 16.9267 16.9334 16.93617 16.93541 16.93106 16.92651 16.9314 16.94356 16.96999 17.00161 17.0172 17.01039 16.9974 16.9837 16.97042 16.95423 16.9391 16.92777 16.91581
15.66115 15.66939 15.66614 15.65703 15.65326 15.65513 15.66265 15.67005 15.68176 15.703 15.72027 15.7471 15.77464 15.80974 15.83827 15.86194 15.87721 15.89818 15.90411 15.90633 15.91621 15.91855 15.92646 15.95717 15.97749 15.98751 16.02263 16.03418 16.04626 16.05776 16.07348 16.08727 16.1047 16.11465 16.1318 16.1449 16.15367 16.16312 16.15966 16.16633 16.18246 16.19087 16.20862 16.22937 16.24579 16.26952 16.29169 16.31268 16.33588 16.35496 16.37999 16.40622 16.42893 16.44909 16.46993 16.48855 16.51505 16.54653 16.58098 16.60093 16.61586 16.63101 16.63572 16.64263 16.64516 16.65208 16.65534 16.65736 16.65418 16.66309 16.66337 16.66649 16.66346 16.66199 16.66107 16.6636 16.66595 16.67134 16.67837 16.68718 16.69742 16.71717 16.74222 16.76954 16.8077 16.8498 16.89411 16.93789 0 0 17.00323 17.03487 17.02696 17.02701 17.01705 17.01216 17.01778 17.04206 17.04809 0 0 17.02763 17.08554 17.07308 17.04695 17.02965 17.01713 17.00349 16.98407
