ncols        109
nrows        82
xllcorner    -1.041666666667
yllcorner    37.041665395101
cellsize     0.083333333333
NODATA_value -9999
0.0 0 0 0 0 0 0 0 0 0 0 0 0 0 0 0 0 0 0 0 0 0 0 0 0 0 0 0 0 0 0 0 0 0 0 0 0 0 0 0 0 0 0 0 0 0 0 0 0 0 0 0 0 0 0 0 0 0 0 0 0 0 0 0 0 0 0 0 0 0 0 0 0 0 0 0 0 0 0 0 0 0 0 0 0 0 0 0 0 0 0 0 0 0 0 0 0 0 0 0 0 0 0 0 0 17.57571 16.34085 15.39978 15.41295
0 0 0 0 0 0 0 0 0 0 0 0 0 0 0 0 0 0 0 0 0 0 0 0 0 0 0 0 0 0 0 0 0 0 0 0 0 0 0 0 0 0 0 0 0 0 0 0 0 0 0 0 0 0 0 0 0 0 0 0 0 0 0 0 0 0 0 0 0 0 0 0 0 0 0 0 0 0 0 0 0 0 0 0 0 0 0 0 0 0 0 0 0 0 0 0 0 0 0 0 0 15.47418 15.49344 15.34279 15.36995 15.39043 15.39658 15.41679 15.42302
0 0 0 0 0 0 0 0 0 0 0 0 0 0 0 0 0 0 0 0 0 0 0 0 0 0 0 0 0 0 0 0 0 0 0 0 0 0 0 0 0 0 0 0 0 0 0 0 0 0 0 0 0 0 0 0 0 0 0 0 0 0 0 0 0 0 0 0 0 0 0 0 0 0 0 0 0 0 0 0 0 0 0 0 0 0 0 0 0 0 0 0 0 0 0 0 0 0 15.32965 15.34631 15.34668 15.3444 15.33842 15.35041 15.35486 15.3471 15.34597 15.33545 15.31987
0 0 0 0 0 0 0 0 0 0 0 0 0 0 0 0 0 0 0 0 0 0 0 0 0 0 0 0 0 0 0 0 0 0 0 0 0 0 0 0 0 0 0 0 0 0 0 0 0 0 0 0 0 0 0 0 0 0 0 0 0 0 0 0 0 0 0 0 0 0 0 0 0 0 0 0 0 0 0 0 0 0 0 0 0 0 0 0 0 0 0 0 0 0 0 0 0 16.41609 15.33902 15.35028 15.33769 15.31774 15.29527 15.28395 15.25875 15.24329 15.22652 15.21823 15.19107
0 0 0 0 0 0 0 0 0 0 0 0 0 0 0 0 0 0 0 0 0 0 0 0 0 0 0 0 0 0 0 0 0 0 0 0 0 0 0 0 0 0 0 0 0 0 0 0 0 0 0 0 0 0 0 0 0 0 16.66835 16.305 15.99993 16.10887 0 0 0 0 0 0 0 0 0 0 0 0 0 0 0 0 0 0 0 0 0 0 0 0 0 0 0 0 0 0 0 0 0 15.61016 15.30862 15.34064 15.31949 15.31335 15.27872 15.23448 15.18058 15.14946 15.11904 15.09303 15.07994 15.05865 15.02653
0 0 0 0 0 0 0 0 0 0 0 0 0 0 0 0 0 0 0 0 0 0 0 0 0 0 0 0 0 0 0 0 0 0 0 0 0 0 0 0 0 0 0 0 0 0 0 0 0 0 0 0 0 0 0 0 16.21015 16.25564 16.01188 15.80222 15.73266 15.70404 15.76547 15.93523 16.11483 16.22294 16.20374 0 0 0 0 16.40364 0 0 0 0 0 0 0 0 0 0 0 0 0 0 0 0 0 0 0 0 0 15.91891 15.23266 15.2852 15.30445 15.30071 15.26443 15.21038 15.15424 15.10618 15.05663 15.01771 15.0051 14.99779 14.9969 14.96663 14.94534
0 0 0 0 0 0 0 0 0 0 0 0 0 0 0 0 0 0 0 0 0 0 0 0 0 0 0 0 0 0 0 0 0 0 0 0 0 0 0 0 0 0 0 0 0 0 0 0 0 0 0 0 0 0 0 16.38567 16.04328 15.74902 15.58685 15.35146 15.42588 15.45316 15.60314 15.69462 15.7988 15.86355 15.91504 16.06585 16.24438 16.19314 16.12168 15.88524 15.70026 15.74184 15.85796 15.65198 15.65977 0 0 0 0 0 0 0 0 0 0 0 0 0 0 0 15.47282 15.24519 15.27782 15.29251 15.29647 15.23327 15.1843 15.11217 15.05666 15.00411 14.94927 14.93463 14.94274 14.93721 14.93579 14.93564 14.93309
0 0 0 0 0 0 0 0 0 0 0 0 0 0 0 0 0 0 0 0 0 0 0 0 0 0 0 0 0 0 0 0 0 0 0 0 0 0 0 0 0 0 0 0 0 0 0 0 0 0 0 16.03522 16.15888 16.35614 16.17644 15.80352 15.60472 15.37219 15.27646 15.35191 15.41348 15.44272 15.43162 15.57508 15.53435 15.67468 15.64179 15.63007 15.65167 15.56189 15.47236 15.4837 15.36588 15.51582 15.53781 15.67608 0 0 0 0 0 0 0 0 0 0 0 0 0 0 0 0 15.23992 15.25436 15.27155 15.27418 15.21615 15.14143 15.07247 15.00569 14.96983 14.93151 14.9018 14.89683 14.90711 14.90784 14.90493 14.90595 14.8964
0 0 0 0 0 0 0 0 0 0 0 0 0 0 0 0 0 0 0 0 0 0 0 0 0 0 0 0 0 0 0 0 0 0 0 0 0 0 0 0 0 0 0 0 0 0 0 0 0 0 16.24779 16.06854 15.87824 15.86652 15.80546 15.55918 15.27166 15.34961 15.22375 15.29304 15.33754 15.35968 15.36414 15.52619 15.50408 15.6598 15.63955 15.63194 15.49602 15.38638 15.41808 15.44954 15.33043 15.47709 15.49113 15.66498 15.67136 15.51621 15.49559 15.74996 16.07953 16.60405 0 0 0 0 0 0 0 15.81345 15.46238 15.21042 15.24291 15.24672 15.24759 15.19498 15.13079 15.06284 14.99885 14.96564 14.93382 14.90648 14.88662 14.88659 14.89468 14.90513 14.9109 14.91406 14.9159
0 0 0 0 0 0 0 0 0 0 0 0 0 0 0 0 0 0 0 0 0 0 0 0 0 0 0 0 0 0 0 0 0 0 0 0 0 0 0 0 0 0 0 0 0 0 0 0 0 17.08603 15.94444 15.89215 15.87432 15.62063 15.47947 15.33796 15.40902 15.2665 15.31641 15.3626 15.3983 15.42437 15.43721 15.6194 15.62237 15.62345 15.63361 15.62989 15.61859 15.46908 15.488 15.37003 15.24632 15.24432 15.26039 15.27432 15.28566 15.28477 15.30494 15.30531 15.56374 15.93862 0 15.70611 16.10999 16.47039 16.73715 16.52647 16.08638 15.19364 15.21995 15.24694 15.23478 15.19872 15.13778 15.0771 15.02718 14.98048 14.93804 14.91207 14.88297 14.88195 14.88223 14.89182 14.88663 14.90237 14.919 14.91339 14.90324
0 0 0 0 0 0 0 0 0 0 0 0 0 0 0 0 0 0 0 0 0 0 0 0 0 0 0 0 0 0 0 0 0 0 0 0 0 0 0 0 0 0 0 0 0 0 0 0 0 16.7608 15.93299 15.70439 15.4544 15.35181 15.4164 15.28081 15.34016 15.38582 15.42286 15.46115 15.49593 15.52249 15.52943 15.53319 15.53273 15.39896 15.28245 15.40711 15.39253 15.38341 15.38979 15.2565 15.24867 15.24111 15.25394 15.25977 15.27234 15.28768 15.31347 15.31819 15.32179 15.32626 15.30158 15.29824 15.30976 15.30542 16.01319 16.15492 15.82864 15.23347 15.2067 15.15956 15.15596 15.10378 15.03334 14.99817 14.95183 14.92025 14.8693 14.86072 14.87605 14.89223 14.91716 14.91586 14.91454 14.91736 14.91405 14.90485 14.89552
0 0 0 0 0 0 0 0 0 0 0 0 0 0 0 0 0 0 0 0 0 0 0 0 0 0 0 0 0 0 0 0 0 0 0 0 0 0 0 0 0 0 0 0 0 0 0 0 0 16.51695 15.89157 15.64631 15.36634 15.45036 15.32511 15.39113 15.45615 15.50247 15.53395 15.5603 15.41625 15.4379 15.44786 15.4501 15.44922 15.30899 15.31021 15.30349 15.27737 15.26557 15.25559 15.24892 15.23582 15.23267 15.23624 15.24031 15.24401 15.25437 15.27619 15.29202 15.29493 15.29186 15.27941 15.27297 15.28139 15.29037 15.29714 15.28079 15.22516 15.16025 15.1208 15.08875 15.06995 14.99326 14.95916 14.91922 14.88787 14.8266 14.8414 14.88283 14.90351 14.91785 14.94562 14.93544 14.93171 14.906 14.89684 14.90094 14.89739
0 0 0 0 0 0 0 0 0 0 0 0 0 0 0 0 0 0 0 0 0 0 0 0 0 0 0 0 0 0 0 0 0 0 0 0 0 0 0 0 0 0 0 0 0 0 0 0 0 16.4437 15.78919 15.53161 15.44468 15.34246 15.42725 15.51685 15.41367 15.44694 15.30702 15.31488 15.33022 15.33933 15.33959 15.3336 15.32657 15.31796 15.31644 15.30858 15.28455 15.25047 15.23459 15.21372 15.18291 15.17163 15.19214 15.17669 15.17959 15.19032 15.20467 15.2253 15.23325 15.20464 15.1696 15.1706 15.17469 15.18934 15.18593 15.16748 15.11783 15.07102 15.0324 15.01939 14.98454 14.94333 14.91976 14.87396 14.83509 14.84184 14.84994 14.87209 14.92561 14.94836 14.95293 14.93787 14.93452 14.92887 14.92328 14.90312 14.8927
0 0 0 0 0 0 0 0 0 0 0 0 0 0 0 0 0 0 0 0 0 0 0 0 0 0 0 0 0 0 0 0 0 0 0 0 0 0 0 0 0 0 0 0 0 0 0 0 0 16.31986 15.83891 15.57682 15.49407 15.40649 15.50132 15.4115 15.30167 15.33306 15.35501 15.35969 15.36562 15.36461 15.35878 15.35079 15.34038 15.33345 15.32652 15.31557 15.2926 15.25624 15.23208 15.20287 15.17473 15.15663 15.13714 15.10349 15.08446 15.09344 15.11821 15.14269 15.14297 15.10965 15.05764 15.04155 15.04367 15.07155 15.07508 15.06807 15.02149 14.97062 14.95045 14.93126 14.9025 14.89831 14.87371 14.86641 14.87005 14.86356 14.86519 14.87579 14.91381 14.96658 14.96261 14.95679 14.95451 14.95664 14.94792 14.942 14.89473
0 0 0 0 0 0 0 0 0 0 0 0 0 0 0 0 0 0 0 0 0 0 0 0 0 0 0 0 0 0 0 0 0 0 0 0 0 0 0 0 0 0 0 0 0 0 0 0 0 16.36698 15.67521 15.41755 15.56355 15.48083 15.57359 15.45203 15.35272 15.3702 15.37355 15.36302 15.35745 15.34996 15.33519 15.3214 15.31165 15.29346 15.26755 15.2537 15.22075 15.18976 15.164 15.13504 15.11381 15.10232 15.08102 15.06849 15.05681 15.05094 15.05217 15.0528 15.03005 15.0167 14.99334 14.97621 14.96697 14.9861 14.96738 14.94375 14.93025 14.89948 14.8948 14.88963 14.8747 14.87746 14.88091 14.88184 14.88763 14.88873 14.89896 14.90405 14.92785 14.96503 14.98642 14.98492 14.97794 14.96637 14.95571 14.95959 14.94323
0 0 0 0 0 0 0 0 0 0 0 0 0 0 0 0 0 0 0 0 0 0 0 0 0 0 0 0 0 0 0 0 0 0 0 0 0 0 0 0 0 0 0 0 0 0 0 0 0 15.92749 15.74027 15.47229 15.4363 15.38169 15.46372 15.33591 15.39169 15.38969 15.3821 15.36626 15.34621 15.31981 15.30202 15.28523 15.26235 15.23499 15.21182 15.19958 15.17416 15.14147 15.10739 15.07161 15.0545 15.03158 15.0157 14.99164 14.96773 14.95281 14.95765 14.96485 14.94887 14.95147 14.95158 14.94323 14.93582 14.92768 14.91983 14.8929 14.85979 14.82948 14.81631 14.84448 14.8571 14.87539 14.87951 14.88723 14.91376 14.93025 14.93739 14.9431 14.95375 14.98013 14.99015 15.01055 14.98174 14.96987 14.96721 14.96971 15.00009
0 0 0 0 0 0 0 0 0 0 0 0 0 0 0 0 0 0 0 0 0 0 0 0 0 0 0 0 0 0 0 0 0 0 0 0 0 0 0 0 0 0 0 0 0 0 0 0 0 0 15.58158 15.56521 15.5305 15.30273 15.36308 15.3725 15.42343 15.40804 15.3865 15.36288 15.32863 15.29669 15.27334 15.25145 15.22025 15.19334 15.17775 15.15983 15.13145 15.10662 15.06626 15.04081 15.02573 15.00572 14.97179 14.94405 14.91896 14.90417 14.90344 14.91409 14.90967 14.90272 14.89404 14.89845 14.89769 14.88668 14.87023 14.86146 14.84821 14.83787 14.82278 14.84453 14.86328 14.88071 14.90175 14.91901 14.93373 14.95124 14.98029 14.98532 14.99429 15.01273 15.01357 15.01395 14.99243 14.97701 14.99815 15.01987 15.01988
0 0 0 0 0 0 0 0 0 0 0 0 0 0 0 0 0 0 0 0 0 0 0 0 0 0 0 0 0 0 0 0 0 0 0 0 0 0 0 0 0 0 0 0 0 0 0 0 0 0 15.71572 15.41442 15.23578 15.34427 15.39957 15.42537 15.44863 15.42064 15.38937 15.35305 15.30959 15.27731 15.24558 15.22342 15.19506 15.17209 15.15477 15.13952 15.11602 15.08884 15.05596 15.02588 15.01518 14.9892 14.95923 14.92828 14.89833 14.87922 14.87871 14.8824 14.87976 14.8899 14.89614 14.89403 14.87992 14.87035 14.86929 14.87015 14.87047 14.84265 14.84599 14.87166 14.87849 14.89817 14.94794 14.94416 14.95959 14.98459 15.01966 15.04947 15.05752 15.06517 15.06137 15.04609 15.02338 15.0072 15.02219 15.05094 15.07156
0 0 0 0 0 0 0 0 0 0 0 0 0 0 0 0 0 0 0 0 0 0 0 0 0 0 0 0 0 0 0 0 0 0 0 0 0 0 0 0 0 0 0 0 0 0 0 0 0 0 0 0 15.26464 15.34876 15.41772 15.46243 15.46722 15.42737 15.38829 15.34253 15.29141 15.25058 15.22006 15.19303 15.1669 15.14959 15.14228 15.12774 15.10443 15.08118 15.05281 15.02448 14.99965 14.98009 14.95147 14.92254 14.88905 14.87883 14.87397 14.88159 14.89023 14.89649 14.89724 14.89261 14.89748 14.89391 14.89087 14.88093 14.8753 14.87938 14.88688 14.88867 14.88481 14.92773 14.94847 14.97255 14.99945 15.00103 15.00807 15.05286 15.07239 15.07781 15.09481 15.06907 15.06764 15.04609 15.05163 15.08246 15.1092
0 0 0 0 0 0 0 0 0 0 0 0 0 0 0 0 0 0 0 0 0 0 0 0 0 0 0 0 0 0 0 0 0 0 0 0 0 0 0 0 0 0 0 0 0 0 0 0 0 0 17.22096 15.81076 15.47628 15.37587 15.43602 15.46615 15.45716 15.41595 15.37487 15.326 15.2795 15.23785 15.2037 15.18104 15.16068 15.15098 15.1412 15.11893 15.10475 15.08845 15.05814 15.02761 15.0056 14.98468 14.96734 14.93465 14.90839 14.88967 14.88387 14.89523 14.90541 14.90292 14.91809 14.90902 14.9112 14.90561 14.90596 14.89127 14.88521 14.87477 14.88372 14.88702 14.90986 14.94103 14.9543 14.9885 14.99495 14.99309 15.02509 15.0381 15.05598 15.07984 15.10226 15.10159 15.09557 15.08586 15.0942 15.13122 15.15877
0 0 0 0 0 0 0 0 0 0 0 0 0 0 0 0 0 0 0 0 0 0 0 0 0 0 0 0 0 0 0 0 0 0 0 0 0 0 0 0 0 0 0 0 0 0 0 0 0 0 16.60328 15.82372 15.68391 15.38288 15.41829 15.42767 15.43084 15.39087 15.34918 15.30924 15.27335 15.23405 15.20474 15.18469 15.16847 15.17438 15.16404 15.13447 15.12842 15.10396 15.0703 15.04816 15.02881 15.00608 14.97867 14.94666 14.94296 14.92319 14.91026 14.91179 14.91767 14.92757 14.92475 14.92336 14.92017 14.92096 14.91597 14.91596 14.9008 14.88831 14.89314 14.91762 14.92256 14.93546 14.94023 14.95677 14.97997 14.98751 14.99863 15.01535 15.04774 15.08977 15.13198 15.14748 15.13143 15.11924 15.12938 15.1647 15.19414
0 0 0 0 0 0 0 0 0 0 0 0 0 0 0 0 0 0 0 0 0 0 0 0 0 0 0 0 0 0 0 0 0 0 0 0 0 0 0 0 0 0 0 0 0 0 0 0 0 0 0 15.83938 15.49967 15.38136 15.39137 15.38331 15.41087 15.37206 15.33655 15.30398 15.2703 15.23514 15.21045 15.19787 15.19148 15.19455 15.17787 15.16626 15.14845 15.12437 15.10325 15.07922 15.06321 15.04103 15.00867 14.98361 14.96808 14.95538 14.95151 14.9543 14.94958 14.94971 14.95379 14.93718 14.93711 14.93366 14.92825 14.92457 14.9357 14.93691 14.95696 14.9599 14.95983 14.96693 14.97468 14.99514 15.01096 15.009 15.02557 15.04614 15.08004 15.11621 15.1594 15.20528 15.1819 15.15912 15.15928 15.19498 15.23361
0 0 0 0 0 0 0 0 0 0 0 0 0 0 0 0 0 0 0 0 0 0 0 0 0 0 0 0 0 0 0 0 0 0 0 0 0 0 0 0 0 0 0 0 0 0 0 0 0 0 0 15.63353 15.32824 15.37355 15.36807 15.35099 15.38909 15.35422 15.32585 15.30158 15.27719 15.2546 15.24188 15.23554 15.22824 15.21807 15.22056 15.21165 15.1897 15.15671 15.13715 15.11486 15.09908 15.08561 15.06757 15.03198 15.01305 14.99795 14.9985 14.99949 14.99366 14.99493 14.98859 14.99065 14.98029 14.9696 14.96381 14.97022 14.98526 14.99652 15.01101 15.01581 15.02315 15.03965 15.05219 15.0616 15.07336 15.07666 15.10004 15.11011 15.1258 15.14276 15.17577 15.21335 15.21069 15.19288 15.19723 15.24008 15.27803
0 0 0 0 0 0 0 0 0 0 0 0 0 0 0 0 0 0 0 0 0 0 0 0 0 0 0 0 0 0 0 0 0 0 0 0 0 0 0 0 0 0 0 0 0 0 0 0 0 0 0 15.31922 15.34898 15.3802 15.36631 15.3447 15.36115 15.33234 15.31099 15.29459 15.28158 15.2774 15.26974 15.25581 15.25397 15.26804 15.26821 15.25652 15.24204 15.21984 15.19588 15.1703 15.15366 15.14019 15.12192 15.09044 15.06081 15.05298 15.05037 15.05595 15.053 15.05464 15.04675 15.03685 15.03095 15.03146 15.02197 15.0345 15.05309 15.08216 15.09713 15.09692 15.0967 15.10688 15.10867 15.12069 15.14734 15.15584 15.16276 15.16449 15.17864 15.17994 15.19734 15.22907 15.23552 15.23789 15.25191 15.28793 15.30528
0 0 0 0 0 0 0 0 0 0 0 0 0 0 0 0 0 0 0 0 0 0 0 0 0 0 0 0 0 0 0 0 0 0 0 0 0 0 0 0 0 0 0 0 0 0 0 0 0 17.08772 16.19579 15.36689 15.3745 15.37072 15.3574 15.3478 15.34199 15.31234 15.30454 15.29641 15.2959 15.30645 15.30082 15.29737 15.29559 15.30138 15.30638 15.30518 15.29084 15.27272 15.25778 15.23992 15.22755 15.20956 15.16672 15.15742 15.13221 15.12347 15.12431 15.13049 15.12417 15.11253 15.10297 15.09009 15.08205 15.08136 15.07843 15.08643 15.10219 15.1161 15.13433 15.15872 15.16213 15.16262 15.16195 15.17055 15.18546 15.19871 15.19516 15.20065 15.21469 15.22173 15.21828 15.24562 15.26935 15.28226 15.30459 15.31931 15.32882
0 0 0 0 0 0 0 0 0 0 0 0 0 0 0 0 0 0 0 0 0 0 0 0 0 0 0 0 0 0 0 0 0 0 0 0 0 0 0 0 0 0 0 0 0 0 0 0 16.28137 15.82228 15.59676 15.40894 15.39647 15.37683 15.36117 15.35507 15.35229 15.32679 15.32226 15.33637 15.34756 15.36045 15.35886 15.35383 15.35475 15.36139 15.3694 15.37509 15.36041 15.33868 15.31955 15.2983 15.27304 15.25375 15.22596 15.21437 15.20479 15.19397 15.19557 15.19651 15.18583 15.18331 15.1648 15.15228 15.1472 15.14495 15.13368 15.13296 15.13783 15.15773 15.17651 15.19338 15.20331 15.20969 15.19808 15.20077 15.21154 15.22707 15.25116 15.24788 15.23264 15.24525 15.25023 15.25654 15.27428 15.28961 15.31661 15.33045 15.34561
0 0 0 0 0 0 0 0 0 0 0 0 0 0 0 0 0 0 0 0 0 0 0 0 0 0 0 0 0 0 0 0 0 0 0 0 0 0 0 0 0 0 0 0 0 16.02496 15.88232 16.38965 15.91284 15.93592 15.69537 15.45296 15.42309 15.38908 15.37602 15.37367 15.37629 15.35759 15.3489 15.3662 15.38985 15.39819 15.40676 15.40589 15.41621 15.42226 15.43251 15.43254 15.416 15.40739 15.38202 15.35893 15.33417 15.31438 15.29651 15.27716 15.2614 15.25386 15.25244 15.25373 15.23996 15.22738 15.21478 15.21181 15.20529 15.20607 15.19493 15.18729 15.20032 15.21777 15.23975 15.27043 15.2739 15.27179 15.2782 15.27511 15.27839 15.29046 15.30594 15.30343 15.2913 15.28431 15.28881 15.2988 15.29026 15.3052 15.32977 15.35488 15.36975
0 0 0 0 0 0 0 0 0 0 0 0 0 0 0 0 0 0 0 0 0 0 0 0 0 0 0 0 0 0 0 0 0 0 0 0 0 0 0 0 0 0 17.97597 17.6811 16.72273 15.96909 15.52568 15.54771 16.01031 15.76314 15.53013 15.48123 15.44733 15.41326 15.40435 15.40405 15.3979 15.38901 15.39885 15.41374 15.44117 15.45943 15.4678 15.4742 15.48479 15.49071 15.49225 15.4855 15.47046 15.45384 15.42665 15.40367 15.38913 15.36985 15.34956 15.33081 15.31789 15.31414 15.30896 15.3101 15.29719 15.28783 15.28432 15.2803 15.26817 15.26497 15.25576 15.24586 15.26214 15.27776 15.29553 15.32524 15.34637 15.35522 15.35967 15.38198 15.39103 15.39929 15.40522 15.394 15.36442 15.34199 15.34815 15.34915 15.34602 15.35132 15.35257 15.3737 15.38736
0 0 0 0 0 0 0 0 0 0 0 0 0 0 0 0 0 0 0 0 0 0 0 0 0 0 0 0 0 0 0 0 0 0 0 0 0 0 0 0 17.15124 17.48646 17.74296 16.80899 16.03085 15.57231 15.60208 15.61975 15.6115 15.57661 15.55074 15.50549 15.4731 15.44641 15.43327 15.42902 15.43254 15.42973 15.44259 15.46298 15.49315 15.51146 15.52859 15.53674 15.54983 15.55572 15.55112 15.54935 15.5408 15.52235 15.49401 15.47336 15.45752 15.43978 15.40479 15.38447 15.36737 15.3609 15.36312 15.36097 15.35359 15.34816 15.34622 15.34145 15.33583 15.33157 15.32516 15.32272 15.33076 15.34719 15.36464 15.38686 15.40203 15.41806 15.41904 15.42752 15.44619 15.46637 15.45934 15.44436 15.42648 15.41903 15.3992 15.39287 15.38426 15.37633 15.37812 15.39577 15.41816
0 0 0 0 0 0 0 0 0 0 0 0 0 0 0 0 0 0 0 0 0 0 0 0 0 0 0 0 0 0 0 0 0 0 0 0 0 0 0 17.40585 17.13316 16.57948 16.33066 15.5782 15.59075 15.61299 15.63503 15.64991 15.63996 15.60344 15.5609 15.52745 15.5046 15.48454 15.47707 15.4826 15.48702 15.49581 15.50498 15.53415 15.55905 15.57919 15.60101 15.60468 15.61383 15.61961 15.62086 15.62078 15.61219 15.59479 15.57326 15.55195 15.53232 15.51548 15.48738 15.45753 15.4409 15.43229 15.42294 15.42462 15.41785 15.41411 15.40725 15.40365 15.39749 15.39377 15.39157 15.39737 15.39879 15.41357 15.43038 15.46116 15.48135 15.49231 15.49075 15.49449 15.51105 15.51648 15.51189 15.49817 15.48666 15.46047 15.43 15.41599 15.41341 15.40514 15.39941 15.42026 15.43424
0 0 0 0 0 0 0 0 0 0 0 0 0 0 0 0 0 0 0 0 0 0 0 0 0 0 0 0 0 0 0 0 0 0 0 0 0 0 16.69981 16.39955 16.15024 15.65553 15.65867 15.65544 15.65308 15.66177 15.66648 15.66433 15.64828 15.62828 15.59646 15.57524 15.55734 15.53886 15.53604 15.53216 15.54475 15.55767 15.58039 15.61035 15.63033 15.65071 15.66259 15.6742 15.68708 15.69893 15.70498 15.71123 15.6968 15.67737 15.65625 15.62765 15.59515 15.57298 15.54533 15.51583 15.49758 15.48708 15.48364 15.48289 15.48278 15.47749 15.4797 15.48019 15.47563 15.47217 15.47461 15.46997 15.47956 15.49361 15.50942 15.52058 15.52338 15.5301 15.52169 15.53629 15.54156 15.55646 15.53317 15.52002 15.50005 15.47376 15.45079 15.43568 15.4362 15.44064 15.44475 15.4481 15.46445
0 0 0 0 0 0 0 0 0 0 0 0 0 0 0 0 0 0 0 0 0 0 0 0 0 0 0 0 0 0 0 0 0 0 18.43574 19.035 18.16164 16.50009 15.70701 15.7227 15.73068 15.72987 15.72077 15.71231 15.70816 15.69053 15.69166 15.68764 15.68453 15.67495 15.65618 15.65031 15.63643 15.62509 15.62216 15.61919 15.62785 15.63899 15.66072 15.67947 15.69624 15.70471 15.71815 15.73581 15.74812 15.75906 15.77368 15.78133 15.78007 15.77057 15.7487 15.72011 15.69062 15.65851 15.6281 15.59927 15.57833 15.5603 15.55104 15.54765 15.54414 15.54288 15.54241 15.54048 15.5356 15.53387 15.54286 15.54583 15.54619 15.55894 15.56947 15.57499 15.5747 15.57988 15.58224 15.58276 15.58332 15.58315 15.56857 15.53928 15.51079 15.48286 15.46337 15.45464 15.465 15.46544 15.47308 15.47775 15.49314
0 0 0 0 0 0 0 0 0 0 0 0 0 0 0 0 0 0 0 0 0 0 0 0 0 0 0 0 0 18.93141 18.52626 18.30393 18.30224 18.08005 17.78957 17.20711 15.78174 15.79087 15.8026 15.81097 15.80872 15.78724 15.77511 15.76129 15.75609 15.72258 15.71934 15.71432 15.71327 15.70514 15.70216 15.7008 15.6959 15.69614 15.68916 15.69559 15.70016 15.70738 15.72818 15.75312 15.76416 15.77439 15.78606 15.79474 15.81056 15.82496 15.83928 15.84507 15.84392 15.83426 15.81655 15.79385 15.76418 15.74625 15.70904 15.68543 15.66758 15.64684 15.63449 15.63182 15.62575 15.62692 15.62691 15.6187 15.61102 15.60623 15.60553 15.60988 15.60382 15.60653 15.61994 15.62158 15.62268 15.62372 15.63154 15.62975 15.61688 15.60128 15.59222 15.56258 15.5309 15.50546 15.49315 15.48643 15.49177 15.50309 15.51085 15.52062 15.51926
0 0 0 0 0 0 0 0 0 0 0 0 0 0 0 0 0 0 0 0 0 0 0 0 0 18.73052 18.00189 18.00608 17.07584 16.42976 16.12645 15.85217 15.85212 15.85135 15.84668 15.83881 15.8402 15.84624 15.86049 15.86798 15.85715 15.83165 15.80592 15.78814 15.78093 15.73839 15.74598 15.75089 15.75498 15.75686 15.76317 15.76983 15.76737 15.7587 15.75182 15.75689 15.76403 15.77144 15.78721 15.81116 15.82207 15.8294 15.84142 15.85697 15.87393 15.89208 15.9 15.91047 15.91431 15.90795 15.89402 15.86526 15.8359 15.81967 15.79538 15.76719 15.74225 15.72493 15.71326 15.71012 15.69979 15.697 15.69534 15.68861 15.68254 15.68322 15.68133 15.67681 15.67487 15.67092 15.67916 15.68342 15.67903 15.67493 15.67888 15.67365 15.65099 15.62581 15.60828 15.59359 15.56899 15.54846 15.53563 15.5395 15.54992 15.54002 15.53108 15.5455 15.53923
0 0 0 0 0 0 0 0 0 0 0 0 0 0 0 0 0 0 0 0 0 0 0 18.89331 18.0282 17.47039 17.15783 16.8405 15.92126 15.91717 15.90669 15.90037 15.89598 15.8891 15.87724 15.86749 15.87035 15.88948 15.9091 15.91575 15.89339 15.85324 15.81375 15.78809 15.7844 15.7755 15.78548 15.7948 15.80396 15.81427 15.82551 15.82909 15.82729 15.821 15.81405 15.82097 15.83019 15.83987 15.85425 15.87028 15.88588 15.88844 15.89622 15.90955 15.92544 15.9418 15.95098 15.96691 15.97017 15.96485 15.95527 15.93346 15.9138 15.89285 15.88008 15.86043 15.83905 15.82494 15.81302 15.80701 15.79022 15.77614 15.76876 15.75775 15.75586 15.75186 15.74442 15.73852 15.73275 15.7329 15.73679 15.73723 15.73449 15.72571 15.71721 15.70355 15.68984 15.67055 15.65172 15.64955 15.63319 15.62179 15.6092 15.60737 15.57924 15.56299 15.5573 15.56022 15.55203
0 0 0 0 0 0 0 0 0 0 0 0 0 0 0 0 0 0 0 0 0 0 18.29912 17.47888 17.17223 17.18307 16.86688 16.54394 15.93792 15.92785 15.91463 15.90235 15.89363 15.88758 15.88407 15.88542 15.8922 15.90252 15.91554 15.91667 15.89644 15.87702 15.84769 15.82697 15.80687 15.81347 15.82862 15.84296 15.85337 15.8603 15.86556 15.87043 15.87026 15.86421 15.86135 15.87303 15.88567 15.89004 15.89808 15.91347 15.92878 15.93617 15.94547 15.95299 15.97266 15.99033 16.00763 16.02009 16.02457 16.01782 16.01245 15.99358 15.97598 15.95848 15.94673 15.93095 15.91939 15.90278 15.8971 15.88318 15.87206 15.86001 15.85169 15.84302 15.83921 15.83474 15.82447 15.81502 15.80356 15.78838 15.78486 15.7855 15.7833 15.76806 15.74961 15.72448 15.7117 15.70452 15.70045 15.69594 15.68765 15.67255 15.67128 15.63777 15.61185 15.61139 15.60253 15.59229 15.57306
0 0 0 0 0 0 0 0 0 0 0 0 0 0 0 0 0 0 0 0 0 19.50797 18.51088 17.45741 16.85749 16.85797 16.54146 16.54593 15.93557 15.91937 15.90281 15.89039 15.88009 15.8698 15.86701 15.86908 15.87342 15.88202 15.89493 15.89612 15.88283 15.86759 15.85031 15.83723 15.82458 15.83653 15.85744 15.87274 15.88711 15.89744 15.90057 15.90663 15.90753 15.90797 15.90915 15.91703 15.92505 15.93089 15.93705 15.94858 15.95902 15.97272 15.98191 15.99122 16.00334 16.02411 16.04048 16.0605 16.06728 16.06761 16.06901 16.05814 16.04757 16.03774 16.02673 16.01625 16.00298 15.98479 15.97096 15.95587 15.93888 15.92248 15.9073 15.90158 15.90068 15.90255 15.88932 15.87781 15.87054 15.8565 15.85121 15.85003 15.8336 15.80868 15.78008 15.76059 15.7606 15.75104 15.74625 15.73011 15.71475 15.70692 15.70161 15.68933 15.68406 15.66027 15.66075 15.63144 15.57409
0 0 0 0 0 0 0 0 0 0 0 0 0 0 0 0 0 0 0 0 0 0 0 18.03447 17.17331 16.8612 16.54236 16.2448 15.92834 15.9072 15.89401 15.88079 15.86696 15.85512 15.8554 15.85631 15.85685 15.86881 15.88145 15.88404 15.87512 15.86732 15.85996 15.84994 15.84118 15.84973 15.86827 15.88822 15.90436 15.91655 15.92496 15.93428 15.94147 15.94834 15.9555 15.96134 15.96714 15.97405 15.98226 15.9905 16.00339 16.00947 16.01896 16.03119 16.04066 16.0557 16.07015 16.09196 16.10059 16.10742 16.11248 16.10759 16.10585 16.10802 16.09738 16.08868 16.07807 16.06122 16.05044 16.03415 16.01662 16.00125 15.98917 15.97861 15.97578 15.96951 15.95744 15.94415 15.92857 15.91383 15.90856 15.89939 15.87296 15.83681 15.8226 15.82542 15.81646 15.80636 15.79992 15.77478 15.76139 15.75671 15.7619 15.75773 15.72737 15.71896 15.68935 15.64476 15.57837
0 0 0 0 0 0 0 0 0 0 0 0 0 0 0 0 0 0 0 0 0 19.90317 19.63399 18.66647 17.21797 16.89264 16.56358 16.56421 16.2161 15.9044 15.88615 15.87158 15.85861 15.84748 15.8471 15.84782 15.84977 15.85965 15.87375 15.87516 15.86897 15.868 15.86503 15.85892 15.85054 15.86504 15.88102 15.90395 15.92513 15.94368 15.95741 15.97383 15.98164 15.99232 15.99804 16.006 16.01128 16.01598 16.01841 16.0272 16.03378 16.04697 16.05602 16.0686 16.08 16.09393 16.11755 16.13303 16.1416 16.14864 16.15647 16.16259 16.16636 16.16445 16.15707 16.14896 16.13821 16.12016 16.10379 16.08563 16.07195 16.06191 16.05505 16.05067 16.04603 16.04095 16.0268 16.0132 15.99633 15.98735 15.97577 15.95612 15.92182 15.8959 15.88518 15.87916 15.86917 15.85432 15.84592 15.8282 15.80977 15.81575 15.80999 15.79598 15.79467 15.75903 15.73298 15.67659 15.59857
0 0 0 0 0 0 0 0 0 0 0 0 0 0 0 0 0 0 0 19.90062 19.85423 19.76739 18.96057 17.87697 17.2643 16.93858 16.59674 16.91248 15.93984 15.90435 15.88285 15.86701 15.85645 15.84682 15.8452 15.84409 15.84807 15.85779 15.87074 15.87461 15.87426 15.87277 15.87113 15.8704 15.86605 15.87909 15.90145 15.92503 15.95352 15.97748 15.99862 16.02038 16.03422 16.04375 16.0554 16.06211 16.07012 16.0717 16.07204 16.06879 16.07205 16.07914 16.08956 16.09865 16.11254 16.12807 16.14387 16.16434 16.17624 16.18432 16.19697 16.20706 16.2173 16.21751 16.21862 16.21646 16.20703 16.19071 16.17534 16.15839 16.14844 16.13908 16.13297 16.12409 16.11834 16.10734 16.08497 16.06585 16.05226 16.04123 16.02441 16.01117 15.98766 15.96961 15.95897 15.95538 15.94501 15.93252 15.91413 15.90326 15.87903 15.87197 15.85789 15.84188 15.82726 15.79808 15.76144 15.69742 15.61764
0 0 0 0 0 0 0 0 0 0 0 0 0 0 0 0 0 0 19.40491 19.29288 18.9576 18.50089 17.90871 17.28024 16.97033 16.96794 16.62621 16.28441 15.95266 15.90818 15.88511 15.8673 15.85701 15.84498 15.84456 15.84608 15.85264 15.86171 15.87131 15.87882 15.88352 15.8851 15.88775 15.89135 15.89247 15.90823 15.9294 15.95902 15.9889 16.01578 16.04499 16.06621 16.0845 16.09824 16.10985 16.12371 16.12972 16.13035 16.1271 16.12472 16.12721 16.1292 16.13351 16.13778 16.15179 16.1712 16.18707 16.1992 16.20877 16.21574 16.22963 16.24498 16.25311 16.26002 16.26754 16.26466 16.25607 16.24872 16.24358 16.2304 16.2273 16.22289 16.21589 16.20701 16.19116 16.17572 16.15673 16.13473 16.11871 16.1007 16.0798 16.06018 16.04392 16.03073 16.0171 16.01243 16.01123 15.99351 15.98406 15.95946 15.93432 15.91483 15.90944 15.89285 15.86847 15.82251 15.79462 15.73712 15.65841
0 0 0 0 0 0 0 0 0 0 0 0 0 0 0 0 0 19.83291 19.30801 18.69016 18.20821 17.60907 17.30207 17.32314 17.33304 16.97088 16.62117 15.99219 15.94579 15.90336 15.88006 15.86368 15.84803 15.83584 15.83857 15.843 15.85197 15.86001 15.87126 15.88044 15.88646 15.89517 15.90143 15.91153 15.91837 15.93926 15.96562 15.99557 16.02558 16.05662 16.08312 16.11062 16.13002 16.14418 16.15637 16.16647 16.16645 16.16102 16.158 16.15836 16.16557 16.16407 16.16545 16.16744 16.17863 16.19747 16.21292 16.22559 16.23882 16.24943 16.26379 16.27849 16.29721 16.30782 16.31155 16.31027 16.30937 16.30251 16.29263 16.28332 16.28372 16.27683 16.27167 16.26114 16.24661 16.23 16.20945 16.19456 16.17875 16.16065 16.13828 16.12146 16.10196 16.09038 16.08207 16.07085 16.06045 16.05034 16.03564 16.00089 15.98206 15.97299 15.94868 15.92014 15.88726 15.85635 15.83674 15.77426 15.69901
0 0 0 0 0 0 0 0 0 0 0 0 0 0 0 0 19.32889 19.31098 18.46692 17.92465 17.62552 17.31303 17.31312 17.32624 17.32769 16.9691 16.61096 15.99114 15.93845 15.89872 15.87368 15.85591 15.83791 15.82548 15.83162 15.84387 15.85243 15.86493 15.87907 15.88885 15.89822 15.90832 15.92196 15.93385 15.94682 15.97188 15.99871 16.02787 16.05688 16.08787 16.11831 16.15117 16.17245 16.18848 16.20165 16.21651 16.21371 16.21418 16.21595 16.21633 16.21496 16.21217 16.2086 16.20262 16.20855 16.22106 16.23508 16.24725 16.27009 16.27891 16.29208 16.30393 16.32546 16.34233 16.3511 16.3551 16.35948 16.35368 16.35379 16.35198 16.34856 16.34409 16.33369 16.31914 16.3034 16.28577 16.26791 16.24831 16.22559 16.20274 16.17821 16.17255 16.14705 16.14151 16.13177 16.11444 16.10106 16.0908 16.06797 16.04899 16.03488 16.00739 15.99978 15.97263 15.92993 15.90049 15.86873 15.81761 15.73725
0 0 0 0 0 0 0 0 0 0 0 0 0 0 0 19.88523 19.14802 18.46733 17.90533 17.61356 17.2956 17.30114 17.30477 16.96942 16.96384 16.6302 15.9979 15.97684 15.92584 15.8901 15.86429 15.84655 15.83002 15.82129 15.83174 15.84774 15.8613 15.87886 15.89758 15.91278 15.93188 15.94842 15.96057 15.97785 15.99704 16.01915 16.04629 16.07631 16.10518 16.13343 16.15863 16.18673 16.20782 16.22586 16.24302 16.25813 16.26324 16.26899 16.27636 16.28041 16.28013 16.2781 16.27517 16.26278 16.25671 16.25878 16.27171 16.28204 16.29787 16.30195 16.31511 16.33044 16.3556 16.37281 16.38686 16.3892 16.39441 16.40027 16.39989 16.40234 16.40194 16.39676 16.38838 16.38053 16.36784 16.35049 16.33153 16.31034 16.2855 16.26079 16.24062 16.22434 16.2037 16.18829 16.17018 16.15 16.13093 16.1195 16.10427 16.08606 16.07128 16.06319 16.02802 16.00666 15.97806 15.94456 15.91709 15.87341 15.79246
0 0 0 0 0 0 0 0 0 0 0 0 0 0 19.2195 19.21326 18.50734 17.90595 17.59465 17.26794 17.27791 16.93183 16.92916 16.93523 16.60883 16.28327 15.98032 15.96128 15.91755 15.88814 15.86178 15.84284 15.83296 15.82481 15.84321 15.85859 15.87639 15.8951 15.91467 15.93968 15.96196 15.986 16.00896 16.03584 16.06283 16.08889 16.11806 16.14823 16.17581 16.19838 16.21543 16.23919 16.26 16.28262 16.30042 16.31586 16.32669 16.33071 16.33754 16.34402 16.34761 16.34833 16.34988 16.33771 16.31605 16.30536 16.3055 16.30944 16.32133 16.32234 16.33494 16.3527 16.37879 16.40389 16.42297 16.43893 16.4436 16.45267 16.4492 16.44661 16.44598 16.44329 16.43767 16.42592 16.41334 16.40375 16.3847 16.36646 16.34569 16.32234 16.29951 16.27871 16.25382 16.23335 16.21361 16.18909 16.16979 16.15729 16.14764 16.12737 16.11615 16.10354 16.08233 16.04716 16.02519 15.98576 15.95267 15.90831 15.82621
0 0 0 0 0 0 0 0 0 0 0 0 0 19.09449 19.26722 18.51228 17.89969 17.58916 17.25289 17.25437 16.91086 16.8966 16.90507 16.9168 16.58569 15.97246 15.96174 15.94812 15.91118 15.88425 15.86596 15.85226 15.84138 15.84097 15.86036 15.87861 15.89637 15.92148 15.95095 15.977 16.00359 16.03543 16.06741 16.09936 16.12866 16.15621 16.19134 16.21971 16.24039 16.25526 16.26747 16.29216 16.31399 16.33097 16.34932 16.3634 16.37611 16.38236 0 0 0 16.34861 16.36338 16.41759 16.4002 16.37249 16.35326 16.34837 16.34264 16.34015 16.34899 16.36664 16.3949 16.4255 16.44776 16.46807 16.47633 16.48675 16.49465 16.49746 16.49979 16.50047 16.49099 16.48315 16.4772 16.46889 16.45282 16.4365 16.41711 16.39375 16.36827 16.33961 16.30357 16.27856 16.25559 16.2321 16.20747 16.18357 16.17497 16.16219 16.15197 16.13288 16.11296 16.09192 16.06864 16.04126 16.00036 15.95132 15.86581
0 0 0 0 0 0 0 0 0 0 0 0 0 19.47715 18.5391 17.90922 17.57274 17.2261 17.23415 16.89149 16.88689 16.87762 16.8936 15.9517 15.95696 15.95009 15.94682 15.94187 15.90753 15.88751 15.87177 15.86358 15.85467 15.8531 15.87513 15.89616 15.92473 15.95433 15.99076 16.02924 16.07081 16.113 16.14907 16.18287 16.21592 16.2497 16.27843 16.29988 16.31145 16.3205 16.32729 17.07126 16.3629 16.3758 16.39039 16.7503 17.50894 18.27457 0 0 0 0 0 16.82375 16.45193 16.42462 16.39793 16.38275 16.37369 16.36861 16.37102 16.38787 16.41528 16.44652 16.4745 16.49365 16.51041 16.5226 16.53391 16.5381 16.53962 16.53927 16.53715 16.5309 16.52592 16.52152 16.51039 16.49779 16.48453 16.46485 16.44512 16.41804 16.386 16.35349 16.31909 16.28292 16.26158 16.23734 16.21559 16.20172 16.19043 16.165 16.14528 16.12596 16.10734 16.08375 16.03698 15.9798 15.89906
0 0 0 0 0 0 0 0 0 0 0 0 19.61769 18.81909 17.89753 17.55939 17.21771 16.87901 16.88854 16.89017 16.88121 16.87377 16.55033 15.94336 15.93902 15.9363 15.93862 15.94126 15.91308 15.89772 15.88864 15.88453 15.87839 15.87736 15.89961 15.92611 15.95395 15.99142 16.0346 16.08331 16.12735 16.17848 16.2171 16.25079 16.28368 16.3093 16.32173 0 0 16.31975 0 17.94091 17.16343 16.76938 17.15708 17.14464 17.91685 18.32916 19.25808 17.15373 16.45865 0 0 0 18.0253 16.44709 16.42146 16.40105 16.39172 16.38723 16.3909 16.40999 16.44107 16.47384 16.50618 16.5235 16.54714 16.55347 16.5626 16.57154 16.5838 16.58443 16.58139 16.57607 16.56859 16.56076 16.55396 16.54449 16.53339 16.5195 16.50016 16.47025 16.44241 16.41625 16.3786 16.3502 16.32306 16.29783 16.27349 16.25607 16.23798 16.21409 16.19597 16.16836 16.15373 16.13017 16.07815 16.01282 15.93045
0 0 0 0 0 0 0 0 0 0 0 18.83876 18.82775 17.89754 17.55856 16.85837 16.89176 16.90252 16.90007 16.89758 16.8978 16.23516 15.94362 15.94213 15.9405 15.93713 15.94232 15.94681 15.93052 15.91879 15.91277 15.90363 15.90071 15.90511 15.92809 15.96117 15.99511 16.0484 16.10112 16.15424 16.2069 16.25172 16.28217 16.3051 17.05835 0 0 0 0 0 18.72268 19.50444 19.27715 18.72174 18.36236 17.9496 17.93841 16.79567 16.44299 16.4543 16.45954 16.46211 16.46349 18.42504 18.77226 16.4568 16.43568 16.42007 16.41875 16.40896 16.41539 16.43281 16.46046 16.49321 16.52514 16.54616 16.56408 16.57655 16.59083 16.61042 16.61539 16.61955 16.62249 16.61827 16.612 16.60833 16.6036 16.59467 16.58819 16.5758 16.55827 16.53426 16.49988 16.47173 16.44579 16.41806 16.38374 16.35063 16.32541 16.29966 16.27768 16.24938 16.23441 16.20922 16.19676 16.16816 16.12898 16.05901 15.9755
0 0 0 0 0 0 0 0 0 0 19.57751 18.85331 17.88719 17.19563 16.87959 16.56787 16.60072 16.60355 16.59839 16.59301 16.58144 15.95252 15.94823 15.94873 15.94656 15.946 15.95394 15.96116 15.95037 15.94224 15.93586 15.92961 15.92592 15.92971 15.95446 15.99034 16.04572 16.10748 16.16844 16.22698 16.28086 16.31601 16.68498 0 0 0 0 0 0 0 0 0 0 0 18.75395 18.3932 17.60024 16.45698 16.47209 16.48494 16.49034 16.49012 16.48799 16.4861 16.48008 16.46953 16.45333 16.44577 16.44877 16.43999 16.44631 16.45801 16.48296 16.5094 16.53697 16.56332 16.59012 16.60567 16.62482 16.63733 16.64494 16.64897 16.64727 16.64601 16.64035 16.63862 16.63873 16.63658 16.62716 16.61942 16.60344 16.58574 16.5614 16.53728 16.51238 16.48563 16.45256 16.423 16.39307 16.3596 16.32946 16.30262 16.27286 16.25051 16.22867 16.19445 16.1589 16.0879 16.00803
0 0 0 0 0 0 0 0 0 0 19.1328 17.86346 17.18255 16.87309 16.26899 16.28975 15.99978 16.00009 15.99927 15.98996 15.97051 15.95021 15.95153 15.96091 15.9647 15.96664 15.97931 15.99213 15.983 15.97726 15.97392 15.96584 15.96043 15.9666 15.99625 16.03765 16.09646 16.15641 16.21468 16.27208 17.43584 0 0 0 0 0 0 0 0 0 0 0 0 0 19.40766 18.04817 16.48866 16.49359 16.50694 16.52343 16.53657 16.54124 16.534 16.51887 16.50217 16.48866 16.48321 16.47856 16.48139 16.4683 16.47226 16.48308 16.50205 16.52728 16.55784 16.58841 16.61598 16.63598 16.65543 16.67089 16.67429 16.67746 16.67572 16.67353 16.67009 16.66922 16.67402 16.67176 16.66491 16.65542 16.63924 16.62378 16.60627 16.59025 16.56827 16.5462 16.51224 16.48481 16.45668 16.42795 16.39106 16.36006 16.33059 16.30063 16.26574 16.23645 16.19024 16.11771 16.04443
0 0 0 0 0 0 0 0 0 19.21184 18.55824 17.51538 16.83938 16.23733 15.98047 16.00106 15.99904 15.99118 15.9886 15.98311 15.96617 15.94828 15.95811 15.96956 15.9785 15.98884 15.99842 16.01085 16.00461 16.0036 16.00216 16.00019 15.99707 16.00678 16.03954 16.09136 16.14791 16.20282 16.26112 17.0298 17.24899 0 0 0 0 0 0 0 0 0 0 0 0 18.69598 18.4688 17.26628 16.5057 16.5182 16.53945 16.56134 16.58193 16.58965 16.58302 16.56418 16.54596 16.53218 16.52457 16.51698 16.51282 16.50482 16.50514 16.51342 16.52941 16.55334 16.5824 16.61069 16.63465 16.65583 16.67418 16.69034 16.69704 16.69978 16.69474 16.69764 16.70213 16.70854 16.7103 16.7112 16.70811 16.69821 16.68319 16.6698 16.64977 16.63359 16.61271 16.59315 16.56819 16.5414 16.51435 16.48365 16.44201 16.40932 16.37407 16.34253 16.3058 16.26816 16.21947 16.15085 16.07483
0 0 0 0 0 0 0 0 20.06125 18.92323 17.50729 16.80451 16.50035 15.9211 15.94117 15.96296 15.96321 15.96041 15.96033 15.95455 15.95151 15.94568 15.9631 15.98208 15.99196 16.00269 16.019 16.04098 16.03833 16.03711 16.03024 16.02688 16.02527 16.03767 16.07351 16.12518 16.17396 16.22631 16.61468 17.03215 17.46131 18.26275 0 19.09941 19.67606 0 0 0 0 0 0 0 19.44388 18.47431 17.68527 16.51172 16.52856 16.55294 16.57971 16.60149 16.61022 16.61011 16.60141 16.58896 16.57686 16.5656 16.55709 16.54791 16.54252 16.5369 16.5386 16.5457 16.5571 16.58127 16.60949 16.63536 16.6578 16.68197 16.70592 16.71985 16.72594 16.72544 16.72714 16.7242 16.72877 16.73663 16.73848 16.7434 16.74195 16.73125 16.72108 16.70813 16.69 16.67569 16.65615 16.63722 16.62098 16.59283 16.56826 16.53909 16.50185 16.46105 16.41618 16.38925 16.34996 16.30312 16.24274 16.17613 16.10053
0 0 0 0 0 0 0 0 20.07667 18.93882 17.50165 16.793 15.87402 15.89216 15.9116 15.92919 15.93787 15.9373 15.93501 15.93986 15.94619 15.95008 15.97277 15.98933 16.00803 16.02936 16.0591 16.08278 16.0888 16.08699 16.08454 16.07814 16.07647 16.08917 16.11992 16.16519 16.20521 16.24013 16.27351 16.65666 17.05727 17.47738 17.90961 18.33723 19.10717 0 0 0 0 0 0 18.83497 18.06934 18.07745 16.50545 16.5261 16.56391 16.59165 16.61431 16.6259 16.6332 16.62977 16.6225 16.61417 16.60138 16.58567 16.57193 16.56945 16.56808 16.56201 16.5632 16.57452 16.59062 16.61217 16.63163 16.65859 16.68429 16.711 16.73627 16.75219 16.75669 16.75714 16.76146 16.76204 16.76804 16.77587 16.78023 16.77931 16.77716 16.76696 16.75567 16.73994 16.72334 16.70735 16.69009 16.67128 16.6545 16.63371 16.60639 16.58469 16.55341 16.51025 16.46341 16.42482 16.37926 16.33039 16.26781 16.20212 16.13246
0 0 0 0 0 0 0 0 0 18.95127 17.5028 16.78528 15.85506 15.8692 15.8861 15.905 15.91449 15.91824 15.92191 15.93109 15.94448 15.95258 15.97976 16.00082 16.02398 16.05513 16.09012 16.12504 16.13883 16.14765 16.14821 16.14758 16.14292 16.14769 16.17569 16.20642 16.23651 16.2606 16.28706 16.30352 16.32123 16.33888 16.35696 16.72573 17.53371 18.35247 19.13623 19.47543 0 0 19.12763 18.04147 17.24143 16.49204 16.51688 16.551 16.60056 16.62155 16.63799 16.64721 16.64782 16.64891 16.6481 16.64347 16.63015 16.61422 16.60176 16.60059 16.59557 16.59565 16.60094 16.61044 16.62579 16.64133 16.66019 16.68386 16.7062 16.73286 16.76518 16.78047 16.78447 16.78208 16.78454 16.79116 16.79943 16.81006 16.8168 16.81904 16.81829 16.80791 16.79741 16.7822 16.76473 16.7478 16.72775 16.71019 16.68978 16.67264 16.64908 16.62175 16.59352 16.54857 16.50089 16.45541 16.40971 16.36115 16.29811 16.233 16.16902
0 0 0 0 0 0 0 0 0 19.92878 18.26165 17.13872 16.13247 15.85674 15.86669 15.88384 15.89115 15.89739 15.91031 15.92104 15.94371 15.95977 15.98878 16.01886 16.05076 16.08677 16.13196 16.18043 16.203 16.21435 16.21746 16.20888 16.20073 16.20367 16.21938 16.24294 16.26818 16.28638 16.30346 16.31051 16.32009 16.33197 16.34717 16.36507 16.73343 17.13878 17.55942 17.97246 19.13541 18.02056 16.80936 16.4607 16.48264 16.51437 16.55044 16.58688 16.62385 16.6448 16.6584 16.66366 16.66334 16.66127 16.65941 16.65444 16.64431 16.63645 16.63119 16.6257 16.61809 16.62196 16.63358 16.64487 16.65312 16.67367 16.69464 16.71806 16.74105 16.76605 16.79621 16.80517 16.81261 16.813 16.81456 16.82087 16.82821 16.83804 16.84534 16.85059 16.85105 16.84694 16.83542 16.8178 16.79919 16.78429 16.76578 16.74339 16.72733 16.70756 16.68571 16.65885 16.62732 16.58474 16.53286 16.48734 16.44443 16.39214 16.32897 16.26596 16.19608
0 0 0 0 0 0 0 0 0 20.06829 19.26512 17.52088 16.44035 15.84542 15.85157 15.86776 15.87277 15.88183 15.89477 15.9148 15.9333 15.95469 15.99118 16.02659 16.07072 16.12381 16.19481 16.25289 16.28516 16.29282 16.29386 16.28217 16.26607 16.26344 16.27153 16.28268 16.30044 16.30992 16.31973 16.32438 16.33051 16.33689 16.34738 16.36247 16.37662 16.39061 16.77649 0 18.02421 16.82927 16.47781 16.4992 16.52875 16.56107 16.59728 16.62998 16.65971 16.6752 16.68374 16.68811 16.68842 16.6863 16.68272 16.67842 16.67038 16.65902 16.65196 16.64588 16.6419 16.64514 16.65577 16.66803 16.68457 16.70364 16.72457 16.74678 16.76975 16.79251 16.81109 16.82724 16.83322 16.83547 16.83887 16.84459 16.85331 16.86694 16.87778 16.88454 16.88371 16.87852 16.86989 16.85777 16.83644 16.81642 16.79716 16.78201 16.7624 16.74198 16.71492 16.68592 16.65154 16.60736 16.56403 16.5268 16.47721 16.41977 16.35583 16.29239 16.20998
0 0 0 0 0 0 0 0 0 0 19.78494 18.28566 16.75241 16.11068 15.85171 15.86767 15.84541 15.84948 15.86092 15.88446 15.91 15.93945 15.97866 16.02196 16.07575 16.14581 16.22463 16.28737 0 0 0 16.51034 16.30237 16.30405 16.30768 16.31819 16.32959 16.335 16.33585 16.33547 16.33314 16.33823 16.34533 16.36549 16.38458 16.40749 16.43863 16.83352 16.47233 16.49021 16.51727 16.54833 16.57873 16.60843 16.62945 16.65164 16.67387 16.69326 16.70349 16.70811 16.71166 16.71575 16.70898 16.70606 16.6956 16.6838 16.67891 16.67517 16.67308 16.67751 16.68577 16.69754 16.71403 16.73211 16.74933 16.7706 16.7923 16.81121 16.82665 16.83972 16.847 16.84772 16.8551 16.8639 16.87574 16.89257 16.90525 16.91142 16.90906 16.90846 16.90094 16.8913 16.87002 16.8534 16.83478 16.81685 16.79913 16.77718 16.7482 16.71423 16.67547 16.63233 16.59238 16.55315 16.50292 16.44322 16.3744 16.30182 16.21904
0 0 0 0 0 0 0 0 0 0 0 19.65126 18.26983 16.74732 16.09978 15.82566 15.80292 15.81267 15.81791 15.84536 15.88087 15.91873 15.96557 16.00916 16.06567 16.14726 16.56254 16.97495 0 0 0 17.12633 17.40724 16.30719 16.31417 16.32443 16.33759 16.34809 16.34932 16.34637 16.33955 16.3417 16.35606 16.38149 16.40815 16.43481 16.46169 16.48517 16.50381 16.52781 16.56028 16.59198 16.62015 16.64456 16.66199 16.68252 16.6992 16.70893 16.7137 16.71286 16.71737 16.72073 16.72311 16.71382 16.70961 16.70329 16.70034 16.70094 16.70486 16.70813 16.70971 16.72151 16.73383 16.75194 16.772 16.79072 16.81146 16.82853 16.84366 16.85327 16.85783 16.8654 16.87517 16.89113 16.90283 16.91569 16.92706 16.93257 16.93499 16.93262 16.92561 16.91381 16.89384 16.87558 16.85622 16.84451 16.82471 16.80122 16.77088 16.7351 16.70181 16.6572 16.61342 16.57166 16.51952 16.45937 16.38885 16.31606 16.23112
0 0 0 0 0 0 0 0 0 0 0 0 19.82188 18.58009 16.69106 16.04616 15.75151 15.76604 15.78301 15.81569 15.85401 15.89754 15.94544 15.9934 16.05061 16.13257 16.89671 0 0 18.46349 18.58074 17.03729 16.30401 16.30335 16.3035 16.32212 16.33883 16.35351 16.35608 16.35668 16.34881 16.35507 16.36893 16.39751 16.42633 16.45973 16.48656 16.5068 16.52826 16.55593 16.58746 16.61606 16.64865 16.67125 16.69403 16.70874 16.72741 16.73552 16.73517 16.73289 16.73203 16.73627 16.74125 16.734 16.72916 16.72908 16.72716 16.72843 16.73013 16.73218 16.73238 16.74068 16.75404 16.77182 16.78709 16.8081 16.82666 16.84721 16.86032 16.86834 16.87765 16.8873 16.90035 16.91467 16.92581 16.93804 16.94817 16.95405 16.95508 16.95119 16.94694 16.93465 16.9175 16.9013 16.88206 16.86774 16.84764 16.82008 16.78725 16.75386 16.72025 16.67712 16.63236 16.59 16.53733 16.47894 16.41283 16.34162 16.26739
0 0 0 0 0 0 0 0 0 0 0 0 0 0 0 16.59727 15.97579 15.72052 15.75385 15.78756 15.83288 15.87435 15.9238 15.97415 16.02697 16.43 16.50786 16.91773 17.31936 19.38472 18.56915 17.01539 16.29279 16.29622 16.29435 16.3125 16.33759 16.35515 16.36592 16.36984 16.37217 16.37784 16.39174 16.41821 16.44446 16.47412 16.49664 16.51971 16.54488 16.57489 16.60627 16.64065 16.67027 16.69593 16.72228 16.73648 16.74921 16.75713 16.75864 16.75329 16.75416 16.75263 16.75124 16.74267 16.74203 16.74153 16.74646 16.75317 16.75762 16.76409 16.7604 16.76774 16.78059 16.79979 16.81675 16.83563 16.85341 16.86946 16.88171 16.89353 16.89962 16.91454 16.92456 16.93736 16.95027 16.95991 16.96542 16.96924 16.96722 16.96553 16.96061 16.95331 16.9371 16.91891 16.90549 16.89181 16.87138 16.84225 16.80695 16.77581 16.74364 16.70348 16.65955 16.61603 16.56922 16.511 16.44596 16.37549 16.31025
0 0 0 0 0 0 0 0 0 0 0 0 0 0 0 17.23927 16.57873 15.68777 15.7327 15.76884 15.81677 15.86072 15.91177 15.96522 16.00823 16.07089 16.82926 16.90044 17.31653 0 18.60836 16.28221 16.28735 16.28929 16.3044 16.31436 16.33782 16.35986 16.37578 16.38739 16.39192 16.40035 16.41768 16.43576 16.45795 16.47963 16.50509 16.52641 16.55824 16.59255 16.63424 16.6625 16.68965 16.72128 16.7484 16.76288 16.77492 16.77322 16.77538 16.77629 16.77261 16.76535 16.75589 16.7533 16.7542 16.75945 16.77223 16.77612 16.78058 16.78162 16.78406 16.79328 16.80756 16.83003 16.84752 16.86639 16.88281 16.89847 16.91304 16.92359 16.93459 16.94692 16.96024 16.96858 16.97122 16.97661 16.98137 16.9821 16.97854 16.97589 16.97103 16.96321 16.95071 16.935 16.92131 16.90573 16.88491 16.85985 16.83202 16.80343 16.76725 16.72992 16.68968 16.65343 16.61365 16.55938 16.50003 16.44021 16.37695
0 0 0 0 0 0 0 0 0 0 0 0 0 18.42394 18.05874 17.25956 16.59638 15.6872 15.72947 15.77362 15.82113 15.86104 15.91759 15.96995 16.0114 16.05731 17.16325 17.60348 18.0639 18.01562 18.97926 16.613 16.27379 16.28614 16.30345 16.32931 16.35897 16.3801 16.39414 16.40422 16.41398 16.42717 16.43766 16.4578 16.48158 16.49626 16.51711 16.54543 16.58019 16.61701 16.65004 16.67509 16.70443 16.72372 16.7378 16.76589 16.78382 16.79256 16.78927 16.78916 16.78507 16.78226 16.77647 16.77901 16.77796 16.78101 16.78612 16.79149 16.79804 16.8033 16.8103 16.82032 16.83505 16.85423 16.87416 16.89163 16.90875 16.92447 16.94043 16.95226 16.96285 16.97516 16.98451 16.99055 16.99251 16.99176 16.99156 16.9908 16.98958 16.98335 16.98032 16.97455 16.96598 16.95256 16.93567 16.9194 16.8996 16.8801 16.85381 16.82636 16.79247 16.75538 16.71609 16.67604 16.63787 16.58904 16.54451 16.49359 16.44429
0 0 0 0 0 0 0 0 0 0 0 0 17.63657 17.26841 17.29413 16.9615 16.31769 15.73614 15.76804 15.81118 15.85267 15.89652 15.9486 15.99255 16.03625 16.08335 16.82703 16.88321 17.68412 18.49491 16.96229 16.24775 16.27513 16.30543 16.3327 16.3612 16.39187 16.41131 16.42221 16.42208 16.43346 16.44643 16.45821 16.48036 16.50233 16.52439 16.54618 16.57071 16.60109 16.63006 16.65499 16.67702 16.69829 16.72025 16.7463 16.76561 16.78492 16.78802 16.7848 16.78627 16.78899 16.79352 16.79241 16.79503 16.79345 16.79766 16.80167 16.80935 16.8166 16.8227 16.83511 16.84672 16.86541 16.8885 16.90109 16.91621 16.92976 16.94725 16.95889 16.96434 16.9771 16.9846 16.99228 16.99599 17.00011 16.9992 16.99609 16.99278 16.98716 16.98228 16.97821 16.97609 16.96605 16.95687 16.94047 16.9275 16.91146 16.88887 16.86557 16.84096 16.80858 16.77891 16.73981 16.70292 16.66083 16.61996 16.58133 16.53381 16.48461
0 0 0 0 0 0 0 0 19.30077 18.67032 17.5622 16.83981 16.86624 16.8886 16.60443 16.66994 16.38349 15.79672 15.83083 15.87596 15.91666 15.95702 15.99855 16.03436 16.07604 16.12069 16.15973 16.18572 16.21357 16.23612 16.24619 16.2653 16.29919 16.33815 16.36196 16.39318 16.41354 16.43332 16.44125 16.44142 16.44566 16.46232 16.47693 16.50108 16.52926 16.55547 16.57601 16.59523 16.62019 16.65252 16.66961 16.69118 16.70883 16.72584 16.73994 16.75578 16.76969 16.77754 16.78002 16.78847 16.79729 16.79888 16.80104 16.80299 16.80189 16.81087 16.8172 16.8273 16.83865 16.85291 16.8611 16.8785 16.89772 16.92047 16.93089 16.93998 16.95689 16.96577 16.97756 16.98541 16.99186 16.99891 17.002 17.00728 17.00546 17.00481 16.99789 16.99297 16.98463 16.97809 16.97116 16.96757 16.96137 16.95369 16.94297 16.93525 16.91889 16.90192 16.87788 16.85266 16.83143 16.80051 16.76631 16.7265 16.68879 16.65625 16.61883 16.57868 16.53263
0 0 0 0 0 0 0 18.27758 18.32479 16.80057 16.47262 16.48622 16.52224 16.5848 16.65856 16.41133 15.82869 15.86368 15.89652 15.93824 15.97803 16.011 16.04694 16.08683 16.12569 16.16122 16.19533 16.22443 16.25219 16.27613 16.29489 16.32071 16.34769 16.3705 16.3893 16.40389 16.42432 16.44026 16.45078 16.45631 16.46349 16.48244 16.5044 16.52596 16.55484 16.57872 16.59727 16.6103 16.62557 16.63809 16.64902 16.66587 16.6813 16.70011 16.72052 16.73873 16.75117 16.76761 16.78286 16.79012 16.79576 16.80127 16.8027 16.8082 16.8144 16.82336 16.83496 16.85112 16.86652 16.88033 16.89347 16.91447 16.92917 16.94116 16.95254 16.9618 16.971 16.98075 16.98851 16.99944 17.00801 17.00817 17.00864 17.00739 17.00663 16.99983 16.99333 16.98779 16.97874 16.97592 16.96978 16.96313 16.96068 16.95446 16.94466 16.93801 16.92837 16.91689 16.90291 16.8784 16.85368 16.82278 16.79119 16.7532 16.71702 16.6785 16.64194 16.60316 16.56149
0 0 0 0 0 0 18.75753 18.69268 16.79207 16.4341 16.43949 16.48278 16.56371 16.3315 16.10679 15.86395 15.88784 15.92305 15.95525 15.99358 16.03121 16.05838 16.09562 16.12624 16.15918 16.1865 16.21869 16.25382 16.28718 16.31361 16.33424 16.36139 16.38355 16.39741 16.41391 16.42718 16.44498 16.45636 16.47219 16.47986 16.49121 16.50553 16.52632 16.55152 16.57435 16.58849 16.59589 16.60689 16.61629 16.62437 16.63654 16.64513 16.65849 16.6762 16.69688 16.71395 16.73099 16.7473 16.76145 16.77424 16.79238 16.80471 16.8136 16.81753 16.82476 16.84163 16.85779 16.87627 16.88812 16.90925 16.92543 16.94545 16.95463 16.96774 16.97888 16.98425 16.98848 16.99344 17.00732 17.01423 17.01567 17.0161 17.01352 17.00808 16.99947 16.98956 16.98209 16.97463 16.96688 16.96531 16.96147 16.96017 16.95204 16.95378 16.95122 16.94541 16.94053 16.93453 16.92073 16.90138 16.87837 16.85396 16.8245 16.79308 16.7572 16.71608 16.67561 16.63741 16.5977
0 0 0 0 0 0 19.66467 17.91524 16.75667 16.41376 16.13489 16.22132 16.01509 15.81311 15.8781 15.93113 15.96091 15.98445 16.02043 16.04997 16.08033 16.1031 16.1352 16.1605 16.18673 16.21057 16.24305 16.28129 16.30987 16.33232 16.35559 16.38304 16.39919 16.41151 16.42572 16.44083 16.45396 16.46706 16.48377 16.49994 16.51316 16.52726 16.54515 16.5645 16.5843 16.59091 16.58831 16.59203 16.59477 16.60425 16.60978 16.62034 16.63523 16.65318 16.68536 16.69907 16.70458 16.72141 16.74059 16.75898 16.77085 16.7886 16.80077 16.81389 16.83276 16.84858 16.8683 16.892 16.91067 16.93462 16.9507 16.96613 16.97773 16.98955 17.0002 17.00423 17.0053 17.01316 17.02472 17.02416 17.02231 17.01735 17.01184 17.00329 16.9907 16.97998 16.97129 16.95972 16.9584 16.95548 16.95313 16.95428 16.9505 16.95502 16.95773 16.95484 16.95003 16.94617 16.93159 16.91097 16.89338 16.87667 16.85572 16.83166 16.79818 16.76299 16.72654 16.68298 16.64644
0 0 0 0 0 19.716 19.20181 17.88536 16.76909 16.46008 15.92208 15.71725 15.78856 15.86153 15.9227 15.97275 16.00909 16.04383 16.07395 16.10314 16.12841 16.14673 16.17758 16.20176 16.22706 16.24978 16.27577 16.31549 16.33742 16.35956 16.37761 16.39576 16.40863 16.41875 16.43103 16.44467 16.45637 16.47151 16.48533 16.50601 16.51851 16.53141 16.54601 16.55757 16.5726 16.58107 16.57245 16.57393 16.57894 16.5856 16.59548 16.60806 16.61769 16.63188 16.64754 16.6622 16.68042 16.70881 16.72528 16.74288 16.76016 16.77907 16.7955 16.82308 16.84454 16.86744 16.88739 16.90642 16.93019 16.95197 16.96511 16.97236 16.98785 16.99484 17.00517 17.01106 17.01684 17.02205 17.0251 17.01928 17.00951 17.00098 16.99189 16.98043 16.96818 16.95276 16.94327 16.9407 16.93167 16.93232 16.93216 16.9357 16.93829 16.94395 16.95036 16.95541 16.95273 16.9486 16.93752 16.92222 16.91331 16.89191 16.86929 16.85079 16.8219 16.7935 16.75365 16.72059 16.68071
0 0 0 0 18.71045 18.23275 16.73569 16.41893 16.15322 15.64311 15.70888 15.78114 15.84742 15.90665 15.96539 16.01823 16.05645 16.08438 16.11689 16.1408 16.15849 16.18483 16.21467 16.23834 16.26851 16.29392 16.3193 16.34731 16.36234 16.38146 16.38865 16.40271 16.41314 16.42128 16.43307 16.44856 16.46181 16.47388 16.48966 16.5027 16.51219 16.52174 16.53354 16.54061 16.55496 16.5589 16.55585 16.55381 16.56029 16.57212 16.57594 16.59126 16.59964 16.6163 16.63192 16.64619 16.65456 16.65988 16.68688 16.70868 16.73205 16.75143 16.77312 16.81283 16.8415 16.86243 16.88594 16.91586 16.94333 16.96106 16.96796 16.97421 16.98603 16.99713 17.00765 17.01274 17.02031 17.01908 17.01419 17.00952 16.9987 16.98474 16.97079 16.95919 16.94536 16.92842 16.92426 16.91791 16.91064 16.91719 16.91548 16.92591 16.93028 16.93711 16.94154 16.94346 16.94435 16.94634 16.93653 16.9258 16.92312 16.90787 16.89056 16.87296 16.84792 16.81907 16.78864 16.76233 16.73162
0 0 0 0 19.81297 17.08006 15.55894 15.58967 15.64448 15.71281 15.78552 15.85417 15.91022 15.96502 16.02048 16.07523 16.10853 16.13189 16.15862 16.18278 16.20315 16.22414 16.25328 16.28155 16.30307 16.32298 16.34841 16.36841 16.38289 16.39381 16.39933 16.40996 16.42066 16.42416 16.43526 16.45338 16.4663 16.47839 16.48771 16.49983 16.50645 16.51342 16.51644 16.52005 16.53186 16.53416 16.53488 16.5372 16.54215 16.54189 16.54543 16.5543 16.57226 16.58837 16.60454 16.61963 16.63107 16.64522 16.66034 16.68056 16.70189 16.72356 16.76078 16.80296 16.83698 16.86206 16.89584 16.92392 16.94269 16.95547 16.96183 16.97559 16.98797 16.9999 17.00593 17.01019 17.01171 17.0091 16.99949 16.98816 16.98269 16.97201 16.94967 16.93273 16.91806 16.90482 16.90313 16.90564 16.90966 16.9125 16.9162 16.92261 16.92712 16.93262 16.93318 16.9348 16.93809 16.9383 16.93223 16.92407 16.91765 16.91728 16.91518 16.90105 16.88625 16.87048 16.8352 16.81794 16.79003
0 0 0 18.73888 18.26487 16.69853 15.54755 15.61436 15.70225 15.78784 15.85747 15.91582 15.9741 16.02256 16.07723 16.1232 16.14793 16.17215 16.19451 16.2217 16.24524 16.27084 16.28921 16.31325 16.32999 16.34519 16.36742 16.38479 16.39758 16.40443 16.41139 16.42063 16.42554 16.42401 16.43297 16.45056 16.46047 16.47017 16.48446 16.49439 16.49763 16.49675 16.49919 16.50244 16.51133 16.51549 16.51942 16.52218 16.52338 16.52181 16.52458 16.53223 16.54414 16.55493 16.5731 16.58998 16.60599 16.62807 16.6462 16.66699 16.68521 16.71355 16.75407 16.78263 16.81586 16.85326 16.88446 16.90296 16.92478 16.94565 16.96015 16.97258 16.9851 16.99462 17.00059 17.00341 16.99693 16.99436 16.98625 16.97155 16.95595 16.94312 16.92403 16.91516 16.90337 16.90285 16.90731 16.90724 16.90532 16.91166 16.92601 16.93737 16.93986 16.93586 16.93241 16.92842 16.93144 16.93316 16.93614 16.93383 16.93113 16.93609 16.92903 16.91674 16.91461 16.90792 16.86712 16.85254 16.83749
0 0 0 18.65216 18.22553 16.66496 16.07883 15.64432 15.76297 15.85999 15.9167 15.97387 16.01778 16.06464 16.11527 16.14963 16.17973 16.20001 16.21827 16.2452 16.26986 16.29201 16.31489 16.33287 16.35021 16.36208 16.37695 16.39445 16.40316 16.40932 16.42015 16.42238 16.42424 16.42038 16.42769 16.43961 16.4478 16.46145 16.4769 16.48051 16.48098 16.48145 16.48356 16.4879 16.49589 16.50248 16.50557 16.50854 16.51079 16.50943 16.5084 16.51225 16.52795 16.53945 16.54983 16.56526 16.58513 16.60735 16.62567 16.64283 16.66935 16.70341 16.72793 16.78289 16.8199 16.84125 16.85324 16.8958 16.92897 16.95009 16.97333 16.98893 16.99343 16.9979 17.00427 17.00121 16.98451 16.97397 16.96301 16.94546 16.93727 16.92705 16.91838 16.91025 16.90519 16.90677 16.91023 16.90756 16.91811 16.9263 16.93666 16.94529 16.9519 16.95099 16.94829 16.94678 16.95181 16.95703 16.9626 16.95708 16.96466 16.96724 16.95926 16.94957 16.9365 16.93604 16.91858 16.88418 16.87363
0 0 0 19.62918 18.48458 16.65402 15.81105 15.65638 15.77694 15.88661 15.97201 16.01364 16.05096 16.09673 16.13877 16.1706 16.19628 16.21888 16.23594 16.25877 16.285 16.3001 16.31482 16.32746 16.34491 16.35525 16.37309 16.39078 16.39845 16.40481 16.40423 16.41402 16.42179 16.4211 16.41733 16.42615 16.44067 16.45401 16.46332 16.4673 16.46432 16.46175 16.4645 16.47266 16.477 16.48397 16.48736 16.48702 16.48861 16.48829 16.49491 16.50511 16.51521 16.53286 16.54259 16.55574 16.57408 16.59319 16.60631 16.62974 16.66282 16.69359 16.74328 16.78128 16.80544 16.82226 16.86267 16.89663 16.91641 16.94787 16.969 16.98745 16.99505 16.99877 16.99266 16.9897 16.96478 16.94704 16.94058 16.93207 16.92894 16.92797 16.91912 16.91173 16.9145 16.91795 16.92623 16.92921 16.93784 16.94736 16.9531 16.96083 16.96245 16.96928 16.97177 16.97314 16.97945 16.98425 16.98651 16.9932 16.99993 17.00291 16.99531 16.98289 16.97292 16.96564 16.95689 16.94273 16.93067
0 0 0 19.66656 17.29914 16.03615 15.59826 15.71969 15.83379 15.93204 15.99789 16.0353 16.07473 16.11113 16.15045 16.17804 16.1998 16.21475 16.23355 16.24903 16.26777 16.28463 16.29354 16.30602 16.31981 16.33129 16.3506 16.37087 16.38289 16.38741 16.39276 16.40118 16.4145 16.4241 16.4193 16.4218 16.43132 16.44054 16.44837 16.44956 16.44765 16.45056 16.45209 16.45755 16.46463 16.46812 16.47124 16.47513 16.47366 16.47609 16.49329 16.50729 16.5202 16.52997 16.54024 16.5517 16.56641 16.59069 16.60968 16.63298 16.65826 16.69811 16.74173 16.77368 16.81064 16.83307 16.85798 16.89227 16.91115 16.92964 16.95595 16.97191 16.98812 16.99432 16.97928 16.97011 16.95173 16.93793 16.92939 16.918 16.91653 16.92386 16.91847 16.91489 16.92543 16.93234 16.94771 16.9644 16.97734 16.9864 16.99503 17.00561 17.00981 17.0115 17.01639 17.01732 17.02553 17.02615 17.02671 17.03678 17.0525 17.05178 17.04633 17.04035 17.03234 17.02481 17.01897 17.00465 16.98697
15.62023 15.6204 16.77533 17.3341 15.72096 15.55411 15.67026 15.79242 15.88915 15.96998 16.02485 16.05761 16.08969 16.12105 16.14805 16.17421 16.19182 16.21106 16.22145 16.23118 16.24157 16.2519 16.2707 16.28196 16.29529 16.3088 16.32675 16.34503 16.3678 16.38297 16.39399 16.40269 16.41049 16.41675 16.41958 16.42083 16.42672 16.43135 16.43731 16.43568 16.43542 16.44129 16.44651 16.45266 16.45715 16.4608 16.46415 16.46424 16.47119 16.48256 16.50048 16.51228 16.52579 16.53534 16.54662 16.5611 16.57385 16.60199 16.62025 16.6372 16.66578 16.6938 16.7487 16.77776 16.80574 16.82596 16.84877 16.88059 16.91026 16.92596 16.9464 16.96035 16.97415 16.98017 16.9768 16.95639 16.94535 16.92894 16.91346 16.90046 16.90149 16.91036 16.91814 16.92423 16.93876 16.94046 16.96265 16.98886 17.00133 17.01617 17.03276 17.04581 17.05433 17.05877 17.06599 17.06266 17.06874 17.07355 17.07857 17.09798 17.10813 17.11524 17.11697 17.10971 17.10346 17.10097 17.08504 17.07167 17.05304
15.62748 15.61298 15.62073 15.64228 15.63285 15.71465 15.80624 15.89186 15.96275 16.02384 16.06169 16.08995 16.10755 16.12487 16.14693 16.16645 16.17811 16.18408 16.19435 16.20529 16.20939 16.22651 16.23933 16.24912 16.26214 16.28111 16.29824 16.32189 16.34418 16.36215 16.38203 16.40109 16.41338 16.4235 16.42664 16.42772 16.42764 16.42785 16.43038 16.4322 16.43423 16.44107 16.44812 16.45291 16.4571 16.46315 16.46324 16.46957 16.47645 16.493 16.50835 16.52538 16.5431 16.55727 16.57454 16.58854 16.60299 16.63385 16.65142 16.66219 16.67759 16.71514 16.74786 16.77728 16.8021 16.82173 16.84828 16.87752 16.89693 16.91922 16.93311 16.9447 16.95722 16.96379 16.96057 16.9528 16.93721 16.93009 16.90909 16.89355 16.89062 16.90559 16.92876 16.94858 16.95092 16.96273 16.9951 17.02524 17.05094 17.0717 17.08039 17.09545 17.09966 17.10009 17.10091 17.11566 17.11738 17.11647 17.12789 17.14945 17.16645 17.17587 17.18232 17.18272 17.16727 17.14853 17.1353 17.12645 17.12339
15.75357 15.76149 15.78302 15.81616 15.8228 15.88028 15.93703 15.9905 16.03366 16.07302 16.09552 16.10662 16.11398 16.12893 16.143 16.15968 16.17405 16.1756 16.17146 16.17348 16.17443 16.19107 16.20264 16.22006 16.23396 16.25419 16.27729 16.30417 16.32523 16.34628 16.37131 16.39241 16.41145 16.42759 16.42865 16.42976 16.43044 16.42785 16.42548 16.43117 16.43806 16.444 16.44935 16.45617 16.46285 16.46469 16.46777 16.47471 16.48904 16.50646 16.52922 16.55357 16.57201 16.59135 16.60118 16.61727 16.63966 16.66697 16.68825 16.69225 16.70605 16.7279 16.75554 16.78394 16.80825 16.82582 16.8528 16.87731 16.90188 16.91851 16.92889 16.93698 16.9487 16.96204 16.96398 16.9446 16.94 16.9385 16.91985 16.90601 16.91238 16.9243 16.9453 16.96916 16.99193 17.01562 17.03758 17.07267 17.10861 17.12139 17.14537 17.16082 17.16166 17.16729 17.16839 17.17438 17.18344 17.1983 17.20924 17.21767 17.22603 17.23141 17.23695 17.24241 17.22805 17.21805 17.21141 17.20919 17.19771
15.84945 15.86277 15.88973 15.92101 15.94701 15.98102 16.0144 16.04404 16.0687 16.08912 16.09669 16.10358 16.10875 16.11618 16.13039 16.14348 16.15111 16.14933 16.14513 16.14807 16.15376 16.15394 16.1697 16.18889 16.21071 16.23781 16.25202 16.28214 16.30907 16.33985 16.36669 16.3951 16.41644 16.43706 16.44689 16.44597 16.44541 16.44033 16.43681 16.43512 16.44225 16.45527 16.45721 16.46244 16.47173 16.4772 16.47996 16.49107 16.50691 16.53014 16.56135 16.5844 16.60582 16.62904 16.63968 16.65774 16.6812 16.69848 16.70571 16.72924 16.74044 16.76324 16.78206 16.79998 16.82552 16.84615 16.87 16.89408 16.91239 16.92971 16.93398 16.94473 16.9559 16.97008 16.97019 16.96108 16.95657 16.94665 16.93599 16.93283 16.93431 16.94533 16.96641 16.98031 17.00182 17.04032 17.07452 17.10838 17.1525 17.18081 17.20406 17.22175 17.23197 17.24079 17.23716 17.24915 17.26409 17.27913 17.29566 17.31495 17.34052 17.35942 17.35504 17.34262 17.33963 17.33273 17.32249 17.30974 17.306
15.92815 15.94694 15.95796 15.96908 15.9817 16.00183 16.02667 16.04426 16.06046 16.06658 16.07259 16.08258 16.08708 16.09503 16.1086 16.11787 16.1245 16.13109 16.13254 16.13456 16.13667 16.14471 16.16266 16.1865 16.20984 16.2454 16.25937 16.28144 16.30618 16.33705 16.37053 16.39986 16.42316 16.44678 16.45893 16.46655 16.46691 16.471 16.46899 16.46729 16.4675 16.47306 16.47848 16.48703 16.4967 16.50616 16.51801 16.52961 16.54479 16.56721 16.59524 16.61755 16.64018 16.65725 16.67226 16.68981 16.72131 16.73919 16.75512 16.76681 16.78505 16.80734 16.82334 16.84724 16.87217 16.8927 16.9101 16.922 16.94335 16.95971 16.95602 16.96743 16.98162 16.98941 16.98465 16.98679 16.97536 16.9645 16.95692 16.95142 16.9638 16.97577 16.99424 17.0204 17.05444 17.08788 17.12096 17.15463 17.20444 17.25174 17.27529 17.28779 17.28807 17.28635 17.30001 17.31105 17.32256 17.33381 17.35589 17.38837 17.42588 17.44688 17.45239 17.43964 17.42551 17.41271 17.4062 17.4022 17.39929
15.96121 15.96508 15.96919 15.96717 15.97741 15.99031 16.00671 16.01818 16.0298 16.0439 16.04982 16.05595 16.06218 16.0738 16.08107 16.09163 16.10448 16.11845 16.12302 16.12996 16.13014 16.14581 16.16147 16.19938 16.22149 16.25655 16.28122 16.29901 16.32772 16.3569 16.39352 16.42307 16.44663 16.46615 16.48243 16.49093 16.4925 16.49555 16.49786 16.5007 16.50018 16.50405 16.50986 16.51996 16.54248 16.55515 16.57127 16.59292 16.60864 16.6334 16.6533 16.67392 16.6903 16.70924 16.72574 16.74128 16.77861 16.80264 16.81591 16.83037 16.85272 16.86823 16.88592 16.89771 16.91647 16.93316 16.94435 16.962 16.97229 16.98114 16.99149 16.99487 17.00124 17.00768 16.99674 16.995 16.98712 16.98083 16.98107 16.98587 17.0132 17.03119 17.04671 17.0773 17.11285 17.14491 17.17851 17.22077 17.26791 17.30001 17.33591 17.36577 17.37542 17.37736 17.38995 17.39825 17.40463 17.4102 17.422 17.44096 17.47619 17.49391 17.5044 17.50711 17.50212 17.49878 17.49677 17.48039 17.47328
15.95976 15.95805 15.95222 15.94806 15.95138 15.96392 15.9753 15.98827 16.00096 16.01418 16.02798 16.03206 16.04061 16.05195 16.06108 16.07462 16.08933 16.10333 16.11425 16.12262 16.13288 16.14807 16.18182 16.2167 16.25268 16.28379 16.31053 16.3408 16.36909 16.4058 16.43127 16.45109 16.47432 16.50004 16.51305 16.52261 16.52741 16.52642 16.53117 16.5383 16.54368 16.54773 16.55667 16.57873 16.60104 16.61618 16.63788 16.65961 16.68033 16.69638 16.71902 16.7329 16.75515 16.77769 16.79488 16.80917 16.83677 16.86115 16.88104 16.89753 16.91188 16.92764 16.95161 16.96849 16.98465 16.99137 16.99891 17.0061 17.01159 17.01463 17.0223 17.03536 17.03857 17.0372 17.03235 17.0248 17.02086 17.02042 17.03079 17.04733 17.06297 17.07527 17.10219 17.12802 17.15838 17.1889 17.22398 17.26017 0 0 17.34575 17.38325 17.4034 17.41697 17.4256 17.42273 17.42893 17.4306 17.42923 0 0 17.50501 17.54554 17.54434 17.5453 17.54299 17.54828 17.54705 17.54034
