ncols        109
nrows        82
xllcorner    -1.041666666667
yllcorner    37.041665395101
cellsize     0.083333333333
NODATA_value -9999
0.0 0 0 0 0 0 0 0 0 0 0 0 0 0 0 0 0 0 0 0 0 0 0 0 0 0 0 0 0 0 0 0 0 0 0 0 0 0 0 0 0 0 0 0 0 0 0 0 0 0 0 0 0 0 0 0 0 0 0 0 0 0 0 0 0 0 0 0 0 0 0 0 0 0 0 0 0 0 0 0 0 0 0 0 0 0 0 0 0 0 0 0 0 0 0 0 0 0 0 0 0 0 0 0 0 20.23955 18.85321 17.34925 17.32472
0 0 0 0 0 0 0 0 0 0 0 0 0 0 0 0 0 0 0 0 0 0 0 0 0 0 0 0 0 0 0 0 0 0 0 0 0 0 0 0 0 0 0 0 0 0 0 0 0 0 0 0 0 0 0 0 0 0 0 0 0 0 0 0 0 0 0 0 0 0 0 0 0 0 0 0 0 0 0 0 0 0 0 0 0 0 0 0 0 0 0 0 0 0 0 0 0 0 0 0 0 17.58125 17.60077 17.35969 17.35385 17.33929 17.31189 17.27948 17.23624
0 0 0 0 0 0 0 0 0 0 0 0 0 0 0 0 0 0 0 0 0 0 0 0 0 0 0 0 0 0 0 0 0 0 0 0 0 0 0 0 0 0 0 0 0 0 0 0 0 0 0 0 0 0 0 0 0 0 0 0 0 0 0 0 0 0 0 0 0 0 0 0 0 0 0 0 0 0 0 0 0 0 0 0 0 0 0 0 0 0 0 0 0 0 0 0 0 0 17.39641 17.37446 17.35738 17.33354 17.3017 17.27699 17.24872 17.20895 17.15548 17.11048 17.07652
0 0 0 0 0 0 0 0 0 0 0 0 0 0 0 0 0 0 0 0 0 0 0 0 0 0 0 0 0 0 0 0 0 0 0 0 0 0 0 0 0 0 0 0 0 0 0 0 0 0 0 0 0 0 0 0 0 0 0 0 0 0 0 0 0 0 0 0 0 0 0 0 0 0 0 0 0 0 0 0 0 0 0 0 0 0 0 0 0 0 0 0 0 0 0 0 0 19.26785 17.38087 17.33749 17.27381 17.21697 17.17409 17.15147 17.11275 17.07673 17.03698 17.00111 16.96424
0 0 0 0 0 0 0 0 0 0 0 0 0 0 0 0 0 0 0 0 0 0 0 0 0 0 0 0 0 0 0 0 0 0 0 0 0 0 0 0 0 0 0 0 0 0 0 0 0 0 0 0 0 0 0 0 0 0 19.1179 18.74371 18.45182 18.58592 0 0 0 0 0 0 0 0 0 0 0 0 0 0 0 0 0 0 0 0 0 0 0 0 0 0 0 0 0 0 0 0 0 17.96705 17.45627 17.40829 17.3381 17.27213 17.19842 17.1306 17.07503 17.02364 16.97732 16.93597 16.90224 16.8826 16.85705
0 0 0 0 0 0 0 0 0 0 0 0 0 0 0 0 0 0 0 0 0 0 0 0 0 0 0 0 0 0 0 0 0 0 0 0 0 0 0 0 0 0 0 0 0 0 0 0 0 0 0 0 0 0 0 0 18.63927 18.66968 18.36608 18.1267 18.02666 18.02283 18.13457 18.36141 18.5785 18.69042 18.69166 0 0 0 0 19.05288 0 0 0 0 0 0 0 0 0 0 0 0 0 0 0 0 0 0 0 0 0 18.65836 17.44369 17.45797 17.40979 17.33914 17.24292 17.16074 17.08747 17.0248 16.97903 16.91925 16.889 16.86229 16.8396 16.81753 16.79716
0 0 0 0 0 0 0 0 0 0 0 0 0 0 0 0 0 0 0 0 0 0 0 0 0 0 0 0 0 0 0 0 0 0 0 0 0 0 0 0 0 0 0 0 0 0 0 0 0 0 0 0 0 0 0 18.7618 18.34602 17.99496 17.78113 17.49376 17.55748 17.58179 17.7769 17.93228 18.0837 18.21064 18.31054 18.5177 18.73342 18.70001 18.64775 18.37755 18.12674 18.17671 18.37649 18.08859 18.12039 0 0 0 0 0 0 0 0 0 0 0 0 0 0 0 17.87294 17.47954 17.44228 17.39518 17.32534 17.23652 17.15328 17.08421 17.01267 16.93757 16.89467 16.84156 16.81634 16.8018 16.79055 16.78145 16.771
0 0 0 0 0 0 0 0 0 0 0 0 0 0 0 0 0 0 0 0 0 0 0 0 0 0 0 0 0 0 0 0 0 0 0 0 0 0 0 0 0 0 0 0 0 0 0 0 0 0 0 18.38929 18.58276 18.71782 18.44894 18.00296 17.74898 17.45673 17.33028 17.4032 17.45399 17.47284 17.47932 17.68513 17.68834 17.88347 17.8594 17.85235 17.88199 17.76829 17.64363 17.6683 17.4813 17.69009 17.72865 17.97243 0 0 0 0 0 0 0 0 0 0 0 0 0 0 0 0 17.49369 17.48092 17.38844 17.29257 17.20105 17.11609 17.04587 16.97917 16.92078 16.86833 16.83688 16.80341 16.7945 16.78419 16.77915 16.77473 16.77395
0 0 0 0 0 0 0 0 0 0 0 0 0 0 0 0 0 0 0 0 0 0 0 0 0 0 0 0 0 0 0 0 0 0 0 0 0 0 0 0 0 0 0 0 0 0 0 0 0 0 18.5522 18.42522 18.15989 18.08486 17.96802 17.65571 17.30141 17.36663 17.2051 17.25987 17.30209 17.32888 17.34191 17.55343 17.53901 17.75178 17.74413 17.75178 17.58483 17.43048 17.46084 17.49075 17.31871 17.53242 17.55238 17.8228 17.87119 17.69662 17.76262 18.26091 18.84555 19.79899 0 0 0 0 0 0 0 18.73766 18.03595 17.54424 17.52383 17.43995 17.31155 17.19545 17.10674 17.0376 16.9653 16.89762 16.85496 16.8237 16.79638 16.79447 16.7957 16.79302 16.79088 16.79382 16.80342
0 0 0 0 0 0 0 0 0 0 0 0 0 0 0 0 0 0 0 0 0 0 0 0 0 0 0 0 0 0 0 0 0 0 0 0 0 0 0 0 0 0 0 0 0 0 0 0 0 19.4042 18.24933 18.13005 18.06518 17.7435 17.56628 17.37543 17.41547 17.24136 17.28367 17.33239 17.37315 17.40072 17.41774 17.63757 17.64043 17.64151 17.64653 17.65089 17.65873 17.48241 17.50763 17.33399 17.15419 17.16417 17.17179 17.21383 17.25136 17.30778 17.35959 17.3871 17.87741 18.56967 0 18.39971 19.1019 19.72166 20.04935 19.7278 19.15555 17.56881 17.57906 17.56679 17.48099 17.36162 17.21984 17.1294 17.02817 16.98007 16.92019 16.87268 16.84644 16.83131 16.82306 16.82743 16.83346 16.83834 16.84143 16.85196 16.85649
0 0 0 0 0 0 0 0 0 0 0 0 0 0 0 0 0 0 0 0 0 0 0 0 0 0 0 0 0 0 0 0 0 0 0 0 0 0 0 0 0 0 0 0 0 0 0 0 0 19.08883 18.17807 17.89584 17.58584 17.4277 17.4695 17.28126 17.30414 17.35016 17.39618 17.42981 17.4634 17.48111 17.49038 17.49057 17.49954 17.31324 17.14563 17.31845 17.31787 17.32004 17.32637 17.13825 17.13681 17.14374 17.17047 17.1927 17.23305 17.26709 17.303 17.33982 17.37908 17.41724 17.46033 17.4943 17.53026 17.5471 18.76302 18.99405 18.53964 17.52475 17.50005 17.43407 17.35679 17.25008 17.17186 17.0876 17.01332 16.96015 16.90767 16.88024 16.87496 16.87157 16.87632 16.88323 16.89338 16.89923 16.90529 16.91256 16.91502
0 0 0 0 0 0 0 0 0 0 0 0 0 0 0 0 0 0 0 0 0 0 0 0 0 0 0 0 0 0 0 0 0 0 0 0 0 0 0 0 0 0 0 0 0 0 0 0 0 18.80469 18.09713 17.79239 17.44041 17.51233 17.33598 17.38517 17.4021 17.44712 17.47959 17.51084 17.32031 17.33628 17.33859 17.33971 17.3345 17.14517 17.14535 17.14124 17.12174 17.11657 17.11721 17.11418 17.11642 17.12291 17.16055 17.16664 17.18268 17.19776 17.21584 17.24212 17.27226 17.3158 17.35083 17.37954 17.41159 17.44188 17.45925 17.47323 17.46046 17.41771 17.36976 17.30647 17.23264 17.166 17.0984 17.04473 17.00069 16.94405 16.92657 16.92687 16.92585 16.93296 16.94233 16.94942 16.95613 16.96292 16.96328 16.96938 16.97292
0 0 0 0 0 0 0 0 0 0 0 0 0 0 0 0 0 0 0 0 0 0 0 0 0 0 0 0 0 0 0 0 0 0 0 0 0 0 0 0 0 0 0 0 0 0 0 0 0 18.70038 17.95942 17.63533 17.48423 17.33913 17.40969 17.47272 17.28956 17.31945 17.13137 17.1399 17.14348 17.14336 17.14413 17.14626 17.13873 17.13159 17.12896 17.12224 17.10242 17.08253 17.07631 17.06971 17.06741 17.06527 17.09106 17.08613 17.0894 17.10189 17.12066 17.14127 17.16955 17.19901 17.23249 17.24938 17.25629 17.26775 17.2808 17.28 17.26184 17.23221 17.19895 17.16253 17.11726 17.07844 17.03926 17.00442 16.99244 16.95587 16.96367 16.97087 16.97359 16.98336 16.998 17.01237 17.01967 17.0253 17.02932 17.03256 17.04367
0 0 0 0 0 0 0 0 0 0 0 0 0 0 0 0 0 0 0 0 0 0 0 0 0 0 0 0 0 0 0 0 0 0 0 0 0 0 0 0 0 0 0 0 0 0 0 0 0 18.55535 17.99959 17.65599 17.51829 17.37555 17.4446 17.28021 17.11329 17.13269 17.1388 17.13595 17.12872 17.12149 17.11155 17.10564 17.10392 17.10119 17.09827 17.08978 17.0755 17.06101 17.05041 17.0353 17.02722 17.01487 17.00364 16.98729 16.98072 16.98299 16.9919 17.00451 17.02497 17.04914 17.07123 17.09399 17.11163 17.12911 17.1383 17.14412 17.13215 17.09718 17.06939 17.04284 17.02216 17.00425 16.98506 16.9803 16.98609 16.99307 17.00508 17.01445 17.02266 17.03579 17.04499 17.06139 17.07268 17.0845 17.09437 17.09593 17.10759
0 0 0 0 0 0 0 0 0 0 0 0 0 0 0 0 0 0 0 0 0 0 0 0 0 0 0 0 0 0 0 0 0 0 0 0 0 0 0 0 0 0 0 0 0 0 0 0 0 18.61638 17.80808 17.43951 17.56086 17.4196 17.48665 17.29002 17.10598 17.11665 17.12181 17.11367 17.09962 17.08537 17.07552 17.07197 17.06721 17.05952 17.04701 17.0351 17.01664 16.99357 16.97167 16.95016 16.93501 16.92357 16.91489 16.91198 16.91958 16.92206 16.92522 16.9314 16.93539 16.94226 16.95143 16.96302 16.9821 16.99477 17.00454 17.01038 17.0127 17.0054 17.00308 17.00041 16.99466 16.99405 16.99354 17.00057 17.01568 17.03129 17.04926 17.05701 17.06381 17.06896 17.08516 17.10187 17.1187 17.1315 17.13803 17.13768 17.15047
0 0 0 0 0 0 0 0 0 0 0 0 0 0 0 0 0 0 0 0 0 0 0 0 0 0 0 0 0 0 0 0 0 0 0 0 0 0 0 0 0 0 0 0 0 0 0 0 0 18.10193 17.88134 17.48737 17.37793 17.26346 17.30656 17.10035 17.10356 17.10408 17.09407 17.07872 17.06095 17.04207 17.03239 17.02997 17.02788 17.02133 17.00695 16.99133 16.97415 16.94854 16.91881 16.89068 16.86966 16.8599 16.85282 16.85136 16.85252 16.85758 16.86114 16.86605 16.87339 16.87987 16.88938 16.90253 16.91945 16.93153 16.94432 16.95306 16.96051 16.96515 16.98092 16.98944 16.99747 17.00941 17.02384 17.04272 17.06318 17.07904 17.08621 17.09726 17.10632 17.11033 17.1281 17.14513 17.16153 17.17359 17.1836 17.19391 17.20805
0 0 0 0 0 0 0 0 0 0 0 0 0 0 0 0 0 0 0 0 0 0 0 0 0 0 0 0 0 0 0 0 0 0 0 0 0 0 0 0 0 0 0 0 0 0 0 0 0 0 17.62474 17.565 17.4465 17.106 17.12431 17.11359 17.1078 17.08984 17.07639 17.05879 17.04073 17.02455 17.00961 16.99769 16.99353 16.98845 16.97666 16.96664 16.9474 16.92364 16.89288 16.86645 16.8463 16.83497 16.82941 16.83034 16.8346 16.8369 16.8326 16.8362 16.84072 16.84078 16.84269 16.85434 16.87554 16.89505 16.91396 16.93236 16.95139 16.96823 16.99121 17.006 17.01807 17.04376 17.06424 17.08752 17.10579 17.11442 17.12206 17.13393 17.1471 17.1628 17.17757 17.19604 17.20719 17.21469 17.22111 17.23608 17.25389
0 0 0 0 0 0 0 0 0 0 0 0 0 0 0 0 0 0 0 0 0 0 0 0 0 0 0 0 0 0 0 0 0 0 0 0 0 0 0 0 0 0 0 0 0 0 0 0 0 0 17.81378 17.37625 17.07348 17.12889 17.13239 17.12164 17.09696 17.07873 17.06313 17.04146 17.02233 16.99729 16.99034 16.98941 16.98536 16.9807 16.97666 16.96669 16.95096 16.93058 16.90212 16.87391 16.85185 16.83697 16.83014 16.82885 16.83379 16.83058 16.83257 16.83064 16.83011 16.8323 16.8412 16.85214 16.86522 16.88272 16.90993 16.93427 16.95948 16.98214 17.01047 17.04161 17.0568 17.07659 17.10041 17.12468 17.1429 17.1508 17.15985 17.17603 17.19472 17.20703 17.21954 17.238 17.24543 17.25069 17.26014 17.27459 17.29035
0 0 0 0 0 0 0 0 0 0 0 0 0 0 0 0 0 0 0 0 0 0 0 0 0 0 0 0 0 0 0 0 0 0 0 0 0 0 0 0 0 0 0 0 0 0 0 0 0 0 0 0 17.09538 17.1182 17.12055 17.1119 17.0949 17.07045 17.05194 17.03554 17.01213 16.99212 16.98773 16.99349 16.99577 16.99571 17.0014 17.00014 16.97741 16.96382 16.94184 16.91428 16.88729 16.86159 16.84722 16.84839 16.84705 16.84412 16.84322 16.84315 16.84051 16.83871 16.84339 16.85194 16.87095 16.88669 16.9176 16.94789 16.97779 17.00925 17.04024 17.07518 17.1017 17.13131 17.15702 17.17754 17.19884 17.20424 17.22328 17.23165 17.24276 17.25378 17.26334 17.27741 17.28347 17.28492 17.28813 17.30175 17.32408
0 0 0 0 0 0 0 0 0 0 0 0 0 0 0 0 0 0 0 0 0 0 0 0 0 0 0 0 0 0 0 0 0 0 0 0 0 0 0 0 0 0 0 0 0 0 0 0 0 0 19.51403 17.83349 17.35676 17.14308 17.12436 17.10806 17.08016 17.06112 17.0418 17.02152 17.00144 16.99744 16.99853 17.00424 17.01601 17.02488 17.02988 17.02188 17.01799 17.00888 16.98334 16.95741 16.92838 16.9025 16.88944 16.87471 16.86353 16.85663 16.85321 16.8537 16.85812 16.85226 16.85887 16.87171 16.88621 16.90681 16.93778 16.97587 17.00809 17.04894 17.08812 17.12753 17.15912 17.18693 17.20982 17.22973 17.24898 17.25773 17.27049 17.28121 17.28954 17.30169 17.30842 17.31606 17.32168 17.32136 17.32035 17.3328 17.35041
0 0 0 0 0 0 0 0 0 0 0 0 0 0 0 0 0 0 0 0 0 0 0 0 0 0 0 0 0 0 0 0 0 0 0 0 0 0 0 0 0 0 0 0 0 0 0 0 0 0 18.85381 17.87137 17.62516 17.15831 17.13254 17.10317 17.07945 17.05457 17.03281 17.01982 17.01474 17.01618 17.01966 17.03349 17.05041 17.05753 17.05985 17.05979 17.05333 17.04521 17.02552 16.9968 16.96711 16.94089 16.92127 16.90506 16.89007 16.87976 16.87396 16.87491 16.88301 16.88417 16.88574 16.89948 16.91745 16.93466 16.96662 16.99626 17.03885 17.08974 17.14435 17.18927 17.22392 17.2486 17.27103 17.29768 17.31346 17.31995 17.32929 17.33451 17.33406 17.34062 17.34365 17.34802 17.35538 17.35686 17.35427 17.36895 17.3877
0 0 0 0 0 0 0 0 0 0 0 0 0 0 0 0 0 0 0 0 0 0 0 0 0 0 0 0 0 0 0 0 0 0 0 0 0 0 0 0 0 0 0 0 0 0 0 0 0 0 0 17.93289 17.41911 17.16893 17.14035 17.11026 17.08479 17.05963 17.04214 17.03849 17.03745 17.04452 17.05876 17.07988 17.09745 17.11072 17.11264 17.11724 17.11751 17.10865 17.0851 17.05557 17.02073 16.98566 16.96017 16.93503 16.91656 16.90198 16.89313 16.89578 16.89896 16.90554 16.91249 16.92539 16.94439 16.97373 17.00697 17.04578 17.09581 17.15482 17.21337 17.25047 17.28515 17.30856 17.32936 17.34935 17.36958 17.37151 17.37666 17.37418 17.37329 17.3797 17.37942 17.38999 17.39505 17.39631 17.39656 17.40635 17.42988
0 0 0 0 0 0 0 0 0 0 0 0 0 0 0 0 0 0 0 0 0 0 0 0 0 0 0 0 0 0 0 0 0 0 0 0 0 0 0 0 0 0 0 0 0 0 0 0 0 0 0 17.70153 17.21281 17.1856 17.15301 17.12542 17.09625 17.07122 17.05869 17.06118 17.0726 17.09578 17.11576 17.13221 17.14826 17.16795 17.17215 17.17267 17.17805 17.16617 17.13916 17.10351 17.06748 17.02868 16.99501 16.96991 16.95113 16.94159 16.93382 16.93153 16.93333 16.93459 16.94373 16.95643 16.97702 17.00154 17.04489 17.09784 17.15698 17.21994 17.2739 17.31406 17.34769 17.36956 17.3896 17.40753 17.42171 17.42756 17.41955 17.4132 17.40979 17.4136 17.41696 17.42659 17.43389 17.43763 17.43438 17.4469 17.46553
0 0 0 0 0 0 0 0 0 0 0 0 0 0 0 0 0 0 0 0 0 0 0 0 0 0 0 0 0 0 0 0 0 0 0 0 0 0 0 0 0 0 0 0 0 0 0 0 0 0 0 17.28808 17.23785 17.20124 17.16616 17.13756 17.10416 17.08852 17.08848 17.09852 17.11276 17.13646 17.16066 17.18185 17.20285 17.23011 17.25045 17.24626 17.2412 17.22593 17.19684 17.15255 17.10859 17.06789 17.02925 17.00169 16.97986 16.96798 16.9614 16.95975 16.96872 16.98023 16.994 17.01117 17.02984 17.06257 17.11163 17.16994 17.22936 17.28921 17.33501 17.381 17.40463 17.42571 17.44558 17.46648 17.47959 17.48305 17.47591 17.46277 17.46233 17.45679 17.46677 17.47494 17.48415 17.4853 17.48238 17.48752 17.49996
0 0 0 0 0 0 0 0 0 0 0 0 0 0 0 0 0 0 0 0 0 0 0 0 0 0 0 0 0 0 0 0 0 0 0 0 0 0 0 0 0 0 0 0 0 0 0 0 0 19.44623 18.40141 17.31039 17.26062 17.21932 17.18582 17.14914 17.126 17.10908 17.12451 17.14273 17.16628 17.19099 17.21728 17.23742 17.26103 17.29639 17.31132 17.32026 17.29926 17.28713 17.26653 17.22445 17.18129 17.12701 17.08775 17.04939 17.02484 17.00989 17.00108 17.00049 17.00833 17.02583 17.0422 17.06459 17.0853 17.11589 17.17465 17.23602 17.30166 17.35484 17.40866 17.45038 17.46733 17.49302 17.51483 17.5342 17.54652 17.54809 17.53766 17.5248 17.51581 17.51507 17.51441 17.52541 17.53037 17.53446 17.53127 17.53269 17.53935
0 0 0 0 0 0 0 0 0 0 0 0 0 0 0 0 0 0 0 0 0 0 0 0 0 0 0 0 0 0 0 0 0 0 0 0 0 0 0 0 0 0 0 0 0 0 0 0 18.4833 17.89186 17.60902 17.32797 17.28768 17.24241 17.1969 17.17385 17.15417 17.14572 17.15473 17.18006 17.20923 17.24102 17.27114 17.30157 17.33567 17.36215 17.37859 17.38195 17.37345 17.33699 17.3229 17.28448 17.2339 17.18333 17.13563 17.09875 17.06892 17.05138 17.05065 17.05361 17.0737 17.09427 17.11951 17.14503 17.17148 17.20166 17.25776 17.31241 17.36499 17.41274 17.45706 17.48898 17.516 17.54793 17.57517 17.59774 17.60763 17.61312 17.60146 17.58672 17.58504 17.58089 17.57841 17.58271 17.58443 17.57689 17.57818 17.57491 17.57543
0 0 0 0 0 0 0 0 0 0 0 0 0 0 0 0 0 0 0 0 0 0 0 0 0 0 0 0 0 0 0 0 0 0 0 0 0 0 0 0 0 0 0 0 0 18.10342 17.98421 18.54004 17.95277 17.95365 17.6579 17.3767 17.33127 17.28853 17.24777 17.21122 17.1882 17.1795 17.1959 17.21698 17.24815 17.28105 17.32037 17.34957 17.38136 17.40337 17.43565 17.45622 17.44672 17.41398 17.38622 17.34717 17.29847 17.25284 17.2016 17.15669 17.12675 17.10779 17.10377 17.10578 17.12002 17.14954 17.17822 17.21199 17.24872 17.28864 17.3434 17.39088 17.43776 17.48266 17.5191 17.54551 17.57669 17.61064 17.63434 17.64769 17.66347 17.6632 17.65925 17.65082 17.64911 17.64602 17.63684 17.63871 17.64176 17.63951 17.62719 17.61609 17.62017
0 0 0 0 0 0 0 0 0 0 0 0 0 0 0 0 0 0 0 0 0 0 0 0 0 0 0 0 0 0 0 0 0 0 0 0 0 0 0 0 0 0 20.32008 19.98337 18.94077 18.03053 17.45816 17.45788 18.0201 17.72352 17.44524 17.41708 17.38278 17.33756 17.2923 17.26004 17.23543 17.23107 17.24233 17.27221 17.3014 17.33294 17.36848 17.39786 17.42774 17.46558 17.4983 17.49962 17.47981 17.44736 17.43071 17.39797 17.3526 17.30769 17.26179 17.22209 17.19022 17.17379 17.17319 17.18071 17.19984 17.22818 17.25641 17.28791 17.32727 17.36368 17.41469 17.45767 17.49966 17.53569 17.56911 17.59987 17.63013 17.66472 17.68886 17.71309 17.72516 17.72973 17.73763 17.73244 17.72909 17.71591 17.69806 17.68742 17.68902 17.68438 17.67764 17.66874 17.6596
0 0 0 0 0 0 0 0 0 0 0 0 0 0 0 0 0 0 0 0 0 0 0 0 0 0 0 0 0 0 0 0 0 0 0 0 0 0 0 0 19.35721 19.79648 20.04075 19.03151 18.06892 17.48685 17.50582 17.52064 17.51698 17.50601 17.49273 17.46514 17.42022 17.37213 17.32549 17.29591 17.283 17.27665 17.2891 17.31941 17.34843 17.3856 17.41685 17.45439 17.47816 17.50884 17.52787 17.53323 17.52119 17.50534 17.47548 17.45731 17.42247 17.36978 17.32126 17.28091 17.25132 17.23092 17.22934 17.2368 17.26607 17.29131 17.32937 17.36314 17.40339 17.44845 17.49056 17.53136 17.56746 17.59899 17.63331 17.65715 17.68036 17.70578 17.73612 17.75954 17.77839 17.78463 17.79259 17.79 17.77899 17.7671 17.74345 17.73704 17.73114 17.72989 17.7294 17.71964 17.71325
0 0 0 0 0 0 0 0 0 0 0 0 0 0 0 0 0 0 0 0 0 0 0 0 0 0 0 0 0 0 0 0 0 0 0 0 0 0 0 19.58167 19.3241 18.72656 18.42845 17.51068 17.51788 17.52673 17.54673 17.56048 17.55202 17.54322 17.52953 17.49795 17.45318 17.40881 17.37741 17.35601 17.34468 17.35004 17.36368 17.38303 17.40737 17.43742 17.47517 17.5061 17.53631 17.56634 17.58075 17.58002 17.57243 17.56281 17.54573 17.52551 17.48975 17.44452 17.40311 17.36611 17.33755 17.31666 17.31494 17.31247 17.33697 17.36369 17.39181 17.42448 17.46372 17.50741 17.54993 17.58848 17.62262 17.65399 17.68761 17.71011 17.72726 17.75649 17.78586 17.80816 17.82815 17.83459 17.83335 17.82731 17.80762 17.79824 17.78239 17.77575 17.77318 17.77076 17.77466 17.7667 17.75916
0 0 0 0 0 0 0 0 0 0 0 0 0 0 0 0 0 0 0 0 0 0 0 0 0 0 0 0 0 0 0 0 0 0 0 0 0 0 18.70527 18.38965 18.09576 17.51102 17.53769 17.56057 17.57634 17.58669 17.59661 17.60462 17.5964 17.58118 17.56052 17.53566 17.50602 17.45922 17.42737 17.41122 17.40527 17.4117 17.42724 17.44989 17.47358 17.49887 17.53456 17.56668 17.58874 17.61625 17.63358 17.63512 17.63326 17.62711 17.60919 17.58325 17.54448 17.50955 17.46481 17.43462 17.41052 17.39276 17.39243 17.39349 17.4165 17.4468 17.47353 17.50393 17.53418 17.57216 17.61045 17.64098 17.66727 17.70108 17.72472 17.74921 17.76837 17.79335 17.82148 17.84068 17.858 17.85867 17.85387 17.8492 17.84518 17.83606 17.83024 17.82357 17.82487 17.82527 17.82481 17.82023 17.80013
0 0 0 0 0 0 0 0 0 0 0 0 0 0 0 0 0 0 0 0 0 0 0 0 0 0 0 0 0 0 0 0 0 0 20.3885 21.03049 20.15495 18.38682 17.47229 17.48035 17.50622 17.53462 17.56138 17.58618 17.61116 17.62249 17.62879 17.63868 17.64177 17.639 17.62312 17.60474 17.5777 17.54071 17.50994 17.49688 17.48143 17.48466 17.49642 17.51178 17.53133 17.5561 17.58053 17.6054 17.6362 17.66647 17.67766 17.68586 17.69005 17.68426 17.67408 17.64799 17.61506 17.58971 17.55565 17.52598 17.50687 17.48895 17.47846 17.47897 17.4955 17.51586 17.54124 17.56654 17.59846 17.62809 17.66157 17.68772 17.71799 17.74569 17.77916 17.80718 17.82814 17.84798 17.86054 17.87355 17.88636 17.88441 17.88187 17.87591 17.87416 17.87065 17.86238 17.86316 17.86593 17.87332 17.87694 17.87371 17.85191
0 0 0 0 0 0 0 0 0 0 0 0 0 0 0 0 0 0 0 0 0 0 0 0 0 0 0 0 0 20.89023 20.46645 20.23848 20.21872 19.97759 19.68205 19.07606 17.47176 17.48216 17.48561 17.5037 17.52464 17.55228 17.57807 17.60361 17.62365 17.64003 17.65935 17.67116 17.68276 17.68282 17.6671 17.65604 17.64148 17.61255 17.58118 17.56855 17.56128 17.56482 17.59054 17.59067 17.60411 17.62032 17.64089 17.67055 17.69706 17.70999 17.71682 17.71702 17.71379 17.71559 17.70832 17.6939 17.67411 17.65134 17.63209 17.61603 17.59735 17.58414 17.58252 17.58082 17.59671 17.61315 17.63366 17.65005 17.67168 17.69167 17.71194 17.72987 17.75675 17.78886 17.81893 17.84042 17.86917 17.89002 17.90533 17.91387 17.92054 17.92524 17.92158 17.91727 17.91589 17.90782 17.90717 17.91019 17.91667 17.92037 17.91946 17.90926 17.88174
0 0 0 0 0 0 0 0 0 0 0 0 0 0 0 0 0 0 0 0 0 0 0 0 0 20.65076 19.90811 19.89666 18.90174 18.19677 17.84449 17.51601 17.50676 17.49229 17.48277 17.4828 17.48455 17.49029 17.50103 17.51608 17.53658 17.56235 17.59348 17.63583 17.66671 17.69055 17.71096 17.7266 17.7424 17.74932 17.73919 17.7171 17.71125 17.68479 17.64427 17.63508 17.62498 17.63518 17.63684 17.64021 17.65532 17.67662 17.69779 17.71964 17.74084 17.75772 17.76308 17.76033 17.76254 17.76318 17.7639 17.75311 17.73846 17.71789 17.69866 17.68585 17.67345 17.66325 17.65461 17.6519 17.67108 17.68933 17.71059 17.72963 17.74035 17.75339 17.76619 17.78591 17.81121 17.83867 17.86568 17.88613 17.90439 17.92446 17.94401 17.95043 17.95098 17.94396 17.94409 17.93931 17.94217 17.94468 17.94709 17.95553 17.96552 17.97022 17.95897 17.93534 17.88519
0 0 0 0 0 0 0 0 0 0 0 0 0 0 0 0 0 0 0 0 0 0 0 20.8567 19.97955 19.3464 18.97805 18.61213 17.56413 17.55212 17.53884 17.52004 17.49887 17.48504 17.479 17.48332 17.49186 17.49792 17.50613 17.51554 17.53753 17.56839 17.61044 17.65283 17.68482 17.71011 17.73374 17.75342 17.77297 17.78603 17.78366 17.77353 17.76407 17.74818 17.71825 17.68575 17.6861 17.6778 17.67397 17.68001 17.69712 17.71331 17.73286 17.7483 17.76399 17.77788 17.78572 17.78983 17.79438 17.80081 17.80608 17.80219 17.79563 17.78676 17.77414 17.76428 17.76113 17.75461 17.74933 17.75216 17.76628 17.77694 17.78761 17.79928 17.80382 17.80484 17.81257 17.83111 17.8533 17.88234 17.9023 17.92066 17.9449 17.96581 17.98291 17.98322 17.98352 17.97945 17.96972 17.96997 17.97286 17.97518 17.97963 17.99592 18.00185 18.00086 17.98198 17.94344 17.87952
0 0 0 0 0 0 0 0 0 0 0 0 0 0 0 0 0 0 0 0 0 0 20.29943 19.40351 19.04325 19.01027 18.64373 18.25926 17.55807 17.53343 17.51242 17.49586 17.48146 17.47711 17.47565 17.47139 17.4736 17.48555 17.49934 17.5215 17.54062 17.56839 17.60766 17.65238 17.69418 17.72209 17.74632 17.7621 17.78779 17.79601 17.7945 17.78876 17.78464 17.77557 17.75759 17.7347 17.71858 17.71286 17.70834 17.71518 17.72778 17.74634 17.76289 17.77267 17.78558 17.80431 17.81746 17.82435 17.83204 17.84045 17.84531 17.84291 17.84088 17.83561 17.83053 17.82934 17.82764 17.83068 17.83122 17.83685 17.84943 17.86622 17.87189 17.87891 17.88091 17.88724 17.88819 17.89703 17.90999 17.93041 17.94559 17.9573 17.97429 17.99331 18.00335 18.00694 18.01 18.00859 18.00017 17.9927 17.99944 18.00695 18.01915 18.03397 18.0428 18.03298 18.00162 17.94615 17.87883
0 0 0 0 0 0 0 0 0 0 0 0 0 0 0 0 0 0 0 0 0 21.54076 20.5058 19.40016 18.70815 18.6706 18.27551 18.25098 17.54221 17.52287 17.5069 17.49395 17.48656 17.48106 17.47518 17.47451 17.47629 17.48436 17.49828 17.51853 17.54785 17.5799 17.61841 17.65174 17.69624 17.7341 17.76887 17.78999 17.80021 17.80556 17.79855 17.79236 17.7955 17.79178 17.7782 17.76116 17.75791 17.74926 17.74846 17.75231 17.76318 17.77319 17.77929 17.79611 17.8198 17.83689 17.85229 17.86564 17.87929 17.89201 17.89456 17.89793 17.90551 17.9049 17.90883 17.9098 17.90752 17.91062 17.90922 17.91186 17.91912 17.92867 17.93472 17.93606 17.94692 17.95236 17.96195 17.9704 17.97768 17.98416 17.99394 18.00227 18.01191 18.01959 18.03002 18.03943 18.04411 18.0371 18.0293 18.02517 18.0267 18.03812 18.05035 18.06468 18.06463 18.04985 18.01393 17.94925 17.87254
0 0 0 0 0 0 0 0 0 0 0 0 0 0 0 0 0 0 0 0 0 0 0 20.01972 19.0586 18.67772 18.28445 17.9035 17.53512 17.51221 17.49973 17.49458 17.48412 17.47583 17.47347 17.47328 17.47579 17.4863 17.49707 17.51846 17.54907 17.58644 17.61251 17.65042 17.70662 17.75076 17.77928 17.78669 17.7901 17.79249 17.79092 17.80523 17.81216 17.81174 17.79826 17.79409 17.804 17.80515 17.80331 17.8095 17.81198 17.81583 17.81969 17.8377 17.85714 17.87017 17.88944 17.90077 17.91333 17.92804 17.93631 17.94242 17.95387 17.96113 17.97768 17.98605 17.9865 17.99562 17.99626 17.99884 18.00699 18.01184 18.0169 18.01995 18.02336 18.02746 18.03525 18.03547 18.03276 18.03037 18.03356 18.0389 18.04716 18.05218 18.06075 18.07 18.07167 18.07028 18.06791 18.06875 18.07287 18.08404 18.09355 18.10484 18.0998 18.07355 18.02899 17.9602 17.86918
0 0 0 0 0 0 0 0 0 0 0 0 0 0 0 0 0 0 0 0 0 21.92736 21.61442 20.60789 19.08853 18.69641 18.30403 18.25796 17.8705 17.51005 17.50008 17.49238 17.48601 17.4841 17.48136 17.48154 17.48392 17.49296 17.50383 17.52586 17.55353 17.58576 17.61164 17.65484 17.69012 17.71499 17.7379 17.75698 17.76423 17.7759 17.7918 17.80736 17.81691 17.82864 17.82273 17.83054 17.84201 17.84705 17.84634 17.85548 17.85971 17.86204 17.86969 17.88277 17.89948 17.91947 17.93587 17.94815 17.95815 17.96688 17.98228 17.98865 18.00222 18.02098 18.03835 18.04976 18.05809 18.06358 18.06956 18.07063 18.07741 18.08497 18.09381 18.10126 18.10736 18.11182 18.11333 18.1079 18.09777 18.09697 18.09626 18.09254 18.09633 18.09914 18.09987 18.09846 18.10124 18.10232 18.10324 18.10663 18.11144 18.1155 18.126 18.1309 18.1282 18.09673 18.05033 17.97563 17.87227
0 0 0 0 0 0 0 0 0 0 0 0 0 0 0 0 0 0 0 21.96736 21.87799 21.7569 20.89326 19.78464 19.10451 18.72395 18.32061 18.62644 17.54451 17.51412 17.49981 17.49181 17.49025 17.48824 17.48717 17.48702 17.49317 17.50513 17.51601 17.53508 17.56611 17.58924 17.6189 17.64257 17.66448 17.68304 17.70202 17.72667 17.75293 17.77646 17.79949 17.82295 17.84543 17.86805 17.87131 17.88593 17.89113 17.89 17.89291 17.90283 17.90454 17.9093 17.91519 17.92319 17.93232 17.94394 17.96072 17.97674 17.98912 18.00207 18.01798 18.03282 18.05516 18.07956 18.10266 18.12141 18.13415 18.14644 18.15475 18.15785 18.15768 18.16247 18.16703 18.17046 18.17099 18.17041 18.1691 18.16226 18.15323 18.15289 18.15065 18.14983 18.1484 18.14564 18.14527 18.14564 18.14879 18.14859 18.15082 18.15377 18.15569 18.16128 18.16574 18.16407 18.15642 18.1202 18.06817 17.98522 17.88419
0 0 0 0 0 0 0 0 0 0 0 0 0 0 0 0 0 0 21.43715 21.30123 20.91914 20.43507 19.80143 19.12519 18.7795 18.73733 18.32971 17.92504 17.55437 17.51996 17.50418 17.49732 17.49679 17.49742 17.49835 17.50433 17.51245 17.52738 17.53931 17.55904 17.58445 17.60873 17.63251 17.66305 17.68214 17.70004 17.72 17.74105 17.77082 17.80088 17.82706 17.85633 17.87929 17.90185 17.9251 17.92948 17.93694 17.94117 17.94383 17.94864 17.95224 17.95899 17.96663 17.96943 17.97667 17.98336 17.99161 18.0022 18.01334 18.02743 18.04957 18.06864 18.09379 18.12163 18.1464 18.17226 18.19159 18.20901 18.22318 18.23257 18.24131 18.24688 18.24867 18.24738 18.24827 18.24427 18.23308 18.22385 18.2184 18.20973 18.20352 18.1961 18.18259 18.17814 18.17989 18.18385 18.1842 18.18398 18.18404 18.19191 18.20032 18.20192 18.20145 18.20366 18.19123 18.15683 18.09599 18.01344 17.91995
0 0 0 0 0 0 0 0 0 0 0 0 0 0 0 0 0 21.90402 21.33138 20.68174 20.14481 19.49112 19.14087 19.13916 19.1384 18.73346 18.3299 17.59023 17.55077 17.51926 17.50677 17.50169 17.50578 17.51018 17.51635 17.5252 17.53998 17.55782 17.56983 17.59563 17.62104 17.64627 17.66738 17.69803 17.72343 17.7406 17.76004 17.78454 17.81252 17.8487 17.87996 17.91041 17.92833 17.95323 17.96434 17.9777 17.977 17.98007 17.98687 17.99747 18.00059 18.002 18.00384 18.00869 18.01276 18.02152 18.02795 18.03062 18.04078 18.05946 18.08082 18.10654 18.1388 18.16401 18.1895 18.21338 18.23529 18.26007 18.27534 18.2901 18.30366 18.309 18.31076 18.30754 18.30417 18.29454 18.28729 18.27962 18.26757 18.26138 18.25294 18.24813 18.24313 18.23499 18.23005 18.23485 18.23148 18.2261 18.22541 18.22409 18.2264 18.23247 18.23377 18.23683 18.22501 18.18726 18.12767 18.05099 17.97003
0 0 0 0 0 0 0 0 0 0 0 0 0 0 0 0 21.40188 21.38137 20.50541 19.88964 19.53976 19.17623 19.14809 19.15012 19.13693 18.73383 18.31908 17.58767 17.54265 17.52257 17.5145 17.50982 17.51454 17.52792 17.5413 17.5579 17.57645 17.59027 17.60608 17.62668 17.65163 17.67663 17.70219 17.73012 17.7643 17.78914 17.81288 17.83782 17.8611 17.88829 17.92214 17.95626 17.98437 18.00052 18.01384 18.02239 18.02904 18.03738 18.04289 18.04719 18.0534 18.04931 18.05066 18.0482 18.0519 18.05473 18.05262 18.0536 18.06034 18.07989 18.10306 18.13301 18.16579 18.19639 18.2284 18.25776 18.28591 18.30798 18.33161 18.35539 18.3714 18.38216 18.38055 18.37281 18.36415 18.34802 18.33233 18.32038 18.30755 18.30006 18.2909 18.28579 18.28187 18.27795 18.27874 18.27307 18.2711 18.26627 18.26301 18.26457 18.26849 18.2758 18.27993 18.28767 18.27173 18.24001 18.18093 18.10381 18.01829
0 0 0 0 0 0 0 0 0 0 0 0 0 0 0 21.9655 21.23318 20.52532 19.90028 19.55373 19.18922 19.17855 19.15239 18.78085 18.75197 18.35741 17.61291 17.57096 17.53592 17.52631 17.51931 17.52409 17.53709 17.55128 17.56693 17.58657 17.60644 17.62552 17.64307 17.66461 17.69564 17.72492 17.75823 17.79082 17.82673 17.85736 17.87933 17.90442 17.92848 17.95265 17.97973 18.00918 18.03236 18.05204 18.06497 18.07386 18.09082 18.09426 18.10382 18.10996 18.11207 18.11398 18.11049 18.10786 18.09973 18.09324 18.08573 18.08571 18.08462 18.09852 18.12042 18.15011 18.18489 18.21831 18.25548 18.29077 18.3212 18.34698 18.37302 18.39541 18.41461 18.42695 18.42779 18.42219 18.41697 18.40269 18.38677 18.37106 18.36138 18.34854 18.33989 18.33011 18.32324 18.31321 18.31106 18.3105 18.3034 18.29846 18.29514 18.2951 18.29952 18.3029 18.31211 18.32024 18.31274 18.28687 18.23169 18.15587 18.07425
0 0 0 0 0 0 0 0 0 0 0 0 0 0 21.30228 21.3048 20.58347 19.92232 19.55717 19.19064 19.17976 18.79663 18.74916 18.73845 18.36102 17.96093 17.59098 17.55932 17.54293 17.53677 17.53609 17.54538 17.56143 17.57904 17.59459 17.6113 17.63474 17.65323 17.68063 17.70912 17.74995 17.78544 17.83108 17.87689 17.91278 17.93898 17.96325 17.98401 18.0133 18.0415 18.06486 18.08594 18.0994 18.11011 18.12252 18.12882 18.13636 18.14825 18.1617 18.17494 18.17922 18.18064 18.17869 18.168 18.14608 18.12936 18.11968 18.10864 18.10489 18.11145 18.12976 18.16021 18.20352 18.2442 18.28646 18.32672 18.3654 18.39302 18.41953 18.43464 18.44837 18.45604 18.45745 18.45437 18.45426 18.44367 18.43204 18.41752 18.4001 18.39043 18.38036 18.3701 18.35943 18.3474 18.34541 18.33976 18.33375 18.32996 18.33109 18.33561 18.33901 18.33989 18.33877 18.34404 18.3391 18.30702 18.25909 18.18429 18.09973
0 0 0 0 0 0 0 0 0 0 0 0 0 21.16479 21.35153 20.58731 19.92193 19.5653 19.19239 19.17245 18.78354 18.75273 18.73288 18.72632 18.32912 17.59419 17.57325 17.55374 17.55319 17.55192 17.56093 17.58025 17.59743 17.61983 17.63408 17.66089 17.68166 17.70675 17.74228 17.77669 17.82193 17.8657 17.91367 17.95563 17.9907 18.0126 18.04241 18.07695 18.09882 18.12332 18.13943 18.15011 18.16044 18.16439 18.16911 18.16986 18.17379 18.19142 0 0 0 18.17952 18.19325 18.24566 18.22293 18.18195 18.14626 18.12902 18.11902 18.12087 18.13798 18.16942 18.21487 18.26173 18.31121 18.35712 18.39559 18.42668 18.45781 18.47092 18.48518 18.48971 18.49342 18.4958 18.49421 18.48973 18.4778 18.46599 18.44767 18.4303 18.41736 18.40773 18.39446 18.37808 18.37483 18.368 18.36162 18.36189 18.36349 18.36655 18.37385 18.38035 18.37266 18.37558 18.37215 18.33988 18.28903 18.21571 18.12083
0 0 0 0 0 0 0 0 0 0 0 0 0 21.54715 20.59569 19.93744 19.53791 19.15393 19.14429 18.74609 18.73785 18.72235 18.71631 17.60488 17.59335 17.57808 17.56199 17.55216 17.55771 17.56338 17.58513 17.60923 17.63533 17.66339 17.68396 17.70844 17.73711 17.77155 17.81186 17.84955 17.89065 17.94061 17.98933 18.04221 18.07972 18.10754 18.13037 18.15656 18.17719 18.19763 18.20945 19.05493 18.21517 18.20139 18.19512 18.59123 19.43514 20.31059 0 0 0 0 0 18.69374 18.27233 18.22707 18.18407 18.1518 18.14221 18.13892 18.15323 18.18125 18.22323 18.27547 18.33265 18.38184 18.42343 18.45484 18.48239 18.49449 18.51216 18.51758 18.52368 18.52744 18.52884 18.52428 18.51845 18.50802 18.4948 18.4753 18.46651 18.45263 18.44053 18.42747 18.41807 18.40982 18.40208 18.39703 18.39779 18.40109 18.4057 18.40997 18.40316 18.39911 18.39387 18.36527 18.3129 18.2357 18.13891
0 0 0 0 0 0 0 0 0 0 0 0 21.69071 20.88159 19.91508 19.52346 19.10943 18.72209 18.71173 18.71842 18.71806 18.7138 18.33348 17.59909 17.58831 17.57419 17.56627 17.56044 17.56605 17.58866 17.61481 17.64203 17.67105 17.70519 17.72209 17.74659 17.77696 17.81225 17.86248 17.90296 17.95649 18.00381 18.04925 18.09639 18.14388 18.1704 18.18031 0 0 18.19475 0 20.00279 19.11538 18.65527 19.05919 19.02843 19.8614 20.33099 21.36125 18.99328 18.20791 0 0 0 20.03404 18.24255 18.19719 18.16914 18.15436 18.15992 18.17417 18.20023 18.23803 18.28973 18.349 18.40174 18.449 18.48448 18.51121 18.52905 18.53738 18.54369 18.55357 18.55635 18.56035 18.55736 18.55136 18.5415 18.52882 18.51651 18.50657 18.49718 18.48682 18.47476 18.46717 18.45388 18.44773 18.44628 18.44711 18.44726 18.45041 18.4513 18.44278 18.44086 18.42195 18.39237 18.34273 18.2613 18.15409
0 0 0 0 0 0 0 0 0 0 0 20.95404 20.90459 19.89853 19.49315 18.68916 18.68809 18.68906 18.69749 18.71269 18.7363 17.9916 17.62471 17.6067 17.5932 17.58128 17.575 17.57286 17.5893 17.61519 17.64396 17.67856 17.71021 17.73867 17.76447 17.79092 17.82836 17.88026 17.93518 17.97801 18.03165 18.08032 18.11516 18.14542 19.02996 0 0 0 0 0 20.84569 21.6886 21.41698 20.76551 20.36049 19.89256 19.86894 18.59186 18.19529 18.20709 18.20948 18.20716 18.2059 20.3903 20.77198 18.23627 18.20513 18.18504 18.1781 18.17883 18.19008 18.21822 18.25728 18.30587 18.36291 18.41742 18.4634 18.49915 18.52751 18.54246 18.55766 18.56687 18.57219 18.5798 18.5871 18.58489 18.58678 18.58595 18.57556 18.56529 18.55755 18.54839 18.53575 18.52355 18.50767 18.49555 18.48886 18.49301 18.49349 18.49458 18.49753 18.49033 18.48072 18.47698 18.45406 18.42356 18.37142 18.28899 18.17768
0 0 0 0 0 0 0 0 0 0 21.66929 20.94104 19.89093 19.08675 18.67577 18.28797 18.29993 18.32228 18.34269 18.36682 18.38545 17.65656 17.64283 17.6261 17.6072 17.59503 17.59701 17.60108 17.61903 17.64421 17.67228 17.70267 17.73784 17.76882 17.80304 17.83335 17.88894 17.94362 17.99863 18.04868 18.10605 18.14291 18.57928 0 0 0 0 0 0 0 0 0 0 0 20.75112 20.34688 19.47516 18.19929 18.21312 18.22805 18.23185 18.22799 18.22378 18.2251 18.22481 18.22653 18.21505 18.20772 18.20572 18.2108 18.22339 18.24744 18.28723 18.33225 18.37511 18.42569 18.47162 18.50788 18.53737 18.55304 18.57026 18.5805 18.58398 18.59477 18.6017 18.60674 18.61139 18.61994 18.62182 18.61901 18.6137 18.6058 18.59076 18.57644 18.56275 18.55146 18.55056 18.55568 18.55519 18.55204 18.55192 18.53581 18.52243 18.50668 18.48213 18.44571 18.39661 18.31274 18.20508
0 0 0 0 0 0 0 0 0 0 21.22277 19.90084 19.10336 18.66931 17.91425 17.91551 17.58949 17.61366 17.64313 17.65782 17.66897 17.68077 17.67058 17.65838 17.64125 17.63402 17.63604 17.64453 17.66895 17.6871 17.71093 17.74474 17.77669 17.81969 17.85149 17.89568 17.93912 17.98591 18.04427 18.1025 19.43418 0 0 0 0 0 0 0 0 0 0 0 0 0 21.4086 19.95651 18.23208 18.23618 18.25516 18.27136 18.27804 18.27382 18.26913 18.25913 18.25047 18.24359 18.23542 18.23421 18.23119 18.24097 18.25617 18.28257 18.314 18.35516 18.39635 18.44204 18.48347 18.52129 18.54757 18.56584 18.58451 18.59538 18.6031 18.61209 18.62209 18.63201 18.64339 18.65336 18.6561 18.65419 18.64869 18.64083 18.63204 18.61761 18.60755 18.60257 18.60332 18.60911 18.60795 18.60875 18.60116 18.58485 18.56672 18.54751 18.51779 18.47364 18.4183 18.34089 18.2381
0 0 0 0 0 0 0 0 0 21.3205 20.66567 19.50007 18.67145 17.89877 17.55669 17.56232 17.58366 17.60766 17.63604 17.65757 17.67625 17.69434 17.69225 17.68433 17.67732 17.67024 17.67318 17.68427 17.71261 17.74015 17.76026 17.79012 17.83208 17.86786 17.90571 17.94919 17.99122 18.03536 18.09287 18.98277 19.2206 0 0 0 0 0 0 0 0 0 0 0 0 20.65845 20.41929 19.11596 18.24776 18.26254 18.28859 18.30409 18.31188 18.31338 18.30704 18.29789 18.28835 18.28005 18.27355 18.26952 18.27716 18.27715 18.28833 18.31746 18.34729 18.38087 18.4131 18.45169 18.49471 18.53255 18.55906 18.57956 18.59752 18.60958 18.618 18.63036 18.6416 18.65504 18.66873 18.67915 18.68881 18.69011 18.68715 18.68436 18.67294 18.66238 18.65542 18.6512 18.65219 18.65454 18.65255 18.64837 18.63593 18.62218 18.60367 18.57852 18.54379 18.49361 18.43112 18.35584 18.26304
0 0 0 0 0 0 0 0 22.09411 21.03529 19.52357 18.64666 18.2349 17.5159 17.5217 17.53675 17.56132 17.58882 17.61682 17.6446 17.67149 17.69341 17.6968 17.70332 17.70483 17.70568 17.71752 17.72964 17.75459 17.77903 17.8125 17.83958 17.87393 17.91292 17.94586 17.97954 18.01765 18.05924 18.49644 18.97401 19.46123 20.3689 0 21.26158 21.88102 0 0 0 0 0 0 0 21.46604 20.42547 19.57283 18.2532 18.2552 18.28785 18.31204 18.32863 18.33573 18.33473 18.32837 18.31891 18.31258 18.30999 18.30549 18.30439 18.30786 18.31991 18.33812 18.35832 18.38577 18.40684 18.44269 18.48577 18.5196 18.55507 18.58301 18.60728 18.62355 18.63513 18.64631 18.65849 18.67157 18.6846 18.69684 18.70631 18.71497 18.71743 18.71746 18.71291 18.711 18.70833 18.70435 18.70004 18.70061 18.69985 18.69715 18.68884 18.67554 18.66127 18.64297 18.60792 18.55904 18.50724 18.44369 18.36776 18.27883
0 0 0 0 0 0 0 0 22.11535 21.04829 19.51424 18.62051 17.50479 17.48683 17.49153 17.5074 17.53522 17.5702 17.60445 17.63548 17.66572 17.69604 17.70595 17.71595 17.73413 17.74725 17.76095 17.7797 17.81374 17.84271 17.87551 17.90673 17.93517 17.96537 17.99158 18.01558 18.04828 18.07136 18.09647 18.54335 19.00124 19.4615 19.92787 20.39747 21.22642 0 0 0 0 0 0 20.83763 19.99784 19.98878 18.24105 18.26362 18.28626 18.31611 18.34363 18.35893 18.36035 18.35539 18.35003 18.34181 18.3329 18.33589 18.32979 18.32843 18.33299 18.34991 18.36278 18.38372 18.41165 18.43904 18.47427 18.51444 18.55024 18.58467 18.61483 18.63928 18.65905 18.67684 18.68581 18.69734 18.7091 18.71739 18.72736 18.73602 18.74417 18.74635 18.74536 18.74651 18.74256 18.74182 18.73531 18.7349 18.7359 18.73268 18.7293 18.71976 18.70749 18.69367 18.66659 18.6245 18.57495 18.51647 18.45203 18.37375 18.28313
0 0 0 0 0 0 0 0 0 21.07428 19.51391 18.62697 17.48465 17.45977 17.462 17.47787 17.50938 17.54833 17.58684 17.62352 17.6611 17.69137 17.70862 17.72909 17.75301 17.78054 17.80434 17.83666 17.87263 17.91533 17.95215 17.97103 17.9969 18.01999 18.04206 18.05989 18.07 18.08964 18.11005 18.11452 18.13295 18.14941 18.1628 18.57614 19.46594 20.35288 21.21393 21.56671 0 0 21.1513 19.97121 19.08742 18.22811 18.24809 18.27728 18.31532 18.34736 18.37255 18.3845 18.38841 18.38538 18.37745 18.37343 18.36548 18.36467 18.36661 18.36352 18.36634 18.37931 18.39796 18.41536 18.43876 18.469 18.50216 18.53948 18.57654 18.6137 18.64571 18.66982 18.69212 18.70999 18.72109 18.73079 18.73953 18.74575 18.75686 18.76871 18.77539 18.78267 18.78184 18.78255 18.78111 18.77904 18.77666 18.77001 18.76981 18.76615 18.7581 18.74654 18.73165 18.71138 18.67511 18.63397 18.58368 18.52084 18.44797 18.36827 18.28405
0 0 0 0 0 0 0 0 0 21.97145 20.35238 19.07153 17.82709 17.44269 17.43481 17.44602 17.4815 17.52394 17.5666 17.61417 17.65454 17.69307 17.71491 17.74569 17.78628 17.82541 17.86084 17.90896 17.94647 17.98372 18.00849 18.02833 18.04092 18.06681 18.07916 18.08612 18.09366 18.1082 18.12499 18.12781 18.14021 18.14643 18.15589 18.15587 18.57203 19.01606 19.46715 19.90245 21.16157 19.94474 18.59853 18.18683 18.21075 18.24341 18.27494 18.30237 18.34105 18.36618 18.38502 18.39763 18.40369 18.40504 18.40209 18.39669 18.39291 18.39185 18.39603 18.39578 18.40331 18.42009 18.43516 18.4545 18.47601 18.50377 18.53662 18.57659 18.60979 18.64809 18.67654 18.70032 18.72145 18.73966 18.75309 18.75988 18.76507 18.77373 18.78306 18.79184 18.79948 18.80485 18.80891 18.81364 18.80836 18.81016 18.80676 18.80407 18.80015 18.79385 18.78256 18.77131 18.7522 18.72579 18.6877 18.64394 18.58876 18.52286 18.44621 18.36038 18.27642
0 0 0 0 0 0 0 0 0 22.09464 21.35241 19.52211 18.22075 17.44612 17.41956 17.42055 17.45384 17.49735 17.5461 17.59327 17.64077 17.68496 17.73178 17.77463 17.82314 17.87454 17.92919 17.981 18.03593 18.05559 18.07498 18.08741 18.10416 18.11293 18.11066 18.11708 18.12175 18.13179 18.14357 18.14845 18.15466 18.15467 18.15147 18.15636 18.1558 18.16531 18.59745 0 19.93829 18.60437 18.1938 18.21259 18.23999 18.27046 18.3101 18.3392 18.36601 18.38674 18.40234 18.41059 18.42056 18.42285 18.42415 18.4265 18.422 18.42594 18.42213 18.42278 18.42775 18.44328 18.45805 18.47592 18.49572 18.52827 18.56419 18.60252 18.64038 18.6748 18.69936 18.72174 18.74298 18.76013 18.77608 18.78404 18.79243 18.80423 18.80822 18.81444 18.82254 18.82933 18.83401 18.83055 18.83162 18.82925 18.82451 18.8196 18.81828 18.81521 18.80122 18.78668 18.76542 18.73221 18.69054 18.64866 18.58957 18.51619 18.43874 18.35576 18.25794
0 0 0 0 0 0 0 0 0 0 21.82817 20.41297 18.68574 17.84908 17.43849 17.41101 17.41872 17.46768 17.52302 17.57482 17.63682 17.70302 17.75255 17.80553 17.8605 17.91925 17.97704 18.03516 0 0 0 18.3609 18.14317 18.15395 18.14647 18.15201 18.15256 18.157 18.16669 18.17433 18.16463 18.15849 18.16173 18.16099 18.17496 18.18492 18.20408 18.63516 18.21655 18.21996 18.23238 18.25301 18.28091 18.31508 18.34261 18.36948 18.39154 18.40733 18.42237 18.43281 18.44266 18.4507 18.4512 18.45365 18.45519 18.45271 18.45325 18.4574 18.46325 18.47507 18.49348 18.51163 18.5339 18.56099 18.59544 18.632 18.6648 18.69839 18.72161 18.74055 18.76053 18.77449 18.78884 18.80041 18.80742 18.81942 18.82893 18.83582 18.8409 18.84992 18.85247 18.85151 18.84993 18.8497 18.84653 18.84144 18.84001 18.83858 18.82479 18.80594 18.77939 18.74064 18.69882 18.64556 18.58626 18.51364 18.43841 18.34881 18.24509
0 0 0 0 0 0 0 0 0 0 0 21.74126 20.4194 18.68963 17.84577 17.46036 17.39736 17.43859 17.49921 17.57255 17.64739 17.72894 17.78853 17.84335 17.89359 17.9547 18.40308 18.84263 0 0 0 19.09112 19.39476 18.17711 18.17701 18.17365 18.17424 18.17247 18.18559 18.19237 18.18034 18.17803 18.17295 18.182 18.19437 18.21201 18.22919 18.24654 18.25698 18.26148 18.28155 18.30271 18.33128 18.3572 18.37896 18.4 18.41983 18.4398 18.45392 18.46625 18.47646 18.47656 18.47937 18.48213 18.48358 18.4822 18.4808 18.48573 18.4987 18.51178 18.53339 18.55602 18.57582 18.59792 18.62937 18.66158 18.69623 18.72213 18.74637 18.76163 18.77748 18.79221 18.80485 18.81411 18.82381 18.83254 18.83863 18.8471 18.85613 18.85992 18.86311 18.86623 18.8668 18.86447 18.86529 18.86204 18.86153 18.85417 18.84054 18.81921 18.79029 18.75209 18.70566 18.6557 18.59203 18.52704 18.44943 18.36244 18.25735
0 0 0 0 0 0 0 0 0 0 0 0 21.89241 20.80675 18.65964 17.85388 17.39414 17.42001 17.48059 17.56899 17.66306 17.76294 17.82095 17.86774 17.91454 17.98416 18.8234 0 0 20.61821 20.69372 19.02894 18.19498 18.18833 18.17906 18.18052 18.18284 18.18762 18.20538 18.21852 18.20872 18.20013 18.20074 18.2052 18.21512 18.23476 18.25645 18.27392 18.28613 18.30513 18.32638 18.34799 18.3761 18.3997 18.41927 18.43791 18.45945 18.47826 18.49571 18.50246 18.50484 18.50856 18.50677 18.50956 18.51193 18.50891 18.51125 18.52128 18.52793 18.5416 18.56481 18.58639 18.604 18.63206 18.65944 18.69063 18.71867 18.74505 18.76264 18.77599 18.79231 18.80639 18.81605 18.82484 18.83548 18.84323 18.85158 18.85757 18.86447 18.87055 18.87636 18.88354 18.8848 18.88222 18.88006 18.87959 18.8741 18.86673 18.84955 18.82776 18.80071 18.75955 18.71607 18.66747 18.6112 18.55206 18.47532 18.38981 18.29069
0 0 0 0 0 0 0 0 0 0 0 0 0 0 0 18.58723 17.7357 17.4082 17.47439 17.57376 17.68516 17.79882 17.85569 17.90408 17.94136 18.38895 18.46343 18.91277 19.35506 21.71515 20.7089 19.02262 18.19485 18.18798 18.1796 18.18957 18.20126 18.20712 18.22872 18.24224 18.23706 18.23962 18.23372 18.23489 18.23882 18.25425 18.27965 18.29971 18.31621 18.33322 18.36121 18.38582 18.41704 18.43703 18.45384 18.46981 18.48817 18.50566 18.52213 18.5322 18.53258 18.53071 18.52925 18.53216 18.54116 18.54632 18.55 18.5582 18.56517 18.57769 18.59938 18.62093 18.64498 18.66765 18.69605 18.724 18.74801 18.76624 18.77837 18.79349 18.80939 18.81996 18.82916 18.84123 18.84993 18.85758 18.86488 18.87264 18.87746 18.88099 18.8849 18.89254 18.8957 18.89799 18.89674 18.89555 18.89247 18.87925 18.86261 18.84325 18.81791 18.7844 18.73649 18.68885 18.63589 18.57452 18.5052 18.42145 18.32962
0 0 0 0 0 0 0 0 0 0 0 0 0 0 0 19.36546 18.49347 17.40424 17.48517 17.59353 17.71787 17.84119 17.90406 17.94419 17.99126 18.04024 18.87836 18.94433 19.38799 0 20.75675 18.20259 18.19726 18.18445 18.21067 18.20212 18.21525 18.2246 18.24898 18.2572 18.26028 18.26526 18.26306 18.26087 18.25766 18.27813 18.30168 18.3225 18.34922 18.37472 18.40394 18.42811 18.45358 18.46928 18.48654 18.50276 18.51598 18.53192 18.54216 18.54754 18.55218 18.54755 18.54603 18.55107 18.56139 18.5645 18.57007 18.57987 18.59369 18.60589 18.63224 18.65999 18.68426 18.70766 18.73161 18.76047 18.77763 18.79385 18.80143 18.81506 18.82938 18.83922 18.85054 18.85909 18.86902 18.8796 18.88706 18.8915 18.89132 18.88938 18.89895 18.89956 18.90488 18.90502 18.90589 18.90178 18.90232 18.89142 18.87718 18.86105 18.83872 18.81094 18.77116 18.72613 18.67931 18.61796 18.54945 18.47456 18.39309
0 0 0 0 0 0 0 0 0 0 0 0 0 20.71145 20.26186 19.32872 18.51898 17.42247 17.50556 17.61575 17.75088 17.89138 17.95813 18.00118 18.04222 18.0888 19.35557 19.82861 20.28711 20.18292 21.1992 18.61765 18.19607 18.19727 18.21064 18.22102 18.23477 18.24971 18.26227 18.26609 18.26771 18.28228 18.28109 18.27493 18.27891 18.30254 18.32043 18.34989 18.37288 18.39639 18.43071 18.45083 18.46975 18.49143 18.50799 18.52498 18.54455 18.55591 18.56351 18.57082 18.57146 18.5705 18.57234 18.57735 18.5826 18.58959 18.59396 18.6047 18.61771 18.63693 18.66451 18.68933 18.71544 18.73513 18.76278 18.78553 18.80491 18.81545 18.82838 18.83987 18.85354 18.86254 18.86675 18.87836 18.88992 18.90562 18.90744 18.90965 18.89982 18.89901 18.89942 18.90383 18.90684 18.9115 18.91145 18.911 18.91272 18.90885 18.89863 18.88167 18.86153 18.83492 18.79856 18.75811 18.71204 18.66201 18.60126 18.53094 18.45929
0 0 0 0 0 0 0 0 0 0 0 0 19.93878 19.45746 19.42986 18.97302 18.19291 17.49005 17.55957 17.65916 17.78313 17.91338 17.97701 18.03214 18.0754 18.12702 19.03049 19.04599 19.87227 20.74576 19.03134 18.18838 18.19738 18.21572 18.23537 18.25218 18.26054 18.2555 18.26935 18.28637 18.28039 18.28488 18.2916 18.29993 18.30728 18.32541 18.34811 18.37163 18.39058 18.41185 18.43621 18.45281 18.47617 18.49876 18.51625 18.53355 18.54788 18.56713 18.57283 18.57758 18.58494 18.58772 18.59108 18.59818 18.60664 18.60986 18.61983 18.62858 18.64139 18.662 18.69345 18.7199 18.74329 18.7695 18.79208 18.81433 18.82754 18.83999 18.84918 18.8628 18.87099 18.87601 18.88284 18.8913 18.90299 18.91345 18.9182 18.91159 18.9061 18.90405 18.90404 18.90617 18.90929 18.91705 18.91711 18.92074 18.92937 18.926 18.92227 18.91084 18.89394 18.87019 18.83924 18.80676 18.76109 18.71257 18.65589 18.5937 18.52449
0 0 0 0 0 0 0 0 21.75567 21.21608 20.02785 19.10221 19.07892 19.05455 18.63055 18.65892 18.27213 17.57147 17.63278 17.73373 17.84567 17.95202 18.02235 18.07236 18.11763 18.16478 18.19127 18.20305 18.19148 18.19841 18.18912 18.21041 18.23058 18.24982 18.25711 18.26617 18.27293 18.26997 18.27869 18.28545 18.28544 18.28813 18.29439 18.31051 18.32191 18.33983 18.36281 18.38311 18.40131 18.418 18.43941 18.45275 18.47202 18.49334 18.51574 18.53715 18.55115 18.56239 18.5748 18.58205 18.58844 18.59637 18.60524 18.61088 18.61572 18.62215 18.63272 18.64117 18.65661 18.68187 18.71397 18.74469 18.77202 18.79629 18.82015 18.84065 18.85508 18.86375 18.87673 18.88393 18.88851 18.89618 18.90739 18.91321 18.9154 18.91705 18.9129 18.90882 18.90661 18.90759 18.90674 18.90668 18.911 18.91354 18.91882 18.92864 18.93595 18.94462 18.94626 18.93855 18.9258 18.90433 18.88088 18.85077 18.81448 18.77145 18.71892 18.66197 18.59819
0 0 0 0 0 0 0 20.78972 20.91321 19.15818 18.70259 18.68831 18.66503 18.6696 18.70925 18.36754 17.59601 17.65438 17.72433 17.81296 17.91252 17.99622 18.06565 18.11217 18.15513 18.19054 18.21734 18.22879 18.22482 18.22091 18.22965 18.24478 18.26627 18.26916 18.27697 18.28025 18.28285 18.28002 18.28411 18.28539 18.2862 18.29767 18.29697 18.31254 18.32702 18.3427 18.36109 18.38333 18.40773 18.4227 18.43957 18.4555 18.47482 18.49733 18.51997 18.53933 18.54968 18.55464 18.56702 18.57848 18.58793 18.59998 18.61162 18.61943 18.62801 18.63697 18.64372 18.65523 18.67294 18.69902 18.73078 18.76363 18.79045 18.81696 18.84176 18.86163 18.87326 18.8831 18.89559 18.89742 18.9095 18.91746 18.92853 18.93391 18.93304 18.92919 18.92489 18.92103 18.91674 18.92034 18.92079 18.91391 18.91607 18.9243 18.93043 18.94174 18.95063 18.96195 18.96673 18.95934 18.9493 18.93605 18.9128 18.88995 18.86139 18.82266 18.77078 18.71733 18.66196
0 0 0 0 0 0 21.28387 21.31385 19.17614 18.66408 18.615 18.61406 18.66507 18.31424 18.00297 17.68498 17.67503 17.74481 17.81154 17.8796 17.95936 18.02151 18.08044 18.1262 18.17616 18.20863 18.23747 18.25581 18.26171 18.26354 18.26561 18.28096 18.28674 18.27882 18.28703 18.28532 18.28963 18.29214 18.29241 18.29296 18.29636 18.30346 18.30997 18.31606 18.32207 18.33442 18.35595 18.37911 18.39813 18.42115 18.43536 18.46111 18.47911 18.50005 18.51213 18.52718 18.54154 18.55229 18.56396 18.57761 18.59216 18.60066 18.61262 18.62697 18.64208 18.65491 18.66474 18.68077 18.69861 18.7222 18.75014 18.78564 18.82069 18.84518 18.86717 18.88386 18.8943 18.90305 18.90886 18.91242 18.91703 18.92325 18.93367 18.93587 18.93767 18.93412 18.92933 18.92885 18.92302 18.92556 18.9253 18.92465 18.92667 18.93765 18.94244 18.96058 18.96811 18.98321 18.99299 18.9901 18.98549 18.96933 18.95067 18.93208 18.90959 18.87843 18.8378 18.78383 18.73053
0 0 0 0 0 0 22.04213 20.49564 19.10725 18.58517 18.13877 18.18039 17.86556 17.59737 17.69506 17.75847 17.80539 17.85688 17.90472 17.95812 18.00887 18.0384 18.08966 18.15021 18.19372 18.22405 18.24892 18.27353 18.27677 18.27621 18.28134 18.29443 18.28977 18.2949 18.30111 18.29266 18.29102 18.28928 18.29061 18.28888 18.30916 18.31856 18.32091 18.32293 18.32249 18.33761 18.35549 18.37436 18.39432 18.41584 18.43367 18.46204 18.48356 18.50512 18.51508 18.53046 18.54394 18.55014 18.56195 18.57617 18.59451 18.6056 18.61445 18.62929 18.6497 18.6686 18.68445 18.70108 18.72009 18.74637 18.77646 18.8095 18.84679 18.87505 18.8962 18.9083 18.9227 18.92885 18.93098 18.92535 18.92731 18.92987 18.93412 18.93568 18.93397 18.93441 18.93539 18.93137 18.93099 18.93334 18.93655 18.93597 18.94385 18.95086 18.96564 18.98052 18.98612 18.99839 19.00789 19.01159 19.00857 18.99995 18.98648 18.97207 18.95443 18.93075 18.89915 18.85737 18.81059
0 0 0 0 0 22.10221 21.73508 20.45643 19.06854 18.57705 17.77117 17.46361 17.554 17.65659 17.74356 17.83012 17.89338 17.93757 17.97601 18.01284 18.05264 18.0754 18.12565 18.1746 18.21395 18.2431 18.26911 18.28551 18.28918 18.2958 18.30277 18.30605 18.31397 18.31924 18.30725 18.30004 18.29381 18.28754 18.2887 18.29563 18.31154 18.31989 18.32706 18.31546 18.31528 18.32923 18.34569 18.36533 18.38539 18.40826 18.42562 18.44558 18.46676 18.48853 18.50825 18.52061 18.53537 18.54533 18.5566 18.56857 18.58354 18.59842 18.6122 18.63303 18.65059 18.67378 18.69761 18.7187 18.74131 18.77095 18.80261 18.83424 18.86639 18.89145 18.91257 18.92607 18.93587 18.93786 18.93488 18.93037 18.92915 18.93221 18.93518 18.93814 18.93672 18.93865 18.94068 18.94073 18.94267 18.94639 18.95146 18.95181 18.96519 18.97034 18.9877 19.00022 19.00724 19.01413 19.02428 19.03033 19.03151 19.02551 19.0066 18.99983 18.9898 18.96559 18.94279 18.90799 18.86436
0 0 0 0 21.17107 20.93887 19.07287 18.58951 18.14908 17.40686 17.43093 17.51377 17.61708 17.70589 17.79154 17.86364 17.91986 17.96169 18.00134 18.04231 18.08111 18.10908 18.14982 18.19155 18.22352 18.2509 18.27279 18.28814 18.2933 18.30445 18.31268 18.312 18.31649 18.30829 18.31667 18.30827 18.30413 18.30071 18.30355 18.30454 18.30596 18.31539 18.31961 18.31409 18.31357 18.32262 18.34181 18.3587 18.37447 18.3935 18.4132 18.42919 18.45091 18.47587 18.5007 18.51499 18.5259 18.54124 18.5509 18.56038 18.57363 18.59069 18.6104 18.62946 18.65309 18.68403 18.71631 18.74027 18.76267 18.79045 18.82201 18.84885 18.87245 18.89479 18.91307 18.92999 18.93827 18.93607 18.93082 18.92561 18.92928 18.92955 18.93292 18.93298 18.93257 18.93618 18.93909 18.94317 18.94903 18.95357 18.95449 18.96366 18.9757 18.98348 18.99978 19.01024 19.01871 19.02795 19.04089 19.05272 19.05793 19.05256 19.04333 19.04152 19.02752 19.01402 18.99421 18.95768 18.92024
0 0 0 0 22.1275 19.51569 17.43348 17.40593 17.3957 17.4209 17.48984 17.58505 17.67631 17.76528 17.83512 17.89583 17.92524 17.97435 18.02458 18.05316 18.0833 18.12668 18.16814 18.19528 18.22355 18.2426 18.25838 18.27564 18.29043 18.30195 18.3049 18.30811 18.31426 18.32039 18.32253 18.31065 18.31097 18.31793 18.31436 18.3067 18.30762 18.30672 18.31254 18.31097 18.31356 18.31794 18.33707 18.34988 18.36724 18.38462 18.39898 18.41812 18.43335 18.45821 18.47938 18.49635 18.51085 18.52626 18.54079 18.55544 18.57067 18.5926 18.6155 18.6384 18.66278 18.69313 18.72011 18.7462 18.77396 18.80538 18.83151 18.84898 18.87111 18.89086 18.90391 18.91355 18.92034 18.91718 18.9179 18.9196 18.92008 18.92317 18.92181 18.92649 18.92516 18.93009 18.941 18.94746 18.95354 18.95657 18.95651 18.96629 18.97877 18.98575 19.00335 19.01499 19.01825 19.03565 19.05277 19.06553 19.07072 19.07428 19.07211 19.07211 19.06232 19.04908 19.0357 19.01212 18.97581
0 0 0 21.3188 20.9502 18.98869 17.36717 17.36451 17.39057 17.47193 17.54676 17.63871 17.7314 17.80927 17.86656 17.91943 17.96052 17.9854 18.0172 18.05026 18.08962 18.1222 18.15873 18.18449 18.20084 18.21667 18.24096 18.26288 18.28295 18.29176 18.28619 18.29664 18.31589 18.33072 18.32456 18.31923 18.30908 18.30984 18.30619 18.29664 18.29677 18.29268 18.29733 18.30795 18.29694 18.30312 18.32522 18.34318 18.35528 18.37533 18.3921 18.40484 18.41915 18.43742 18.45473 18.47159 18.48808 18.50362 18.51985 18.5427 18.57001 18.60414 18.6242 18.64605 18.67359 18.69538 18.7235 18.74397 18.77093 18.79808 18.82299 18.84354 18.8629 18.87141 18.88839 18.89816 18.90203 18.90253 18.90341 18.90905 18.90871 18.91015 18.90938 18.91241 18.91851 18.92369 18.9373 18.94869 18.95579 18.95856 18.96763 18.97503 18.98271 18.99465 19.00722 19.01851 19.02483 19.0389 19.0578 19.07341 19.08176 19.09083 19.08977 19.09314 19.08903 19.08037 19.0697 19.04859 19.01359
0 0 0 21.29617 20.90131 18.92831 18.05149 17.35016 17.42203 17.51057 17.57606 17.67612 17.75421 17.82725 17.8833 17.92693 17.96803 17.99282 18.02507 18.05067 18.07387 18.09917 18.14175 18.15535 18.16857 18.19777 18.21716 18.2438 18.26447 18.25877 18.27382 18.29936 18.32223 18.32197 18.32872 18.31934 18.312 18.29897 18.29593 18.2886 18.28492 18.27655 18.2699 18.26955 18.27119 18.28795 18.30474 18.3205 18.34061 18.35863 18.36985 18.38782 18.3988 18.4111 18.43189 18.44696 18.46598 18.48758 18.50416 18.53113 18.57025 18.61098 18.63063 18.65032 18.67164 18.69892 18.72306 18.74949 18.77319 18.79279 18.8151 18.83173 18.84292 18.85503 18.86717 18.87819 18.87846 18.88157 18.88346 18.88771 18.89202 18.8913 18.89631 18.89671 18.90161 18.91387 18.92555 18.94172 18.94869 18.95767 18.96836 18.97891 18.98824 19.00109 19.0086 19.02105 19.03037 19.04681 19.06402 19.08232 19.10159 19.11223 19.11453 19.11871 19.12345 19.11864 19.10751 19.08874 19.05534
0 0 0 22.00741 21.15707 18.9012 17.65036 17.33979 17.42211 17.52145 17.60113 17.69314 17.7595 17.83345 17.89634 17.93505 17.9626 17.98942 18.01641 18.0441 18.06235 18.08453 18.1096 18.12848 18.15371 18.168 18.19871 18.23638 18.24004 18.24386 18.25844 18.28541 18.30182 18.32389 18.33049 18.31983 18.30637 18.30085 18.28311 18.27519 18.27263 18.26112 18.24756 18.25081 18.24653 18.26012 18.27855 18.29912 18.32099 18.33591 18.34846 18.37281 18.38636 18.39474 18.40957 18.4236 18.44978 18.47281 18.49649 18.53112 18.56989 18.6047 18.6272 18.6483 18.66711 18.69123 18.71566 18.74045 18.76274 18.78548 18.80171 18.81066 18.82245 18.83043 18.84499 18.85489 18.85944 18.86256 18.86699 18.87042 18.88011 18.8792 18.88141 18.88928 18.90007 18.90746 18.915 18.93566 18.94831 18.95407 18.96745 18.97989 18.99389 19.00985 19.01824 19.02728 19.03939 19.05758 19.08247 19.10327 19.11842 19.13144 19.13916 19.14748 19.15316 19.14811 19.14021 19.12398 19.10544
0 0 0 22.04922 19.79019 18.00291 17.2928 17.35603 17.44826 17.53745 17.60961 17.69193 17.76144 17.82622 17.88054 17.92025 17.94573 17.97037 17.99287 17.99943 18.01446 18.03991 18.05642 18.06902 18.10556 18.14326 18.1638 18.20655 18.22252 18.2335 18.25244 18.26873 18.30693 18.33288 18.3314 18.32039 18.30542 18.2977 18.2944 18.28215 18.27122 18.2572 18.25087 18.24398 18.24709 18.25701 18.27836 18.29089 18.30561 18.32768 18.35203 18.36741 18.38764 18.39901 18.40685 18.42011 18.44092 18.47215 18.49899 18.535 18.56924 18.59774 18.62437 18.64773 18.66689 18.6875 18.70073 18.72433 18.75234 18.77142 18.78728 18.79915 18.81138 18.81738 18.82193 18.83136 18.84495 18.85165 18.86167 18.86583 18.8733 18.87853 18.87454 18.88568 18.89567 18.91621 18.92578 18.94192 18.95136 18.96324 18.98485 18.99649 19.01876 19.03408 19.04514 19.05751 19.06847 19.08875 19.11371 19.13631 19.15492 19.17152 19.18438 19.18994 19.18904 19.18634 19.17525 19.16872 19.15077
17.26966 17.27172 18.72987 19.77424 17.59018 17.24363 17.288 17.36781 17.47397 17.55213 17.62156 17.69017 17.75354 17.80455 17.8538 17.90227 17.92543 17.94866 17.97101 17.9783 17.99029 17.9986 18.00719 18.01455 18.06085 18.09904 18.14527 18.16921 18.20971 18.23869 18.2528 18.27082 18.30923 18.33473 18.34203 18.33732 18.32197 18.30289 18.30282 18.3062 18.29715 18.27682 18.25112 18.23275 18.22591 18.24125 18.2619 18.27469 18.2998 18.32959 18.35363 18.37148 18.38695 18.40784 18.41745 18.4267 18.44199 18.47139 18.50283 18.53517 18.56301 18.59123 18.62159 18.65113 18.66474 18.67916 18.69684 18.71519 18.73538 18.75291 18.77168 18.78474 18.79088 18.79368 18.80299 18.811 18.8225 18.83429 18.84581 18.85526 18.86848 18.87086 18.87763 18.88705 18.90296 18.91688 18.93487 18.94962 18.96452 18.98147 18.99929 19.01818 19.0363 19.05497 19.0705 19.08499 19.10063 19.11895 19.1419 19.16437 19.18436 19.20278 19.22201 19.22666 19.22409 19.22089 19.2179 19.21056 19.20003
17.2751 17.26421 17.27586 17.28584 17.25321 17.27661 17.33657 17.42443 17.50785 17.5743 17.63118 17.68352 17.74244 17.78553 17.83387 17.87002 17.89755 17.91516 17.92518 17.93304 17.95289 17.97286 17.9854 17.99992 18.02701 18.07846 18.11254 18.16799 18.18813 18.21579 18.23735 18.27256 18.30715 18.31805 18.32592 18.33712 18.33156 18.3052 18.30627 18.30775 18.30184 18.28815 18.26884 18.23904 18.23128 18.24008 18.25474 18.26122 18.2927 18.31574 18.33432 18.37011 18.38928 18.40616 18.42138 18.43235 18.44916 18.4682 18.49214 18.52317 18.55852 18.58847 18.61407 18.63653 18.6534 18.66717 18.68666 18.70271 18.72383 18.74142 18.75512 18.76585 18.77361 18.77975 18.78478 18.7951 18.81089 18.82287 18.83485 18.84805 18.85871 18.8655 18.87416 18.8892 18.90724 18.92579 18.94542 18.95888 18.97965 19.00152 19.02044 19.03475 19.05635 19.07471 19.09184 19.10789 19.12205 19.14144 19.15797 19.18111 19.20568 19.23165 19.252 19.25707 19.25475 19.25776 19.2594 19.2439 19.23067
17.31351 17.31638 17.32924 17.3429 17.35023 17.37442 17.42901 17.49872 17.55623 17.60254 17.64115 17.6873 17.73113 17.76979 17.79901 17.83357 17.85952 17.89512 17.89572 17.89907 17.91655 17.93013 17.96176 17.97695 17.99706 18.05208 18.08029 18.13437 18.18059 18.20482 18.23887 18.27114 18.29282 18.30619 18.30974 18.32417 18.31938 18.31071 18.30424 18.30301 18.30256 18.29938 18.27041 18.24731 18.23912 18.24489 18.24189 18.25033 18.27524 18.30246 18.321 18.353 18.37736 18.39494 18.42053 18.44328 18.4585 18.48166 18.5017 18.52754 18.5589 18.58674 18.60847 18.6268 18.64378 18.65833 18.67289 18.68961 18.7117 18.72536 18.74069 18.75697 18.76376 18.7695 18.7801 18.7907 18.79816 18.80808 18.82456 18.83825 18.85082 18.8594 18.8789 18.89649 18.9142 18.93968 18.96386 18.98184 19.00158 19.0234 19.04376 19.06349 19.08422 19.1033 19.12388 19.13832 19.1482 19.16238 19.18571 19.21688 19.24308 19.26862 19.28213 19.28117 19.27899 19.28146 19.27664 19.26329 19.25018
17.38157 17.39306 17.40775 17.42595 17.4441 17.47319 17.50564 17.54485 17.58123 17.60204 17.63341 17.67999 17.71301 17.7438 17.77397 17.80199 17.82976 17.85564 17.87525 17.88484 17.88956 17.90057 17.93517 17.96223 17.98438 18.02625 18.06104 18.10542 18.13968 18.17477 18.20979 18.25487 18.29024 18.30277 18.30269 18.32001 18.30678 18.3024 18.2998 18.28684 18.28226 18.27511 18.26555 18.2409 18.23262 18.23511 18.23623 18.24496 18.26473 18.29111 18.3029 18.3399 18.37566 18.39628 18.4203 18.43904 18.45891 18.48818 18.51339 18.5415 18.56712 18.58735 18.60785 18.625 18.64264 18.65576 18.66844 18.68656 18.70042 18.71749 18.72809 18.74523 18.75535 18.76714 18.77911 18.78759 18.79841 18.80751 18.81667 18.82846 18.8474 18.86739 18.88438 18.90853 18.93777 18.96402 18.98688 19.01179 19.03025 19.05718 19.08212 19.10165 19.12307 19.14251 19.15952 19.17747 19.19373 19.2147 19.24185 19.2728 19.30303 19.32042 19.32793 19.32257 19.32315 19.31908 19.30913 19.29843 19.28848
17.46142 17.46769 17.47779 17.48583 17.49109 17.50684 17.5236 17.54455 17.57127 17.58652 17.62081 17.65315 17.69113 17.71826 17.74878 17.77964 17.79514 17.8292 17.83422 17.85919 17.86169 17.86367 17.89209 17.91888 17.95318 18.02478 18.06958 18.09765 18.12839 18.15952 18.20144 18.24558 18.27522 18.30761 18.32792 18.3301 18.31573 18.30027 18.29717 18.28837 18.27681 18.26483 18.25572 18.25279 18.24259 18.24321 18.24534 18.25932 18.28064 18.29437 18.3162 18.3518 18.37881 18.4179 18.43885 18.46863 18.48933 18.51563 18.54577 18.57336 18.59512 18.61428 18.63679 18.65579 18.66829 18.68393 18.69554 18.70339 18.71414 18.73439 18.75134 18.76693 18.77243 18.78398 18.78591 18.79713 18.80754 18.81517 18.82412 18.83456 18.85263 18.87826 18.91051 18.9435 18.97465 19.00307 19.03536 19.06517 19.10213 19.12916 19.15015 19.16414 19.17584 19.20274 19.22797 19.2362 19.24555 19.26173 19.29474 19.33715 19.3794 19.39504 19.38848 19.38235 19.3825 19.38193 19.38108 19.36705 19.35949
17.506 17.51548 17.51169 17.4967 17.49542 17.5057 17.51579 17.53016 17.54901 17.574 17.6053 17.64001 17.66601 17.69671 17.73519 17.75662 17.76749 17.78798 17.78801 17.8211 17.82581 17.82826 17.86212 17.89605 17.94478 18.00667 18.06301 18.10263 18.13065 18.16222 18.20592 18.25184 18.27926 18.30369 18.30566 18.31806 18.32233 18.31269 18.31637 18.29273 18.29382 18.28296 18.28759 18.27194 18.26981 18.26978 18.27712 18.30129 18.31938 18.33442 18.36018 18.39246 18.43718 18.46523 18.50025 18.5319 18.55675 18.58267 18.60817 18.62946 18.65576 18.66947 18.68696 18.69377 18.70651 18.71598 18.72527 18.73879 18.75119 18.76171 18.77743 18.78409 18.79545 18.80543 18.80131 18.81102 18.82126 18.83128 18.84401 18.85908 18.88685 18.91258 18.9468 18.98604 19.02911 19.07438 19.11298 19.16065 19.20717 19.23629 19.25196 19.26257 19.27204 19.28311 19.31175 19.31581 19.32577 19.34635 19.3814 19.42917 19.46649 19.46856 19.46305 19.45941 19.45316 19.44972 19.44836 19.43887 19.42981
17.50869 17.50584 17.50116 17.49725 17.48298 17.48622 17.49987 17.51155 17.52955 17.54812 17.57606 17.60585 17.63653 17.66743 17.70475 17.73663 17.75594 17.77025 17.78415 17.79676 17.80372 17.81639 17.85338 17.92449 17.98683 18.02608 18.07337 18.11392 18.15743 18.16682 18.21365 18.25586 18.28216 18.29555 18.30038 18.31314 18.32702 18.32145 18.3154 18.30782 18.30893 18.31071 18.30754 18.30723 18.30354 18.31229 18.33255 18.35252 18.36819 18.38707 18.42593 18.46759 18.5081 18.54498 18.58085 18.60531 18.62811 18.65377 18.6843 18.71269 18.73932 18.7514 18.76686 18.77624 18.78374 18.79149 18.79904 18.80629 18.81279 18.82324 18.83216 18.84136 18.84475 18.84474 18.83803 18.84466 18.84953 18.85834 18.87363 18.89048 18.91679 18.94539 18.98819 19.03037 19.0765 19.12599 19.17435 19.23383 0 0 19.32492 19.36533 19.36389 19.37233 19.40066 19.40572 19.41902 19.45363 19.46696 0 0 19.48942 19.55957 19.55574 19.54073 19.53302 19.54293 19.54068 19.52832
