ncols        109
nrows        82
xllcorner    -1.041666666667
yllcorner    37.041665395101
cellsize     0.083333333333
NODATA_value -9999
0.0 0 0 0 0 0 0 0 0 0 0 0 0 0 0 0 0 0 0 0 0 0 0 0 0 0 0 0 0 0 0 0 0 0 0 0 0 0 0 0 0 0 0 0 0 0 0 0 0 0 0 0 0 0 0 0 0 0 0 0 0 0 0 0 0 0 0 0 0 0 0 0 0 0 0 0 0 0 0 0 0 0 0 0 0 0 0 0 0 0 0 0 0 0 0 0 0 0 0 0 0 0 0 0 0 17.19071 15.93104 14.93809 14.94962
0 0 0 0 0 0 0 0 0 0 0 0 0 0 0 0 0 0 0 0 0 0 0 0 0 0 0 0 0 0 0 0 0 0 0 0 0 0 0 0 0 0 0 0 0 0 0 0 0 0 0 0 0 0 0 0 0 0 0 0 0 0 0 0 0 0 0 0 0 0 0 0 0 0 0 0 0 0 0 0 0 0 0 0 0 0 0 0 0 0 0 0 0 0 0 0 0 0 0 0 0 14.98556 15.00267 14.84296 14.87592 14.90293 14.91995 14.94644 14.95258
0 0 0 0 0 0 0 0 0 0 0 0 0 0 0 0 0 0 0 0 0 0 0 0 0 0 0 0 0 0 0 0 0 0 0 0 0 0 0 0 0 0 0 0 0 0 0 0 0 0 0 0 0 0 0 0 0 0 0 0 0 0 0 0 0 0 0 0 0 0 0 0 0 0 0 0 0 0 0 0 0 0 0 0 0 0 0 0 0 0 0 0 0 0 0 0 0 0 14.81504 14.83627 14.8353 14.83082 14.82011 14.83406 14.84581 14.84744 14.86342 14.86576 14.85738
0 0 0 0 0 0 0 0 0 0 0 0 0 0 0 0 0 0 0 0 0 0 0 0 0 0 0 0 0 0 0 0 0 0 0 0 0 0 0 0 0 0 0 0 0 0 0 0 0 0 0 0 0 0 0 0 0 0 0 0 0 0 0 0 0 0 0 0 0 0 0 0 0 0 0 0 0 0 0 0 0 0 0 0 0 0 0 0 0 0 0 0 0 0 0 0 0 15.94156 14.80985 14.82106 14.81559 14.7993 14.77593 14.76757 14.75548 14.75206 14.74045 14.74476 14.72388
0 0 0 0 0 0 0 0 0 0 0 0 0 0 0 0 0 0 0 0 0 0 0 0 0 0 0 0 0 0 0 0 0 0 0 0 0 0 0 0 0 0 0 0 0 0 0 0 0 0 0 0 0 0 0 0 0 0 15.78498 15.40377 15.07035 15.21465 0 0 0 0 0 0 0 0 0 0 0 0 0 0 0 0 0 0 0 0 0 0 0 0 0 0 0 0 0 0 0 0 0 15.09793 14.77043 14.80347 14.77791 14.77468 14.74347 14.70442 14.65607 14.62943 14.61014 14.58986 14.58216 14.56736 14.54233
0 0 0 0 0 0 0 0 0 0 0 0 0 0 0 0 0 0 0 0 0 0 0 0 0 0 0 0 0 0 0 0 0 0 0 0 0 0 0 0 0 0 0 0 0 0 0 0 0 0 0 0 0 0 0 0 15.19459 15.24604 15.02288 14.83624 14.7809 14.74357 14.8143 15.00862 15.2271 15.35046 15.35516 0 0 0 0 15.61846 0 0 0 0 0 0 0 0 0 0 0 0 0 0 0 0 0 0 0 0 0 15.43051 14.69097 14.73935 14.74864 14.74009 14.7131 14.66101 14.61279 14.56823 14.52619 14.48722 14.47791 14.47617 14.48801 14.46518 14.44989
0 0 0 0 0 0 0 0 0 0 0 0 0 0 0 0 0 0 0 0 0 0 0 0 0 0 0 0 0 0 0 0 0 0 0 0 0 0 0 0 0 0 0 0 0 0 0 0 0 0 0 0 0 0 0 15.39747 15.01251 14.76348 14.61347 14.41018 14.47233 14.49612 14.64121 14.76603 14.89881 14.98253 15.0505 15.22066 15.40843 15.38282 15.33608 15.10917 14.93399 14.97305 15.09816 14.90129 14.91686 0 0 0 0 0 0 0 0 0 0 0 0 0 0 0 14.93986 14.6929 14.72273 14.72671 14.72547 14.66179 14.62207 14.56037 14.51488 14.46736 14.40974 14.40031 14.41966 14.41907 14.41808 14.42671 14.42902
0 0 0 0 0 0 0 0 0 0 0 0 0 0 0 0 0 0 0 0 0 0 0 0 0 0 0 0 0 0 0 0 0 0 0 0 0 0 0 0 0 0 0 0 0 0 0 0 0 0 0 15.05337 15.15132 15.39942 15.19838 14.80374 14.61584 14.41165 14.33744 14.40944 14.4769 14.48892 14.4571 14.6205 14.60997 14.8051 14.80711 14.79626 14.80996 14.74007 14.67324 14.72401 14.62198 14.79713 14.81261 14.95271 0 0 0 0 0 0 0 0 0 0 0 0 0 0 0 0 14.68132 14.69618 14.70165 14.69826 14.63166 14.55982 14.50122 14.44873 14.42441 14.38659 14.35401 14.3556 14.37859 14.38398 14.3876 14.3897 14.37791
0 0 0 0 0 0 0 0 0 0 0 0 0 0 0 0 0 0 0 0 0 0 0 0 0 0 0 0 0 0 0 0 0 0 0 0 0 0 0 0 0 0 0 0 0 0 0 0 0 0 15.28902 15.09641 14.91239 14.91034 14.81861 14.5804 14.29569 14.38766 14.28702 14.35724 14.40084 14.41711 14.41448 14.57927 14.58022 14.77183 14.79401 14.82192 14.69571 14.58243 14.62389 14.67407 14.56412 14.74157 14.76597 14.94565 14.96321 14.816 14.81974 15.09351 15.46586 16.02018 0 0 0 0 0 0 0 15.32342 14.92994 14.65551 14.68251 14.67952 14.67639 14.61666 14.54384 14.4772 14.42121 14.39735 14.37483 14.35446 14.34105 14.34483 14.36036 14.37923 14.39043 14.39185 14.39584
0 0 0 0 0 0 0 0 0 0 0 0 0 0 0 0 0 0 0 0 0 0 0 0 0 0 0 0 0 0 0 0 0 0 0 0 0 0 0 0 0 0 0 0 0 0 0 0 0 16.13456 14.98956 14.93553 14.90897 14.6416 14.50104 14.36251 14.44013 14.33368 14.38784 14.43235 14.46524 14.48374 14.49134 14.69171 14.72092 14.74924 14.79091 14.81055 14.80317 14.66224 14.69371 14.58724 14.49827 14.50629 14.5205 14.54097 14.55601 14.58275 14.61747 14.62377 14.90466 15.30284 0 15.13666 15.5929 15.98945 16.27261 16.05427 15.61327 14.63987 14.66081 14.68615 14.67106 14.62598 14.56823 14.50139 14.44761 14.40005 14.36277 14.34396 14.32101 14.3304 14.33565 14.35052 14.34841 14.36986 14.38959 14.38589 14.38037
0 0 0 0 0 0 0 0 0 0 0 0 0 0 0 0 0 0 0 0 0 0 0 0 0 0 0 0 0 0 0 0 0 0 0 0 0 0 0 0 0 0 0 0 0 0 0 0 0 15.76766 14.96956 14.70934 14.45382 14.38008 14.44939 14.3404 14.39802 14.45976 14.50037 14.53629 14.56725 14.58813 14.60064 14.62805 14.65265 14.55335 14.46085 14.59545 14.59265 14.59491 14.61196 14.50275 14.50489 14.50671 14.5122 14.52787 14.56108 14.59556 14.63021 14.64416 14.65111 14.66195 14.67168 14.68747 14.70785 14.71022 15.48078 15.64244 15.3273 14.67506 14.64242 14.58612 14.58033 14.53793 14.46064 14.42288 14.37611 14.33698 14.29022 14.28758 14.31271 14.33433 14.36611 14.37222 14.37601 14.38081 14.38139 14.37645 14.37071
0 0 0 0 0 0 0 0 0 0 0 0 0 0 0 0 0 0 0 0 0 0 0 0 0 0 0 0 0 0 0 0 0 0 0 0 0 0 0 0 0 0 0 0 0 0 0 0 0 15.51778 14.89523 14.635 14.36818 14.48594 14.38094 14.43967 14.51991 14.58253 14.62839 14.65345 14.51779 14.54387 14.56885 14.5966 14.61944 14.50396 14.52025 14.53076 14.52242 14.51473 14.51296 14.51259 14.50382 14.51016 14.51504 14.51744 14.52733 14.55009 14.57879 14.60674 14.61979 14.63673 14.64652 14.65621 14.67395 14.69323 14.70509 14.70166 14.65486 14.59301 14.55106 14.51632 14.49302 14.4097 14.37613 14.34004 14.30997 14.241 14.25982 14.30799 14.33325 14.35181 14.38586 14.38111 14.38502 14.36186 14.35848 14.36853 14.37234
0 0 0 0 0 0 0 0 0 0 0 0 0 0 0 0 0 0 0 0 0 0 0 0 0 0 0 0 0 0 0 0 0 0 0 0 0 0 0 0 0 0 0 0 0 0 0 0 0 15.44457 14.76666 14.50334 14.44285 14.37442 14.4825 14.601 14.51524 14.55676 14.43783 14.45432 14.47714 14.498 14.51667 14.52462 14.53168 14.54264 14.56847 14.57229 14.55303 14.51605 14.50665 14.48509 14.44324 14.43482 14.46166 14.44982 14.45953 14.47302 14.48923 14.52077 14.53669 14.53888 14.52913 14.55011 14.5669 14.58108 14.58325 14.57192 14.53465 14.49389 14.45733 14.44163 14.40313 14.35902 14.33173 14.28556 14.24427 14.25146 14.26548 14.29221 14.3513 14.37752 14.38628 14.38177 14.38479 14.38641 14.39058 14.37921 14.37916
0 0 0 0 0 0 0 0 0 0 0 0 0 0 0 0 0 0 0 0 0 0 0 0 0 0 0 0 0 0 0 0 0 0 0 0 0 0 0 0 0 0 0 0 0 0 0 0 0 15.3151 14.79894 14.54486 14.48897 14.43454 14.56244 14.53178 14.45044 14.49094 14.52502 14.54694 14.56539 14.56749 14.57155 14.57442 14.57282 14.58442 14.59505 14.60029 14.58703 14.54138 14.51309 14.47958 14.44803 14.42961 14.40401 14.36322 14.34927 14.36622 14.41168 14.4408 14.44701 14.43225 14.41175 14.41215 14.42632 14.45694 14.45852 14.46223 14.43109 14.39098 14.37101 14.35009 14.32072 14.31298 14.2843 14.2703 14.26937 14.2636 14.26837 14.28368 14.33062 14.39041 14.39156 14.39703 14.40157 14.41319 14.41692 14.42178 14.38495
0 0 0 0 0 0 0 0 0 0 0 0 0 0 0 0 0 0 0 0 0 0 0 0 0 0 0 0 0 0 0 0 0 0 0 0 0 0 0 0 0 0 0 0 0 0 0 0 0 15.34447 14.62886 14.4048 14.57069 14.51605 14.65535 14.56521 14.49749 14.52615 14.54104 14.5371 14.52775 14.5386 14.53994 14.53822 14.5449 14.54494 14.53064 14.53242 14.50099 14.47443 14.45033 14.41427 14.39204 14.38009 14.35046 14.33787 14.32781 14.32877 14.34733 14.35735 14.34466 14.34652 14.33175 14.32348 14.32508 14.36243 14.35445 14.3383 14.3325 14.30972 14.30859 14.30532 14.28898 14.29064 14.29219 14.28656 14.2878 14.28765 14.30344 14.31338 14.34421 14.39041 14.41346 14.42408 14.42714 14.42816 14.42849 14.44426 14.43873
0 0 0 0 0 0 0 0 0 0 0 0 0 0 0 0 0 0 0 0 0 0 0 0 0 0 0 0 0 0 0 0 0 0 0 0 0 0 0 0 0 0 0 0 0 0 0 0 0 14.90024 14.72739 14.48513 14.46656 14.44766 14.55834 14.46699 14.53002 14.53389 14.5351 14.52259 14.51254 14.50568 14.49683 14.4952 14.47969 14.46917 14.46465 14.46791 14.4505 14.42046 14.38195 14.34064 14.32193 14.29606 14.28232 14.26196 14.24391 14.23726 14.25393 14.26782 14.26636 14.27982 14.28891 14.28999 14.30097 14.30418 14.30582 14.28533 14.26009 14.23743 14.23075 14.26121 14.27068 14.28775 14.29007 14.29533 14.31808 14.33559 14.34672 14.35821 14.3762 14.40557 14.41957 14.44809 14.42981 14.42984 14.43964 14.45056 14.4936
0 0 0 0 0 0 0 0 0 0 0 0 0 0 0 0 0 0 0 0 0 0 0 0 0 0 0 0 0 0 0 0 0 0 0 0 0 0 0 0 0 0 0 0 0 0 0 0 0 0 14.59582 14.59226 14.58369 14.39954 14.48182 14.50099 14.55488 14.55243 14.52722 14.51738 14.48656 14.46567 14.456 14.4503 14.42927 14.41818 14.4266 14.42234 14.39959 14.37791 14.33689 14.31361 14.30301 14.28764 14.25381 14.22862 14.21067 14.20588 14.21245 14.22842 14.2331 14.23057 14.22649 14.25404 14.26398 14.25964 14.25795 14.2607 14.25101 14.24457 14.2352 14.25831 14.27665 14.29418 14.31287 14.33139 14.34803 14.37035 14.40229 14.41085 14.42035 14.43905 14.43923 14.45006 14.43899 14.43584 14.46591 14.49856 14.5125
0 0 0 0 0 0 0 0 0 0 0 0 0 0 0 0 0 0 0 0 0 0 0 0 0 0 0 0 0 0 0 0 0 0 0 0 0 0 0 0 0 0 0 0 0 0 0 0 0 0 14.71907 14.45523 14.32952 14.45031 14.52109 14.56666 14.58801 14.56761 14.54009 14.49715 14.46447 14.44406 14.42302 14.42078 14.40392 14.39215 14.39628 14.39954 14.38303 14.36026 14.32848 14.3034 14.3022 14.27969 14.25444 14.22683 14.20339 14.1912 14.19782 14.20679 14.21101 14.23134 14.24582 14.25252 14.24578 14.24666 14.25514 14.26427 14.27614 14.25198 14.26071 14.28818 14.29902 14.32122 14.36925 14.36902 14.38285 14.40805 14.44393 14.47984 14.48782 14.49395 14.48794 14.48237 14.473 14.46673 14.48756 14.52725 14.5603
0 0 0 0 0 0 0 0 0 0 0 0 0 0 0 0 0 0 0 0 0 0 0 0 0 0 0 0 0 0 0 0 0 0 0 0 0 0 0 0 0 0 0 0 0 0 0 0 0 0 0 0 14.36822 14.46652 14.52951 14.58508 14.61561 14.57473 14.52853 14.47972 14.43611 14.40509 14.38729 14.3774 14.36736 14.36874 14.38856 14.38185 14.36696 14.35095 14.32613 14.30166 14.28412 14.27749 14.25971 14.23711 14.20757 14.20122 14.19966 14.20964 14.22658 14.24187 14.2495 14.25013 14.26303 14.26727 14.26918 14.26647 14.27141 14.2847 14.3022 14.30999 14.30834 14.35446 14.3779 14.40203 14.42791 14.42609 14.43506 14.4824 14.50416 14.51133 14.52347 14.50711 14.51846 14.50493 14.51898 14.55552 14.5942
0 0 0 0 0 0 0 0 0 0 0 0 0 0 0 0 0 0 0 0 0 0 0 0 0 0 0 0 0 0 0 0 0 0 0 0 0 0 0 0 0 0 0 0 0 0 0 0 0 0 16.10155 14.84739 14.5602 14.4743 14.54657 14.59534 14.60714 14.56041 14.51158 14.4561 14.42251 14.38729 14.37034 14.36035 14.35527 14.36382 14.37613 14.36159 14.35522 14.35383 14.33287 14.30538 14.29341 14.28461 14.28385 14.25414 14.22822 14.2124 14.20646 14.22084 14.23942 14.24367 14.26851 14.268 14.27584 14.27606 14.28994 14.28223 14.28499 14.28426 14.30584 14.31617 14.34336 14.37852 14.39294 14.42522 14.43227 14.42537 14.45584 14.46922 14.49125 14.51902 14.54184 14.54563 14.5464 14.54731 14.56274 14.60803 14.64302
0 0 0 0 0 0 0 0 0 0 0 0 0 0 0 0 0 0 0 0 0 0 0 0 0 0 0 0 0 0 0 0 0 0 0 0 0 0 0 0 0 0 0 0 0 0 0 0 0 0 15.55494 14.84731 14.73532 14.46727 14.52186 14.55314 14.57182 14.52459 14.48518 14.44917 14.42436 14.3888 14.37422 14.35764 14.35346 14.37708 14.37961 14.35269 14.36921 14.35377 14.32536 14.30875 14.30002 14.29323 14.28164 14.25732 14.25863 14.24132 14.22766 14.23015 14.24376 14.26136 14.26721 14.27299 14.28066 14.2909 14.30074 14.31115 14.30271 14.30558 14.31969 14.35636 14.36936 14.38299 14.39046 14.40596 14.42784 14.43774 14.44674 14.46013 14.49197 14.5383 14.57929 14.59784 14.59055 14.58412 14.60564 14.64692 14.68754
0 0 0 0 0 0 0 0 0 0 0 0 0 0 0 0 0 0 0 0 0 0 0 0 0 0 0 0 0 0 0 0 0 0 0 0 0 0 0 0 0 0 0 0 0 0 0 0 0 0 0 14.83516 14.55453 14.45336 14.48879 14.50347 14.53466 14.50958 14.47633 14.45204 14.42384 14.38568 14.37246 14.36425 14.36926 14.38356 14.37199 14.37432 14.35863 14.34694 14.32856 14.31894 14.31659 14.31483 14.28882 14.27068 14.26336 14.2541 14.26083 14.26836 14.26886 14.27981 14.28814 14.26951 14.28271 14.29257 14.30363 14.3121 14.33916 14.35517 14.39102 14.40374 14.40439 14.4124 14.42516 14.44157 14.45808 14.45439 14.47067 14.48971 14.52388 14.56442 14.60844 14.66158 14.64454 14.62944 14.64184 14.68698 14.7329
0 0 0 0 0 0 0 0 0 0 0 0 0 0 0 0 0 0 0 0 0 0 0 0 0 0 0 0 0 0 0 0 0 0 0 0 0 0 0 0 0 0 0 0 0 0 0 0 0 0 0 14.64296 14.38743 14.44821 14.46182 14.45954 14.50195 14.48199 14.47091 14.4566 14.42805 14.40108 14.38536 14.38907 14.39186 14.38252 14.40399 14.40827 14.38621 14.34338 14.33814 14.33295 14.33136 14.33266 14.33365 14.29512 14.27727 14.26498 14.28984 14.29311 14.29288 14.30643 14.30627 14.31442 14.31836 14.32198 14.34005 14.35593 14.38575 14.41097 14.44108 14.4564 14.4631 14.48206 14.49311 14.50181 14.51244 14.51325 14.53826 14.54945 14.56548 14.58209 14.62275 14.67236 14.67926 14.66813 14.68306 14.7353 14.78273
0 0 0 0 0 0 0 0 0 0 0 0 0 0 0 0 0 0 0 0 0 0 0 0 0 0 0 0 0 0 0 0 0 0 0 0 0 0 0 0 0 0 0 0 0 0 0 0 0 0 0 14.35549 14.40308 14.47006 14.46974 14.45224 14.47348 14.45911 14.4602 14.43805 14.41988 14.41375 14.3966 14.39273 14.39554 14.43175 14.43146 14.42048 14.39717 14.38012 14.37225 14.36281 14.36726 14.37312 14.36996 14.33643 14.30658 14.30667 14.31454 14.32759 14.34081 14.3508 14.35177 14.35085 14.35915 14.37593 14.38824 14.42047 14.45416 14.50379 14.53584 14.54148 14.54335 14.54904 14.54356 14.54684 14.57005 14.57984 14.58455 14.58513 14.60838 14.61544 14.64371 14.69094 14.70968 14.72202 14.74493 14.79034 14.82019
0 0 0 0 0 0 0 0 0 0 0 0 0 0 0 0 0 0 0 0 0 0 0 0 0 0 0 0 0 0 0 0 0 0 0 0 0 0 0 0 0 0 0 0 0 0 0 0 0 15.96423 15.16367 14.41096 14.4271 14.45046 14.4571 14.45825 14.47152 14.43848 14.44779 14.43093 14.42832 14.43523 14.4275 14.42605 14.42926 14.43974 14.44951 14.44638 14.42362 14.41401 14.41229 14.41362 14.43424 14.43722 14.37993 14.39832 14.38459 14.37658 14.39114 14.39766 14.39963 14.40271 14.40719 14.40162 14.39874 14.41051 14.42039 14.45003 14.48928 14.52467 14.56434 14.59843 14.60198 14.60451 14.59127 14.58833 14.59958 14.60991 14.60372 14.60746 14.63372 14.65977 14.66808 14.71283 14.75235 14.77419 14.80699 14.8344 14.8546
0 0 0 0 0 0 0 0 0 0 0 0 0 0 0 0 0 0 0 0 0 0 0 0 0 0 0 0 0 0 0 0 0 0 0 0 0 0 0 0 0 0 0 0 0 0 0 0 15.2678 14.85208 14.60012 14.44617 14.44438 14.44632 14.44408 14.45533 14.47772 14.44162 14.44251 14.45659 14.46412 14.47601 14.47329 14.45732 14.45905 14.47582 14.49786 14.50453 14.49148 14.47091 14.46384 14.46356 14.46528 14.46922 14.44107 14.45708 14.47052 14.46648 14.47841 14.47805 14.47246 14.48184 14.47033 14.46111 14.45775 14.46174 14.45977 14.47368 14.50867 14.56304 14.60297 14.62675 14.63796 14.64441 14.62527 14.62184 14.62428 14.63551 14.66011 14.66061 14.6585 14.69383 14.71401 14.74266 14.77735 14.80185 14.83426 14.86098 14.88518
0 0 0 0 0 0 0 0 0 0 0 0 0 0 0 0 0 0 0 0 0 0 0 0 0 0 0 0 0 0 0 0 0 0 0 0 0 0 0 0 0 0 0 0 0 15.0602 14.89299 15.39366 14.97591 14.98784 14.73629 14.49458 14.47158 14.4386 14.44061 14.46214 14.48802 14.46551 14.44323 14.47091 14.51036 14.50191 14.50124 14.49427 14.51422 14.53096 14.54288 14.55108 14.53325 14.53982 14.52543 14.5198 14.51386 14.52268 14.52614 14.51029 14.50939 14.51344 14.51758 14.52136 14.50898 14.49945 14.49601 14.51549 14.51263 14.52335 14.51209 14.52 14.56015 14.60479 14.65506 14.69951 14.7026 14.69928 14.70182 14.69847 14.70189 14.71044 14.72654 14.73612 14.74292 14.7588 14.77576 14.79704 14.80399 14.82572 14.86192 14.89671 14.91993
0 0 0 0 0 0 0 0 0 0 0 0 0 0 0 0 0 0 0 0 0 0 0 0 0 0 0 0 0 0 0 0 0 0 0 0 0 0 0 0 0 0 16.9668 16.69345 15.71696 15.02267 14.60819 14.63099 15.06132 14.82318 14.62027 14.53586 14.49867 14.47175 14.49086 14.49775 14.48932 14.47315 14.48386 14.49761 14.54735 14.55768 14.54269 14.55148 14.56884 14.59096 14.59607 14.6001 14.58818 14.57373 14.54551 14.54375 14.54906 14.55498 14.55433 14.55135 14.55511 14.56432 14.55307 14.56221 14.55132 14.54497 14.56462 14.57758 14.56804 14.57896 14.56961 14.57117 14.61609 14.6535 14.69457 14.73718 14.76776 14.78584 14.79047 14.82487 14.8364 14.84621 14.86719 14.86634 14.84773 14.83548 14.84992 14.86116 14.86824 14.87988 14.89716 14.92497 14.94492
0 0 0 0 0 0 0 0 0 0 0 0 0 0 0 0 0 0 0 0 0 0 0 0 0 0 0 0 0 0 0 0 0 0 0 0 0 0 0 0 16.14242 16.47364 16.7803 15.78959 15.1345 14.66344 14.69197 14.70821 14.6835 14.6316 14.61249 14.56438 14.5331 14.50251 14.5099 14.50257 14.50914 14.49765 14.51109 14.53329 14.58045 14.58792 14.59418 14.5886 14.61958 14.64049 14.64717 14.66034 14.65642 14.63604 14.59937 14.59704 14.61123 14.62665 14.60693 14.60144 14.59445 14.59909 14.62382 14.61979 14.6099 14.60256 14.62626 14.62732 14.61947 14.62696 14.63645 14.65242 14.68393 14.71081 14.74567 14.78219 14.81135 14.83797 14.84564 14.8695 14.89375 14.93024 14.93536 14.938 14.92799 14.92657 14.91362 14.91678 14.91563 14.92082 14.93208 14.95342 14.97662
0 0 0 0 0 0 0 0 0 0 0 0 0 0 0 0 0 0 0 0 0 0 0 0 0 0 0 0 0 0 0 0 0 0 0 0 0 0 0 16.3887 16.12384 15.58351 15.39296 14.66566 14.67785 14.70666 14.72196 14.72901 14.7041 14.65232 14.61219 14.56579 14.56613 14.55224 14.53952 14.53827 14.53705 14.54748 14.53522 14.58032 14.61624 14.63268 14.67352 14.65514 14.68013 14.71521 14.72812 14.75105 14.74443 14.72315 14.69042 14.675 14.67306 14.68494 14.69468 14.68484 14.68051 14.68723 14.6932 14.70714 14.69677 14.69157 14.68532 14.68412 14.67716 14.68593 14.70416 14.72988 14.74814 14.77004 14.80421 14.85553 14.897 14.91854 14.91103 14.93133 14.96143 14.97932 14.97966 14.98978 14.98896 14.97124 14.94808 14.94546 14.95147 14.95166 14.95682 14.98335 14.9977
0 0 0 0 0 0 0 0 0 0 0 0 0 0 0 0 0 0 0 0 0 0 0 0 0 0 0 0 0 0 0 0 0 0 0 0 0 0 15.71451 15.45364 15.22996 14.76497 14.76311 14.75048 14.73496 14.73868 14.73562 14.73376 14.70684 14.67724 14.64385 14.64114 14.61972 14.61154 14.58783 14.56916 14.57791 14.60025 14.61418 14.65672 14.68127 14.6984 14.70634 14.72885 14.76208 14.78604 14.80688 14.84177 14.83065 14.80678 14.78602 14.75523 14.73749 14.73502 14.73948 14.72998 14.73636 14.74026 14.7574 14.76728 14.77725 14.77508 14.76608 14.77816 14.77239 14.78011 14.79406 14.79499 14.82652 14.85883 14.89812 14.92339 14.93976 14.95468 14.94083 14.96593 14.97737 15.01561 14.9947 14.99828 14.99844 14.99361 14.98401 14.97626 14.98539 14.99652 15.00842 15.01782 15.03066
0 0 0 0 0 0 0 0 0 0 0 0 0 0 0 0 0 0 0 0 0 0 0 0 0 0 0 0 0 0 0 0 0 0 17.42482 18.00663 17.15414 15.5797 14.84954 14.86383 14.85963 14.84345 14.82528 14.79042 14.76986 14.75579 14.7592 14.76905 14.77707 14.76912 14.73458 14.72708 14.7019 14.69167 14.6857 14.66596 14.67368 14.69354 14.72567 14.7337 14.76149 14.75932 14.77527 14.81262 14.82997 14.84502 14.87576 14.9117 14.92331 14.92322 14.88854 14.85611 14.83037 14.8134 14.79916 14.79122 14.80431 14.80534 14.80636 14.82376 14.83214 14.83704 14.83446 14.84896 14.8423 14.84221 14.85658 14.87858 14.87825 14.90772 14.93993 14.9594 14.9753 14.99416 15.0099 15.00294 15.00452 15.02775 15.0384 15.0238 15.00992 15.00856 15.00253 15.00263 15.02624 15.03685 15.04881 15.04974 15.06059
0 0 0 0 0 0 0 0 0 0 0 0 0 0 0 0 0 0 0 0 0 0 0 0 0 0 0 0 0 17.9033 17.50759 17.30862 17.30967 17.09736 16.80538 16.24074 14.91392 14.92725 14.93965 14.95062 14.93689 14.89766 14.86723 14.84695 14.85782 14.83062 14.8241 14.81592 14.81455 14.79585 14.80726 14.78957 14.78011 14.7877 14.76603 14.77796 14.76662 14.76387 14.79042 14.82698 14.83902 14.84477 14.85692 14.85259 14.87115 14.89415 14.93112 14.94544 14.95647 14.96011 14.94752 14.93045 14.91133 14.9177 14.87028 14.8754 14.89273 14.87384 14.87375 14.89762 14.90578 14.92565 14.94736 14.92898 14.92922 14.91166 14.90601 14.93957 14.93415 14.95067 14.97428 14.99391 15.00937 15.0344 15.05296 15.04492 15.03625 15.03268 15.05629 15.04458 15.03461 15.03476 15.04087 15.04682 15.06375 15.07898 15.08491 15.08826 15.08257
0 0 0 0 0 0 0 0 0 0 0 0 0 0 0 0 0 0 0 0 0 0 0 0 0 17.73425 17.0372 17.05198 16.15525 15.56145 15.27593 15.00029 14.99769 15.00313 14.992 14.97398 14.97187 14.97917 14.99906 15.0014 14.98677 14.96357 14.94304 14.92122 14.90691 14.84707 14.84775 14.85123 14.84435 14.84894 14.85716 14.86334 14.85774 14.85203 14.83763 14.87104 14.86102 14.84638 14.85758 14.89613 14.8996 14.88461 14.88503 14.89269 14.91367 14.95067 14.96628 14.97796 14.99079 15.00188 15.0108 14.98759 14.96546 14.98005 14.97293 14.94275 14.94185 14.94273 14.95633 14.97882 14.96781 14.99097 15.01772 15.0185 15.0048 15.00208 15.00075 15.00007 15.00805 15.01656 15.03672 15.05214 15.06459 15.07884 15.10801 15.10748 15.0821 15.05615 15.06047 15.07329 15.07786 15.07817 15.08998 15.10693 15.12114 15.11411 15.10387 15.10866 15.09239
0 0 0 0 0 0 0 0 0 0 0 0 0 0 0 0 0 0 0 0 0 0 0 17.90527 17.07649 16.52107 16.2359 15.94251 15.08108 15.07791 15.06114 15.05321 15.04883 15.03396 15.01687 15.00073 15.01319 15.039 15.06815 15.0734 15.04241 15.00018 14.94675 14.91275 14.89813 14.87882 14.8658 14.86486 14.86577 14.88428 14.93047 14.9195 14.91493 14.9296 14.9141 14.90618 14.90559 14.90664 14.91592 14.94026 14.98394 14.96696 14.93278 14.93884 14.9604 14.99611 15.00494 15.01256 15.02349 15.04515 15.06901 15.05015 15.0478 15.03765 15.03413 15.01697 15.01062 15.03089 15.05302 15.07073 15.05588 15.06065 15.09426 15.09345 15.09132 15.0756 15.06745 15.0623 15.0648 15.07822 15.09313 15.10444 15.12733 15.1397 15.13771 15.12905 15.11882 15.10739 15.10803 15.12935 15.13838 15.15039 15.16002 15.16878 15.14975 15.13755 15.12287 15.11643 15.09169
0 0 0 0 0 0 0 0 0 0 0 0 0 0 0 0 0 0 0 0 0 0 17.33697 16.49852 16.22664 16.25283 15.94716 15.64342 15.08214 15.07594 15.07223 15.06186 15.05779 15.05275 15.05972 15.05704 15.05671 15.05767 15.0655 15.07971 15.04236 15.01337 14.98323 14.95182 14.91942 14.91866 14.90913 14.90308 14.91066 14.93309 14.95653 14.96185 14.97221 14.97889 14.98164 14.98622 14.97329 14.95987 14.95506 14.97239 15.00942 14.9877 14.98473 14.98007 15.00385 15.02011 15.04841 15.06166 15.08406 15.09529 15.13047 15.10004 15.10436 15.10073 15.10986 15.09587 15.09435 15.10408 15.14288 15.12672 15.1408 15.16012 15.17179 15.16804 15.16934 15.14751 15.14489 15.13114 15.11907 15.11425 15.11668 15.14839 15.16896 15.1695 15.15753 15.13993 15.13636 15.14988 15.16462 15.17655 15.19185 15.19958 15.21498 15.19505 15.1809 15.1725 15.1524 15.12909 15.09219
0 0 0 0 0 0 0 0 0 0 0 0 0 0 0 0 0 0 0 0 0 18.50243 17.54043 16.48526 15.91369 15.93821 15.64475 15.66556 15.09778 15.0873 15.07802 15.0656 15.05975 15.05587 15.05233 15.04808 15.04336 15.04941 15.06842 15.07238 15.05563 15.03023 14.99809 14.98656 14.96672 14.96356 14.95721 14.95887 14.96794 14.97899 14.98882 15.00855 15.03369 15.04526 15.07573 15.08719 15.03975 15.01485 15.01747 15.03205 15.04126 15.05545 15.03447 15.03255 15.03768 15.08398 15.10956 15.12948 15.15537 15.18131 15.19919 15.17203 15.1651 15.169 15.1898 15.1872 15.18907 15.18424 15.20698 15.2047 15.21397 15.21872 15.2048 15.19777 15.19247 15.21125 15.19064 15.17734 15.17682 15.17503 15.18018 15.20212 15.20705 15.19433 15.17416 15.16867 15.19635 15.20855 15.22051 15.21676 15.22124 15.23373 15.24278 15.2407 15.23423 15.21244 15.19924 15.15943 15.09195
0 0 0 0 0 0 0 0 0 0 0 0 0 0 0 0 0 0 0 0 0 0 0 17.07018 16.23076 15.94589 15.6575 15.39778 15.09706 15.08994 15.07951 15.07584 15.06905 15.05797 15.05278 15.05616 15.05735 15.06053 15.06676 15.0835 15.07097 15.05063 15.04027 15.02356 15.00673 15.01069 15.01584 15.01298 15.01541 15.02339 15.03847 15.06085 15.08054 15.09222 15.10509 15.11193 15.12343 15.11349 15.09259 15.09054 15.10843 15.11187 15.10905 15.10614 15.11083 15.14737 15.17122 15.19679 15.21845 15.25424 15.27118 15.25315 15.24545 15.27289 15.27781 15.26282 15.26118 15.26799 15.28103 15.28914 15.29614 15.27748 15.26298 15.24069 15.25844 15.25728 15.24725 15.25627 15.24065 15.2255 15.23832 15.24722 15.23048 15.20704 15.226 15.25281 15.26509 15.27716 15.28024 15.26124 15.26263 15.27577 15.29531 15.2946 15.27559 15.25854 15.22728 15.17009 15.09352
0 0 0 0 0 0 0 0 0 0 0 0 0 0 0 0 0 0 0 0 0 18.91113 18.63649 17.70448 16.27548 15.98613 15.68328 15.71284 15.38663 15.1044 15.09079 15.08531 15.08009 15.0725 15.06111 15.05 15.06011 15.07668 15.08647 15.09387 15.08593 15.07047 15.06521 15.04855 15.02946 15.05399 15.0459 15.06313 15.09339 15.10152 15.10835 15.11696 15.12299 15.14061 15.15097 15.17745 15.16709 15.15418 15.14137 15.16469 15.16243 15.181 15.19528 15.20275 15.22112 15.22781 15.27511 15.28963 15.30851 15.33551 15.34715 15.35437 15.36511 15.35471 15.35633 15.35601 15.36398 15.35419 15.34841 15.35032 15.3581 15.34172 15.33321 15.34555 15.33358 15.3356 15.33524 15.32722 15.3119 15.31354 15.30908 15.28678 15.27362 15.28581 15.30301 15.31702 15.32415 15.32063 15.3272 15.32082 15.31163 15.3297 15.33494 15.32679 15.32365 15.28938 15.25204 15.18877 15.09745
0 0 0 0 0 0 0 0 0 0 0 0 0 0 0 0 0 0 0 18.87634 18.82722 18.75582 17.96773 16.91857 16.31933 16.04345 15.75547 16.04927 15.14661 15.11907 15.10349 15.09423 15.09005 15.08362 15.06269 15.05907 15.06234 15.07481 15.11088 15.11614 15.10105 15.08896 15.07495 15.07263 15.06274 15.07575 15.0974 15.10142 15.12739 15.14486 15.16206 15.1831 15.1922 15.20571 15.22297 15.23176 15.23423 15.22798 15.22236 15.20116 15.20268 15.21832 15.24969 15.2604 15.27357 15.28933 15.31058 15.34111 15.36569 15.39603 15.40632 15.40105 15.41625 15.41508 15.41813 15.42144 15.43291 15.42332 15.43355 15.42915 15.41688 15.41126 15.42136 15.41517 15.40997 15.40848 15.40544 15.39798 15.38414 15.37704 15.3568 15.34753 15.34987 15.36633 15.38454 15.3981 15.40134 15.40557 15.39718 15.40218 15.38393 15.3843 15.37934 15.36777 15.35399 15.31925 15.27615 15.20129 15.11033
0 0 0 0 0 0 0 0 0 0 0 0 0 0 0 0 0 0 18.3948 18.2734 17.94888 17.50309 16.93699 16.33019 16.0776 16.10839 15.81919 15.50074 15.18371 15.13845 15.11647 15.09884 15.09412 15.08583 15.07904 15.08563 15.08618 15.09839 15.12576 15.14119 15.13689 15.12649 15.12674 15.12213 15.11525 15.12297 15.13143 15.15633 15.18848 15.20943 15.2455 15.27062 15.27708 15.3008 15.3068 15.31062 15.31051 15.31047 15.32093 15.30852 15.29815 15.29285 15.29796 15.30509 15.32231 15.35323 15.38127 15.39363 15.4068 15.42241 15.4432 15.45112 15.4597 15.45771 15.45773 15.47244 15.47199 15.48235 15.50538 15.49408 15.49767 15.49411 15.49702 15.48914 15.48527 15.47702 15.46523 15.46203 15.46294 15.44588 15.4111 15.39901 15.40662 15.41807 15.43197 15.44932 15.46455 15.46064 15.47497 15.44852 15.42561 15.41904 15.42711 15.4121 15.38848 15.34241 15.29988 15.23002 15.14754
0 0 0 0 0 0 0 0 0 0 0 0 0 0 0 0 0 18.81956 18.28305 17.72166 17.24765 16.64403 16.37063 16.40738 16.4337 16.11317 15.80594 15.22722 15.18511 15.14309 15.11911 15.11479 15.10309 15.08263 15.08132 15.09852 15.09741 15.12105 15.14245 15.15565 15.16036 15.15209 15.14548 15.16197 15.16579 15.1879 15.19091 15.20918 15.23455 15.26964 15.31066 15.3518 15.36368 15.37152 15.38134 15.38525 15.3738 15.37393 15.36734 15.36139 15.36296 15.35982 15.35372 15.34873 15.35201 15.38552 15.41867 15.42907 15.44048 15.45374 15.48197 15.49216 15.50983 15.50403 15.50471 15.50506 15.53073 15.54812 15.53844 15.55959 15.55824 15.54748 15.5362 15.52777 15.52611 15.51928 15.51721 15.52225 15.52845 15.50603 15.47114 15.4659 15.45636 15.46765 15.48615 15.49685 15.50261 15.50393 15.50445 15.46815 15.46187 15.46734 15.45149 15.42762 15.40285 15.36728 15.33073 15.26132 15.18826
0 0 0 0 0 0 0 0 0 0 0 0 0 0 0 0 18.34642 18.30644 17.52466 16.97594 16.69082 16.3824 16.39038 16.41781 16.41986 16.12844 15.80653 15.23483 15.17857 15.14211 15.11622 15.10837 15.10065 15.09601 15.10377 15.11357 15.13052 15.14805 15.15527 15.15797 15.16613 15.17645 15.17588 15.18184 15.20036 15.21418 15.23271 15.24967 15.27728 15.31938 15.35871 15.39677 15.42882 15.45121 15.46519 15.47673 15.45417 15.4437 15.45058 15.45851 15.4475 15.44177 15.41758 15.40347 15.40247 15.42256 15.45373 15.47118 15.49687 15.50846 15.51428 15.51614 15.53545 15.55392 15.55815 15.58201 15.5931 15.59304 15.60673 15.62825 15.63094 15.61496 15.59445 15.57926 15.5735 15.57155 15.57094 15.57289 15.57486 15.56118 15.52119 15.52825 15.49665 15.51452 15.52757 15.51925 15.5206 15.53344 15.5181 15.5068 15.50202 15.48983 15.49677 15.47138 15.4324 15.40348 15.36611 15.30253 15.22442
0 0 0 0 0 0 0 0 0 0 0 0 0 0 0 18.91026 18.17799 17.51787 16.97463 16.70276 16.40508 16.4237 16.40431 16.10379 16.13049 15.82924 15.23543 15.22979 15.17656 15.14371 15.11539 15.10453 15.10136 15.09873 15.09938 15.12249 15.13677 15.1637 15.17908 15.19339 15.2096 15.22512 15.23487 15.24102 15.25935 15.27935 15.29681 15.32096 15.35707 15.39794 15.41801 15.44227 15.4661 15.49358 15.51691 15.53769 15.53874 15.54703 15.55553 15.55916 15.55154 15.537 15.52434 15.50271 15.50216 15.47664 15.51545 15.51286 15.52901 15.53376 15.54264 15.54554 15.55816 15.5933 15.62056 15.64232 15.63432 15.65912 15.67368 15.68261 15.67038 15.6563 15.63915 15.63684 15.63605 15.63544 15.63565 15.63375 15.6276 15.61636 15.60106 15.57894 15.56308 15.56027 15.55498 15.54842 15.54522 15.55303 15.54555 15.53272 15.53263 15.54345 15.51425 15.49593 15.46903 15.43839 15.41113 15.35883 15.27237
0 0 0 0 0 0 0 0 0 0 0 0 0 0 18.22065 18.21943 17.53587 16.96444 16.67483 16.37744 16.4036 16.09202 16.07859 16.09498 15.80914 15.51224 15.23365 15.22714 15.17945 15.14975 15.12261 15.11551 15.10809 15.10583 15.12856 15.14366 15.16154 15.18566 15.21847 15.245 15.25684 15.26673 15.27967 15.30111 15.32438 15.35324 15.39357 15.4397 15.46354 15.47955 15.49025 15.51011 15.52684 15.55017 15.57998 15.60628 15.61024 15.60748 15.6074 15.61095 15.62284 15.62706 15.62214 15.60592 15.56607 15.57132 15.55935 15.54422 15.54443 15.54668 15.56531 15.57813 15.59474 15.62924 15.67828 15.69337 15.68791 15.7119 15.72322 15.7261 15.71823 15.70031 15.69343 15.69538 15.69558 15.69317 15.69762 15.69846 15.69423 15.6746 15.64025 15.62288 15.60474 15.59379 15.58567 15.58105 15.57981 15.57399 15.57962 15.56576 15.567 15.56922 15.55464 15.5217 15.50664 15.46967 15.43573 15.38193 15.2895
0 0 0 0 0 0 0 0 0 0 0 0 0 18.08564 18.23792 17.51498 16.92871 16.64957 16.35182 16.36998 16.06659 16.06696 16.06786 16.106 15.81086 15.21713 15.21438 15.21367 15.18256 15.16092 15.14508 15.14172 15.13914 15.14237 15.16208 15.18271 15.19823 15.22924 15.26106 15.28083 15.29795 15.32263 15.35241 15.38882 15.42065 15.46022 15.48841 15.51559 15.534 15.54748 15.55582 15.57205 15.60399 15.62748 15.65435 15.67142 15.67343 15.67029 0 0 0 15.62401 15.63859 15.69923 15.67872 15.65015 15.63841 15.63953 15.59077 15.57472 15.58916 15.60855 15.63088 15.66483 15.71281 15.74061 15.73814 15.76199 15.76895 15.77869 15.78536 15.77964 15.77433 15.77057 15.77169 15.76484 15.77525 15.7623 15.75195 15.73346 15.70624 15.67617 15.64345 15.63602 15.62154 15.60821 15.59852 15.5886 15.5906 15.59134 15.5929 15.57953 15.56721 15.55087 15.53661 15.51311 15.4683 15.40796 15.31678
0 0 0 0 0 0 0 0 0 0 0 0 0 18.45719 17.5618 16.92069 16.61579 16.30598 16.33067 16.03647 16.05551 16.0647 16.09682 15.18902 15.19776 15.21011 15.20491 15.20973 15.18477 15.16807 15.1696 15.16551 15.16179 15.16069 15.17703 15.19812 15.23535 15.26435 15.30862 15.34575 15.38127 15.41689 15.44647 15.48794 15.53139 15.55594 15.5802 15.59424 15.60461 15.60845 15.61921 16.34249 15.64635 15.66489 15.69303 16.05582 16.7606 17.46815 0 0 0 0 0 16.094 15.73308 15.71257 15.68569 15.67062 15.65438 15.63574 15.63086 15.64694 15.67186 15.69859 15.74141 15.76866 15.78745 15.80617 15.81404 15.81866 15.82585 15.81928 15.81682 15.82011 15.82667 15.83271 15.82286 15.81835 15.80264 15.78068 15.76697 15.74517 15.72369 15.70059 15.67808 15.64747 15.63567 15.6177 15.60943 15.61654 15.6156 15.59822 15.58248 15.56733 15.55685 15.5384 15.49005 15.42199 15.3317
0 0 0 0 0 0 0 0 0 0 0 0 18.60321 17.83226 16.93276 16.60755 16.29755 16.03081 16.03857 16.0543 16.0653 16.0822 15.78856 15.18747 15.19382 15.19418 15.20822 15.21223 15.19432 15.19035 15.18812 15.19128 15.18604 15.18835 15.20855 15.23479 15.25266 15.29811 15.34641 15.39101 15.44125 15.48558 15.51928 15.55148 15.58142 15.61184 15.6213 0 0 15.61076 0 17.21039 16.44018 16.05939 16.44356 16.44148 17.15273 17.53407 18.45225 16.40472 15.72933 0 0 0 17.26498 15.73255 15.70733 15.6732 15.66949 15.65413 15.65398 15.67277 15.70109 15.73474 15.76975 15.78913 15.80856 15.82658 15.85015 15.86621 15.86874 15.8521 15.84657 15.85586 15.84937 15.8462 15.84711 15.84599 15.84894 15.83219 15.81941 15.79466 15.78054 15.76217 15.72803 15.6995 15.67661 15.6562 15.64176 15.64579 15.6433 15.62421 15.61237 15.59074 15.58439 15.56175 15.50955 15.43458 15.33962
0 0 0 0 0 0 0 0 0 0 0 17.85412 17.83252 16.94537 16.62414 16.00534 16.04095 16.05529 16.05671 16.06762 16.09837 15.4657 15.17384 15.18272 15.18978 15.18898 15.20775 15.22954 15.22469 15.21891 15.21946 15.21613 15.21267 15.21679 15.23608 15.26577 15.3065 15.36533 15.42148 15.47012 15.51867 15.55477 15.58176 15.6075 16.34957 0 0 0 0 0 17.92661 18.64284 18.45821 17.96398 17.62967 17.21786 17.19194 16.06964 15.71453 15.72106 15.73106 15.73589 15.73887 17.59533 17.92773 15.74093 15.71689 15.69448 15.69026 15.67596 15.68761 15.69896 15.7227 15.75279 15.78815 15.80793 15.82929 15.85223 15.87082 15.89344 15.88988 15.87771 15.88482 15.8682 15.86151 15.86291 15.86625 15.86353 15.87037 15.8874 15.88471 15.86731 15.83252 15.80849 15.78973 15.75847 15.72431 15.69621 15.68424 15.6772 15.66956 15.64575 15.63964 15.61773 15.60868 15.5776 15.53729 15.4609 15.36262
0 0 0 0 0 0 0 0 0 0 18.55834 17.86066 16.95463 16.29665 16.02021 15.73732 15.75673 15.77102 15.78393 15.79028 15.79354 15.18013 15.17593 15.18781 15.19257 15.20254 15.21621 15.25118 15.24903 15.24417 15.24977 15.24499 15.24089 15.24178 15.26227 15.3034 15.36322 15.43175 15.48281 15.52988 15.58162 15.60919 15.97764 0 0 0 0 0 0 0 0 0 0 0 18.00538 17.6623 16.87733 15.73619 15.73006 15.73887 15.74824 15.75703 15.7622 15.76445 15.76214 15.75855 15.74004 15.71568 15.71442 15.70277 15.70472 15.71682 15.74066 15.76685 15.80403 15.8366 15.85933 15.87278 15.89039 15.91048 15.90941 15.91394 15.89685 15.89536 15.89313 15.88391 15.88197 15.88353 15.8932 15.90264 15.90663 15.90289 15.88163 15.86262 15.84617 15.81895 15.78167 15.75577 15.73743 15.71819 15.70669 15.68685 15.67099 15.65267 15.62694 15.59217 15.55186 15.4733 15.38088
0 0 0 0 0 0 0 0 0 0 18.10675 16.93568 16.28885 16.0223 15.44946 15.47384 15.1942 15.19865 15.20014 15.2033 15.2084 15.20105 15.20098 15.2058 15.21421 15.2186 15.24767 15.27628 15.27411 15.28385 15.2849 15.27745 15.27238 15.28247 15.31352 15.35978 15.4185 15.46363 15.51212 15.56851 16.73306 0 0 0 0 0 0 0 0 0 0 0 0 0 18.62023 17.34835 15.78108 15.77444 15.77138 15.78362 15.80563 15.81512 15.80548 15.79411 15.78151 15.76242 15.76041 15.75064 15.73894 15.72342 15.72325 15.7295 15.75095 15.77803 15.81384 15.84573 15.88574 15.89604 15.91888 15.93675 15.93319 15.92274 15.92445 15.92565 15.93425 15.93139 15.92597 15.92631 15.93166 15.9395 15.93221 15.91879 15.90286 15.90853 15.89699 15.88007 15.83206 15.80691 15.78704 15.77019 15.74545 15.73018 15.71661 15.68891 15.64735 15.61746 15.5679 15.49101 15.40389
0 0 0 0 0 0 0 0 0 18.19065 17.58774 16.60132 15.97663 15.40872 15.17747 15.20028 15.1893 15.19398 15.20383 15.21875 15.22019 15.21868 15.22957 15.23253 15.23476 15.24785 15.27688 15.29892 15.30671 15.30525 15.30664 15.31209 15.30866 15.32315 15.35824 15.41287 15.4528 15.50313 15.55571 16.32164 16.53469 0 0 0 0 0 0 0 0 0 0 0 0 17.93942 17.735 16.54714 15.79091 15.78688 15.79398 15.82274 15.84549 15.85359 15.85076 15.81975 15.7938 15.79663 15.78944 15.78765 15.77614 15.76278 15.75589 15.76219 15.77939 15.80011 15.83344 15.85979 15.89238 15.92281 15.93944 15.94098 15.95324 15.96202 15.95092 15.94341 15.95538 15.96934 15.97523 15.97622 15.98061 15.97858 15.96568 15.95483 15.94205 15.93837 15.92951 15.91314 15.88947 15.86344 15.83646 15.8085 15.77856 15.76278 15.7417 15.70942 15.67366 15.63405 15.57979 15.50475 15.4207
0 0 0 0 0 0 0 0 19.13069 17.93315 16.58435 15.94479 15.64438 15.10427 15.13262 15.1583 15.16999 15.17306 15.18261 15.19274 15.20881 15.22348 15.23354 15.23607 15.24877 15.27716 15.31445 15.33586 15.33904 15.33715 15.33663 15.34008 15.34255 15.35549 15.39315 15.44274 15.47732 15.52125 15.91591 16.31712 16.73856 17.52923 0 18.33117 18.91325 0 0 0 0 0 0 0 18.67528 17.72031 16.94629 15.77019 15.78712 15.81016 15.83914 15.85765 15.85916 15.85246 15.84414 15.82991 15.8113 15.80238 15.79583 15.79627 15.80197 15.78807 15.77762 15.78364 15.80998 15.82742 15.85438 15.89053 15.91693 15.9443 15.95999 15.97038 15.98159 15.9801 15.97815 15.97504 15.97759 16.00474 16.00249 16.0071 16.00349 15.99076 15.98589 15.98151 15.97543 15.96459 15.95574 15.9431 15.93855 15.90482 15.88008 15.85413 15.82641 15.80059 15.77498 15.74725 15.70924 15.65601 15.59557 15.52168 15.43885
0 0 0 0 0 0 0 0 19.13553 17.94732 16.58476 15.93487 15.06081 15.08988 15.11321 15.138 15.15127 15.15812 15.16998 15.18734 15.19707 15.20932 15.22861 15.25409 15.27346 15.31288 15.34572 15.37742 15.38289 15.38981 15.39613 15.4005 15.39872 15.41021 15.44326 15.48545 15.51568 15.54188 15.57319 15.95026 16.34303 16.75741 17.18313 17.57855 18.32728 0 0 0 0 0 0 18.06356 17.32148 17.3273 15.75223 15.77748 15.82243 15.85319 15.86549 15.86667 15.86628 15.86011 15.84951 15.84095 15.83528 15.82193 15.80136 15.80574 15.80606 15.79602 15.78796 15.80211 15.8261 15.84184 15.87693 15.91313 15.94056 15.9652 15.98026 15.98321 15.9998 16.00514 15.99839 15.99232 16.00352 16.0281 16.03207 16.00865 16.00235 15.99878 15.99823 15.99499 15.99031 15.98572 15.98166 15.97303 15.96863 15.94256 15.90865 15.89316 15.87111 15.83893 15.80305 15.76464 15.71511 15.66852 15.60618 15.5332 15.45641
0 0 0 0 0 0 0 0 0 17.9559 16.59334 15.93532 15.05506 15.07406 15.0916 15.13026 15.13865 15.14034 15.16375 15.18176 15.20078 15.21282 15.23275 15.26745 15.29866 15.34206 15.38538 15.44317 15.46555 15.47711 15.48023 15.47545 15.47096 15.47195 15.49505 15.53372 15.55729 15.57526 15.60196 15.61057 15.62002 15.63291 15.64508 16.01764 16.82395 17.58788 18.34786 18.6939 0 0 18.32338 17.25243 16.47838 15.74089 15.76864 15.80299 15.85569 15.86422 15.87629 15.8801 15.87538 15.87008 15.87099 15.86549 15.86108 15.8337 15.82666 15.82125 15.81189 15.81878 15.82738 15.84968 15.86457 15.87927 15.90728 15.94109 15.96526 15.98242 15.99946 16.0059 16.0035 16.01464 16.01793 16.01884 16.02807 16.03304 16.04269 16.04362 16.03912 16.03216 16.03376 16.03216 16.02796 16.02691 16.01754 16.00137 15.98558 15.97269 15.9546 15.92381 15.90527 15.86368 15.82411 15.77848 15.73522 15.68912 15.61996 15.55557 15.48309
0 0 0 0 0 0 0 0 0 19.01364 17.32767 16.28613 15.33464 15.07671 15.08342 15.12603 15.12743 15.13259 15.15888 15.17886 15.20947 15.22313 15.2481 15.28886 15.32773 15.37669 15.45651 15.5173 15.53859 15.55175 15.55531 15.54826 15.54082 15.53662 15.54751 15.57345 15.595 15.60448 15.61924 15.62302 15.62907 15.63567 15.64814 15.66489 16.03756 16.44187 16.84535 17.22188 18.32446 17.21779 16.04129 15.70036 15.72342 15.75778 15.79737 15.83601 15.86512 15.88566 15.89663 15.89643 15.89087 15.88652 15.87498 15.86616 15.85674 15.85691 15.85269 15.83632 15.82656 15.84271 15.85919 15.8702 15.88232 15.91083 15.94351 15.97009 15.98543 16.00543 16.02064 16.02595 16.02656 16.03174 16.03617 16.0427 16.0495 16.05456 16.05887 16.06989 16.07723 16.07325 16.06911 16.06634 16.0591 16.05141 16.03668 16.02231 16.01166 16.00311 15.99074 15.96151 15.93133 15.88557 15.84022 15.80149 15.76766 15.71469 15.65081 15.58875 15.51239
0 0 0 0 0 0 0 0 0 19.17274 18.28225 16.64785 15.64068 15.07851 15.09903 15.13391 15.12885 15.14044 15.16262 15.18752 15.20229 15.22403 15.25585 15.29376 15.35464 15.43647 15.52147 15.59222 15.62234 15.63009 15.62093 15.61156 15.60993 15.60587 15.60128 15.60921 15.63077 15.64646 15.64443 15.64761 15.64416 15.64055 15.64856 15.66572 15.68655 15.70599 16.08803 0 17.23832 16.07004 15.72791 15.7518 15.77806 15.81139 15.84865 15.88058 15.90965 15.91944 15.92564 15.91688 15.90795 15.90128 15.89879 15.89506 15.88452 15.86691 15.84939 15.84188 15.84419 15.86215 15.87211 15.89489 15.91572 15.93735 15.96045 15.97625 15.99971 16.01231 16.02151 16.03078 16.04277 16.05297 16.0594 16.06025 16.07191 16.07346 16.08095 16.09312 16.10549 16.10868 16.09901 16.0925 16.08363 16.07232 16.06037 16.0499 16.04092 16.03554 16.00335 15.98285 15.94961 15.90299 15.85601 15.83127 15.7858 15.7314 15.67067 15.61514 15.52738
0 0 0 0 0 0 0 0 0 0 18.84587 17.37917 15.94576 15.34446 15.12369 15.14174 15.11646 15.11933 15.14173 15.14839 15.18331 15.20636 15.24749 15.29696 15.36835 15.4559 15.54675 15.62433 0 0 0 15.84852 15.64721 15.6482 15.64074 15.6424 15.65593 15.67719 15.67923 15.67167 15.66012 15.66214 15.66484 15.67743 15.69372 15.71464 15.74068 16.14028 15.75392 15.762 15.78633 15.81392 15.84273 15.87238 15.88431 15.90028 15.91769 15.93594 15.94355 15.93829 15.93594 15.93661 15.92148 15.91345 15.89275 15.87594 15.86497 15.86369 15.86581 15.87752 15.89019 15.90473 15.92726 15.94297 15.96217 15.99163 16.01284 16.02548 16.0355 16.05054 16.05988 16.06994 16.07753 16.08489 16.09083 16.09232 16.09838 16.1102 16.11252 16.11543 16.11367 16.11332 16.11104 16.10524 16.09287 16.08362 16.06847 16.05871 16.0354 16.00403 15.96615 15.91626 15.87921 15.84924 15.80413 15.75478 15.69092 15.61843 15.53952
0 0 0 0 0 0 0 0 0 0 0 18.72532 17.39414 15.95476 15.35245 15.09525 15.07925 15.08456 15.09441 15.10434 15.13906 15.1738 15.23054 15.28545 15.35844 15.45547 15.89437 16.31703 0 0 0 16.46127 16.75296 15.65243 15.65642 15.64993 15.66853 15.68388 15.69414 15.68923 15.68001 15.67321 15.68176 15.69987 15.7172 15.74454 15.76552 15.79004 15.79718 15.80662 15.83069 15.85804 15.8787 15.89566 15.90929 15.94177 15.96176 15.9634 15.95516 15.94119 15.93546 15.93072 15.93121 15.91101 15.89786 15.88917 15.8874 15.88898 15.89582 15.905 15.91299 15.92804 15.95329 15.9609 15.97526 15.99645 16.01812 16.03979 16.06112 16.07439 16.08473 16.09444 16.10319 16.10991 16.11038 16.11706 16.11947 16.13761 16.15732 16.16084 16.15383 16.1477 16.1377 16.11882 16.11044 16.09726 16.07611 16.06019 16.04048 16.01289 15.98307 15.93613 15.89797 15.86689 15.81247 15.76463 15.69178 15.62432 15.54321
0 0 0 0 0 0 0 0 0 0 0 0 18.91563 17.69507 15.90105 15.29994 15.03179 15.04063 15.05553 15.0769 15.09647 15.14131 15.20609 15.27131 15.34031 15.43912 16.21918 0 0 17.77907 17.90574 16.36066 15.63976 15.64804 15.641 15.66343 15.67686 15.69345 15.70447 15.69976 15.68951 15.68901 15.6961 15.71666 15.74132 15.7734 15.79496 15.80916 15.8194 15.83168 15.84499 15.86515 15.89546 15.91684 15.94833 15.96195 15.98628 15.98827 15.98083 15.9613 15.9417 15.94056 15.94678 15.92818 15.91729 15.91532 15.90973 15.9098 15.90667 15.92554 15.93537 15.94855 15.97022 15.98766 15.99699 16.01528 16.03863 16.06378 16.08134 16.10617 16.11528 16.12622 16.13382 16.14084 16.14385 16.15997 16.18036 16.16848 16.18766 16.19747 16.18848 16.17496 16.1481 16.13447 16.12087 16.1045 16.07979 16.05523 16.03856 16.01883 15.9957 15.95148 15.91344 15.87461 15.82275 15.78713 15.72289 15.65926 15.58298
0 0 0 0 0 0 0 0 0 0 0 0 0 0 0 15.82876 15.24239 14.99308 15.0223 15.03329 15.07301 15.11597 15.17907 15.2438 15.30743 15.72949 15.82309 16.23757 16.63776 18.68512 17.88768 16.33331 15.63216 15.63754 15.64 15.66847 15.68582 15.70174 15.71196 15.71724 15.71125 15.70891 15.71694 15.73137 15.7528 15.77703 15.79568 15.80546 15.8197 15.83862 15.86278 15.89319 15.91987 15.94664 15.97821 15.98871 16.00039 16.00464 16.00729 15.99373 15.97518 15.96693 15.95096 15.93116 15.92811 15.91646 15.92283 15.93622 15.94782 15.96556 15.96011 15.97081 15.9822 15.99791 16.01598 16.03605 16.0623 16.08589 16.10531 16.13089 16.15623 16.16372 16.16606 16.17204 16.17652 16.19549 16.20776 16.21255 16.2076 16.2077 16.19968 16.18947 16.17007 16.15091 16.13635 16.12476 16.09275 16.05958 16.04063 16.02982 16.00819 15.97582 15.93078 15.88403 15.85207 15.81196 15.75792 15.69137 15.62442
0 0 0 0 0 0 0 0 0 0 0 0 0 0 0 16.43001 15.81149 14.94474 14.98391 15.00753 15.05507 15.09833 15.16215 15.2283 15.28442 15.35668 16.13535 16.21731 16.63384 0 17.92098 15.60687 15.62546 15.63141 15.66025 15.66821 15.68865 15.70652 15.72078 15.72185 15.72668 15.72858 15.73952 15.75098 15.76667 15.78672 15.79851 15.80353 15.8358 15.858 15.88867 15.90678 15.92584 15.95691 15.98715 16.00473 16.02008 16.01246 16.02168 16.0168 15.9986 15.97322 15.9455 15.94032 15.93922 15.94431 15.95752 15.96792 15.9741 15.98038 15.98706 15.98903 16.00319 16.02067 16.04611 16.06198 16.08489 16.11249 16.14719 16.19 16.19462 16.19575 16.19726 16.20305 16.21237 16.20757 16.20551 16.20661 16.2119 16.21591 16.21146 16.19689 16.17935 16.15766 16.14171 16.12599 16.0985 16.07112 16.05086 16.04116 16.02314 15.99574 15.95167 15.9139 15.89006 15.84611 15.80055 15.74839 15.69301
0 0 0 0 0 0 0 0 0 0 0 0 0 17.52559 17.20066 16.45328 15.80568 14.93497 14.9809 15.01689 15.05584 15.09613 15.16058 15.23046 15.2807 15.33966 16.45928 16.90874 17.37732 17.32571 18.30309 15.93097 15.60857 15.63015 15.65541 15.67748 15.69857 15.71844 15.72735 15.72259 15.71891 15.72702 15.74566 15.7726 15.7914 15.79246 15.79774 15.81636 15.8494 15.87517 15.89987 15.91246 15.9365 15.94817 15.95536 15.99351 16.01682 16.03051 16.02418 16.01487 16.00447 15.98925 15.97281 15.96594 15.961 15.96729 15.97329 15.97957 15.99494 15.99726 16.0018 16.00644 16.02112 16.04378 16.07368 16.09178 16.11432 16.14308 16.18771 16.22344 16.22584 16.22574 16.22898 16.23372 16.22775 16.2191 16.21502 16.21166 16.21152 16.21257 16.20443 16.19457 16.17543 16.16078 16.14392 16.12736 16.10961 16.09877 16.07448 16.05906 16.03611 16.01217 15.9743 15.92988 15.90412 15.86432 15.83457 15.79936 15.75741
0 0 0 0 0 0 0 0 0 0 0 0 16.79044 16.44557 16.48022 16.16574 15.54234 14.97165 15.01749 15.05658 15.09328 15.1388 15.19257 15.25018 15.30715 15.36575 16.11971 16.18588 16.98219 17.79599 16.26657 15.56682 15.60542 15.64701 15.67489 15.69255 15.71045 15.72269 15.72617 15.72749 15.733 15.74254 15.75048 15.76599 15.78654 15.79999 15.82048 15.83882 15.86403 15.89069 15.90789 15.91976 15.9329 15.95158 15.97978 16.00462 16.02438 16.0272 16.01679 16.0064 16.00449 16.00185 15.99488 15.99406 15.9918 15.99736 15.99936 16.00257 16.00558 16.01578 16.03257 16.03474 16.05135 16.06742 16.09834 16.12655 16.16011 16.17833 16.19916 16.22843 16.22658 16.23663 16.23071 16.22864 16.22899 16.22107 16.21276 16.21182 16.20578 16.19747 16.19095 16.18812 16.17221 16.16 16.14388 16.13733 16.12612 16.10281 16.0829 16.06675 16.04605 16.01999 15.98526 15.94884 15.91674 15.89847 15.87451 15.84578 15.79623
0 0 0 0 0 0 0 0 18.28116 17.62798 16.66464 16.00857 16.06884 16.09243 15.83106 15.89859 15.62842 15.04141 15.08126 15.12366 15.16382 15.20276 15.25407 15.29974 15.34917 15.40104 15.44933 15.48382 15.51162 15.537 15.55452 15.58539 15.62352 15.67093 15.68885 15.70247 15.71846 15.73269 15.73885 15.73931 15.74495 15.75988 15.77031 15.78165 15.8052 15.82598 15.84384 15.85471 15.87827 15.91521 15.92933 15.94254 15.95496 15.96974 15.98251 15.99424 16.00971 16.01429 16.01646 16.01865 16.01892 16.01466 16.00962 16.01244 16.01411 16.02443 16.02702 16.03023 16.03655 16.05229 16.05244 16.06538 16.08696 16.11004 16.12856 16.13858 16.1683 16.19592 16.21361 16.23343 16.23447 16.24072 16.24744 16.23888 16.22502 16.21427 16.2121 16.2008 16.18314 16.17519 16.17736 16.18626 16.17796 16.16409 16.15665 16.1475 16.13181 16.11533 16.09321 16.07471 16.05829 16.03 15.99923 15.96885 15.94059 15.92166 15.89791 15.87755 15.83975
0 0 0 0 0 0 0 17.27669 17.27609 15.94286 15.66269 15.68505 15.72941 15.81716 15.90486 15.65769 15.07923 15.10645 15.14319 15.18213 15.22825 15.25524 15.30046 15.34768 15.39073 15.43314 15.4731 15.5107 15.54551 15.5734 15.59893 15.63138 15.66747 15.69856 15.70816 15.71711 15.72995 15.74578 15.74844 15.74797 15.75072 15.76392 15.78257 15.7826 15.81017 15.83978 15.85668 15.86888 15.87713 15.88797 15.89932 15.9162 15.93158 15.95066 15.96687 15.97982 15.99605 16.00783 16.02108 16.02292 16.02118 16.02279 16.01675 16.01928 16.02711 16.02955 16.036 16.0573 16.06751 16.0787 16.07975 16.0979 16.11403 16.12726 16.15218 16.17285 16.19144 16.20808 16.21711 16.22757 16.23862 16.24267 16.2414 16.23957 16.23933 16.22369 16.19987 16.19089 16.16812 16.16974 16.17072 16.175 16.17754 16.17631 16.16187 16.15584 16.14985 16.14261 16.13051 16.10021 16.07625 16.04522 16.02167 15.99678 15.97551 15.9384 15.9118 15.89246 15.85545
0 0 0 0 0 0 17.76083 17.61818 15.93134 15.63203 15.63241 15.68723 15.78084 15.57764 15.36303 15.1241 15.14308 15.18453 15.21776 15.25694 15.27888 15.29682 15.34798 15.38386 15.42023 15.44966 15.49028 15.54228 15.57934 15.60541 15.62929 15.66955 15.69834 15.72017 15.72168 15.72437 15.73892 15.74882 15.75983 15.76186 15.75779 15.75783 15.76772 15.78318 15.80556 15.81946 15.83599 15.84568 15.85256 15.86305 15.87817 15.8878 15.9034 15.92686 15.94053 15.95404 15.97677 15.99054 16.00375 16.01296 16.02522 16.03038 16.0317 16.0303 16.02894 16.04048 16.05555 16.07408 16.07938 16.09684 16.1158 16.13385 16.14557 16.16165 16.18033 16.197 16.21337 16.21323 16.21804 16.2253 16.22612 16.22711 16.23354 16.22911 16.22895 16.22172 16.18926 16.16508 16.17066 16.16672 16.15678 16.17648 16.167 16.17219 16.17114 16.16945 16.16711 16.17382 16.17054 16.13198 16.09894 16.07323 16.05648 16.03667 16.01119 15.97084 15.94096 15.91744 15.88044
0 0 0 0 0 0 18.76133 16.90298 15.9244 15.61243 15.35348 15.4531 15.2466 15.05248 15.12085 15.1803 15.21872 15.23866 15.26655 15.29609 15.32253 15.35114 15.39002 15.41734 15.4539 15.47418 15.51651 15.57093 15.60955 15.6248 15.64566 15.68093 15.70457 15.71838 15.71784 15.72146 15.73439 15.74257 15.74698 15.74777 15.75155 15.752 15.76619 15.78309 15.79877 15.80745 15.81556 15.82258 15.837 15.85118 15.86212 15.86803 15.87929 15.89074 15.93431 15.94855 15.95965 15.96948 15.98633 16.00217 15.9993 16.00706 16.00838 16.01759 16.02986 16.03835 16.05382 16.07819 16.09095 16.11636 16.12725 16.15028 16.1668 16.18835 16.20487 16.21636 16.21938 16.21903 16.2193 16.22276 16.21852 16.21398 16.2154 16.21676 16.19216 16.18894 16.18165 16.15873 16.15502 16.13977 16.1496 16.15444 16.15262 16.16672 16.18281 16.19275 16.18597 16.18901 16.18402 16.14167 16.11424 16.10159 16.09439 16.0849 16.04796 16.01906 15.99773 15.95096 15.92169
0 0 0 0 0 18.78072 18.08509 16.8643 15.94648 15.66492 15.1641 14.95236 15.01728 15.09486 15.16354 15.21756 15.25376 15.28362 15.3184 15.34748 15.37636 15.39344 15.43649 15.46777 15.49639 15.51943 15.55408 15.60389 15.62802 15.64741 15.66597 15.68204 15.70824 15.71421 15.71257 15.71523 15.7284 15.7306 15.73189 15.73587 15.73685 15.74406 15.75407 15.76357 15.77881 15.78989 15.79212 15.80829 15.82399 15.83902 15.84951 15.8608 15.86503 15.86833 15.87961 15.89292 15.92033 15.95223 15.96922 15.97973 15.98402 15.99118 15.99863 16.03002 16.05116 16.0621 16.06984 16.08473 16.10651 16.1255 16.13616 16.14399 16.1753 16.18318 16.19209 16.20134 16.211 16.21224 16.22373 16.21518 16.20191 16.19528 16.19356 16.19365 16.17927 16.16797 16.15335 16.13924 16.11432 16.11715 16.12606 16.13198 16.13952 16.15846 16.18213 16.19998 16.20492 16.20454 16.18884 16.16926 16.15528 16.12712 16.11007 16.0983 16.07545 16.05817 16.02077 15.99493 15.9575
0 0 0 0 17.68056 17.10978 15.83202 15.59312 15.36074 14.88552 14.94853 15.00753 15.07895 15.14574 15.20745 15.26051 15.29679 15.32907 15.3629 15.38999 15.4053 15.43591 15.47738 15.50543 15.54029 15.57308 15.60828 15.64 15.65051 15.67212 15.67849 15.69387 15.70844 15.7093 15.70343 15.70993 15.71142 15.72613 15.72747 15.71951 15.72442 15.7305 15.73572 15.72711 15.74394 15.75803 15.7649 15.77779 15.79653 15.8161 15.8249 15.83828 15.84167 15.85806 15.86854 15.87933 15.87639 15.87011 15.90704 15.93078 15.94542 15.95648 15.96603 16.01207 16.03883 16.0526 16.06428 16.08981 16.12535 16.14663 16.14756 16.15338 16.16824 16.17919 16.18928 16.19728 16.20135 16.20274 16.19433 16.20349 16.19362 16.18555 16.17794 16.17224 16.14105 16.12052 16.11989 16.11847 16.10273 16.11547 16.12049 16.13735 16.14899 16.15632 16.17019 16.18521 16.20473 16.20783 16.19039 16.16591 16.16963 16.1552 16.14578 16.12489 16.10758 16.07502 16.04105 16.02853 16.00811
0 0 0 0 18.7542 16.07755 14.77156 14.81634 14.88678 14.94606 15.02282 15.10252 15.15682 15.2082 15.27097 15.32931 15.36434 15.3813 15.40924 15.42863 15.45296 15.48426 15.51916 15.55843 15.57821 15.60063 15.63546 15.66105 15.67471 15.68514 15.68919 15.70232 15.71349 15.71 15.70537 15.70606 15.71731 15.72274 15.7061 15.70704 15.71038 15.6978 15.68834 15.69704 15.71358 15.73332 15.7486 15.76239 15.77481 15.77724 15.7801 15.79193 15.81379 15.83716 15.84608 15.85573 15.8653 15.86535 15.87319 15.88825 15.90481 15.9239 15.9622 16.01011 16.04205 16.0554 16.08946 16.11863 16.1341 16.14604 16.14988 16.15813 16.17202 16.18288 16.18855 16.18809 16.19592 16.20377 16.18998 16.17125 16.17965 16.17672 16.13683 16.10919 16.09526 16.07657 16.07897 16.09199 16.10514 16.12895 16.13589 16.14236 16.15079 16.16311 16.16591 16.17333 16.18667 16.19713 16.18113 16.16227 16.15459 16.15846 16.16375 16.15872 16.14717 16.13807 16.09237 16.08719 16.06196
0 0 0 17.52851 17.03505 15.73506 14.75872 14.85047 14.93337 15.02321 15.10718 15.16886 15.22333 15.27463 15.32419 15.3695 15.39562 15.41211 15.43925 15.47397 15.50846 15.53958 15.55908 15.59168 15.6108 15.63183 15.66237 15.68535 15.69833 15.70008 15.7094 15.71968 15.72234 15.71309 15.70509 15.70847 15.7018 15.70029 15.6874 15.68653 15.67572 15.66867 15.67144 15.68296 15.69923 15.71753 15.73209 15.74176 15.7409 15.74384 15.75097 15.76682 15.79179 15.80275 15.82125 15.83535 15.85246 15.8609 15.86959 15.88152 15.89596 15.91931 15.95991 15.98653 16.02206 16.06164 16.0931 16.10136 16.12366 16.14428 16.15472 16.15985 16.1774 16.19165 16.2104 16.20973 16.1895 16.19073 16.18931 16.1686 16.14518 16.12581 16.09009 16.07567 16.05897 16.06963 16.0815 16.08528 16.09211 16.11633 16.14726 16.18169 16.18415 16.17086 16.16453 16.16226 16.16893 16.1766 16.17456 16.16666 16.1625 16.17312 16.1651 16.16012 16.17381 16.17646 16.12379 16.11388 16.11323
0 0 0 17.3698 16.95498 15.67536 15.23383 14.87377 15.01033 15.11169 15.17039 15.23278 15.2821 15.32131 15.36284 15.38762 15.41989 15.43643 15.4629 15.5009 15.53588 15.56956 15.59953 15.62083 15.64071 15.65763 15.677 15.69667 15.70373 15.70864 15.718 15.71946 15.72218 15.71501 15.69728 15.6856 15.67692 15.67503 15.66746 15.66031 15.65519 15.65573 15.65629 15.66305 15.67919 15.69666 15.70766 15.72075 15.72765 15.72888 15.73274 15.74481 15.77228 15.78939 15.80058 15.81318 15.83261 15.84898 15.85645 15.86652 15.89469 15.92328 15.94442 16.00973 16.04783 16.06637 16.06304 16.11601 16.1504 16.16491 16.19245 16.21411 16.21365 16.21471 16.23598 16.23228 16.1862 16.17843 16.16212 16.13387 16.12456 16.10341 16.0823 16.06197 16.05496 16.06038 16.07435 16.07491 16.107 16.14173 16.15969 16.18262 16.19676 16.19164 16.18895 16.18872 16.19104 16.1958 16.19533 16.18158 16.19088 16.19329 16.17422 16.17171 16.17001 16.18078 16.17518 16.14084 16.14499
0 0 0 18.44468 17.19575 15.69333 14.99522 14.85734 14.99647 15.13482 15.2439 15.28381 15.32243 15.35944 15.38615 15.40849 15.44046 15.46176 15.49281 15.53151 15.56726 15.59125 15.60713 15.62122 15.63424 15.6508 15.67273 15.68967 15.69615 15.70257 15.69697 15.70625 15.71734 15.70903 15.68514 15.66915 15.65842 15.64887 15.6457 15.64163 15.63426 15.62998 15.63496 15.64586 15.66557 15.68066 15.68632 15.70004 15.7042 15.70163 15.70331 15.72269 15.75062 15.77685 15.78977 15.80865 15.83103 15.84549 15.84976 15.87141 15.90404 15.93309 15.98511 16.03418 16.05532 16.06622 16.11371 16.14519 16.15663 16.18958 16.20706 16.22806 16.23645 16.24177 16.23151 16.227 16.17303 16.14069 16.13344 16.12118 16.1206 16.11683 16.09121 16.06207 16.06156 16.06913 16.09695 16.10742 16.13306 16.16191 16.17938 16.19826 16.20032 16.20668 16.20339 16.206 16.21159 16.21189 16.20553 16.21269 16.2192 16.21905 16.20067 16.19194 16.19192 16.19455 16.203 16.20253 16.1954
0 0 0 18.53068 16.22141 15.20006 14.79025 14.91711 15.06809 15.18889 15.27805 15.31379 15.34791 15.36203 15.39599 15.42454 15.45176 15.4766 15.50538 15.52633 15.55151 15.57384 15.58195 15.59404 15.60188 15.61184 15.63037 15.66346 15.67614 15.67637 15.67915 15.6845 15.69989 15.70458 15.68128 15.65707 15.64477 15.63717 15.63318 15.63319 15.63246 15.62947 15.63086 15.63538 15.64451 15.66135 15.67419 15.69145 15.69298 15.6869 15.70963 15.74029 15.75896 15.78207 15.79545 15.81412 15.8327 15.86052 15.87417 15.89296 15.92782 15.97049 16.01005 16.04223 16.07775 16.092 16.12002 16.15448 16.16367 16.17176 16.20108 16.21804 16.24671 16.25767 16.23001 16.21572 16.18201 16.15604 16.1408 16.12179 16.11546 16.12672 16.10382 16.08301 16.09321 16.10174 16.13075 16.16592 16.19132 16.21063 16.22848 16.25076 16.24912 16.24594 16.25091 16.25042 16.25491 16.2439 16.23804 16.25185 16.27325 16.27055 16.261 16.25909 16.26292 16.27442 16.2829 16.27743 16.26236
14.95485 14.94799 15.93763 16.33212 14.90846 14.76663 14.87872 15.02622 15.146 15.25377 15.3085 15.33813 15.36367 15.37514 15.39822 15.42512 15.44356 15.46957 15.4902 15.50351 15.52394 15.53104 15.54999 15.56003 15.57107 15.5826 15.5994 15.62215 15.64576 15.66321 15.67538 15.68126 15.68527 15.68323 15.66977 15.65746 15.64406 15.63399 15.63651 15.63312 15.63175 15.63365 15.63417 15.63687 15.64508 15.66108 15.67344 15.6849 15.69116 15.71002 15.73775 15.7591 15.77542 15.79769 15.82232 15.84435 15.85696 15.88627 15.90696 15.92387 15.95379 15.97691 16.03863 16.06427 16.08886 16.10544 16.12785 16.16276 16.19098 16.19677 16.21317 16.22971 16.2485 16.2558 16.25053 16.21317 16.19381 16.16717 16.13771 16.11647 16.11043 16.11962 16.12274 16.12479 16.13643 16.12123 16.16119 16.20993 16.2312 16.25064 16.2797 16.29512 16.29685 16.29271 16.29719 16.28776 16.28462 16.28326 16.28683 16.30999 16.32622 16.33896 16.34409 16.343 16.34849 16.36147 16.35308 16.34036 16.32874
14.9677 14.94201 14.93427 14.94907 14.89782 14.97568 15.07588 15.1791 15.25546 15.31747 15.35546 15.36801 15.37181 15.37512 15.39299 15.41589 15.43016 15.4371 15.45228 15.47555 15.48366 15.50391 15.52047 15.52443 15.53142 15.54128 15.55513 15.58122 15.60633 15.6253 15.64522 15.66431 15.67153 15.67939 15.67689 15.66683 15.6549 15.64566 15.63795 15.64058 15.63675 15.6393 15.64522 15.64914 15.6531 15.66552 15.67848 15.68679 15.70403 15.7304 15.75709 15.77632 15.79868 15.8261 15.85413 15.87573 15.89999 15.93251 15.9514 15.95742 15.9663 16.01115 16.04963 16.07644 16.095 16.11417 16.14382 16.17373 16.18391 16.20692 16.2248 16.23078 16.24149 16.25099 16.25267 16.23824 16.20821 16.19506 16.15879 16.12983 16.11664 16.12615 16.16077 16.18616 16.1739 16.18126 16.2281 16.27527 16.30305 16.32516 16.32731 16.34558 16.33967 16.33325 16.32913 16.34541 16.3388 16.33117 16.34335 16.373 16.40179 16.41688 16.43433 16.43888 16.42315 16.40514 16.40031 16.40168 16.41158
15.12129 15.12055 15.13696 15.16032 15.12659 15.17949 15.23123 15.28815 15.32277 15.3709 15.38585 15.37801 15.3745 15.39533 15.40535 15.42868 15.44526 15.45057 15.44568 15.4426 15.44718 15.47675 15.48048 15.4852 15.49334 15.50624 15.5258 15.55637 15.57441 15.59455 15.6152 15.63739 15.65905 15.67624 15.67181 15.67041 15.66643 15.66116 15.65016 15.65395 15.66649 15.66498 15.66591 15.67112 15.6727 15.68132 15.69105 15.70363 15.72763 15.74891 15.78398 15.81891 15.84087 15.86881 15.88161 15.90846 15.94355 15.97696 15.99937 15.99715 16.00238 16.02169 16.05204 16.07997 16.10019 16.11951 16.14941 16.17734 16.19767 16.21239 16.21753 16.22597 16.24214 16.26214 16.26844 16.22996 16.22051 16.21973 16.19005 16.16774 16.16594 16.1724 16.19695 16.2235 16.24444 16.27114 16.29082 16.33234 16.37081 16.3742 16.4002 16.41203 16.40717 16.41023 16.4079 16.40902 16.41287 16.42959 16.43855 16.44725 16.46393 16.48075 16.49741 16.51227 16.49556 16.48963 16.49122 16.496 16.49213
15.19995 15.21457 15.24538 15.26929 15.28251 15.29451 15.31801 15.3379 15.35524 15.37525 15.37953 15.37636 15.37354 15.38459 15.40186 15.41238 15.41708 15.40327 15.40633 15.41729 15.43535 15.43402 15.42948 15.43849 15.45633 15.48689 15.49118 15.5209 15.54598 15.57886 15.60984 15.64002 15.66706 15.68804 15.69601 15.69685 15.69593 15.68893 15.68446 15.67821 15.68362 15.70258 15.70206 15.69456 15.69911 15.716 15.72298 15.74311 15.7733 15.80348 15.84049 15.86699 15.89262 15.92723 15.93143 15.94508 15.97667 16.00162 16.00724 16.03802 16.04139 16.06127 16.07852 16.09261 16.12136 16.14036 16.16828 16.19673 16.21531 16.23014 16.2304 16.23843 16.24633 16.26135 16.26673 16.25098 16.24142 16.22769 16.21466 16.21014 16.19751 16.19862 16.21788 16.22885 16.24828 16.29594 16.33683 16.37182 16.41623 16.43577 16.45565 16.47573 16.4889 16.49866 16.48161 16.4896 16.49896 16.50701 16.5227 16.54303 16.58728 16.62388 16.62883 16.61626 16.61646 16.61325 16.61271 16.60453 16.61008
15.28654 15.29593 15.29462 15.29617 15.30111 15.30811 15.32359 15.33935 15.34598 15.34782 15.35751 15.35773 15.35311 15.36421 15.37813 15.38464 15.39169 15.39678 15.40809 15.40982 15.41763 15.42392 15.42333 15.4494 15.46695 15.50424 15.50244 15.51526 15.53939 15.57934 15.61645 15.6512 15.67737 15.70369 15.71669 15.72066 15.72043 15.72642 15.72924 15.73077 15.7273 15.72837 15.73183 15.73965 15.75003 15.76271 15.77647 15.79904 15.82228 15.84639 15.88188 15.91387 15.94783 15.96391 15.96772 15.98203 16.00894 16.02418 16.04781 16.06334 16.08503 16.10477 16.12211 16.14777 16.16829 16.18897 16.20766 16.22272 16.25213 16.26391 16.25275 16.25848 16.26242 16.27241 16.27734 16.29055 16.27588 16.2566 16.24195 16.23278 16.23356 16.23536 16.25014 16.27519 16.30833 16.34535 16.38061 16.40632 16.45676 16.50391 16.52681 16.54047 16.54176 16.53031 16.54458 16.55142 16.55405 16.56016 16.58484 16.62716 16.67405 16.70558 16.72222 16.71635 16.70198 16.68958 16.68528 16.69048 16.68822
15.30783 15.29681 15.29587 15.29891 15.30891 15.31561 15.31983 15.32883 15.32542 15.32713 15.33744 15.33438 15.32617 15.34033 15.34364 15.35175 15.37119 15.38721 15.38314 15.41095 15.3979 15.435 15.43364 15.47731 15.48765 15.52128 15.53841 15.54095 15.57142 15.60801 15.649 15.68563 15.70711 15.72883 15.75418 15.75891 15.75863 15.76076 15.76428 15.77246 15.77083 15.77025 15.76664 15.77002 15.80724 15.82155 15.84133 15.87331 15.89379 15.92081 15.94454 15.96862 15.98333 16.00109 16.01325 16.0271 16.05841 16.08788 16.10745 16.12417 16.16234 16.17253 16.19051 16.19626 16.20989 16.22429 16.23619 16.26389 16.27848 16.29086 16.29742 16.29326 16.29283 16.30111 16.29516 16.29622 16.28393 16.27287 16.27075 16.26983 16.28423 16.29339 16.30015 16.32869 16.36277 16.39577 16.42754 16.47075 16.52031 16.55321 16.59642 16.63478 16.63807 16.63432 16.64813 16.66011 16.66198 16.6597 16.66445 16.67953 16.72136 16.75139 16.7708 16.77493 16.76962 16.76927 16.77391 16.76121 16.75565
15.32054 15.3149 15.31198 15.30402 15.30394 15.31097 15.3196 15.32591 15.32993 15.33029 15.34424 15.32488 15.31433 15.32041 15.31801 15.33189 15.35038 15.35989 15.37323 15.38827 15.39707 15.42658 15.46689 15.50364 15.52702 15.5563 15.57783 15.60068 15.63181 15.6748 15.70164 15.7183 15.74127 15.77447 15.79264 15.7999 15.80357 15.80665 15.81476 15.81525 15.82422 15.82459 15.82666 15.85372 15.87632 15.8931 15.91802 15.9372 15.96607 15.97129 16.00171 16.01144 16.04348 16.07697 16.09166 16.1067 16.13025 16.15769 16.18611 16.20747 16.22842 16.23786 16.26137 16.27828 16.28784 16.28541 16.29409 16.30285 16.30608 16.30803 16.31193 16.33353 16.33868 16.33333 16.33027 16.3215 16.32021 16.31727 16.3279 16.341 16.34126 16.34035 16.35739 16.37918 16.41141 16.44135 16.48007 16.52257 0 0 16.59801 16.63582 16.66048 16.67104 16.67016 16.66382 16.67284 16.6705 16.66775 0 0 16.76453 16.81458 16.81389 16.80788 16.80591 16.81436 16.81529 16.81215
