ncols        109
nrows        82
xllcorner    -1.041666666667
yllcorner    37.041665395101
cellsize     0.083333333333
NODATA_value -9999
0.0 0 0 0 0 0 0 0 0 0 0 0 0 0 0 0 0 0 0 0 0 0 0 0 0 0 0 0 0 0 0 0 0 0 0 0 0 0 0 0 0 0 0 0 0 0 0 0 0 0 0 0 0 0 0 0 0 0 0 0 0 0 0 0 0 0 0 0 0 0 0 0 0 0 0 0 0 0 0 0 0 0 0 0 0 0 0 0 0 0 0 0 0 0 0 0 0 0 0 0 0 0 0 0 0 17.8443 16.43541 14.72188 14.70258
0 0 0 0 0 0 0 0 0 0 0 0 0 0 0 0 0 0 0 0 0 0 0 0 0 0 0 0 0 0 0 0 0 0 0 0 0 0 0 0 0 0 0 0 0 0 0 0 0 0 0 0 0 0 0 0 0 0 0 0 0 0 0 0 0 0 0 0 0 0 0 0 0 0 0 0 0 0 0 0 0 0 0 0 0 0 0 0 0 0 0 0 0 0 0 0 0 0 0 0 0 14.9687 14.97769 14.7224 14.72235 14.71795 14.70489 14.68172 14.62653
0 0 0 0 0 0 0 0 0 0 0 0 0 0 0 0 0 0 0 0 0 0 0 0 0 0 0 0 0 0 0 0 0 0 0 0 0 0 0 0 0 0 0 0 0 0 0 0 0 0 0 0 0 0 0 0 0 0 0 0 0 0 0 0 0 0 0 0 0 0 0 0 0 0 0 0 0 0 0 0 0 0 0 0 0 0 0 0 0 0 0 0 0 0 0 0 0 0 14.73609 14.7242 14.71576 14.70182 14.67366 14.65431 14.63863 14.60123 14.54676 14.50529 14.46578
0 0 0 0 0 0 0 0 0 0 0 0 0 0 0 0 0 0 0 0 0 0 0 0 0 0 0 0 0 0 0 0 0 0 0 0 0 0 0 0 0 0 0 0 0 0 0 0 0 0 0 0 0 0 0 0 0 0 0 0 0 0 0 0 0 0 0 0 0 0 0 0 0 0 0 0 0 0 0 0 0 0 0 0 0 0 0 0 0 0 0 0 0 0 0 0 0 16.88308 14.70902 14.67849 14.63321 14.59299 14.55393 14.52333 14.48694 14.4562 14.41847 14.3879 14.3578
0 0 0 0 0 0 0 0 0 0 0 0 0 0 0 0 0 0 0 0 0 0 0 0 0 0 0 0 0 0 0 0 0 0 0 0 0 0 0 0 0 0 0 0 0 0 0 0 0 0 0 0 0 0 0 0 0 0 16.59543 16.21676 15.92702 16.06922 0 0 0 0 0 0 0 0 0 0 0 0 0 0 0 0 0 0 0 0 0 0 0 0 0 0 0 0 0 0 0 0 0 15.35642 14.75634 14.7124 14.65873 14.61096 14.55599 14.50475 14.45177 14.40478 14.36092 14.30813 14.27516 14.25866 14.23314
0 0 0 0 0 0 0 0 0 0 0 0 0 0 0 0 0 0 0 0 0 0 0 0 0 0 0 0 0 0 0 0 0 0 0 0 0 0 0 0 0 0 0 0 0 0 0 0 0 0 0 0 0 0 0 0 16.10055 16.12261 15.78259 15.52696 15.41249 15.4016 15.54453 15.79937 16.04587 16.15982 16.15314 0 0 0 0 16.64789 0 0 0 0 0 0 0 0 0 0 0 0 0 0 0 0 0 0 0 0 0 16.24012 14.74546 14.74936 14.69031 14.63867 14.579 14.50862 14.44387 14.38638 14.33844 14.30102 14.25898 14.21549 14.19954 14.17127 14.16218
0 0 0 0 0 0 0 0 0 0 0 0 0 0 0 0 0 0 0 0 0 0 0 0 0 0 0 0 0 0 0 0 0 0 0 0 0 0 0 0 0 0 0 0 0 0 0 0 0 0 0 0 0 0 0 16.17908 15.73049 15.36044 15.12613 14.78904 14.83095 14.85004 15.06185 15.24748 15.45485 15.61855 15.73531 15.96788 16.21966 16.22262 16.19769 15.9664 15.68275 15.74853 15.99103 15.69966 15.74389 0 0 0 0 0 0 0 0 0 0 0 0 0 0 0 15.25702 14.78249 14.72617 14.66511 14.61394 14.56133 14.5023 14.42663 14.35304 14.29353 14.24693 14.17691 14.15663 14.13844 14.12666 14.12208 14.11621
0 0 0 0 0 0 0 0 0 0 0 0 0 0 0 0 0 0 0 0 0 0 0 0 0 0 0 0 0 0 0 0 0 0 0 0 0 0 0 0 0 0 0 0 0 0 0 0 0 0 0 15.84869 16.06351 16.14678 15.81205 15.32694 15.05517 14.72857 14.57943 14.63995 14.66647 14.67515 14.67771 14.93465 14.97174 15.21307 15.18547 15.17534 15.21769 15.11891 14.99937 15.06892 14.86656 15.12208 15.17755 15.48383 0 0 0 0 0 0 0 0 0 0 0 0 0 0 0 0 14.75242 14.74844 14.65367 14.57535 14.50716 14.44514 14.37451 14.29842 14.24238 14.19429 14.15728 14.14391 14.12189 14.11823 14.11194 14.10914 14.10631
0 0 0 0 0 0 0 0 0 0 0 0 0 0 0 0 0 0 0 0 0 0 0 0 0 0 0 0 0 0 0 0 0 0 0 0 0 0 0 0 0 0 0 0 0 0 0 0 0 0 16.0078 15.90069 15.58187 15.46191 15.29822 14.93547 14.53045 14.58744 14.39716 14.44948 14.48125 14.4989 14.51467 14.74804 14.74616 15.00288 15.0102 15.02431 14.85192 14.67508 14.71981 14.77968 14.58397 14.86385 14.88197 15.21726 15.29778 15.06245 15.13827 15.78677 16.51309 17.61507 0 0 0 0 0 0 0 16.22776 15.35344 14.7851 14.76452 14.68156 14.56 14.49055 14.40658 14.34442 14.27192 14.21356 14.17482 14.14452 14.13492 14.1182 14.11267 14.11848 14.11339 14.10779 14.11237
0 0 0 0 0 0 0 0 0 0 0 0 0 0 0 0 0 0 0 0 0 0 0 0 0 0 0 0 0 0 0 0 0 0 0 0 0 0 0 0 0 0 0 0 0 0 0 0 0 16.8467 15.71754 15.56628 15.46412 15.07858 14.85978 14.63245 14.6513 14.45409 14.49004 14.53675 14.57439 14.58981 14.60763 14.85912 14.8841 14.88746 14.89406 14.89369 14.9152 14.73173 14.76779 14.589 14.37149 14.39719 14.39748 14.45147 14.50705 14.56944 14.62815 14.66745 15.25102 16.12617 0 15.92455 16.75917 17.33614 17.72439 17.30532 16.71871 14.78046 14.7958 14.78013 14.69703 14.56749 14.4659 14.39001 14.30404 14.25976 14.20258 14.17094 14.14315 14.13775 14.12506 14.12741 14.12409 14.12072 14.1169 14.12818 14.13632
0 0 0 0 0 0 0 0 0 0 0 0 0 0 0 0 0 0 0 0 0 0 0 0 0 0 0 0 0 0 0 0 0 0 0 0 0 0 0 0 0 0 0 0 0 0 0 0 0 16.55627 15.65768 15.31301 14.92771 14.72477 14.75591 14.53149 14.52583 14.56205 14.61257 14.64882 14.688 14.69883 14.70898 14.71567 14.72914 14.50358 14.29223 14.4959 14.50939 14.52612 14.55046 14.33884 14.3542 14.37314 14.39941 14.43017 14.47889 14.51818 14.558 14.60359 14.64904 14.69698 14.74586 14.76441 14.78951 14.80206 16.22539 16.49896 15.89539 14.72332 14.68973 14.62096 14.53499 14.43785 14.37095 14.30812 14.25232 14.21471 14.1748 14.1532 14.14298 14.14213 14.15334 14.1495 14.14734 14.14436 14.14088 14.14729 14.15466
0 0 0 0 0 0 0 0 0 0 0 0 0 0 0 0 0 0 0 0 0 0 0 0 0 0 0 0 0 0 0 0 0 0 0 0 0 0 0 0 0 0 0 0 0 0 0 0 0 16.29365 15.57324 15.18214 14.75999 14.81745 14.60258 14.64336 14.61939 14.66175 14.70278 14.74406 14.52683 14.5404 14.54514 14.54814 14.53331 14.30504 14.30142 14.29879 14.28253 14.28408 14.29205 14.29831 14.31334 14.33296 14.39354 14.39962 14.40879 14.41388 14.43154 14.47652 14.52108 14.58056 14.61444 14.6419 14.67204 14.69666 14.70184 14.69902 14.67057 14.61373 14.55715 14.47405 14.38119 14.3122 14.26071 14.22467 14.18935 14.17362 14.1645 14.16441 14.16927 14.17619 14.1769 14.17498 14.1704 14.17233 14.17113 14.17345 14.18543
0 0 0 0 0 0 0 0 0 0 0 0 0 0 0 0 0 0 0 0 0 0 0 0 0 0 0 0 0 0 0 0 0 0 0 0 0 0 0 0 0 0 0 0 0 0 0 0 0 16.20545 15.39468 15.00369 14.7976 14.60424 14.66763 14.71446 14.47173 14.50325 14.28717 14.30096 14.30254 14.30768 14.31569 14.3192 14.31296 14.30565 14.29838 14.28067 14.25521 14.24421 14.25242 14.24821 14.25471 14.24686 14.28836 14.28752 14.29448 14.32241 14.35343 14.38567 14.41975 14.45415 14.4876 14.49793 14.50232 14.53141 14.52266 14.49188 14.45333 14.39995 14.35074 14.30115 14.23953 14.21463 14.19108 14.1722 14.15748 14.14511 14.15195 14.16134 14.16851 14.183 14.18741 14.19483 14.19629 14.19731 14.2115 14.20597 14.21049
0 0 0 0 0 0 0 0 0 0 0 0 0 0 0 0 0 0 0 0 0 0 0 0 0 0 0 0 0 0 0 0 0 0 0 0 0 0 0 0 0 0 0 0 0 0 0 0 0 16.05473 15.4137 15.01177 14.8248 14.62361 14.68435 14.47454 14.27069 14.29653 14.30713 14.30539 14.3012 14.30062 14.29578 14.28991 14.28668 14.27026 14.26705 14.24964 14.2382 14.22771 14.21346 14.19663 14.192 14.16891 14.15803 14.14659 14.16206 14.1724 14.20796 14.21598 14.25123 14.28158 14.29748 14.31757 14.32975 14.3436 14.34147 14.31736 14.27627 14.2275 14.19619 14.16702 14.15695 14.13578 14.12635 14.12469 14.13198 14.13979 14.15064 14.16699 14.18171 14.19448 14.20616 14.21995 14.217 14.22728 14.24012 14.24066 14.23964
0 0 0 0 0 0 0 0 0 0 0 0 0 0 0 0 0 0 0 0 0 0 0 0 0 0 0 0 0 0 0 0 0 0 0 0 0 0 0 0 0 0 0 0 0 0 0 0 0 16.12643 15.19792 14.75758 14.84163 14.66295 14.71014 14.47221 14.26655 14.28042 14.29245 14.28663 14.27726 14.27895 14.27752 14.27156 14.25883 14.24033 14.22187 14.21004 14.18984 14.16021 14.14469 14.10532 14.0971 14.10217 14.09843 14.0923 14.08611 14.09147 14.11327 14.13004 14.14844 14.14829 14.15755 14.15216 14.17338 14.17318 14.15343 14.14429 14.14576 14.12376 14.11294 14.11269 14.11175 14.11202 14.11216 14.12063 14.13687 14.1443 14.15899 14.17101 14.18204 14.2024 14.21707 14.22853 14.23626 14.24262 14.24567 14.2507 14.24989
0 0 0 0 0 0 0 0 0 0 0 0 0 0 0 0 0 0 0 0 0 0 0 0 0 0 0 0 0 0 0 0 0 0 0 0 0 0 0 0 0 0 0 0 0 0 0 0 0 15.53914 15.29308 14.81635 14.6385 14.48156 14.51222 14.26398 14.26208 14.264 14.25582 14.25256 14.24561 14.23881 14.2343 14.23076 14.22261 14.21597 14.20798 14.19854 14.20058 14.18859 14.13326 14.08023 14.04249 14.04325 14.05145 14.0553 14.05207 14.05575 14.04633 14.04656 14.06154 14.05721 14.06271 14.06521 14.07319 14.08175 14.07442 14.07218 14.07434 14.07985 14.094 14.09983 14.09689 14.10855 14.11607 14.1266 14.14376 14.15855 14.16555 14.17622 14.19193 14.21496 14.23696 14.25182 14.25746 14.26218 14.26294 14.26321 14.26523
0 0 0 0 0 0 0 0 0 0 0 0 0 0 0 0 0 0 0 0 0 0 0 0 0 0 0 0 0 0 0 0 0 0 0 0 0 0 0 0 0 0 0 0 0 0 0 0 0 0 15.01241 14.92469 14.71972 14.30136 14.31338 14.30682 14.26162 14.24518 14.23845 14.24068 14.24064 14.2518 14.24704 14.21547 14.2088 14.20888 14.21154 14.2188 14.2157 14.1977 14.15798 14.11793 14.07302 14.03766 14.02142 14.0369 14.04292 14.03806 14.01107 13.99482 13.99715 13.98985 13.98803 13.99997 14.00439 14.01002 14.01891 14.03124 14.04528 14.05763 14.08233 14.08941 14.09265 14.10999 14.13027 14.14649 14.15329 14.16251 14.18531 14.20631 14.22158 14.23609 14.25172 14.26721 14.26877 14.27146 14.27596 14.27717 14.28454
0 0 0 0 0 0 0 0 0 0 0 0 0 0 0 0 0 0 0 0 0 0 0 0 0 0 0 0 0 0 0 0 0 0 0 0 0 0 0 0 0 0 0 0 0 0 0 0 0 0 15.29671 14.7312 14.3212 14.3476 14.33838 14.32048 14.24663 14.23412 14.23869 14.24167 14.25751 14.25083 14.26478 14.25571 14.24053 14.23463 14.25109 14.24771 14.25184 14.24962 14.23357 14.18965 14.13589 14.0815 14.05062 14.04272 14.02546 14.00266 13.98182 13.97867 13.97094 13.97955 13.98607 13.98587 13.99142 14.00123 14.01516 14.0319 14.04237 14.05983 14.07753 14.10086 14.12474 14.14017 14.16288 14.17348 14.17783 14.18461 14.19717 14.21601 14.23991 14.2534 14.26141 14.27661 14.28886 14.2919 14.28699 14.29361 14.30527
0 0 0 0 0 0 0 0 0 0 0 0 0 0 0 0 0 0 0 0 0 0 0 0 0 0 0 0 0 0 0 0 0 0 0 0 0 0 0 0 0 0 0 0 0 0 0 0 0 0 0 0 14.38724 14.36733 14.33677 14.29155 14.24566 14.23713 14.2499 14.28109 14.29061 14.29812 14.30661 14.31115 14.31657 14.31213 14.35229 14.37935 14.33879 14.34806 14.34961 14.32972 14.29534 14.21155 14.09994 14.11118 14.0811 14.03273 14.01413 14.00663 14.00246 13.99488 13.99495 13.99478 13.99896 14.00178 14.0255 14.04721 14.0742 14.08281 14.10233 14.12419 14.15106 14.1756 14.20046 14.21935 14.23145 14.23195 14.24066 14.24442 14.25359 14.27351 14.28894 14.29683 14.30224 14.30959 14.30501 14.30675 14.31882
0 0 0 0 0 0 0 0 0 0 0 0 0 0 0 0 0 0 0 0 0 0 0 0 0 0 0 0 0 0 0 0 0 0 0 0 0 0 0 0 0 0 0 0 0 0 0 0 0 0 17.26197 15.3673 14.76417 14.4294 14.3505 14.29046 14.24603 14.26347 14.28415 14.29018 14.29956 14.34036 14.35456 14.35875 14.37592 14.40593 14.41893 14.3996 14.43096 14.45581 14.43687 14.40789 14.3701 14.31048 14.23808 14.16275 14.09368 14.07821 14.06057 14.03559 14.02049 14.0161 14.01603 14.01594 14.024 14.05008 14.08171 14.10723 14.11102 14.13078 14.16184 14.17985 14.1936 14.21793 14.24131 14.25777 14.27283 14.28002 14.28381 14.28481 14.28823 14.29865 14.3149 14.32759 14.33677 14.32847 14.32582 14.33394 14.3453
0 0 0 0 0 0 0 0 0 0 0 0 0 0 0 0 0 0 0 0 0 0 0 0 0 0 0 0 0 0 0 0 0 0 0 0 0 0 0 0 0 0 0 0 0 0 0 0 0 0 16.59922 15.46317 15.11538 14.47471 14.38308 14.31544 14.29208 14.28667 14.31057 14.32719 14.36255 14.39724 14.41258 14.4199 14.43501 14.43148 14.43276 14.44513 14.46365 14.49765 14.52117 14.49557 14.41414 14.36607 14.27926 14.21935 14.18197 14.14655 14.10671 14.1014 14.06527 14.08326 14.09311 14.10151 14.11638 14.13718 14.16363 14.15511 14.15858 14.18476 14.21007 14.24296 14.27246 14.28792 14.30567 14.32184 14.32628 14.34012 14.33773 14.33381 14.32633 14.32517 14.32931 14.34587 14.3563 14.34681 14.34237 14.349 14.36993
0 0 0 0 0 0 0 0 0 0 0 0 0 0 0 0 0 0 0 0 0 0 0 0 0 0 0 0 0 0 0 0 0 0 0 0 0 0 0 0 0 0 0 0 0 0 0 0 0 0 0 15.58609 14.87413 14.48909 14.43534 14.37994 14.34447 14.34602 14.36948 14.41034 14.42823 14.47116 14.50281 14.53204 14.52493 14.53189 14.52081 14.53033 14.56377 14.60247 14.60679 14.57985 14.50774 14.42279 14.35941 14.29184 14.21603 14.18038 14.17685 14.14934 14.14308 14.15594 14.17699 14.18676 14.21249 14.22718 14.24107 14.23247 14.24574 14.2637 14.28704 14.31128 14.33051 14.33936 14.34908 14.36022 14.3666 14.37206 14.37152 14.36707 14.36582 14.35595 14.36127 14.37405 14.3672 14.36811 14.36565 14.38007 14.40156
0 0 0 0 0 0 0 0 0 0 0 0 0 0 0 0 0 0 0 0 0 0 0 0 0 0 0 0 0 0 0 0 0 0 0 0 0 0 0 0 0 0 0 0 0 0 0 0 0 0 0 15.28951 14.60622 14.52806 14.48535 14.47265 14.41167 14.40434 14.42011 14.44801 14.50483 14.60144 14.63317 14.63664 14.64043 14.67067 14.65132 14.63202 14.66794 14.69325 14.68584 14.63538 14.59299 14.47457 14.42635 14.36772 14.30875 14.27615 14.21277 14.21003 14.23627 14.25008 14.26438 14.27531 14.2713 14.27691 14.27998 14.29829 14.30464 14.32758 14.3451 14.35004 14.36293 14.36822 14.38194 14.39738 14.40139 14.41168 14.40844 14.40113 14.39618 14.39126 14.38491 14.3878 14.39014 14.38573 14.39391 14.4117 14.4241
0 0 0 0 0 0 0 0 0 0 0 0 0 0 0 0 0 0 0 0 0 0 0 0 0 0 0 0 0 0 0 0 0 0 0 0 0 0 0 0 0 0 0 0 0 0 0 0 0 0 0 14.74236 14.61871 14.53858 14.49716 14.52039 14.46516 14.49079 14.562 14.609 14.64522 14.69233 14.74035 14.73402 14.73564 14.77581 14.81226 14.74726 14.73828 14.73759 14.74224 14.69687 14.63152 14.53364 14.45236 14.40915 14.35011 14.27413 14.24136 14.25647 14.29477 14.3371 14.36563 14.38393 14.36606 14.36255 14.35862 14.36941 14.37803 14.38795 14.40082 14.42096 14.42206 14.42574 14.42777 14.44496 14.44242 14.44071 14.43984 14.43529 14.43415 14.41822 14.41458 14.40799 14.40555 14.41338 14.42011 14.43641 14.45335
0 0 0 0 0 0 0 0 0 0 0 0 0 0 0 0 0 0 0 0 0 0 0 0 0 0 0 0 0 0 0 0 0 0 0 0 0 0 0 0 0 0 0 0 0 0 0 0 0 17.28107 16.04029 14.73365 14.59602 14.52914 14.57358 14.53262 14.56042 14.57197 14.69258 14.78222 14.83762 14.84773 14.88279 14.87403 14.88782 14.97194 14.95006 14.90863 14.82797 14.81685 14.8342 14.80243 14.75685 14.60234 14.54838 14.43105 14.35594 14.31437 14.31084 14.33006 14.38338 14.43442 14.4706 14.44988 14.44667 14.43772 14.43137 14.45257 14.46985 14.47983 14.50875 14.51847 14.50979 14.49493 14.48749 14.50514 14.49995 14.4953 14.48094 14.4753 14.46769 14.44454 14.43631 14.43253 14.43084 14.44148 14.4493 14.46823 14.48107
0 0 0 0 0 0 0 0 0 0 0 0 0 0 0 0 0 0 0 0 0 0 0 0 0 0 0 0 0 0 0 0 0 0 0 0 0 0 0 0 0 0 0 0 0 0 0 0 16.14303 15.45121 15.08102 14.71359 14.62823 14.63443 14.62322 14.66945 14.70423 14.75488 14.78644 14.8727 14.9023 14.91737 14.9793 14.99616 15.04539 15.05503 15.04958 14.99922 14.94978 14.8078 14.8511 14.84211 14.79549 14.67826 14.5759 14.45273 14.41366 14.38313 14.37023 14.428 14.48656 14.55107 14.57519 14.56345 14.53573 14.50353 14.51827 14.53457 14.52374 14.54446 14.53487 14.52656 14.52497 14.53131 14.5449 14.55819 14.55609 14.5568 14.54436 14.52959 14.52403 14.50168 14.47996 14.47272 14.4676 14.46836 14.4818 14.49186 14.49891
0 0 0 0 0 0 0 0 0 0 0 0 0 0 0 0 0 0 0 0 0 0 0 0 0 0 0 0 0 0 0 0 0 0 0 0 0 0 0 0 0 0 0 0 0 15.69636 15.62123 16.19341 15.52947 15.46425 15.08523 14.77599 14.75767 14.80679 14.84038 14.84878 14.84864 14.87636 14.92408 14.9629 14.95982 14.97457 15.04927 15.04381 15.08319 15.05215 15.09878 15.12503 15.0485 14.94113 14.89004 14.82299 14.75924 14.67463 14.57026 14.48484 14.48549 14.48532 14.49027 14.51052 14.56668 14.61376 14.61801 14.60923 14.60046 14.58226 14.57279 14.57933 14.60023 14.61323 14.60207 14.58726 14.58601 14.59399 14.5994 14.60097 14.61166 14.59949 14.58524 14.58036 14.56849 14.54972 14.52586 14.52007 14.5137 14.51145 14.51045 14.51028 14.5237
0 0 0 0 0 0 0 0 0 0 0 0 0 0 0 0 0 0 0 0 0 0 0 0 0 0 0 0 0 0 0 0 0 0 0 0 0 0 0 0 0 0 18.0668 17.7734 16.55879 15.64065 14.96477 14.95958 15.58543 15.21572 14.8857 14.90319 14.9673 15.01064 15.02916 15.0507 15.02198 15.00658 15.01103 15.03069 15.00891 15.02467 15.04031 15.03338 15.054 15.13283 15.19873 15.15278 15.0565 14.93104 14.9249 14.89581 14.81708 14.7554 14.67186 14.60589 14.61003 14.60115 14.61429 14.64164 14.66964 14.69361 14.67568 14.65448 14.64273 14.63526 14.6274 14.62927 14.65676 14.65956 14.64755 14.63823 14.64077 14.65197 14.64972 14.65808 14.64914 14.64709 14.65274 14.63278 14.61354 14.59691 14.56791 14.55621 14.54788 14.54438 14.53541 14.53528 14.54669
0 0 0 0 0 0 0 0 0 0 0 0 0 0 0 0 0 0 0 0 0 0 0 0 0 0 0 0 0 0 0 0 0 0 0 0 0 0 0 0 17.04599 17.54606 17.79633 16.69577 15.6199 14.93174 14.95992 14.99427 15.00936 15.01723 15.09283 15.1021 15.10476 15.11863 15.12615 15.1397 15.12937 15.07028 15.05527 15.0595 15.05245 15.05482 15.03684 15.05815 15.04195 15.07648 15.08267 15.07357 15.01454 14.98366 14.94135 14.9722 14.96352 14.83724 14.72634 14.6946 14.6903 14.66473 14.68554 14.72371 14.75543 14.75569 14.74891 14.71662 14.70297 14.69543 14.68562 14.69014 14.7132 14.70787 14.69535 14.67475 14.68518 14.69236 14.69313 14.69572 14.69471 14.68504 14.68738 14.6681 14.6555 14.63782 14.6141 14.59803 14.5882 14.58499 14.58699 14.58671 14.58808
0 0 0 0 0 0 0 0 0 0 0 0 0 0 0 0 0 0 0 0 0 0 0 0 0 0 0 0 0 0 0 0 0 0 0 0 0 0 0 17.26578 17.00987 16.36226 15.99165 14.94204 14.93075 14.95507 15.00951 15.04603 15.07541 15.15191 15.24935 15.23589 15.18399 15.1611 15.17833 15.17683 15.16448 15.12874 15.09441 15.07389 15.0614 15.04142 15.06269 15.07498 15.12867 15.17402 15.18311 15.14585 15.10548 15.09555 15.10254 15.10668 15.03324 14.90926 14.86951 14.83575 14.81274 14.79023 14.80947 14.82767 14.83697 14.83087 14.79443 14.743 14.73219 14.72097 14.72633 14.75559 14.75066 14.74436 14.73495 14.71958 14.72391 14.72949 14.73069 14.72724 14.72097 14.7133 14.70777 14.69834 14.67944 14.66665 14.65141 14.63441 14.63393 14.6315 14.63183 14.63014 14.62528
0 0 0 0 0 0 0 0 0 0 0 0 0 0 0 0 0 0 0 0 0 0 0 0 0 0 0 0 0 0 0 0 0 0 0 0 0 0 16.29798 15.96429 15.6427 14.9645 14.96063 15.01235 15.05285 15.10259 15.13988 15.19857 15.23218 15.25383 15.29424 15.30872 15.33617 15.22757 15.1992 15.1874 15.17528 15.12838 15.10653 15.11447 15.11843 15.07401 15.11816 15.17277 15.1525 15.19897 15.22963 15.21813 15.22757 15.21974 15.2271 15.21876 15.1485 15.06315 14.94676 14.92522 14.92662 14.91483 14.91801 14.90171 14.8996 14.88479 14.83727 14.80761 14.77925 14.77539 14.78497 14.77563 14.77351 14.77064 14.75949 14.74708 14.76317 14.76212 14.75985 14.75597 14.75019 14.73868 14.72945 14.73384 14.72559 14.71346 14.69487 14.68884 14.68753 14.68883 14.68702 14.68079 14.66547
0 0 0 0 0 0 0 0 0 0 0 0 0 0 0 0 0 0 0 0 0 0 0 0 0 0 0 0 0 0 0 0 0 0 17.91969 18.6269 17.77335 15.93375 14.93957 14.91857 14.95488 14.99318 15.04722 15.09125 15.15451 15.18085 15.22801 15.32163 15.39671 15.45737 15.46167 15.46973 15.45689 15.36128 15.26724 15.24305 15.19147 15.14914 15.14739 15.13646 15.13888 15.13696 15.14219 15.14502 15.17251 15.2518 15.27098 15.26654 15.2748 15.29542 15.30072 15.26641 15.19664 15.21377 15.13265 15.02631 15.05553 15.02118 14.97874 14.95562 14.93376 14.91814 14.87718 14.82986 14.82256 14.81919 14.82651 14.8219 14.81261 14.79465 14.81315 14.8228 14.82394 14.82051 14.80707 14.79134 14.77668 14.76718 14.75883 14.75856 14.75378 14.74292 14.72467 14.72544 14.73432 14.73208 14.73534 14.73186 14.70626
0 0 0 0 0 0 0 0 0 0 0 0 0 0 0 0 0 0 0 0 0 0 0 0 0 0 0 0 0 18.37715 17.97777 17.74915 17.74014 17.54709 17.27403 16.62381 14.91141 14.92737 14.91864 14.94146 14.97466 15.01741 15.06314 15.11653 15.20082 15.27889 15.3933 15.48781 15.56892 15.61787 15.62116 15.62645 15.6132 15.494 15.33226 15.27192 15.22397 15.18916 15.26028 15.16782 15.17405 15.16456 15.15754 15.20142 15.23595 15.25966 15.27326 15.26262 15.27901 15.29765 15.3015 15.28436 15.25665 15.24764 15.21437 15.17994 15.12633 15.07044 15.05969 15.03349 15.00432 14.97131 14.91517 14.876 14.85712 14.86499 14.84638 14.84463 14.85333 14.86511 14.87551 14.86868 14.8675 14.85708 14.84528 14.82356 14.80643 14.80702 14.80444 14.80126 14.80685 14.789 14.77359 14.77652 14.7723 14.7733 14.7674 14.75276 14.71025
0 0 0 0 0 0 0 0 0 0 0 0 0 0 0 0 0 0 0 0 0 0 0 0 0 18.14708 17.36782 17.35435 16.4187 15.69443 15.32517 14.95982 14.95371 14.93113 14.90097 14.8946 14.89599 14.90897 14.93611 14.96301 15.00394 15.04531 15.15261 15.3005 15.42998 15.53699 15.65434 15.73309 15.81416 15.87252 15.8582 15.77646 15.74114 15.61634 15.39183 15.33388 15.25264 15.25683 15.20595 15.18911 15.23823 15.23891 15.23098 15.24844 15.25485 15.28469 15.29296 15.27249 15.29239 15.29948 15.2961 15.27962 15.26195 15.23609 15.22463 15.21743 15.22073 15.16303 15.10021 15.08269 15.0724 15.0541 15.03315 14.99589 14.96202 14.95147 14.92617 14.90658 14.91002 14.91524 14.91423 14.90858 14.90104 14.8916 14.87294 14.86007 14.84786 14.8409 14.83874 14.83404 14.83794 14.8295 14.82206 14.8246 14.82611 14.81962 14.80412 14.76863 14.69859
0 0 0 0 0 0 0 0 0 0 0 0 0 0 0 0 0 0 0 0 0 0 0 18.38414 17.49564 16.91582 16.52064 16.13531 15.03832 14.98634 14.93678 14.92375 14.91248 14.90337 14.89357 14.93143 14.94283 14.94654 14.95654 14.97355 15.01493 15.10311 15.24896 15.39688 15.51887 15.61946 15.73172 15.83717 15.89123 15.94781 15.9315 15.87205 15.7965 15.6898 15.49364 15.31732 15.27363 15.23274 15.20756 15.21516 15.27054 15.26145 15.24991 15.23696 15.24532 15.25869 15.26435 15.27331 15.27135 15.30286 15.33607 15.35454 15.3542 15.34638 15.32959 15.30387 15.31995 15.26109 15.21932 15.194 15.16612 15.12155 15.08958 15.04312 15.01963 14.98387 14.9531 14.9531 14.93219 14.93426 14.94343 14.95173 14.94666 14.93866 14.92968 14.91493 14.90296 14.89908 14.88188 14.8754 14.87075 14.869 14.86133 14.86401 14.8632 14.85047 14.81188 14.76553 14.67398
0 0 0 0 0 0 0 0 0 0 0 0 0 0 0 0 0 0 0 0 0 0 17.81384 17.01908 16.6519 16.57501 16.1761 15.7614 14.97877 14.91887 14.90213 14.90921 14.9063 14.91118 14.92043 14.95881 14.96936 14.98267 14.99244 15.01497 15.04779 15.12354 15.24081 15.38139 15.50065 15.61022 15.71125 15.81067 15.9212 15.91524 15.87981 15.79462 15.7301 15.66187 15.52884 15.37926 15.28075 15.23303 15.20135 15.2219 15.24346 15.2504 15.25385 15.24785 15.24345 15.2642 15.28945 15.2888 15.31936 15.33152 15.37159 15.39503 15.42192 15.4359 15.40803 15.38226 15.36438 15.33854 15.28678 15.25472 15.23223 15.20739 15.17998 15.14612 15.09461 15.04265 15.00739 15.01099 14.99352 14.98973 14.99307 14.99457 14.98445 14.97591 14.96749 14.95474 14.94538 14.93343 14.91977 14.90459 14.90967 14.90687 14.90004 14.89964 14.90102 14.88251 14.84022 14.76501 14.65999
0 0 0 0 0 0 0 0 0 0 0 0 0 0 0 0 0 0 0 0 0 19.09119 18.00733 17.00574 16.30363 16.21651 15.77171 15.69078 14.92134 14.91125 14.92123 14.92851 14.92318 14.93115 14.94173 14.98143 15.00134 15.00931 15.01725 15.04339 15.08067 15.14611 15.24202 15.28655 15.39347 15.53355 15.71642 15.82322 15.82526 15.79525 15.72625 15.64348 15.61717 15.5649 15.46252 15.33488 15.29549 15.24427 15.22121 15.23087 15.23392 15.23599 15.23316 15.25493 15.28928 15.29714 15.31173 15.29597 15.33163 15.37678 15.37396 15.39264 15.43294 15.44543 15.45681 15.45481 15.42335 15.36895 15.32382 15.3039 15.27324 15.2451 15.22228 15.18756 15.15357 15.09985 15.06485 15.06524 15.06237 15.04993 15.04285 15.03711 15.01995 15.00151 14.9943 15.00124 14.98012 14.97111 14.96003 14.94957 14.94608 14.93764 14.93199 14.93211 14.92507 14.90602 14.85216 14.76688 14.64937
0 0 0 0 0 0 0 0 0 0 0 0 0 0 0 0 0 0 0 0 0 0 0 17.52281 16.65551 16.21395 15.74701 15.32062 14.9013 14.9172 14.93388 14.93001 14.9469 14.95819 14.96088 14.98026 15.02763 15.03605 15.04182 15.05651 15.0864 15.13231 15.13381 15.19816 15.34326 15.5174 15.65207 15.67636 15.67178 15.64457 15.60867 15.59689 15.57628 15.51898 15.38187 15.34194 15.35408 15.32391 15.27925 15.27997 15.26209 15.26074 15.23508 15.26882 15.32138 15.31794 15.31238 15.29206 15.2982 15.34374 15.37164 15.3928 15.40185 15.4152 15.45241 15.45836 15.41819 15.41929 15.38271 15.35665 15.3381 15.3096 15.28832 15.23351 15.19109 15.1611 15.13981 15.11978 15.10322 15.0994 15.08849 15.07611 15.05251 15.03889 15.04956 15.04248 15.02732 15.01087 15.00251 14.99861 14.99771 14.98758 14.97681 14.97461 14.96203 14.92548 14.86242 14.75664 14.64262
0 0 0 0 0 0 0 0 0 0 0 0 0 0 0 0 0 0 0 0 0 19.48068 19.10798 18.09168 16.66791 16.21662 15.74699 15.69149 15.28789 14.91589 14.92803 14.93052 14.96742 14.97497 14.96863 14.99638 15.04171 15.05809 15.06912 15.06518 15.06104 15.08257 15.06973 15.16498 15.21529 15.27787 15.37142 15.44145 15.44223 15.46134 15.48102 15.47922 15.4597 15.45273 15.34578 15.34567 15.37022 15.36006 15.33701 15.31949 15.30949 15.28967 15.28641 15.28609 15.32233 15.34948 15.3462 15.34075 15.32067 15.32276 15.35963 15.34666 15.36915 15.40542 15.43123 15.43522 15.45056 15.43398 15.42369 15.41002 15.37936 15.35553 15.32936 15.29599 15.25547 15.20693 15.19476 15.17688 15.16388 15.15834 15.14878 15.12932 15.10904 15.10878 15.0982 15.08513 15.07018 15.05388 15.04918 15.04549 15.03661 15.02984 15.02471 15.01749 14.99185 14.94453 14.86776 14.76359 14.6366
0 0 0 0 0 0 0 0 0 0 0 0 0 0 0 0 0 0 0 19.47799 19.35153 19.25621 18.38644 17.30491 16.65337 16.21407 15.74616 16.06289 14.91922 14.91307 14.92164 14.93126 14.96433 14.9839 14.97167 14.97913 15.01471 15.04888 15.04353 15.02897 15.02328 15.01704 15.03618 15.05062 15.06319 15.08736 15.12852 15.19209 15.25062 15.28123 15.31763 15.31792 15.33838 15.3771 15.34124 15.35295 15.36482 15.37467 15.37627 15.36802 15.35589 15.34274 15.34011 15.32054 15.3255 15.34425 15.32465 15.3348 15.35317 15.37316 15.36276 15.32249 15.35058 15.41838 15.41878 15.41873 15.43036 15.4477 15.45454 15.44847 15.41247 15.38637 15.36982 15.33941 15.30083 15.26323 15.24232 15.22067 15.21067 15.19789 15.19604 15.19261 15.18541 15.17598 15.17161 15.1473 15.13679 15.12624 15.11329 15.108 15.09532 15.08193 15.06642 15.05551 15.0245 14.96054 14.88176 14.76522 14.63809
0 0 0 0 0 0 0 0 0 0 0 0 0 0 0 0 0 0 18.9354 18.79174 18.38998 17.93927 17.32719 16.67998 16.2975 16.19945 15.75758 15.32694 14.92235 14.91226 14.92589 14.93427 14.96017 14.97318 14.9805 14.98527 14.99406 15.01287 15.03504 15.01676 15.00716 15.00578 15.01075 15.06563 15.05307 15.06021 15.0982 15.13819 15.1869 15.22157 15.25875 15.27198 15.27525 15.30852 15.35256 15.30296 15.33651 15.37132 15.35761 15.34124 15.33907 15.33869 15.34902 15.34976 15.3473 15.3463 15.3298 15.33462 15.35459 15.36265 15.36059 15.33605 15.38054 15.40922 15.41096 15.43499 15.45328 15.46197 15.45281 15.48625 15.45874 15.42778 15.40358 15.38895 15.3556 15.33856 15.30988 15.28048 15.26857 15.25109 15.25108 15.24109 15.23111 15.21665 15.2112 15.20097 15.19177 15.17766 15.16844 15.16041 15.14682 15.13446 15.12074 15.0936 15.05701 14.99723 14.89876 14.78591 14.67813
0 0 0 0 0 0 0 0 0 0 0 0 0 0 0 0 0 19.40677 18.82102 18.17949 17.663 17.02793 16.6844 16.62942 16.59401 16.17229 15.75525 14.95198 14.91382 14.9175 14.92392 14.92966 14.97115 14.97853 14.97536 14.97615 14.98557 14.99215 14.99524 15.00208 15.01013 15.04005 15.04489 15.0705 15.10222 15.10858 15.12049 15.15416 15.191 15.25239 15.30767 15.32442 15.29057 15.33201 15.29864 15.3125 15.34289 15.36202 15.38603 15.39465 15.38252 15.38971 15.38191 15.38047 15.36304 15.35564 15.36402 15.35876 15.36167 15.37145 15.3749 15.36154 15.41429 15.41939 15.43026 15.45211 15.45078 15.4721 15.47 15.50977 15.48771 15.45942 15.44786 15.42708 15.40658 15.37751 15.346 15.33295 15.32217 15.30437 15.29289 15.28524 15.28233 15.27584 15.26241 15.25377 15.24616 15.22442 15.21551 15.2003 15.18698 15.17117 15.15673 15.12982 15.08764 15.01678 14.93021 14.83014 14.73091
0 0 0 0 0 0 0 0 0 0 0 0 0 0 0 0 18.8912 18.86756 18.00355 17.42226 17.06782 16.70537 16.63769 16.60007 16.59483 16.18561 15.74303 14.93691 14.90487 14.91581 14.91663 14.92681 14.97238 14.98318 14.98282 14.97332 15.00604 15.00496 14.98979 14.97513 15.00406 15.0233 15.04356 15.07689 15.13081 15.15248 15.17986 15.19709 15.21765 15.25711 15.30307 15.32513 15.34335 15.33644 15.33411 15.33824 15.39381 15.40363 15.38407 15.38865 15.41584 15.4136 15.42388 15.40267 15.36118 15.36499 15.37203 15.37423 15.36305 15.3633 15.36558 15.39816 15.41725 15.43585 15.4691 15.48966 15.49488 15.4955 15.49852 15.54293 15.54388 15.53078 15.51605 15.49349 15.46413 15.43293 15.4008 15.3855 15.37031 15.35417 15.33414 15.32276 15.31552 15.31775 15.30767 15.28757 15.27082 15.26021 15.25373 15.24633 15.23006 15.21572 15.19658 15.16965 15.12303 15.07134 14.98822 14.89266 14.78678
0 0 0 0 0 0 0 0 0 0 0 0 0 0 0 19.45698 18.71233 18.01236 17.40429 17.06988 16.70042 16.65104 16.6121 16.23074 16.19743 15.76498 14.96402 14.91735 14.90057 14.91347 14.91377 14.93147 14.97349 14.99535 14.99628 15.02177 15.04687 15.04362 15.03241 15.03424 15.04315 15.06874 15.07381 15.09721 15.14118 15.16922 15.19255 15.22794 15.25389 15.27086 15.31312 15.34479 15.34849 15.36207 15.36083 15.37285 15.39403 15.39742 15.40536 15.42818 15.42324 15.42725 15.42505 15.40519 15.39316 15.37924 15.36097 15.362 15.35904 15.36662 15.37762 15.40778 15.42472 15.45193 15.48276 15.49911 15.51154 15.5238 15.54599 15.56186 15.57822 15.58728 15.57623 15.57493 15.54659 15.51039 15.48424 15.45597 15.43733 15.42348 15.39622 15.37496 15.36887 15.35567 15.34053 15.33088 15.3121 15.2948 15.28389 15.27371 15.26162 15.24607 15.22819 15.20297 15.17095 15.1197 15.04373 14.95105 14.85507
0 0 0 0 0 0 0 0 0 0 0 0 0 0 18.76614 18.75784 18.06376 17.41668 17.05785 16.67855 16.62305 16.23527 16.21293 16.20365 15.79853 15.32721 14.94262 14.92046 14.91958 14.91923 14.92003 14.94526 14.98524 15.00971 15.02208 15.05259 15.06498 15.08574 15.08258 15.08793 15.11068 15.11468 15.13525 15.16615 15.18522 15.23301 15.26345 15.29244 15.31908 15.34802 15.36493 15.3821 15.39586 15.40134 15.39874 15.40596 15.40406 15.41956 15.42433 15.43655 15.44257 15.45063 15.46093 15.45969 15.43496 15.40101 15.39313 15.37548 15.35563 15.36141 15.38009 15.38994 15.42622 15.4545 15.47372 15.51124 15.54166 15.57718 15.60404 15.61052 15.62352 15.61927 15.61276 15.60092 15.58445 15.56005 15.53725 15.50908 15.48471 15.46115 15.43021 15.41147 15.39386 15.37491 15.36166 15.34881 15.33909 15.32337 15.31476 15.3047 15.29346 15.27348 15.25609 15.23157 15.19951 15.15296 15.07407 14.98211 14.8808
0 0 0 0 0 0 0 0 0 0 0 0 0 18.61185 18.7895 18.06024 17.40478 17.06056 16.66963 16.61102 16.23574 16.19909 16.19236 16.19145 15.7657 14.94103 14.92243 14.91936 14.9375 14.9361 14.94511 14.97863 15.02339 15.0466 15.0545 15.07372 15.07499 15.07613 15.08736 15.09917 15.14959 15.17201 15.17736 15.20834 15.24001 15.26901 15.30924 15.35386 15.37078 15.39358 15.39988 15.40369 15.4165 15.42498 15.409 15.41381 15.42075 15.4376 0 0 0 15.45138 15.47303 15.52084 15.49642 15.46703 15.43957 15.40802 15.3722 15.36594 15.36758 15.39086 15.42181 15.45435 15.49387 15.53874 15.57929 15.61208 15.63821 15.64691 15.67064 15.66253 15.66001 15.65156 15.63922 15.60958 15.58011 15.55175 15.52778 15.49183 15.46085 15.43792 15.41237 15.39348 15.38306 15.36349 15.35076 15.33905 15.33263 15.32691 15.32692 15.31114 15.29631 15.26863 15.24593 15.20271 15.12095 15.02082 14.91528
0 0 0 0 0 0 0 0 0 0 0 0 0 18.97744 18.06861 17.42063 17.0265 16.63166 16.59487 16.18332 16.15647 16.17448 16.17975 15.01003 14.97987 14.94785 14.92257 14.92628 14.92395 14.93762 14.97863 15.00898 15.05005 15.09128 15.09031 15.09903 15.10897 15.12193 15.13301 15.15667 15.20665 15.23537 15.2577 15.28523 15.33509 15.36999 15.39384 15.41569 15.41747 15.42415 15.43464 16.31788 15.44759 15.44041 15.43416 15.84622 16.80937 17.65558 0 0 0 0 0 16.00204 15.53937 15.50141 15.47463 15.41656 15.40361 15.38568 15.40143 15.41132 15.42832 15.49378 15.54638 15.57094 15.61379 15.65586 15.68634 15.68967 15.69981 15.69169 15.69055 15.68623 15.67621 15.65109 15.62157 15.58797 15.56336 15.52716 15.49788 15.47112 15.46072 15.43088 15.41522 15.39832 15.37377 15.35762 15.35282 15.35452 15.35649 15.34642 15.32874 15.30649 15.2791 15.2319 15.15552 15.05066 14.93857
0 0 0 0 0 0 0 0 0 0 0 0 19.13691 18.35392 17.42364 17.02909 16.59061 16.18916 16.18507 16.16665 16.15192 16.16355 15.77209 14.99074 14.96004 14.94548 14.94193 14.92432 14.93639 14.97303 15.02307 15.0514 15.08085 15.11781 15.11697 15.11859 15.13687 15.155 15.18214 15.21377 15.25856 15.28952 15.33075 15.36667 15.39498 15.40912 15.42505 0 0 15.42542 0 17.2934 16.3677 15.90661 16.32666 16.30762 17.24844 17.71201 18.78835 16.31511 15.49506 0 0 0 17.45153 15.52457 15.47599 15.45533 15.44186 15.43895 15.44037 15.45484 15.48035 15.53252 15.59729 15.62879 15.66313 15.71255 15.74087 15.75868 15.74603 15.74282 15.73516 15.71109 15.70159 15.67478 15.6503 15.62064 15.58827 15.56116 15.53305 15.50582 15.49523 15.47377 15.45237 15.42908 15.40915 15.40011 15.39232 15.39462 15.40249 15.39114 15.37298 15.34934 15.31525 15.2651 15.19247 15.08714 14.95886
0 0 0 0 0 0 0 0 0 0 0 18.45535 18.38794 17.43932 17.0191 16.2 16.1768 16.16188 16.14295 16.13418 16.15612 15.3938 15.00554 14.99855 14.95812 14.96833 14.95732 14.94359 14.96523 15.00769 15.0627 15.10731 15.13035 15.16116 15.16578 15.17038 15.18557 15.19511 15.23086 15.27375 15.32031 15.36983 15.39947 15.41564 16.33904 0 0 0 0 0 18.16248 19.03155 18.74694 18.09662 17.70054 17.2191 17.23546 15.86549 15.48319 15.49197 15.49691 15.49631 15.49691 17.73273 18.13372 15.50605 15.50332 15.47126 15.48295 15.46733 15.46167 15.49144 15.53466 15.56083 15.63197 15.68489 15.72701 15.76075 15.77752 15.77694 15.78028 15.77951 15.76507 15.74485 15.7304 15.70042 15.67153 15.65336 15.6295 15.6022 15.57474 15.55987 15.53096 15.51367 15.49461 15.4726 15.44692 15.44425 15.43397 15.43751 15.44461 15.43033 15.40491 15.38054 15.34677 15.2962 15.23113 15.12972 14.99285
0 0 0 0 0 0 0 0 0 0 19.14097 18.43656 17.47301 16.68164 16.19504 15.78514 15.75343 15.75195 15.75179 15.7577 15.76598 15.01243 15.01721 15.0025 14.9733 14.98411 14.97526 14.9713 14.99859 15.0262 15.08053 15.12445 15.15457 15.17564 15.18979 15.21377 15.21411 15.27485 15.29218 15.34255 15.40537 15.44033 15.87775 0 0 0 0 0 0 0 0 0 0 0 18.06342 17.67565 16.7655 15.46836 15.48816 15.50209 15.51091 15.50353 15.49665 15.49431 15.49921 15.50796 15.48886 15.48247 15.48487 15.49059 15.50086 15.54939 15.59188 15.63231 15.6642 15.70851 15.75253 15.77668 15.80195 15.80635 15.79888 15.79148 15.77394 15.75933 15.74004 15.71344 15.69248 15.68134 15.65389 15.64113 15.62256 15.61452 15.58677 15.56255 15.54542 15.52233 15.50205 15.49539 15.48598 15.4857 15.49005 15.47173 15.4439 15.41005 15.37314 15.32156 15.25641 15.15597 15.02649
0 0 0 0 0 0 0 0 0 0 18.7455 17.53812 16.7524 16.24595 15.43549 15.36643 14.97507 14.9704 15.00514 15.01605 15.01232 15.01733 15.0125 15.01971 15.01265 15.00146 15.00066 15.01751 15.04444 15.06783 15.11447 15.15755 15.18638 15.20805 15.22456 15.23247 15.25864 15.30067 15.35854 15.39641 16.7982 0 0 0 0 0 0 0 0 0 0 0 0 0 18.7525 17.26284 15.47779 15.48543 15.50679 15.53137 15.54007 15.54094 15.53836 15.52998 15.52022 15.51264 15.51924 15.51985 15.52585 15.53988 15.5617 15.61776 15.64664 15.6815 15.69846 15.7308 15.7745 15.80205 15.82211 15.81391 15.80361 15.78735 15.77757 15.76542 15.74923 15.73038 15.71575 15.70268 15.68735 15.67497 15.65916 15.64528 15.62491 15.60059 15.58484 15.56287 15.54632 15.53955 15.53405 15.53452 15.53315 15.51527 15.48246 15.44477 15.40305 15.34583 15.27708 15.18397 15.06115
0 0 0 0 0 0 0 0 0 18.85603 18.22865 17.18064 16.29099 15.44379 15.01157 14.97077 14.96128 14.96802 14.98485 14.99272 15.02152 15.0329 15.02178 15.03704 15.04307 15.03434 15.02273 15.04856 15.08872 15.10703 15.14636 15.18357 15.21228 15.23331 15.25069 15.27888 15.31146 15.35124 15.39022 16.28313 16.54322 0 0 0 0 0 0 0 0 0 0 0 0 17.9806 17.72689 16.40273 15.49554 15.51283 15.5425 15.56309 15.56524 15.57108 15.57794 15.57402 15.57331 15.57234 15.56543 15.56085 15.58607 15.57782 15.61967 15.66748 15.70346 15.7232 15.73194 15.74665 15.77495 15.80426 15.82696 15.82196 15.81605 15.80078 15.77752 15.76895 15.75815 15.74432 15.73932 15.73247 15.72052 15.70744 15.68947 15.67508 15.65141 15.636 15.62211 15.60654 15.59245 15.58436 15.57742 15.57301 15.56294 15.54489 15.5085 15.46143 15.42036 15.3644 15.29042 15.19877 15.08887
0 0 0 0 0 0 0 0 19.6454 18.57617 17.2581 16.33493 15.81035 15.01391 14.96108 14.9416 14.94125 14.97685 14.99458 15.00716 15.0246 15.03237 15.02872 15.02122 15.02971 15.03974 15.05635 15.07935 15.12164 15.16742 15.18868 15.21528 15.23735 15.26024 15.27562 15.29789 15.33325 15.37098 15.78821 16.26901 16.79053 17.72205 0 18.60629 19.27573 0 0 0 0 0 0 0 18.81202 17.76023 16.85137 15.51846 15.52278 15.54422 15.58547 15.60945 15.61695 15.6118 15.60432 15.6051 15.61223 15.61406 15.61132 15.61687 15.60929 15.63506 15.68721 15.7298 15.77189 15.78579 15.78865 15.79351 15.79572 15.8217 15.83934 15.85009 15.84436 15.82252 15.79928 15.78981 15.77862 15.76877 15.76506 15.75939 15.74696 15.73359 15.71225 15.69657 15.69178 15.67943 15.66984 15.65694 15.64942 15.6445 15.63699 15.62191 15.60769 15.57118 15.54443 15.49866 15.44559 15.3856 15.31071 15.21581 15.11009
0 0 0 0 0 0 0 0 19.65477 18.5884 17.26222 16.32329 15.0602 14.98719 14.93353 14.91319 14.93905 14.96574 14.99747 15.02745 15.04349 15.05582 15.03567 15.0346 15.0411 15.06847 15.09355 15.12661 15.1746 15.22402 15.26223 15.28647 15.29799 15.32037 15.32821 15.352 15.38013 15.3881 15.39574 15.86268 16.32699 16.80283 17.28911 17.74928 18.58987 0 0 0 0 0 0 18.2491 17.36284 17.32916 15.53017 15.54573 15.5709 15.59488 15.62637 15.65967 15.66883 15.65646 15.63868 15.62813 15.63956 15.64947 15.64367 15.63325 15.63121 15.67 15.71753 15.75715 15.78632 15.811 15.82151 15.82886 15.83117 15.84071 15.85462 15.86375 15.84859 15.8374 15.82383 15.81549 15.80926 15.801 15.79655 15.791 15.77559 15.76049 15.74165 15.73323 15.72674 15.71798 15.7076 15.69637 15.68927 15.68226 15.67522 15.65678 15.64004 15.61103 15.57385 15.53125 15.47575 15.40676 15.32728 15.23187 15.12428
0 0 0 0 0 0 0 0 0 18.63199 17.29807 16.3675 15.05994 14.97713 14.92166 14.91391 14.9354 14.95523 14.99433 15.03292 15.05326 15.0693 15.05904 15.06018 15.06634 15.103 15.13551 15.18098 15.22768 15.26692 15.31015 15.35756 15.37831 15.38906 15.40504 15.4173 15.42895 15.43579 15.43652 15.44884 15.46361 15.47825 15.48652 15.91206 16.85168 17.7341 18.59698 18.95743 0 0 18.53845 17.35173 16.43436 15.54293 15.56069 15.59413 15.62485 15.64694 15.67444 15.69333 15.70275 15.71009 15.6955 15.66942 15.66234 15.66483 15.65723 15.65515 15.66228 15.68909 15.7291 15.77095 15.79601 15.82171 15.84025 15.84889 15.84825 15.85155 15.87126 15.87684 15.86412 15.8661 15.85286 15.84444 15.83174 15.819 15.81494 15.81898 15.81102 15.79758 15.78365 15.77615 15.76692 15.75807 15.74775 15.73305 15.72681 15.71317 15.70371 15.68472 15.6637 15.63998 15.59789 15.55181 15.49684 15.41595 15.33189 15.24282 15.13266
0 0 0 0 0 0 0 0 0 19.52955 18.0347 16.8739 15.48006 14.99681 14.93435 14.90682 14.91909 14.94917 14.98676 15.02596 15.05357 15.07806 15.08481 15.08889 15.10801 15.14626 15.19992 15.25536 15.30761 15.36179 15.39086 15.4085 15.41616 15.43883 15.44724 15.44161 15.44665 15.45848 15.46243 15.47201 15.49771 15.51225 15.51597 15.50412 15.92763 16.39288 16.84796 17.29284 18.57721 17.36378 15.96708 15.54967 15.55139 15.58556 15.62062 15.63679 15.66021 15.68403 15.6933 15.69728 15.72929 15.72935 15.71547 15.70957 15.69819 15.6802 15.67056 15.67063 15.68023 15.70538 15.73796 15.77544 15.80635 15.83105 15.85301 15.87448 15.86972 15.89138 15.88916 15.8832 15.88483 15.88828 15.8854 15.86978 15.86259 15.85191 15.84698 15.84007 15.83615 15.82393 15.81693 15.80978 15.79582 15.78968 15.778 15.76269 15.75252 15.73834 15.72876 15.71681 15.68969 15.65294 15.61493 15.5667 15.50699 15.42493 15.34161 15.23399 15.12637
0 0 0 0 0 0 0 0 0 19.68827 18.90016 17.31919 15.92552 15.05168 14.96461 14.92211 14.9208 14.94449 14.97002 15.00578 15.04449 15.07948 15.09635 15.112 15.15168 15.21694 15.2752 15.32983 15.38865 15.41562 15.43722 15.45541 15.48147 15.49048 15.46956 15.45091 15.43978 15.45677 15.46833 15.47649 15.51041 15.54021 15.54019 15.54804 15.52799 15.51835 15.95328 0 17.35197 15.99807 15.57445 15.58728 15.61905 15.6503 15.68782 15.69872 15.73161 15.75531 15.75924 15.75915 15.75339 15.74371 15.73489 15.73166 15.72339 15.69522 15.67772 15.68099 15.69952 15.71458 15.74579 15.76741 15.81165 15.83379 15.86478 15.8903 15.90108 15.89717 15.88803 15.89457 15.89626 15.8927 15.89172 15.88779 15.87813 15.87669 15.8695 15.86524 15.85717 15.85741 15.84427 15.83053 15.82312 15.81184 15.79658 15.77665 15.77027 15.76662 15.74751 15.73458 15.70854 15.66632 15.62176 15.57783 15.51121 15.4357 15.339 15.23235 15.12187
0 0 0 0 0 0 0 0 0 0 19.37469 18.0815 16.50048 15.53427 15.04325 14.95661 14.93915 14.93089 14.95519 14.98496 15.02136 15.07834 15.10707 15.1503 15.21792 15.27925 15.3334 15.40395 0 0 0 15.73757 15.5233 15.52192 15.50098 15.47673 15.45145 15.45646 15.46722 15.49546 15.51921 15.54436 15.56479 15.56866 15.5628 15.55765 15.57598 16.02478 15.57932 15.59788 15.61645 15.64532 15.67667 15.71613 15.73054 15.77034 15.80011 15.81871 15.82409 15.81145 15.78545 15.78182 15.76056 15.76447 15.76345 15.72669 15.69812 15.70543 15.71984 15.73928 15.77002 15.78567 15.83724 15.8591 15.88368 15.90874 15.89191 15.89705 15.9017 15.90432 15.90246 15.89224 15.89384 15.89265 15.87743 15.87795 15.88425 15.88311 15.87148 15.8734 15.86337 15.85105 15.8458 15.83522 15.82015 15.80177 15.79132 15.79066 15.77441 15.75384 15.71863 15.67135 15.62666 15.57819 15.51427 15.43537 15.34524 15.23916 15.11872
0 0 0 0 0 0 0 0 0 0 0 19.30759 18.07979 16.52385 15.52312 15.05165 14.97623 14.94861 14.95985 14.99403 15.02229 15.0936 15.13368 15.20566 15.2641 15.30806 15.7691 16.19954 0 0 0 16.46314 16.79044 15.54103 15.5198 15.49596 15.4708 15.46464 15.49209 15.51674 15.55228 15.58312 15.5852 15.58396 15.59308 15.62194 15.63273 15.62332 15.62278 15.62977 15.6544 15.69478 15.73052 15.77429 15.79651 15.81412 15.83923 15.8503 15.85455 15.84658 15.8285 15.80211 15.80173 15.79408 15.80147 15.76311 15.73147 15.73146 15.73263 15.76031 15.80419 15.8462 15.8696 15.89568 15.91972 15.92255 15.91581 15.92383 15.92802 15.91953 15.90735 15.90119 15.90028 15.8976 15.89288 15.88616 15.88281 15.88429 15.88303 15.87621 15.8674 15.85977 15.85613 15.84509 15.83793 15.82729 15.81572 15.80473 15.78949 15.76515 15.72573 15.68035 15.63809 15.59227 15.52819 15.44913 15.35083 15.24643 15.12573
0 0 0 0 0 0 0 0 0 0 0 0 19.42946 18.4753 16.46648 15.54718 15.03767 14.98572 14.98146 15.00087 15.04563 15.13015 15.19062 15.24296 15.29531 15.36979 16.15739 0 0 17.97733 18.03306 16.4053 15.56361 15.53891 15.50614 15.4865 15.471 15.47081 15.4997 15.56282 15.59272 15.61188 15.63903 15.64653 15.65439 15.68177 15.6764 15.65785 15.63907 15.65488 15.68536 15.72059 15.78688 15.80146 15.82075 15.84117 15.86459 15.85781 15.85189 15.8511 15.85208 15.84846 15.82835 15.82155 15.81903 15.81218 15.77638 15.76544 15.76159 15.78321 15.82436 15.8674 15.90828 15.93699 15.93963 15.92982 15.94073 15.95358 15.94254 15.93418 15.93118 15.92529 15.91498 15.90728 15.8982 15.89272 15.89054 15.88468 15.88325 15.88208 15.87028 15.87576 15.86966 15.86102 15.84752 15.83763 15.81982 15.81259 15.79827 15.77339 15.73292 15.68966 15.64721 15.59899 15.53883 15.46956 15.37753 15.2735 15.16388
0 0 0 0 0 0 0 0 0 0 0 0 0 0 0 16.41746 15.46377 15.04311 15.02039 15.03002 15.1002 15.16212 15.22868 15.27383 15.31173 15.73924 15.82468 16.26999 16.72284 19.10276 18.05067 16.38495 15.54862 15.52745 15.50329 15.50162 15.50819 15.50474 15.54705 15.59977 15.61918 15.6507 15.68499 15.7063 15.71022 15.70146 15.67246 15.65138 15.67973 15.68019 15.71687 15.75939 15.80899 15.81002 15.8152 15.84102 15.837 15.85687 15.87212 15.87842 15.88328 15.87017 15.86175 15.85787 15.85989 15.85537 15.83626 15.82235 15.82437 15.84075 15.87438 15.91779 15.95296 15.9784 15.97772 15.96745 15.96787 15.96336 15.96357 15.96551 15.96445 15.95582 15.9436 15.93392 15.91449 15.90939 15.90698 15.90276 15.90021 15.89202 15.87886 15.87391 15.87116 15.86722 15.8596 15.84882 15.82966 15.81863 15.80528 15.78921 15.75971 15.71984 15.67491 15.62626 15.57042 15.4985 15.41579 15.31263 15.22136
0 0 0 0 0 0 0 0 0 0 0 0 0 0 0 17.30697 16.35903 15.07582 15.04959 15.0672 15.14405 15.20491 15.27487 15.31661 15.35398 15.39833 16.20697 16.29258 16.75443 0 18.104 15.54487 15.54109 15.51954 15.53579 15.51779 15.52783 15.52502 15.57704 15.59702 15.61702 15.66433 15.67736 15.70906 15.7153 15.70722 15.69245 15.6955 15.71465 15.73317 15.75399 15.77053 15.79092 15.80976 15.81535 15.84522 15.86425 15.88286 15.89259 15.89307 15.88503 15.89233 15.87344 15.85842 15.8576 15.85591 15.85114 15.85105 15.86021 15.8805 15.92851 15.96944 15.99931 16.00067 16.00496 16.00191 15.99698 15.99565 15.9956 16.00415 16.00707 15.99436 15.98131 15.96292 15.94566 15.93625 15.92963 15.92589 15.91552 15.8983 15.89856 15.8843 15.87948 15.86707 15.86101 15.84967 15.84412 15.83022 15.81776 15.80309 15.78584 15.75749 15.7152 15.67017 15.62668 15.5541 15.46687 15.38233 15.29516
0 0 0 0 0 0 0 0 0 0 0 0 0 18.55683 18.1092 17.27836 16.40147 15.12094 15.04462 15.11131 15.19924 15.28811 15.33811 15.37594 15.41866 15.47192 16.73416 17.2162 17.66172 17.55832 18.57416 15.96994 15.53522 15.53268 15.53436 15.54069 15.54678 15.57066 15.59155 15.59364 15.60369 15.66243 15.69573 15.69541 15.71018 15.71927 15.72717 15.73125 15.73898 15.76832 15.80725 15.80371 15.80214 15.8182 15.8354 15.86309 15.89155 15.91135 15.91525 15.9071 15.91138 15.91215 15.88657 15.87772 15.87953 15.88264 15.86736 15.90028 15.90615 15.94098 15.97834 16.02162 16.03215 16.02199 16.03585 16.02712 16.0395 16.01496 16.02286 16.04084 16.04701 16.02958 16.0163 16.0045 15.99267 15.98118 15.96 15.94571 15.92374 15.90358 15.8901 15.88227 15.87356 15.86586 15.85635 15.85146 15.84965 15.84705 15.8379 15.82484 15.80249 15.77953 15.74454 15.70866 15.66712 15.6057 15.53427 15.45092 15.37921
0 0 0 0 0 0 0 0 0 0 0 0 17.80808 17.35577 17.35403 16.86093 15.96254 15.15242 15.09478 15.16839 15.22563 15.32901 15.3752 15.4344 15.48398 15.54735 16.48019 16.46715 17.27376 18.1395 16.40063 15.54903 15.55553 15.56705 15.57952 15.59321 15.59401 15.58007 15.60298 15.63665 15.63186 15.64454 15.65785 15.67113 15.70667 15.72937 15.74259 15.73496 15.75907 15.76538 15.79202 15.82399 15.83216 15.82186 15.84183 15.86917 15.8918 15.90745 15.9157 15.91642 15.92036 15.91058 15.90114 15.88735 15.89112 15.90537 15.92777 15.94204 15.96125 15.99152 16.03479 16.07539 16.0772 16.08325 16.07911 16.07143 16.0587 16.03796 16.0355 16.06196 16.0626 16.041 16.03021 16.01313 16.00337 15.99573 15.98268 15.95415 15.93894 15.91013 15.89284 15.88121 15.86826 15.86123 15.85031 15.85253 15.85836 15.85512 15.85775 15.84453 15.83016 15.81886 15.79489 15.76245 15.71425 15.65649 15.58453 15.52714 15.46038
0 0 0 0 0 0 0 0 19.53396 19.04077 17.89121 16.96879 16.94118 16.91857 16.48752 16.44597 15.95261 15.15557 15.16655 15.23792 15.32311 15.39393 15.46034 15.50396 15.54931 15.61071 15.6223 15.60945 15.57591 15.57031 15.55975 15.59005 15.6142 15.627 15.61745 15.62123 15.61829 15.60306 15.61665 15.62277 15.62144 15.63605 15.65047 15.65226 15.672 15.70609 15.73063 15.7404 15.75288 15.76794 15.76498 15.80317 15.81014 15.82717 15.81208 15.82095 15.85469 15.88464 15.90133 15.90849 15.90817 15.90655 15.90342 15.89832 15.90172 15.92781 15.95018 15.96849 15.97979 16.00879 16.07957 16.11094 16.12548 16.13147 16.12274 16.10453 16.09372 16.07347 16.0839 16.09104 16.0809 16.07632 16.07202 16.04856 16.01867 15.99857 15.98053 15.96449 15.94135 15.91927 15.89858 15.88326 15.86593 15.8529 15.85042 15.8605 15.86438 15.87629 15.88651 15.88013 15.86993 15.85379 15.83531 15.80207 15.76846 15.7187 15.65358 15.6013 15.53543
0 0 0 0 0 0 0 18.6467 18.78862 17.07892 16.56034 16.53086 16.49165 16.46047 16.44511 15.99133 15.19497 15.19643 15.26695 15.32678 15.40999 15.46834 15.5297 15.56641 15.60317 15.63657 15.63131 15.62212 15.60738 15.59733 15.60421 15.62463 15.65536 15.64864 15.64159 15.64059 15.63342 15.62428 15.62384 15.61978 15.6252 15.65302 15.64247 15.66252 15.67629 15.6958 15.71526 15.7402 15.76832 15.76539 15.77078 15.78678 15.79819 15.81758 15.80479 15.80866 15.82916 15.86041 15.89367 15.91778 15.92168 15.92667 15.92417 15.93217 15.93692 15.94081 15.95802 16.0113 16.02089 16.05572 16.09376 16.12946 16.12734 16.12703 16.1338 16.13022 16.10967 16.10185 16.10959 16.10177 16.11204 16.10517 16.09426 16.08373 16.04995 16.02322 16.0063 15.9889 15.96515 15.94662 15.91823 15.89043 15.8756 15.87638 15.87636 15.89207 15.89735 15.90537 15.91688 15.91674 15.90838 15.90092 15.88191 15.8569 15.82567 15.77939 15.72731 15.66175 15.60733
0 0 0 0 0 0 19.12755 19.15334 17.11089 16.5164 16.45856 16.41329 16.40372 15.9668 15.57539 15.23106 15.22796 15.30049 15.35726 15.4026 15.48443 15.53915 15.58504 15.61497 15.64492 15.65545 15.65438 15.65192 15.65521 15.65174 15.64818 15.66634 15.67163 15.65084 15.6575 15.65595 15.65731 15.65839 15.65476 15.65642 15.65892 15.66748 15.67197 15.67899 15.67923 15.69155 15.71171 15.72535 15.75296 15.77186 15.77799 15.79135 15.79556 15.80043 15.81069 15.82343 15.83772 15.84511 15.86861 15.88773 15.9036 15.91422 15.93269 15.94575 15.95808 15.96831 15.99451 16.0447 16.04887 16.07099 16.11678 16.12743 16.12181 16.11941 16.13374 16.14565 16.1446 16.13605 16.12738 16.12312 16.1175 16.10506 16.10109 16.08164 16.06827 16.04186 16.01326 15.99145 15.97225 15.9513 15.9304 15.91114 15.89611 15.89932 15.89421 15.92103 15.92291 15.93645 15.94993 15.95006 15.94973 15.94248 15.92634 15.90411 15.87882 15.84083 15.7981 15.74344 15.68396
0 0 0 0 0 0 19.81982 18.4095 17.0205 16.4408 15.9307 15.91988 15.48525 15.16123 15.22711 15.27674 15.34316 15.39531 15.44578 15.48473 15.5508 15.5868 15.62549 15.65797 15.67596 15.66609 15.66664 15.67882 15.67885 15.66753 15.66652 15.68833 15.67993 15.68942 15.69498 15.67881 15.68132 15.67663 15.67151 15.66698 15.70768 15.72108 15.71033 15.70748 15.70435 15.70853 15.71155 15.72308 15.74131 15.7562 15.75444 15.75958 15.77168 15.78774 15.79899 15.81903 15.83842 15.84753 15.86712 15.88378 15.88949 15.91307 15.93642 15.95235 15.97367 15.99612 16.01179 16.0653 16.063 16.0915 16.11143 16.1302 16.13658 16.15875 16.17875 16.18614 16.18498 16.16572 16.15897 16.14302 16.13156 16.11831 16.10254 16.08433 16.06363 16.04288 16.02661 16.0006 15.98798 15.96658 15.95444 15.9365 15.92952 15.92403 15.93528 15.95046 15.94627 15.9635 15.97332 15.97454 15.97704 15.9697 15.96252 15.94493 15.9281 15.8977 15.86026 15.80569 15.74854
0 0 0 0 0 19.88861 19.56916 18.37517 16.97819 16.4085 15.48675 15.09605 15.14455 15.23354 15.29713 15.38467 15.44684 15.48003 15.50954 15.54272 15.59532 15.61827 15.6387 15.66767 15.69193 15.68894 15.7002 15.69792 15.6904 15.68796 15.69502 15.70597 15.72541 15.73818 15.71901 15.71064 15.70321 15.68743 15.68395 15.69883 15.73315 15.73911 15.73728 15.72141 15.70898 15.71468 15.73192 15.72683 15.72612 15.75702 15.76102 15.7702 15.77447 15.78506 15.7947 15.81431 15.83078 15.85119 15.87532 15.88961 15.90238 15.91995 15.94748 15.97459 15.99713 16.02626 16.04433 16.08018 16.09937 16.12155 16.14694 16.16264 16.17756 16.19792 16.20832 16.20502 16.20064 16.17906 16.1801 16.17076 16.151 16.13057 16.10555 16.08338 16.0568 16.03903 16.02472 16.01131 16.00341 15.99294 15.98275 15.97049 15.96841 15.95841 15.97398 15.98981 15.98646 15.99251 16.01149 16.01607 16.01192 16.01081 15.98697 15.98096 15.97008 15.9425 15.90863 15.85579 15.79877
0 0 0 0 19.09397 18.95021 17.04742 16.46126 15.92877 15.10436 15.08101 15.12472 15.21749 15.28543 15.36005 15.41858 15.47432 15.5127 15.54852 15.58789 15.62067 15.63309 15.65573 15.68484 15.68556 15.69976 15.71236 15.71655 15.7103 15.70732 15.7189 15.71729 15.73427 15.72135 15.74694 15.73615 15.73469 15.72671 15.72873 15.73434 15.7364 15.74686 15.74529 15.72514 15.73222 15.72963 15.73993 15.74778 15.73347 15.75369 15.7642 15.76716 15.77836 15.78392 15.79725 15.80882 15.80022 15.82706 15.86832 15.90175 15.91988 15.94705 15.96595 15.99033 16.01614 16.04586 16.06437 16.11114 16.12193 16.14033 16.1788 16.19615 16.20302 16.22061 16.22913 16.22822 16.21006 16.18856 16.18817 16.1831 16.16404 16.13702 16.11041 16.08278 16.05723 16.03867 16.03074 16.01914 16.01163 16.00842 15.99795 15.99658 15.99553 15.99897 16.01196 16.02784 16.024 16.02769 16.04604 16.05987 16.06576 16.06181 16.04668 16.03584 16.01562 15.99242 15.95977 15.9123 15.85833
0 0 0 0 19.99229 17.54475 15.24031 15.18151 15.08914 15.07603 15.12219 15.22219 15.28404 15.35037 15.40468 15.45759 15.47429 15.52076 15.57237 15.59385 15.61065 15.64953 15.67096 15.68022 15.69346 15.70017 15.71089 15.71285 15.7195 15.72812 15.71883 15.72126 15.73063 15.73941 15.75744 15.74259 15.7467 15.75147 15.74973 15.74995 15.75093 15.74921 15.75003 15.74588 15.75167 15.73274 15.73811 15.75099 15.74869 15.76863 15.78932 15.78955 15.78696 15.79 15.79245 15.80121 15.81867 15.8307 15.86244 15.89863 15.93431 15.97004 15.99193 16.00732 16.03031 16.0559 16.07509 16.11851 16.13751 16.15863 16.19213 16.20373 16.21024 16.23218 16.23924 16.22505 16.21596 16.18803 16.18035 16.17795 16.16672 16.14217 16.11195 16.09043 16.06444 16.04385 16.03831 16.02766 16.02591 16.03007 16.03421 16.02825 16.02592 16.03348 16.05272 16.05789 16.0549 16.0677 16.08798 16.0935 16.10187 16.10616 16.09159 16.0859 16.05896 16.03668 16.00989 15.96336 15.91482
0 0 0 19.40302 19.09357 17.01154 15.17184 15.11251 15.08004 15.1246 15.20849 15.28298 15.34849 15.40485 15.44476 15.4841 15.51335 15.52951 15.54481 15.57204 15.60959 15.62843 15.66051 15.67923 15.68069 15.68071 15.70256 15.71546 15.74073 15.73984 15.70859 15.71565 15.73927 15.76363 15.76007 15.75747 15.74215 15.74765 15.75656 15.74521 15.73506 15.72494 15.73052 15.74001 15.73894 15.73136 15.74246 15.75822 15.7566 15.77621 15.78355 15.78833 15.80395 15.79556 15.81795 15.84206 15.85465 15.86243 15.89061 15.92523 15.95392 15.99352 16.01218 16.03124 16.05362 16.07201 16.09813 16.12002 16.14065 16.16677 16.19465 16.21306 16.21695 16.22985 16.22924 16.213 16.20608 16.18579 16.18057 16.16829 16.15422 16.1396 16.11208 16.09151 16.06619 16.0539 16.04792 16.03952 16.0536 16.05786 16.07387 16.0699 16.0596 16.06729 16.07646 16.07919 16.07623 16.0905 16.1088 16.12371 16.13084 16.13246 16.12437 16.11433 16.10069 16.07529 16.04673 16.01241 15.95792
0 0 0 19.42291 19.10331 16.96414 15.92682 15.07881 15.10298 15.18312 15.26087 15.32589 15.38 15.43299 15.4781 15.4992 15.52481 15.54556 15.56696 15.57672 15.57949 15.59515 15.64024 15.64921 15.65117 15.67132 15.68743 15.71997 15.73479 15.70774 15.71763 15.74542 15.77128 15.7551 15.77081 15.7599 15.75551 15.73972 15.74426 15.73185 15.71247 15.69302 15.68278 15.68239 15.69445 15.7183 15.73278 15.73978 15.73741 15.7615 15.76464 15.7935 15.80537 15.81912 15.83946 15.83799 15.83876 15.87765 15.92314 15.95158 16.00414 16.0031 16.05624 16.06728 16.06532 16.08822 16.10624 16.13291 16.13567 16.14874 16.1827 16.20184 16.20776 16.21752 16.21593 16.20842 16.19729 16.18856 16.17074 16.1576 16.14527 16.12827 16.11979 16.09346 16.07838 16.05098 16.05124 16.05808 16.06906 16.08309 16.09492 16.09487 16.08298 16.08759 16.09493 16.1015 16.09713 16.1134 16.13399 16.15414 16.16177 16.1619 16.15775 16.15065 16.14203 16.1188 16.09218 16.05365 16.01735
0 0 0 19.99286 19.31703 16.9611 15.48993 15.09274 15.12382 15.20547 15.28971 15.35156 15.39911 15.45623 15.5047 15.51389 15.53164 15.55146 15.57468 15.58602 15.59032 15.60048 15.62943 15.63991 15.64978 15.65916 15.69065 15.72882 15.71491 15.71022 15.71336 15.74131 15.74379 15.76291 15.78174 15.76639 15.74707 15.74405 15.72059 15.72222 15.70234 15.67241 15.65151 15.65331 15.64577 15.67662 15.7048 15.71931 15.72519 15.73353 15.75961 15.79427 15.80657 15.81294 15.82199 15.83048 15.84468 15.89893 15.92335 15.96626 16.01098 16.04448 16.05337 16.09109 16.08736 16.10275 16.10731 16.12508 16.1237 16.13803 16.16479 16.18373 16.18789 16.18773 16.18757 16.17236 16.16892 16.16783 16.16665 16.15161 16.1401 16.12698 16.12044 16.10663 16.08491 16.06817 16.0738 16.07281 16.08592 16.08497 16.09456 16.09989 16.098 16.11422 16.11243 16.1183 16.12025 16.13109 16.15352 16.17577 16.17929 16.18024 16.17583 16.1735 16.16909 16.14728 16.12848 16.10646 16.08338
0 0 0 20.03949 17.96057 15.94499 15.08236 15.10415 15.16099 15.24722 15.32564 15.37847 15.42075 15.46931 15.50663 15.53179 15.54248 15.56084 15.57129 15.56611 15.57208 15.59478 15.5988 15.5814 15.62599 15.65487 15.667 15.70616 15.70303 15.70302 15.71185 15.71765 15.753 15.77006 15.76962 15.7595 15.74643 15.73448 15.73894 15.73058 15.7128 15.6862 15.66185 15.65351 15.65075 15.66054 15.69005 15.70919 15.71642 15.74409 15.79757 15.82374 15.83404 15.8378 15.83542 15.85418 15.87668 15.9166 15.94381 15.98804 16.03067 16.05956 16.08615 16.09989 16.1186 16.0997 16.09983 16.10699 16.11536 16.12386 16.13813 16.15691 16.17495 16.17601 16.17161 16.15966 16.16502 16.16042 16.16242 16.15065 16.1414 16.12767 16.09849 16.0945 16.08574 16.09443 16.1018 16.09527 16.10217 16.10578 16.12112 16.11388 16.1285 16.13301 16.13515 16.13464 16.13429 16.14671 16.16696 16.18934 16.19944 16.19905 16.19448 16.18867 16.17729 16.1688 16.15762 16.15588 16.13207
15.1704 15.1633 16.68338 17.91865 15.51652 15.05776 15.0535 15.09997 15.20385 15.28372 15.34557 15.39522 15.44502 15.47936 15.50819 15.54262 15.55151 15.56487 15.58227 15.58631 15.58567 15.57256 15.56703 15.55981 15.58857 15.62321 15.65152 15.65317 15.67962 15.69651 15.69727 15.70438 15.73601 15.74485 15.75907 15.75931 15.75007 15.74102 15.74863 15.74466 15.73042 15.71562 15.67931 15.65085 15.64466 15.65868 15.68312 15.69514 15.72358 15.77334 15.81668 15.83821 15.84481 15.85663 15.86856 15.8779 15.89451 15.92178 15.96303 15.99263 16.02522 16.06111 16.08219 16.0927 16.0953 16.08296 16.0957 16.09681 16.10414 16.11292 16.12626 16.13587 16.14848 16.15859 16.1584 16.15623 16.1515 16.14975 16.146 16.14326 16.13809 16.12026 16.10921 16.10333 16.09924 16.09425 16.10815 16.10661 16.1169 16.1263 16.13036 16.13856 16.14443 16.14444 16.15056 16.14651 16.14563 16.16037 16.17607 16.19661 16.20783 16.20842 16.21642 16.21481 16.2111 16.20139 16.19527 16.18589 16.17629
15.18188 15.15892 15.14911 15.15075 15.06591 15.04333 15.08283 15.16823 15.2459 15.32068 15.37687 15.41902 15.45958 15.49087 15.5189 15.54594 15.55563 15.56174 15.55814 15.55901 15.56794 15.57594 15.5727 15.56474 15.56462 15.59482 15.62645 15.66545 15.66749 15.68432 15.68804 15.70435 15.72232 15.72919 15.74535 15.76426 15.76324 15.75266 15.76061 15.76038 15.74827 15.72976 15.71472 15.6757 15.66494 15.67571 15.69414 15.69927 15.74111 15.76937 15.79149 15.83697 15.85225 15.86724 15.8748 15.882 15.9158 15.94325 15.95354 15.96872 16.01113 16.04212 16.06758 16.06901 16.07611 16.07713 16.08717 16.08531 16.09325 16.10251 16.10697 16.11531 16.11826 16.13294 16.1299 16.12213 16.12252 16.11829 16.11966 16.11583 16.11331 16.10561 16.10446 16.10796 16.09766 16.10163 16.11225 16.10948 16.1262 16.13959 16.14782 16.15645 16.1632 16.16173 16.16511 16.16723 16.16903 16.18002 16.18472 16.20681 16.22395 16.23028 16.24437 16.24721 16.25444 16.25175 16.25387 16.23209 16.21123
15.14986 15.1532 15.16053 15.15628 15.13524 15.14444 15.19424 15.26089 15.31274 15.36848 15.41532 15.45279 15.48543 15.50841 15.5266 15.53774 15.55068 15.57237 15.55332 15.54754 15.55153 15.5495 15.56 15.55023 15.53834 15.58747 15.60546 15.64555 15.6815 15.69571 15.71662 15.71304 15.71973 15.72821 15.73944 15.76346 15.76756 15.76442 15.76029 15.75909 15.75392 15.74704 15.71707 15.69686 15.68815 15.69241 15.68818 15.71003 15.74238 15.77912 15.80476 15.83254 15.84765 15.85761 15.88476 15.9112 15.94678 15.97775 15.98946 15.99768 16.01446 16.0334 16.04544 16.05842 16.05677 16.06619 16.07297 16.08258 16.081 16.08379 16.08909 16.10031 16.09769 16.10417 16.10789 16.10645 16.10283 16.09349 16.10094 16.09 16.09713 16.08371 16.09239 16.08536 16.08585 16.10294 16.12433 16.13444 16.14561 16.15303 16.16538 16.17737 16.19125 16.2021 16.20333 16.2011 16.19612 16.20053 16.21724 16.24212 16.25966 16.27428 16.28001 16.28443 16.28986 16.28833 16.27185 16.25366 16.2385
15.2081 15.22094 15.22648 15.23947 15.25118 15.2694 15.29893 15.33223 15.3691 15.40001 15.43154 15.47052 15.49155 15.50839 15.51976 15.53067 15.54346 15.561 15.56634 15.565 15.55497 15.54694 15.5524 15.5562 15.55556 15.58529 15.60595 15.64203 15.66173 15.68267 15.70807 15.73216 15.75197 15.75455 15.74898 15.77256 15.76758 15.76041 15.75103 15.7447 15.73909 15.73162 15.72101 15.70095 15.69058 15.69312 15.69712 15.71388 15.74632 15.78355 15.79904 15.82609 15.85709 15.87272 15.89141 15.91177 15.93363 15.9609 15.98081 16.00804 16.02157 16.02992 16.04501 16.04882 16.04643 16.04828 16.05555 16.06155 16.06779 16.07482 16.0712 16.08038 16.08466 16.09126 16.09702 16.09396 16.09081 16.08703 16.07972 16.07571 16.08313 16.07633 16.07703 16.08433 16.09449 16.1132 16.13683 16.15397 16.16515 16.19011 16.20647 16.22469 16.23754 16.24926 16.24797 16.25139 16.25716 16.26309 16.27915 16.30729 16.32047 16.32946 16.33081 16.32197 16.32924 16.32313 16.30363 16.29125 16.27504
15.29338 15.30061 15.31957 15.33616 15.34423 15.35751 15.37076 15.38351 15.41193 15.42169 15.46575 15.48722 15.49678 15.50219 15.51212 15.52654 15.52542 15.56027 15.54803 15.56573 15.55543 15.54402 15.53643 15.54466 15.56018 15.60462 15.62805 15.63996 15.65428 15.68079 15.71457 15.73879 15.76853 15.78201 15.79589 15.7918 15.78636 15.77493 15.77037 15.76297 15.75197 15.74155 15.73075 15.72715 15.71344 15.7132 15.71694 15.73502 15.76803 15.78942 15.81001 15.83711 15.85443 15.88917 15.90275 15.93039 15.95145 15.97378 15.99861 16.02169 16.03956 16.05099 16.07094 16.07415 16.0671 16.06794 16.06916 16.06911 16.08149 16.08833 16.08786 16.08676 16.07152 16.08391 16.08932 16.09107 16.09291 16.08351 16.08167 16.0802 16.08919 16.09943 16.11031 16.11696 16.12288 16.15257 16.19104 16.21579 16.23809 16.25375 16.27216 16.28005 16.28663 16.29916 16.29975 16.2946 16.30017 16.30676 16.33076 16.36314 16.38629 16.39193 16.38693 16.3826 16.37358 16.36006 16.35699 16.35461 16.36212
15.38405 15.40602 15.40186 15.38247 15.38687 15.40187 15.41603 15.42619 15.44268 15.46191 15.48674 15.50145 15.50947 15.50949 15.52924 15.52814 15.52504 15.53509 15.52584 15.55152 15.54538 15.53621 15.53657 15.55457 15.58287 15.6232 15.65174 15.65757 15.66801 15.69261 15.72753 15.75885 15.77865 15.8015 15.79459 15.80019 15.807 15.80743 15.81686 15.78941 15.78817 15.77508 15.77275 15.75215 15.75019 15.74874 15.7599 15.78841 15.80894 15.82416 15.84681 15.8709 15.90457 15.92574 15.95059 15.97708 16.00439 16.03317 16.06099 16.0708 16.09179 16.10097 16.10221 16.09831 16.09259 16.08244 16.07931 16.0936 16.10124 16.11014 16.11184 16.10402 16.10138 16.10488 16.10085 16.10119 16.09977 16.09817 16.09792 16.10137 16.11458 16.12532 16.14801 16.17175 16.19457 16.2332 16.27703 16.31995 16.35179 16.37146 16.37796 16.3725 16.37277 16.37741 16.3768 16.36956 16.36272 16.37823 16.40561 16.44336 16.46223 16.44642 16.43585 16.4373 16.42742 16.41767 16.40793 16.40152 16.39066
15.40803 15.41284 15.42733 15.43816 15.42893 15.42609 15.43747 15.43981 15.45398 15.4692 15.48928 15.49601 15.49396 15.50095 15.51855 15.52991 15.54019 15.54739 15.55381 15.555 15.54922 15.54923 15.55382 15.59197 15.64138 15.65566 15.66695 15.68665 15.71587 15.71439 15.74576 15.77835 15.79334 15.79355 15.80376 15.81655 15.8329 15.83629 15.8339 15.82371 15.81797 15.81362 15.80424 15.80007 15.7887 15.79983 15.82128 15.8435 15.86193 15.87739 15.9108 15.94332 15.97016 15.99374 16.01816 16.03783 16.05946 16.08509 16.1136 16.14294 16.17504 16.1783 16.18139 16.17893 16.1673 16.15598 16.1509 16.15364 16.14537 16.15593 16.16228 16.1629 16.1515 16.14332 16.1366 16.13652 16.13049 16.12852 16.13379 16.14282 16.14803 16.16696 16.19382 16.21744 16.25736 16.30384 16.35178 16.39874 0 0 16.46165 16.48484 16.47091 16.46534 16.45837 16.45704 16.46568 16.48894 16.49516 0 0 16.47018 16.5362 16.52002 16.49021 16.46627 16.45061 16.44081 16.42479
