ncols        109
nrows        82
xllcorner    -1.041666666667
yllcorner    37.041665395101
cellsize     0.083333333333
NODATA_value -9999
0.0 0 0 0 0 0 0 0 0 0 0 0 0 0 0 0 0 0 0 0 0 0 0 0 0 0 0 0 0 0 0 0 0 0 0 0 0 0 0 0 0 0 0 0 0 0 0 0 0 0 0 0 0 0 0 0 0 0 0 0 0 0 0 0 0 0 0 0 0 0 0 0 0 0 0 0 0 0 0 0 0 0 0 0 0 0 0 0 0 0 0 0 0 0 0 0 0 0 0 0 0 0 0 0 0 19.02793 17.53499 15.59231 15.56532
0 0 0 0 0 0 0 0 0 0 0 0 0 0 0 0 0 0 0 0 0 0 0 0 0 0 0 0 0 0 0 0 0 0 0 0 0 0 0 0 0 0 0 0 0 0 0 0 0 0 0 0 0 0 0 0 0 0 0 0 0 0 0 0 0 0 0 0 0 0 0 0 0 0 0 0 0 0 0 0 0 0 0 0 0 0 0 0 0 0 0 0 0 0 0 0 0 0 0 0 0 15.83218 15.84253 15.55565 15.55532 15.55569 15.54564 15.52346 15.45668
0 0 0 0 0 0 0 0 0 0 0 0 0 0 0 0 0 0 0 0 0 0 0 0 0 0 0 0 0 0 0 0 0 0 0 0 0 0 0 0 0 0 0 0 0 0 0 0 0 0 0 0 0 0 0 0 0 0 0 0 0 0 0 0 0 0 0 0 0 0 0 0 0 0 0 0 0 0 0 0 0 0 0 0 0 0 0 0 0 0 0 0 0 0 0 0 0 0 15.55801 15.55178 15.53878 15.52065 15.48662 15.45767 15.43734 15.40458 15.35973 15.32835 15.28472
0 0 0 0 0 0 0 0 0 0 0 0 0 0 0 0 0 0 0 0 0 0 0 0 0 0 0 0 0 0 0 0 0 0 0 0 0 0 0 0 0 0 0 0 0 0 0 0 0 0 0 0 0 0 0 0 0 0 0 0 0 0 0 0 0 0 0 0 0 0 0 0 0 0 0 0 0 0 0 0 0 0 0 0 0 0 0 0 0 0 0 0 0 0 0 0 0 17.83395 15.50417 15.46939 15.42368 15.3805 15.33986 15.30419 15.27333 15.25335 15.22301 15.19919 15.17993
0 0 0 0 0 0 0 0 0 0 0 0 0 0 0 0 0 0 0 0 0 0 0 0 0 0 0 0 0 0 0 0 0 0 0 0 0 0 0 0 0 0 0 0 0 0 0 0 0 0 0 0 0 0 0 0 0 0 17.64286 17.25571 16.96174 17.11809 0 0 0 0 0 0 0 0 0 0 0 0 0 0 0 0 0 0 0 0 0 0 0 0 0 0 0 0 0 0 0 0 0 16.14331 15.51303 15.47923 15.41976 15.3758 15.32359 15.28056 15.23261 15.17998 15.1436 15.09879 15.07328 15.07036 15.04864
0 0 0 0 0 0 0 0 0 0 0 0 0 0 0 0 0 0 0 0 0 0 0 0 0 0 0 0 0 0 0 0 0 0 0 0 0 0 0 0 0 0 0 0 0 0 0 0 0 0 0 0 0 0 0 0 17.16496 17.17675 16.77731 16.4915 16.36408 16.35885 16.50662 16.76584 17.03109 17.14256 17.11682 0 0 0 0 17.54582 0 0 0 0 0 0 0 0 0 0 0 0 0 0 0 0 0 0 0 0 0 17.02535 15.48132 15.48321 15.41661 15.35954 15.3076 15.24857 15.20024 15.15357 15.11236 15.07516 15.038 15.00384 14.99491 14.97192 14.9722
0 0 0 0 0 0 0 0 0 0 0 0 0 0 0 0 0 0 0 0 0 0 0 0 0 0 0 0 0 0 0 0 0 0 0 0 0 0 0 0 0 0 0 0 0 0 0 0 0 0 0 0 0 0 0 17.23949 16.74634 16.32632 16.07619 15.74113 15.77627 15.80274 16.02743 16.20062 16.40655 16.55418 16.67442 16.91226 17.16682 17.15011 17.10236 16.82825 16.51386 16.56039 16.78982 16.46988 16.49714 0 0 0 0 0 0 0 0 0 0 0 0 0 0 0 15.98907 15.49559 15.44254 15.36964 15.30903 15.2513 15.2039 15.15022 15.09451 15.0457 15.00251 14.94922 14.93579 14.92635 14.91507 14.91846 14.9151
0 0 0 0 0 0 0 0 0 0 0 0 0 0 0 0 0 0 0 0 0 0 0 0 0 0 0 0 0 0 0 0 0 0 0 0 0 0 0 0 0 0 0 0 0 0 0 0 0 0 0 16.82623 17.09822 17.17985 16.81084 16.30483 16.01698 15.6717 15.49889 15.55773 15.58419 15.60022 15.59795 15.87491 15.89764 16.13037 16.11215 16.10873 16.14554 16.01348 15.82863 15.84838 15.60767 15.87547 15.9301 16.24059 0 0 0 0 0 0 0 0 0 0 0 0 0 0 0 0 15.44259 15.44628 15.3454 15.25293 15.17847 15.11512 15.05646 15.00806 14.97158 14.92955 14.89547 14.89688 14.88843 14.88977 14.89036 14.89497 14.90211
0 0 0 0 0 0 0 0 0 0 0 0 0 0 0 0 0 0 0 0 0 0 0 0 0 0 0 0 0 0 0 0 0 0 0 0 0 0 0 0 0 0 0 0 0 0 0 0 0 0 16.91062 16.85676 16.52372 16.39723 16.24493 15.88512 15.46242 15.5153 15.2974 15.3432 15.37378 15.39478 15.40748 15.64283 15.64274 15.9222 15.92006 15.92792 15.72022 15.49811 15.51587 15.55253 15.31776 15.58713 15.60437 15.94312 15.9885 15.71375 15.75724 16.38846 17.08734 18.20681 0 0 0 0 0 0 0 16.89191 16.02587 15.4589 15.44259 15.3696 15.23468 15.15619 15.0679 15.0107 14.95101 14.9006 14.87234 14.85862 14.85435 14.8506 14.85541 14.86783 14.87536 14.88103 14.90037
0 0 0 0 0 0 0 0 0 0 0 0 0 0 0 0 0 0 0 0 0 0 0 0 0 0 0 0 0 0 0 0 0 0 0 0 0 0 0 0 0 0 0 0 0 0 0 0 0 17.74653 16.60248 16.43671 16.33726 15.95105 15.77124 15.53995 15.57311 15.34771 15.37608 15.41354 15.44553 15.46277 15.47231 15.72148 15.74606 15.72169 15.72051 15.70599 15.71218 15.49621 15.50639 15.29599 15.04387 15.05369 15.06242 15.09763 15.13332 15.16888 15.21045 15.23632 15.80547 16.64828 0 16.42826 17.26295 17.89864 18.28188 17.87061 17.3294 15.4173 15.44104 15.43594 15.36171 15.23552 15.13022 15.05073 14.9659 14.92239 14.87721 14.85281 14.83539 14.84065 14.84023 14.85888 14.86746 14.87945 14.88825 14.90953 14.92997
0 0 0 0 0 0 0 0 0 0 0 0 0 0 0 0 0 0 0 0 0 0 0 0 0 0 0 0 0 0 0 0 0 0 0 0 0 0 0 0 0 0 0 0 0 0 0 0 0 17.45106 16.4993 16.14925 15.77836 15.58495 15.61819 15.38139 15.40401 15.43591 15.48116 15.50124 15.52794 15.53375 15.53523 15.53043 15.53069 15.26654 15.02323 15.21784 15.22506 15.22709 15.23738 14.98926 14.98296 14.9858 15.01177 15.02611 15.05275 15.07783 15.10657 15.13878 15.17318 15.21628 15.26566 15.29907 15.33879 15.35669 16.77404 17.05375 16.51914 15.35623 15.33119 15.26184 15.18228 15.09254 15.02852 14.96581 14.92269 14.87546 14.84511 14.83075 14.8386 14.84804 14.87309 14.88442 14.89798 14.90671 14.91529 14.93635 14.9532
0 0 0 0 0 0 0 0 0 0 0 0 0 0 0 0 0 0 0 0 0 0 0 0 0 0 0 0 0 0 0 0 0 0 0 0 0 0 0 0 0 0 0 0 0 0 0 0 0 17.15809 16.38329 15.99975 15.59145 15.65059 15.42565 15.46317 15.47438 15.50661 15.53902 15.56848 15.32432 15.329 15.31515 15.3009 15.27264 15.00108 14.97763 14.96335 14.9383 14.9239 14.91507 14.90482 14.90712 14.91403 14.94636 14.95176 14.95097 14.95047 14.96079 14.99143 15.02952 15.0751 15.11864 15.16161 15.20196 15.23316 15.25408 15.27083 15.26484 15.23102 15.18067 15.10644 15.02107 14.96295 14.90995 14.88206 14.84684 14.82928 14.83183 14.84894 14.86406 14.88236 14.89973 14.91411 14.92655 14.94107 14.94628 14.95919 14.98655
0 0 0 0 0 0 0 0 0 0 0 0 0 0 0 0 0 0 0 0 0 0 0 0 0 0 0 0 0 0 0 0 0 0 0 0 0 0 0 0 0 0 0 0 0 0 0 0 0 17.03634 16.19475 15.81439 15.59809 15.40291 15.47368 15.52841 15.28919 15.30597 15.05247 15.05183 15.04664 15.04129 15.03734 15.01895 14.98496 14.9549 14.93121 14.8952 14.85529 14.83082 14.82868 14.81672 14.81082 14.79505 14.80546 14.80625 14.81584 14.83571 14.85009 14.87255 14.90873 14.95302 14.99452 15.0126 15.02061 15.0416 15.04913 15.04872 15.03361 15.00346 14.97657 14.93072 14.87665 14.85891 14.83727 14.82362 14.80412 14.79541 14.81596 14.83736 14.85473 14.88646 14.91179 14.93829 14.95212 14.96442 14.9858 14.99174 15.01239
0 0 0 0 0 0 0 0 0 0 0 0 0 0 0 0 0 0 0 0 0 0 0 0 0 0 0 0 0 0 0 0 0 0 0 0 0 0 0 0 0 0 0 0 0 0 0 0 0 16.8666 16.215 15.81124 15.59994 15.40426 15.47441 15.26113 15.04356 15.05497 15.04725 15.03074 15.00829 14.99056 14.9676 14.93189 14.90129 14.86698 14.83821 14.8028 14.78 14.76078 14.74229 14.72316 14.70457 14.68413 14.67123 14.66647 14.6797 14.68682 14.70367 14.70459 14.73423 14.77548 14.81631 14.84395 14.85734 14.8703 14.87113 14.87683 14.86888 14.83987 14.81483 14.78587 14.77528 14.76079 14.7559 14.75971 14.76407 14.78217 14.8067 14.84059 14.87113 14.89688 14.92284 14.95291 14.96589 14.99654 15.02515 15.03702 15.04715
0 0 0 0 0 0 0 0 0 0 0 0 0 0 0 0 0 0 0 0 0 0 0 0 0 0 0 0 0 0 0 0 0 0 0 0 0 0 0 0 0 0 0 0 0 0 0 0 0 16.93721 16.01056 15.53666 15.61423 15.42911 15.47994 15.22955 14.99043 14.99455 15.00088 14.97859 14.94644 14.92815 14.90723 14.87944 14.84383 14.81113 14.77246 14.74158 14.71054 14.6783 14.65282 14.61462 14.59748 14.58756 14.58086 14.57883 14.57975 14.58951 14.60391 14.61387 14.63562 14.64637 14.66402 14.67492 14.70183 14.70733 14.70591 14.71737 14.72432 14.71205 14.71337 14.71966 14.72119 14.71937 14.7236 14.73669 14.75904 14.78335 14.81622 14.84401 14.86844 14.90413 14.93155 14.95942 14.98868 15.01244 15.03605 15.05638 15.06949
0 0 0 0 0 0 0 0 0 0 0 0 0 0 0 0 0 0 0 0 0 0 0 0 0 0 0 0 0 0 0 0 0 0 0 0 0 0 0 0 0 0 0 0 0 0 0 0 0 16.34596 16.09011 15.57596 15.38072 15.21369 15.23302 14.96083 14.95772 14.95139 14.92003 14.90046 14.87329 14.8443 14.81563 14.80125 14.78487 14.76255 14.7337 14.70209 14.6825 14.65372 14.60592 14.56172 14.52496 14.5133 14.51677 14.52239 14.52458 14.53177 14.5291 14.53522 14.54924 14.55175 14.56489 14.58328 14.60223 14.61611 14.62924 14.63776 14.64793 14.65395 14.66775 14.6847 14.69841 14.71521 14.73185 14.75215 14.7777 14.80648 14.82811 14.85161 14.88242 14.91462 14.95266 14.9823 15.00392 15.02562 15.04568 15.06615 15.08498
0 0 0 0 0 0 0 0 0 0 0 0 0 0 0 0 0 0 0 0 0 0 0 0 0 0 0 0 0 0 0 0 0 0 0 0 0 0 0 0 0 0 0 0 0 0 0 0 0 0 15.747 15.65546 15.44124 14.99414 14.9793 14.95083 14.92851 14.89592 14.87122 14.855 14.83237 14.81889 14.79558 14.75227 14.73847 14.72254 14.69924 14.68288 14.66287 14.63785 14.5994 14.55519 14.5196 14.49551 14.48772 14.50109 14.51161 14.51349 14.50035 14.49182 14.49549 14.49278 14.50355 14.52444 14.53367 14.55333 14.57238 14.59037 14.6061 14.62037 14.65079 14.66942 14.68502 14.71734 14.74913 14.77913 14.79481 14.81186 14.84027 14.87325 14.90365 14.93094 14.9632 14.99712 15.01322 15.03037 15.05342 15.07218 15.09407
0 0 0 0 0 0 0 0 0 0 0 0 0 0 0 0 0 0 0 0 0 0 0 0 0 0 0 0 0 0 0 0 0 0 0 0 0 0 0 0 0 0 0 0 0 0 0 0 0 0 15.99048 15.423 14.98145 14.99796 14.9567 14.92826 14.88241 14.85513 14.83685 14.81749 14.80701 14.77684 14.77062 14.75668 14.73351 14.71472 14.70415 14.68787 14.67778 14.65959 14.63131 14.58886 14.54687 14.51583 14.50212 14.50376 14.50413 14.49533 14.48447 14.4806 14.47649 14.4853 14.49123 14.49884 14.50835 14.5228 14.54575 14.57336 14.59163 14.61201 14.63875 14.67515 14.70914 14.73697 14.76833 14.79245 14.80906 14.82817 14.84878 14.88301 14.91237 14.94058 14.96693 15.00125 15.0278 15.04196 15.05149 15.0801 15.10924
0 0 0 0 0 0 0 0 0 0 0 0 0 0 0 0 0 0 0 0 0 0 0 0 0 0 0 0 0 0 0 0 0 0 0 0 0 0 0 0 0 0 0 0 0 0 0 0 0 0 0 0 15.01478 14.98658 14.94043 14.88507 14.85659 14.8285 14.81557 14.81493 14.79287 14.7839 14.78196 14.77725 14.77154 14.74733 14.75571 14.75468 14.721 14.70773 14.69018 14.66332 14.63222 14.5787 14.53212 14.54022 14.53327 14.51034 14.50226 14.49851 14.49023 14.48448 14.4823 14.48387 14.49145 14.49936 14.53122 14.56814 14.60203 14.6206 14.64782 14.68361 14.72286 14.76324 14.79354 14.82026 14.84704 14.86225 14.88591 14.90746 14.92929 14.95713 14.98374 15.00789 15.03106 15.04796 15.05911 15.08473 15.11674
0 0 0 0 0 0 0 0 0 0 0 0 0 0 0 0 0 0 0 0 0 0 0 0 0 0 0 0 0 0 0 0 0 0 0 0 0 0 0 0 0 0 0 0 0 0 0 0 0 0 17.81344 15.92252 15.3249 15.00092 14.92772 14.8779 14.83456 14.82515 14.8113 14.79013 14.77625 14.78844 14.79155 14.78656 14.79306 14.79603 14.79612 14.78192 14.78154 14.77098 14.74268 14.71444 14.68065 14.63157 14.59988 14.57415 14.54224 14.53102 14.5219 14.50673 14.49824 14.49184 14.48754 14.48793 14.49916 14.52422 14.55985 14.60273 14.62335 14.65582 14.6949 14.73169 14.76142 14.79198 14.82303 14.84849 14.8706 14.89121 14.9163 14.93474 14.95684 14.97913 15.00193 15.02895 15.05564 15.05592 15.07337 15.10249 15.12925
0 0 0 0 0 0 0 0 0 0 0 0 0 0 0 0 0 0 0 0 0 0 0 0 0 0 0 0 0 0 0 0 0 0 0 0 0 0 0 0 0 0 0 0 0 0 0 0 0 0 17.08413 15.9539 15.62217 15.00938 14.93547 14.87635 14.84716 14.81172 14.80332 14.79337 14.79928 14.80702 14.80604 14.8106 14.82425 14.8249 14.81981 14.82125 14.82212 14.8173 14.80593 14.76908 14.71832 14.67627 14.63584 14.60851 14.58821 14.56146 14.54146 14.53873 14.5196 14.52605 14.52208 14.53134 14.54992 14.57024 14.60488 14.62427 14.65237 14.69031 14.73312 14.77638 14.81503 14.84236 14.8674 14.89443 14.91003 14.93421 14.95785 14.97274 14.97863 14.99562 15.00887 15.0385 15.06099 15.06642 15.08353 15.10554 15.14095
0 0 0 0 0 0 0 0 0 0 0 0 0 0 0 0 0 0 0 0 0 0 0 0 0 0 0 0 0 0 0 0 0 0 0 0 0 0 0 0 0 0 0 0 0 0 0 0 0 0 0 15.99435 15.34187 14.99999 14.94132 14.89065 14.85805 14.83025 14.8229 14.82894 14.82374 14.83371 14.84864 14.86784 14.86944 14.87414 14.86797 14.87954 14.89243 14.89658 14.87523 14.83845 14.78485 14.72627 14.68088 14.64379 14.60438 14.58047 14.57216 14.56316 14.55158 14.55136 14.56209 14.57575 14.59732 14.61577 14.63923 14.66555 14.70669 14.74706 14.78283 14.82047 14.85488 14.87805 14.89827 14.91805 14.9397 14.95698 14.97653 14.98989 15.00426 15.01345 15.02934 15.06177 15.06872 15.08452 15.09833 15.12133 15.16755
0 0 0 0 0 0 0 0 0 0 0 0 0 0 0 0 0 0 0 0 0 0 0 0 0 0 0 0 0 0 0 0 0 0 0 0 0 0 0 0 0 0 0 0 0 0 0 0 0 0 0 15.69343 15.07543 15.00181 14.94326 14.90948 14.88274 14.8578 14.84479 14.84522 14.86398 14.89724 14.90956 14.92545 14.9364 14.94771 14.94651 14.95068 14.96599 14.95992 14.92977 14.88362 14.83543 14.76637 14.71657 14.68063 14.64937 14.62754 14.60184 14.59764 14.60244 14.59931 14.6021 14.6149 14.62233 14.63404 14.66387 14.70445 14.73961 14.78443 14.82117 14.84884 14.88683 14.9079 14.92758 14.94824 14.96613 14.98654 14.99483 15.00226 15.01711 15.02932 15.04692 15.0679 15.08568 15.10058 15.11577 15.14923 15.17161
0 0 0 0 0 0 0 0 0 0 0 0 0 0 0 0 0 0 0 0 0 0 0 0 0 0 0 0 0 0 0 0 0 0 0 0 0 0 0 0 0 0 0 0 0 0 0 0 0 0 0 15.16401 15.07036 14.99394 14.94255 14.9294 14.90412 14.8934 14.91174 14.91514 14.92006 14.93455 14.95711 14.98001 14.99814 15.02622 15.05866 15.04753 15.04367 15.01827 14.97999 14.92655 14.86297 14.80523 14.74455 14.70186 14.67437 14.63606 14.62038 14.62092 14.63482 14.64049 14.65703 14.67231 14.67342 14.68919 14.71822 14.75626 14.79521 14.82983 14.8622 14.90068 14.9269 14.94601 14.96134 14.9841 14.99945 15.01375 15.02546 15.03141 15.04887 15.05176 15.06875 15.0851 15.09984 15.12351 15.13787 15.16814 15.19891
0 0 0 0 0 0 0 0 0 0 0 0 0 0 0 0 0 0 0 0 0 0 0 0 0 0 0 0 0 0 0 0 0 0 0 0 0 0 0 0 0 0 0 0 0 0 0 0 0 17.62316 16.42555 15.15848 15.05821 14.99525 14.99408 14.95008 14.94599 14.93022 14.96811 14.98798 15.00109 14.99643 15.02195 15.04745 15.07613 15.12377 15.13299 15.13433 15.10437 15.07908 15.04122 14.98391 14.93031 14.843 14.79118 14.72772 14.69413 14.66426 14.65725 14.65252 14.67186 14.69168 14.70654 14.71052 14.72656 14.74454 14.7726 14.81363 14.85958 14.89074 14.93 14.96114 14.97759 14.9926 15.00306 15.02714 15.0412 15.05098 15.05639 15.06693 15.07847 15.0802 15.09136 15.10784 15.12345 15.1435 15.16057 15.19683 15.22898
0 0 0 0 0 0 0 0 0 0 0 0 0 0 0 0 0 0 0 0 0 0 0 0 0 0 0 0 0 0 0 0 0 0 0 0 0 0 0 0 0 0 0 0 0 0 0 0 16.51073 15.8323 15.49894 15.14767 15.07532 15.0492 15.0175 15.01101 15.00171 15.01305 15.01159 15.03335 15.04011 15.05524 15.09857 15.13624 15.17456 15.19626 15.20476 15.18743 15.17295 15.11574 15.08203 15.01914 14.96047 14.88568 14.81947 14.7632 14.7273 14.70035 14.68945 14.70478 14.73104 14.76201 14.78524 14.80008 14.81327 14.81805 14.85077 14.88557 14.91136 14.94085 14.95723 14.97427 14.99794 15.02463 15.05053 15.0691 15.08096 15.09984 15.11168 15.12202 15.13259 15.1333 15.13075 15.1424 15.15384 15.16353 15.18678 15.21402 15.24406
0 0 0 0 0 0 0 0 0 0 0 0 0 0 0 0 0 0 0 0 0 0 0 0 0 0 0 0 0 0 0 0 0 0 0 0 0 0 0 0 0 0 0 0 0 16.07042 15.9674 16.55979 15.88671 15.86121 15.50422 15.19073 15.15712 15.14881 15.11603 15.07749 15.06106 15.05955 15.07894 15.08831 15.09443 15.10632 15.15393 15.1802 15.21283 15.21319 15.23811 15.24417 15.2201 15.18307 15.12569 15.06147 15.00412 14.93899 14.8698 14.80802 14.7737 14.7558 14.7503 14.74781 14.77143 14.8037 14.8298 14.8527 14.87521 14.89423 14.92626 14.95516 14.98208 15.00503 15.01338 15.02642 15.05039 15.08058 15.09702 15.10438 15.12819 15.13928 15.15528 15.17241 15.17707 15.17389 15.16942 15.18229 15.19085 15.19796 15.21536 15.23235 15.26241
0 0 0 0 0 0 0 0 0 0 0 0 0 0 0 0 0 0 0 0 0 0 0 0 0 0 0 0 0 0 0 0 0 0 0 0 0 0 0 0 0 0 18.45009 18.13672 16.96397 16.00592 15.34441 15.32924 15.93545 15.58499 15.26396 15.26507 15.26624 15.24075 15.18942 15.16098 15.12992 15.13353 15.13072 15.14113 15.1427 15.16 15.19373 15.21631 15.23276 15.26916 15.28697 15.27126 15.23656 15.19 15.1547 15.10321 15.04287 14.98379 14.92597 14.87615 14.84171 14.82533 14.82381 14.82758 14.84778 14.87455 14.89065 14.9075 14.93397 14.95746 14.98354 15.01301 15.03967 15.05124 15.05564 15.0689 15.09479 15.12686 15.14364 15.16559 15.16782 15.18153 15.21216 15.22115 15.22486 15.22066 15.21107 15.21282 15.22178 15.22605 15.23959 15.25682 15.281
0 0 0 0 0 0 0 0 0 0 0 0 0 0 0 0 0 0 0 0 0 0 0 0 0 0 0 0 0 0 0 0 0 0 0 0 0 0 0 0 17.46076 17.93996 18.17063 17.08108 16.0212 15.35078 15.36029 15.36843 15.36053 15.35763 15.38143 15.38082 15.34244 15.28499 15.23086 15.20738 15.1878 15.15707 15.16608 15.17628 15.17479 15.19808 15.22031 15.25247 15.26409 15.27621 15.27615 15.27271 15.25215 15.22576 15.17896 15.15243 15.10873 15.03809 14.97481 14.93133 14.89922 14.87399 14.87287 14.88051 14.91144 14.93126 14.9605 14.97409 15.00004 15.03254 15.05236 15.07297 15.09695 15.10674 15.1096 15.11128 15.13489 15.15849 15.18084 15.2021 15.21486 15.21997 15.24584 15.25295 15.25088 15.25413 15.24868 15.24696 15.24716 15.25551 15.2797 15.29543 15.30951
0 0 0 0 0 0 0 0 0 0 0 0 0 0 0 0 0 0 0 0 0 0 0 0 0 0 0 0 0 0 0 0 0 0 0 0 0 0 0 17.70902 17.43152 16.76253 16.40246 15.37552 15.37038 15.38305 15.40895 15.42071 15.42808 15.45482 15.48631 15.4578 15.39292 15.32608 15.28577 15.26168 15.23005 15.21709 15.20211 15.20572 15.212 15.22368 15.25441 15.28207 15.31145 15.32686 15.32561 15.30996 15.28824 15.25726 15.22395 15.20209 15.16225 15.10927 15.05926 15.01854 14.98312 14.9604 14.95452 14.95717 14.97856 14.99928 15.0126 15.02137 15.0468 15.07547 15.09792 15.12317 15.13523 15.14564 15.15225 15.15203 15.17002 15.19493 15.22083 15.23369 15.24205 15.25048 15.27148 15.2784 15.27171 15.27204 15.27219 15.26573 15.27319 15.28514 15.30558 15.32086 15.3308
0 0 0 0 0 0 0 0 0 0 0 0 0 0 0 0 0 0 0 0 0 0 0 0 0 0 0 0 0 0 0 0 0 0 0 0 0 0 16.77149 16.41051 16.07454 15.3923 15.39192 15.42596 15.45715 15.47921 15.49319 15.51847 15.53074 15.52052 15.50979 15.4875 15.46744 15.37788 15.33125 15.30538 15.29107 15.27157 15.2459 15.25003 15.27793 15.28387 15.31656 15.35667 15.36054 15.38057 15.38586 15.36867 15.34684 15.31801 15.29165 15.26605 15.2221 15.18184 15.12669 15.09603 15.06988 15.04355 15.03715 15.03427 15.05246 15.0686 15.07618 15.09342 15.11399 15.13645 15.15116 15.15698 15.1647 15.1777 15.18513 15.18621 15.20691 15.22855 15.25293 15.25959 15.26628 15.27322 15.2834 15.30107 15.31287 15.31128 15.30909 15.31338 15.32252 15.33608 15.35758 15.36698 15.36737
0 0 0 0 0 0 0 0 0 0 0 0 0 0 0 0 0 0 0 0 0 0 0 0 0 0 0 0 0 0 0 0 0 0 18.49867 19.18317 18.2913 16.42471 15.40911 15.38479 15.39891 15.42111 15.45108 15.47543 15.51597 15.53311 15.54506 15.58267 15.60463 15.62159 15.59875 15.58286 15.55071 15.48478 15.4266 15.38949 15.3518 15.33018 15.3292 15.31859 15.34344 15.35935 15.37494 15.40044 15.4185 15.44241 15.4337 15.42411 15.39799 15.38362 15.36438 15.33755 15.29705 15.2742 15.23579 15.19342 15.17231 15.14599 15.1214 15.11347 15.11845 15.12828 15.13864 15.149 15.17416 15.18422 15.20054 15.2049 15.21236 15.2145 15.24173 15.26169 15.27472 15.29046 15.29713 15.3007 15.30051 15.30135 15.30942 15.32436 15.33589 15.34151 15.33837 15.34855 15.3707 15.38815 15.40816 15.42097 15.41237
0 0 0 0 0 0 0 0 0 0 0 0 0 0 0 0 0 0 0 0 0 0 0 0 0 0 0 0 0 19.04334 18.61563 18.38192 18.35684 18.13983 17.83477 17.17399 15.42108 15.41901 15.40254 15.41021 15.42482 15.44504 15.4654 15.49573 15.53816 15.57548 15.61868 15.64602 15.66616 15.66679 15.65061 15.64805 15.63083 15.56874 15.49395 15.46334 15.43028 15.41075 15.42829 15.40644 15.41442 15.43076 15.44274 15.46435 15.47951 15.47821 15.46921 15.45042 15.42298 15.42014 15.40996 15.38589 15.36225 15.33636 15.3117 15.28781 15.25916 15.23505 15.22386 15.21158 15.21444 15.21921 15.21799 15.21842 15.22695 15.23807 15.23647 15.23906 15.25354 15.27142 15.29159 15.30461 15.31981 15.3316 15.33578 15.33252 15.33125 15.33717 15.35036 15.36155 15.3798 15.38297 15.3857 15.40795 15.41914 15.43203 15.44847 15.45213 15.42459
0 0 0 0 0 0 0 0 0 0 0 0 0 0 0 0 0 0 0 0 0 0 0 0 0 18.82562 18.05689 18.02783 17.04078 16.28728 15.89098 15.50864 15.49838 15.47037 15.43536 15.41674 15.41073 15.41589 15.43592 15.44901 15.4634 15.4721 15.52137 15.5912 15.65404 15.71108 15.75379 15.76537 15.77155 15.75911 15.74683 15.71198 15.70175 15.65183 15.56937 15.53719 15.50403 15.49094 15.46182 15.45 15.46853 15.48504 15.49971 15.51287 15.5231 15.51627 15.50437 15.4821 15.47246 15.46674 15.46058 15.43766 15.42132 15.39209 15.36853 15.34885 15.33551 15.31103 15.28808 15.28004 15.28826 15.29664 15.30569 15.30557 15.30508 15.30433 15.29712 15.2981 15.30914 15.32489 15.33745 15.34709 15.35542 15.3646 15.36988 15.36843 15.36272 15.36161 15.37511 15.38328 15.40709 15.42777 15.44295 15.46112 15.48149 15.49339 15.4866 15.46373 15.40579
0 0 0 0 0 0 0 0 0 0 0 0 0 0 0 0 0 0 0 0 0 0 0 19.07464 18.18337 17.56116 17.15375 16.74984 15.60324 15.54808 15.49241 15.47161 15.45591 15.44438 15.4291 15.44619 15.44924 15.45605 15.46927 15.4816 15.49134 15.51521 15.57677 15.63906 15.7047 15.75052 15.78405 15.80534 15.79732 15.79172 15.76507 15.75572 15.74139 15.70957 15.64273 15.57879 15.56493 15.52809 15.49785 15.48921 15.51011 15.50782 15.51282 15.52999 15.52932 15.5302 15.52156 15.5061 15.49652 15.49623 15.5 15.4956 15.48077 15.46027 15.44521 15.42947 15.42087 15.4032 15.39091 15.37824 15.37994 15.37668 15.37311 15.36852 15.36166 15.35052 15.33923 15.34692 15.34571 15.35758 15.37202 15.38816 15.40273 15.41149 15.41691 15.40874 15.40367 15.40939 15.40969 15.42059 15.4401 15.46327 15.47653 15.50293 15.5182 15.51997 15.49938 15.45496 15.37448
0 0 0 0 0 0 0 0 0 0 0 0 0 0 0 0 0 0 0 0 0 0 18.5145 17.66886 17.27913 17.20405 16.79438 16.3569 15.54875 15.4869 15.46495 15.46017 15.44953 15.44787 15.4532 15.48002 15.48409 15.49899 15.50653 15.51024 15.50671 15.53334 15.59073 15.65528 15.70393 15.74211 15.76412 15.77445 15.80064 15.77553 15.74391 15.72795 15.72269 15.71698 15.67514 15.62552 15.59522 15.55483 15.52791 15.5246 15.52267 15.52395 15.5265 15.54147 15.54347 15.54407 15.54312 15.53263 15.53223 15.5293 15.53121 15.52817 15.52631 15.50775 15.49292 15.48362 15.47874 15.47501 15.46453 15.45949 15.45814 15.46308 15.46012 15.45345 15.43753 15.42556 15.40566 15.41004 15.40579 15.41458 15.42376 15.43267 15.4371 15.44475 15.44417 15.43871 15.43562 15.43929 15.44215 15.44731 15.47069 15.50121 15.516 15.53445 15.54965 15.54682 15.51847 15.44785 15.35169
0 0 0 0 0 0 0 0 0 0 0 0 0 0 0 0 0 0 0 0 0 19.79312 18.70244 17.66091 16.925 16.83745 16.37167 16.29669 15.49294 15.47445 15.46895 15.46422 15.45209 15.4537 15.45727 15.48066 15.492 15.49817 15.50239 15.50872 15.51165 15.54256 15.58379 15.59457 15.64257 15.69567 15.75181 15.78034 15.7656 15.74258 15.7089 15.69287 15.6965 15.68851 15.65712 15.61922 15.60564 15.58086 15.55798 15.54789 15.53507 15.53294 15.53386 15.55003 15.56401 15.56796 15.56931 15.56514 15.5697 15.58045 15.57583 15.57473 15.57107 15.56315 15.56169 15.56325 15.55585 15.54765 15.53733 15.53444 15.52752 15.52476 15.52355 15.51561 15.50778 15.48939 15.47798 15.47869 15.47476 15.47371 15.46758 15.47085 15.46625 15.46337 15.46485 15.47699 15.47105 15.46941 15.47522 15.48519 15.5078 15.52331 15.53922 15.55741 15.56269 15.5553 15.52452 15.45524 15.34785
0 0 0 0 0 0 0 0 0 0 0 0 0 0 0 0 0 0 0 0 0 0 0 18.21984 17.27733 16.82875 16.34708 15.90909 15.47365 15.46701 15.4658 15.45514 15.45508 15.45244 15.44958 15.45886 15.48485 15.48922 15.48582 15.49126 15.49732 15.51704 15.50951 15.53777 15.60979 15.68077 15.72667 15.7203 15.70432 15.68733 15.67 15.68674 15.68735 15.67509 15.63569 15.62663 15.63211 15.61807 15.59772 15.59095 15.58297 15.57211 15.56578 15.57963 15.5949 15.59132 15.59507 15.59304 15.59343 15.60887 15.61125 15.61299 15.6097 15.60803 15.62668 15.63346 15.62289 15.62734 15.62002 15.61059 15.60892 15.60653 15.60278 15.58988 15.5751 15.56593 15.55652 15.53747 15.522 15.51789 15.5076 15.50465 15.49593 15.49467 15.5114 15.51225 15.50456 15.50403 15.51359 15.53285 15.54763 15.55927 15.57039 15.58763 15.58738 15.57096 15.53085 15.43664 15.34017
0 0 0 0 0 0 0 0 0 0 0 0 0 0 0 0 0 0 0 0 0 20.17576 19.7946 18.76543 17.28209 16.82124 16.33964 16.28924 15.86006 15.45826 15.45571 15.43926 15.4545 15.45159 15.43929 15.45387 15.47844 15.47871 15.47852 15.47075 15.46672 15.47746 15.4663 15.5085 15.53688 15.56144 15.59225 15.61441 15.6139 15.61996 15.62875 15.64514 15.65011 15.6546 15.62414 15.63078 15.63379 15.63164 15.6225 15.61895 15.61307 15.60758 15.61535 15.61962 15.63082 15.63669 15.63502 15.6366 15.63401 15.63679 15.64638 15.64474 15.64934 15.6635 15.67177 15.6809 15.68895 15.68399 15.683 15.677 15.67188 15.67042 15.67175 15.66609 15.65477 15.63668 15.62666 15.60439 15.58586 15.57791 15.56635 15.55464 15.54687 15.55058 15.54929 15.54382 15.54143 15.54225 15.55642 15.5703 15.57945 15.58878 15.59972 15.6087 15.61216 15.58744 15.52821 15.44071 15.32039
0 0 0 0 0 0 0 0 0 0 0 0 0 0 0 0 0 0 0 20.20683 20.07562 19.95648 19.06487 17.95729 17.26644 16.81671 16.33816 16.66366 15.47538 15.44836 15.43836 15.42657 15.43446 15.43288 15.42453 15.42581 15.43877 15.45624 15.44867 15.44198 15.43861 15.43484 15.44267 15.44859 15.45179 15.46348 15.48033 15.50791 15.5355 15.55553 15.58113 15.59601 15.61181 15.6383 15.634 15.64203 15.6461 15.64459 15.65167 15.65506 15.65253 15.64869 15.65367 15.65635 15.65811 15.65999 15.65643 15.66433 15.66609 15.67228 15.67971 15.68157 15.69212 15.71324 15.7283 15.73482 15.74384 15.75537 15.7584 15.75366 15.7443 15.73728 15.73306 15.72628 15.71352 15.69565 15.68118 15.65661 15.6388 15.62506 15.61404 15.60633 15.60646 15.60153 15.60193 15.59252 15.59097 15.59803 15.60624 15.6162 15.62222 15.62645 15.62576 15.63284 15.63137 15.5931 15.53635 15.42886 15.31235
0 0 0 0 0 0 0 0 0 0 0 0 0 0 0 0 0 0 19.63956 19.4986 19.09487 18.61985 17.98616 17.30145 16.90424 16.80389 16.34761 15.90403 15.47196 15.4396 15.42644 15.41145 15.41293 15.40619 15.40523 15.40994 15.41759 15.43172 15.44038 15.43344 15.42717 15.42693 15.42391 15.4453 15.44585 15.45413 15.47509 15.49175 15.51861 15.53982 15.55998 15.58474 15.60501 15.63 15.6528 15.65081 15.6659 15.68294 15.67458 15.67757 15.68322 15.68516 15.68979 15.69327 15.69561 15.69018 15.68413 15.68321 15.68709 15.6886 15.69892 15.70795 15.7306 15.74922 15.76376 15.78211 15.79872 15.81124 15.81294 15.82087 15.82091 15.81602 15.81073 15.80193 15.78721 15.77383 15.74587 15.71374 15.69351 15.67295 15.65993 15.6424 15.63515 15.6281 15.62858 15.63094 15.63309 15.63246 15.63805 15.65154 15.66022 15.65931 15.6581 15.66101 15.65099 15.6177 15.53101 15.43262 15.34572
0 0 0 0 0 0 0 0 0 0 0 0 0 0 0 0 0 20.10454 19.5171 18.87074 18.33753 17.67494 17.31289 17.26134 17.23202 16.7919 16.35313 15.51324 15.45446 15.43226 15.4126 15.39392 15.40165 15.39034 15.39243 15.39748 15.40802 15.42044 15.42332 15.43004 15.43452 15.44689 15.44845 15.46664 15.4888 15.49548 15.5021 15.51995 15.54538 15.57855 15.60504 15.6322 15.63957 15.66785 15.6705 15.68296 15.69591 15.70291 15.71275 15.72671 15.72316 15.72491 15.7294 15.73054 15.72474 15.71526 15.71368 15.70978 15.70715 15.71375 15.72602 15.73579 15.76861 15.78437 15.80104 15.82151 15.83496 15.85372 15.86111 15.87533 15.87924 15.87533 15.87138 15.85799 15.84516 15.82021 15.78584 15.76467 15.74403 15.72238 15.70601 15.69043 15.68365 15.68063 15.67777 15.68098 15.68156 15.67073 15.67218 15.67945 15.683 15.68109 15.68583 15.68669 15.67091 15.62643 15.55651 15.47396 15.39619
0 0 0 0 0 0 0 0 0 0 0 0 0 0 0 0 19.56753 19.55501 18.68184 18.07501 17.70541 17.3294 17.26718 17.23712 17.22497 16.79111 16.33127 15.49388 15.43844 15.42297 15.39905 15.38071 15.38566 15.38308 15.39309 15.39646 15.41852 15.42172 15.42215 15.42155 15.4358 15.44718 15.46164 15.48642 15.52181 15.53624 15.55469 15.56696 15.57821 15.60375 15.63463 15.66124 15.68251 15.69557 15.70565 15.71534 15.73948 15.74878 15.7467 15.75105 15.76607 15.76472 15.76426 15.7571 15.74085 15.73452 15.72794 15.72576 15.71714 15.7241 15.73798 15.76149 15.78865 15.81019 15.83757 15.86095 15.87898 15.89521 15.91184 15.93723 15.94649 15.95022 15.93999 15.92601 15.90034 15.86704 15.83444 15.80937 15.78349 15.76336 15.74471 15.73055 15.72733 15.7301 15.72667 15.71689 15.70795 15.70422 15.70833 15.71621 15.71897 15.72185 15.7244 15.72954 15.71072 15.68433 15.62358 15.54042 15.45129
0 0 0 0 0 0 0 0 0 0 0 0 0 0 0 20.12321 19.37617 18.67873 18.05572 17.69868 17.32433 17.27275 17.24977 16.85499 16.80907 16.36348 15.52192 15.46565 15.42508 15.41103 15.38703 15.37292 15.37637 15.38168 15.39026 15.4087 15.42785 15.43486 15.43648 15.44117 15.45579 15.4788 15.49778 15.52577 15.55737 15.58071 15.59996 15.62251 15.6408 15.65771 15.68408 15.70622 15.71912 15.73366 15.73774 15.74386 15.76012 15.76814 15.78337 15.8028 15.80173 15.80613 15.79597 15.78229 15.77051 15.75811 15.74061 15.73288 15.7307 15.73597 15.74818 15.77621 15.80112 15.8291 15.85939 15.88729 15.90918 15.93264 15.95494 15.9729 15.98711 15.99681 15.98931 15.98135 15.9587 15.92842 15.8971 15.86207 15.83823 15.81762 15.79596 15.77894 15.77258 15.77001 15.7616 15.75693 15.74659 15.7394 15.73856 15.74122 15.74641 15.74706 15.74785 15.75927 15.75614 15.73287 15.68368 15.60181 15.51363
0 0 0 0 0 0 0 0 0 0 0 0 0 0 19.42176 19.41311 18.72108 18.05455 17.67373 17.29601 17.24853 16.8561 16.83353 16.8094 16.3903 15.90879 15.49084 15.4536 15.42993 15.40595 15.3833 15.37179 15.37695 15.38521 15.39374 15.41016 15.42807 15.44568 15.45847 15.47432 15.50408 15.52447 15.56286 15.59864 15.62319 15.65927 15.68346 15.70538 15.72792 15.74703 15.75742 15.77153 15.77875 15.78342 15.7817 15.78586 15.78763 15.80174 15.82305 15.84098 15.8479 15.85146 15.84771 15.83218 15.80908 15.78366 15.76513 15.74397 15.74014 15.74242 15.75595 15.77771 15.81432 15.84883 15.88384 15.91768 15.95232 15.98186 16.00283 16.01322 16.02411 16.02758 16.01882 16.00814 15.99283 15.96979 15.94086 15.90734 15.87505 15.85336 15.83261 15.81727 15.80344 15.79461 15.78805 15.78126 15.77696 15.7699 15.76948 15.77318 15.77864 15.77114 15.77208 15.78203 15.78004 15.75996 15.71049 15.62928 15.52821
0 0 0 0 0 0 0 0 0 0 0 0 0 19.25384 19.43997 18.71074 18.04379 17.67541 17.27814 17.23786 16.85679 16.81928 16.80575 16.79487 16.34672 15.49435 15.46548 15.44395 15.43259 15.41089 15.39334 15.39422 15.39397 15.40057 15.40771 15.42776 15.44044 15.45498 15.47701 15.50217 15.5529 15.59083 15.62122 15.65888 15.69367 15.71972 15.74794 15.77982 15.79806 15.81476 15.82372 15.82156 15.82645 15.82385 15.81438 15.80989 15.80526 15.83012 0 0 0 15.84902 15.85712 15.89712 15.87109 15.82899 15.79236 15.76701 15.74757 15.74515 15.75495 15.77927 15.82091 15.85901 15.90703 15.94923 15.98561 16.01362 16.03662 16.04753 16.06243 16.06095 16.05774 16.04999 16.0368 16.01258 15.98143 15.95198 15.92382 15.89158 15.87102 15.84989 15.82902 15.81673 15.81255 15.80326 15.79562 15.79019 15.79289 15.80028 15.81256 15.80632 15.80256 15.80897 15.81929 15.79457 15.73846 15.65321 15.55757
0 0 0 0 0 0 0 0 0 0 0 0 0 19.61098 18.71057 18.06582 17.64213 17.23665 17.20903 16.79452 16.77716 16.78603 16.77746 15.55884 15.52541 15.48862 15.45588 15.43916 15.41831 15.40328 15.40703 15.41021 15.41571 15.42851 15.43615 15.45725 15.47632 15.5006 15.52491 15.56121 15.61574 15.66103 15.70003 15.73779 15.78089 15.80756 15.82686 15.84873 15.85797 15.87057 15.88213 16.76051 15.88122 15.85737 15.84102 16.23623 17.11817 18.00428 0 0 0 0 0 16.35629 15.91268 15.8636 15.82269 15.78422 15.76628 15.75623 15.76624 15.79017 15.82504 15.8778 15.93141 15.97447 16.01271 16.04596 16.06829 16.07691 16.08414 16.08292 16.08392 16.07829 16.06722 16.04724 16.02091 15.98909 15.96921 15.93702 15.91805 15.89504 15.88482 15.8602 15.85186 15.84108 15.82256 15.81132 15.81863 15.83196 15.8452 15.83872 15.83051 15.83605 15.84285 15.81779 15.76015 15.67237 15.56445
0 0 0 0 0 0 0 0 0 0 0 0 19.74451 18.97268 18.03847 17.63215 17.17193 16.76131 16.75963 16.75183 16.7432 16.75136 16.34388 15.52866 15.49466 15.47042 15.45449 15.43045 15.41671 15.42419 15.43681 15.43641 15.43908 15.45799 15.46725 15.48339 15.50705 15.53406 15.57227 15.62533 15.67796 15.72433 15.76604 15.80686 15.84234 15.86255 15.87316 0 0 15.87022 0 17.72005 16.80399 16.32256 16.72739 16.69187 17.55518 18.03229 19.08095 16.64592 15.83692 0 0 0 17.74426 15.87924 15.82933 15.80115 15.77994 15.78283 15.79042 15.81135 15.84941 15.89649 15.95146 15.9995 16.04182 16.08195 16.10293 16.11303 16.11471 16.11213 16.11225 16.09919 16.09214 16.07378 16.05003 16.02632 16.00191 15.97759 15.95847 15.93974 15.92756 15.90418 15.89157 15.87688 15.8598 15.85772 15.85951 15.87335 15.88822 15.88262 15.87098 15.87651 15.87201 15.83999 15.78696 15.69494 15.57419
0 0 0 0 0 0 0 0 0 0 0 19.0351 18.97008 17.99999 17.56945 16.7279 16.70944 16.70224 16.69557 16.69866 16.72499 15.94579 15.53848 15.51823 15.47615 15.47461 15.45678 15.43566 15.43567 15.44489 15.46014 15.47438 15.47642 15.49315 15.50681 15.52609 15.55343 15.5836 15.6303 15.6897 15.74012 15.79233 15.82717 15.85498 16.76981 0 0 0 0 0 18.57875 19.43744 19.15257 18.48203 18.05972 17.57341 17.55444 16.22346 15.82814 15.83755 15.83704 15.83618 15.83236 18.05058 18.44261 15.85738 15.83418 15.80873 15.79898 15.79769 15.80112 15.83024 15.87194 15.90934 15.96425 16.02217 16.06799 16.10226 16.12367 16.12929 16.13646 16.13555 16.13033 16.12225 16.11569 16.09955 16.08117 16.06934 16.05005 16.03069 16.01056 15.99294 15.96961 15.94833 15.92962 15.9163 15.89668 15.90193 15.9033 15.91217 15.92665 15.91929 15.90522 15.91053 15.90215 15.86999 15.81191 15.72191 15.59487
0 0 0 0 0 0 0 0 0 0 19.71438 19.0076 18.01459 17.16816 16.68667 16.26019 16.25191 16.26197 16.27585 16.29569 16.31604 15.53967 15.53563 15.51097 15.47686 15.47408 15.46503 15.45644 15.45523 15.45522 15.47124 15.48403 15.49552 15.51064 15.53255 15.56407 15.59049 15.64873 15.68348 15.73594 15.80099 15.84665 16.29505 0 0 0 0 0 0 0 0 0 0 0 18.43083 18.01379 17.11378 15.81798 15.83483 15.84477 15.84574 15.83475 15.83011 15.83567 15.84062 15.84184 15.83231 15.8181 15.81216 15.81629 15.8293 15.85733 15.89832 15.94259 15.98087 16.03066 16.07684 16.10862 16.13417 16.14642 16.14793 16.14742 16.14088 16.138 16.12857 16.11849 16.1064 16.09846 16.08723 16.07406 16.06139 16.04783 16.02396 15.99918 15.98473 15.96679 15.95713 15.95614 15.95933 15.96311 15.97113 15.96045 15.94469 15.9379 15.92283 15.88674 15.83379 15.74718 15.62547
0 0 0 0 0 0 0 0 0 0 19.30974 18.08845 17.22406 16.70634 15.8775 15.83123 15.456 15.46525 15.50691 15.5218 15.52441 15.53113 15.52451 15.5188 15.50101 15.4872 15.48537 15.48999 15.49155 15.48621 15.49631 15.51094 15.52217 15.54209 15.56841 15.5968 15.62987 15.67084 15.72691 15.7766 17.15637 0 0 0 0 0 0 0 0 0 0 0 0 0 19.09022 17.60475 15.8307 15.84037 15.85673 15.87054 15.87446 15.86377 15.86204 15.86025 15.85668 15.849 15.84303 15.83939 15.84028 15.84477 15.86029 15.89827 15.92856 15.96456 16.00649 16.04676 16.08598 16.11801 16.14111 16.15439 16.15766 16.15846 16.15608 16.15137 16.14796 16.14375 16.13447 16.12783 16.11575 16.106 16.09437 16.07658 16.05875 16.03526 16.01709 16.00757 16.00435 16.00476 16.00934 16.01289 16.01415 16.009 15.9918 15.97151 15.94418 15.90642 15.85048 15.7738 15.6645
0 0 0 0 0 0 0 0 0 19.41747 18.78971 17.72322 16.74888 15.87126 15.45993 15.43738 15.44157 15.46094 15.48159 15.49046 15.51423 15.53099 15.5191 15.52157 15.51978 15.5039 15.50007 15.51132 15.52276 15.51842 15.52915 15.54061 15.55619 15.5746 15.60242 15.63502 15.6706 15.71217 15.76237 16.65544 16.91178 0 0 0 0 0 0 0 0 0 0 0 0 18.32431 18.0754 16.7384 15.84432 15.86392 15.89113 15.90429 15.90465 15.89944 15.89338 15.89378 15.89282 15.88882 15.88154 15.87469 15.88495 15.88524 15.90594 15.93726 15.96698 15.99247 16.02916 16.05735 16.09561 16.12208 16.14873 16.16237 16.16981 16.16993 16.16434 16.16461 16.16302 16.16458 16.16274 16.15518 16.15014 16.14108 16.12486 16.10592 16.08506 16.06991 16.05989 16.04912 16.04349 16.04667 16.04303 16.04604 16.04481 16.04034 16.02065 15.99065 15.96074 15.91789 15.85829 15.78138 15.68717
0 0 0 0 0 0 0 0 20.18338 19.13723 17.78733 16.81667 16.25013 15.44317 15.40956 15.41184 15.42474 15.45755 15.47844 15.49296 15.51124 15.52145 15.51389 15.51006 15.51257 15.51311 15.52445 15.53685 15.55056 15.56212 15.56436 15.57232 15.58533 15.60326 15.62687 15.65549 15.69579 15.73148 16.16473 16.64805 17.15602 18.07822 0 18.96846 19.61178 0 0 0 0 0 0 0 19.15447 18.09582 17.20562 15.86247 15.86195 15.88983 15.9179 15.93339 15.93795 15.92793 15.92101 15.91443 15.91213 15.90999 15.91036 15.91575 15.9152 15.93399 15.96194 15.98901 16.01488 16.0425 16.07731 16.09819 16.11884 16.15186 16.17244 16.18882 16.19419 16.19165 16.18612 16.1854 16.18569 16.1849 16.1816 16.17988 16.17403 16.16535 16.14994 16.13162 16.11881 16.1089 16.10347 16.09145 16.09313 16.09268 16.09114 16.08578 16.08313 16.06691 16.05085 16.01582 15.97489 15.9261 15.87012 15.79181 15.70289
0 0 0 0 0 0 0 0 20.16669 19.12355 17.75574 16.76869 15.47369 15.41136 15.38246 15.3874 15.41999 15.44829 15.47565 15.49935 15.51502 15.52983 15.51284 15.51363 15.52066 15.53353 15.55295 15.57088 15.59175 15.60795 15.6281 15.63819 15.6434 15.6558 15.67078 15.69388 15.72484 15.74438 15.76206 16.22631 16.68622 17.14988 17.63068 18.09481 18.93887 0 0 0 0 0 0 18.55583 17.67946 17.66009 15.86509 15.88324 15.89937 15.92551 15.94658 15.96845 15.97319 15.96221 15.95017 15.9415 15.93363 15.93466 15.93663 15.93777 15.94345 15.96416 15.99065 16.02043 16.04285 16.07194 16.10393 16.13221 16.15437 16.17943 16.20085 16.21689 16.21873 16.22012 16.21867 16.21703 16.21503 16.20962 16.2082 16.20459 16.2001 16.1894 16.17357 16.16266 16.15318 16.14617 16.13957 16.13161 16.13016 16.12708 16.12612 16.11746 16.11424 16.10386 16.07427 16.03677 15.99271 15.93337 15.87628 15.79781 15.70083
0 0 0 0 0 0 0 0 0 19.12687 17.75514 16.78664 15.46278 15.39471 15.36494 15.38299 15.41106 15.4327 15.4646 15.49439 15.51245 15.52894 15.51841 15.51786 15.52784 15.55611 15.58176 15.61152 15.63713 15.66288 15.688 15.70373 15.70673 15.70854 15.73025 15.74696 15.76226 15.77716 15.78934 15.80374 15.82026 15.82816 15.83727 16.25654 17.17699 18.0631 18.92911 19.27889 0 0 18.85397 17.6579 16.74898 15.8683 15.88951 15.9189 15.94278 15.9666 15.98979 16.00272 16.00465 16.00051 15.99264 15.97898 15.96968 15.96442 15.96482 15.96973 15.97743 15.99689 16.01888 16.04415 16.06763 16.09897 16.1305 16.1586 16.17919 16.20078 16.22276 16.23721 16.24188 16.24866 16.24654 16.24494 16.23981 16.23365 16.23286 16.23605 16.23278 16.22347 16.21193 16.20516 16.1963 16.19066 16.18432 16.1737 16.16592 16.1562 16.15476 16.15153 16.14058 16.12056 16.08467 16.04803 16.00176 15.93945 15.87009 15.79146 15.70051
0 0 0 0 0 0 0 0 0 19.96277 18.48761 17.26747 15.86345 15.4004 15.36011 15.36249 15.38431 15.41501 15.44854 15.47856 15.49919 15.51481 15.52194 15.52733 15.55128 15.58807 15.62975 15.67558 15.7065 15.7345 15.74862 15.75177 15.74602 15.75292 15.76546 15.77595 15.78558 15.79681 15.8076 15.82082 15.83415 15.84542 15.84794 15.83767 16.25825 16.71529 17.17498 17.60915 18.87726 17.65081 16.27571 15.85481 15.87047 15.89644 15.92701 15.947 15.9713 15.99541 16.00975 16.01627 16.03059 16.02743 16.01775 16.01183 16.00214 15.98918 15.9896 15.99683 16.00334 16.02243 16.04258 16.06453 16.0924 16.12383 16.15362 16.18449 16.20561 16.23665 16.25002 16.25834 16.26825 16.2771 16.27914 16.2712 16.26685 16.26085 16.25901 16.25293 16.25152 16.24573 16.2418 16.23532 16.22198 16.22095 16.21547 16.20431 16.19321 16.18394 16.1831 16.17546 16.15419 16.12649 16.0994 16.06197 16.00928 15.94062 15.86885 15.77151 15.68793
0 0 0 0 0 0 0 0 0 20.10779 19.34525 17.69651 16.29218 15.43481 15.37008 15.35351 15.36467 15.39327 15.41873 15.44571 15.47137 15.49659 15.51903 15.54313 15.58485 15.64107 15.69266 15.74271 15.78309 15.79123 15.80041 15.80076 15.80099 15.79528 15.79117 15.79242 15.79247 15.80778 15.81863 15.82349 15.84356 15.85979 15.85831 15.85551 15.84838 15.84842 16.28465 0 17.64294 16.29501 15.87043 15.88989 15.9162 15.9453 15.97506 15.98873 16.01524 16.03361 16.04351 16.04917 16.04946 16.04764 16.04411 16.03718 16.02626 16.01289 16.00469 16.00658 16.01773 16.03738 16.05889 16.07738 16.11091 16.13942 16.17597 16.21133 16.23801 16.25944 16.26783 16.27999 16.29034 16.29468 16.29526 16.29248 16.28533 16.28686 16.28231 16.27409 16.26829 16.26597 16.26114 16.25029 16.2461 16.24141 16.23442 16.22139 16.21097 16.20889 16.19405 16.1822 16.1617 16.13202 16.10082 16.06303 16.00552 15.93299 15.85566 15.76646 15.66665
0 0 0 0 0 0 0 0 0 0 19.7985 18.47865 16.8147 15.88795 15.42123 15.36288 15.35206 15.3631 15.38514 15.41264 15.44661 15.49308 15.52983 15.56891 15.62708 15.67842 15.73629 15.7956 0 0 0 16.06585 15.83716 15.83209 15.82334 15.82022 15.81264 15.8194 15.82897 15.84592 15.85417 15.86684 15.87511 15.87503 15.87497 15.87763 15.89345 16.33195 15.89641 15.90279 15.91788 15.93951 15.96459 15.99498 16.01201 16.03934 16.05874 16.07277 16.08287 16.08125 16.07621 16.07612 16.06825 16.06921 16.06276 16.04432 16.03323 16.03936 16.04921 16.0651 16.08981 16.10882 16.14381 16.17069 16.20207 16.23388 16.25176 16.27299 16.28059 16.29273 16.3027 16.30416 16.30766 16.30513 16.29289 16.29419 16.29889 16.29699 16.28903 16.28465 16.27691 16.26861 16.26844 16.26181 16.25523 16.2448 16.23907 16.23727 16.22092 16.19772 16.17246 16.13924 16.10476 16.05774 15.99578 15.92803 15.85724 15.76229 15.65067
0 0 0 0 0 0 0 0 0 0 0 19.72728 18.46306 16.82453 15.86728 15.42516 15.35697 15.3558 15.37146 15.4013 15.44348 15.51449 15.55501 15.60896 15.65673 15.7052 16.15922 16.59053 0 0 0 16.77914 17.08991 15.85126 15.84647 15.84185 15.83701 15.83872 15.86038 15.87186 15.89097 15.90678 15.90287 15.89907 15.90721 15.92824 15.94103 15.94348 15.94228 15.95142 15.97136 15.99567 16.02473 16.05183 16.06827 16.08222 16.09672 16.11234 16.11905 16.11908 16.11227 16.10169 16.09998 16.09724 16.09634 16.08094 16.06721 16.06884 16.07614 16.09703 16.12463 16.15673 16.17909 16.20874 16.23753 16.25922 16.27621 16.2919 16.30386 16.30993 16.31549 16.31903 16.31873 16.31692 16.31476 16.30839 16.30717 16.3053 16.30726 16.30228 16.29164 16.27994 16.28099 16.27538 16.26943 16.26774 16.26143 16.25374 16.24259 16.22533 16.19767 16.15896 16.12033 16.07231 16.00758 15.9449 15.86104 15.76499 15.65239
0 0 0 0 0 0 0 0 0 0 0 0 19.84119 18.83823 16.75254 15.85778 15.37989 15.35826 15.37107 15.39897 15.45418 15.53329 15.58643 15.63145 15.66973 15.73435 16.54968 0 0 18.30167 18.37435 16.71899 15.87527 15.8557 15.84716 15.84792 15.84707 15.85946 15.88138 15.91437 15.93273 15.94007 15.94899 15.94936 15.95761 15.97733 15.98141 15.97925 15.9757 15.9871 16.00971 16.03779 16.07816 16.0956 16.10837 16.12365 16.13755 16.1436 16.14658 16.14734 16.14363 16.1385 16.12716 16.12506 16.12361 16.11912 16.10526 16.09953 16.1051 16.12601 16.15266 16.18313 16.21324 16.2415 16.26167 16.27718 16.29852 16.31195 16.31799 16.3221 16.33268 16.33651 16.33048 16.32984 16.32779 16.32457 16.32292 16.31678 16.31554 16.31305 16.30316 16.29981 16.29811 16.29646 16.28812 16.28303 16.26841 16.26435 16.25639 16.24166 16.2101 16.1735 16.13579 16.08725 16.02609 15.96517 15.88652 15.79712 15.68727
0 0 0 0 0 0 0 0 0 0 0 0 0 0 0 16.6543 15.75462 15.36494 15.37573 15.40577 15.47792 15.54743 15.60552 15.64619 15.67278 16.10224 16.17708 16.61676 17.05429 19.39618 18.38188 16.7031 15.87016 15.85517 15.8501 15.85954 15.87834 15.88745 15.92068 15.95193 15.95879 15.97708 15.99031 16.00298 16.00551 16.00645 16.00153 15.9998 16.0173 16.0255 16.05355 16.08406 16.11677 16.1263 16.131 16.14422 16.14884 16.1668 16.17895 16.17923 16.17515 16.16467 16.15809 16.15751 16.16174 16.15943 16.15472 16.14766 16.15584 16.17129 16.19599 16.22733 16.25808 16.28099 16.29629 16.3121 16.32402 16.32863 16.33426 16.34464 16.3516 16.35161 16.34941 16.34879 16.34073 16.34085 16.3406 16.33643 16.33524 16.32548 16.31764 16.31774 16.31857 16.31445 16.30964 16.30044 16.2877 16.27461 16.2673 16.25717 16.23726 16.20517 16.15801 16.10933 16.05655 15.98548 15.92065 15.83136 15.7304
0 0 0 0 0 0 0 0 0 0 0 0 0 0 0 17.50568 16.58889 15.37496 15.38414 15.41974 15.50061 15.57235 15.63366 15.66394 15.69485 15.73718 16.55896 16.62765 17.07496 0 18.42361 15.87706 15.87147 15.85765 15.88548 15.87927 15.8938 15.90584 15.94721 15.96138 15.96919 15.99536 16.00725 16.02671 16.02906 16.03259 16.03172 16.03961 16.06305 16.08165 16.1017 16.1154 16.13597 16.14889 16.1564 16.17161 16.18266 16.19638 16.20224 16.19745 16.19255 16.18669 16.17659 16.1713 16.17609 16.17629 16.17702 16.18039 16.19123 16.20906 16.24119 16.27435 16.29994 16.31455 16.33152 16.34547 16.353 16.35678 16.36357 16.37518 16.38349 16.38081 16.37883 16.37226 16.3654 16.3654 16.36357 16.35949 16.35275 16.34199 16.34488 16.33816 16.3346 16.32449 16.31616 16.30726 16.30305 16.28765 16.2796 16.26948 16.25511 16.23243 16.19534 16.15019 16.10373 16.03148 15.96668 15.89178 15.80106
0 0 0 0 0 0 0 0 0 0 0 0 0 18.78173 18.34632 17.47562 16.6189 15.38918 15.37068 15.44152 15.53278 15.61944 15.67063 15.70067 15.73182 15.77762 17.02603 17.49321 17.95154 17.85521 18.86606 16.29347 15.87216 15.8719 15.88754 15.90307 15.91314 15.93696 15.96185 15.96801 15.97322 16.00914 16.03206 16.0335 16.04437 16.05738 16.069 16.08028 16.09366 16.12037 16.14717 16.15169 16.15677 16.17399 16.18638 16.19887 16.21563 16.22833 16.22995 16.22329 16.22036 16.21297 16.19628 16.19748 16.2007 16.19997 16.19641 16.2152 16.22574 16.24834 16.27845 16.31364 16.33422 16.34096 16.36365 16.3735 16.38724 16.3803 16.39017 16.4029 16.41415 16.41075 16.40774 16.40319 16.40153 16.40101 16.38854 16.38103 16.36784 16.35794 16.35245 16.3467 16.33754 16.33184 16.32266 16.31803 16.31736 16.30819 16.30248 16.29338 16.2782 16.25823 16.22414 16.18434 16.13808 16.0827 16.02287 15.95044 15.87773
0 0 0 0 0 0 0 0 0 0 0 0 17.97165 17.52325 17.52394 17.06017 16.20327 15.42409 15.41967 15.49204 15.55752 15.64533 15.69454 15.73977 15.7765 15.82572 16.7158 16.72054 17.54869 18.41488 16.70677 15.87159 15.88166 15.90428 15.92339 15.94213 15.9513 15.95099 15.97556 16.0001 16.00091 16.01337 16.02407 16.03602 16.05972 16.08185 16.09654 16.09538 16.11737 16.12531 16.14803 16.17167 16.18391 16.18796 16.20194 16.21806 16.23201 16.24381 16.2458 16.24177 16.23958 16.23171 16.22276 16.22057 16.22227 16.2243 16.23404 16.24509 16.2639 16.28842 16.32461 16.35937 16.375 16.392 16.40448 16.4142 16.41435 16.40934 16.41576 16.43495 16.4412 16.43274 16.43083 16.42432 16.41858 16.41664 16.41262 16.39371 16.38573 16.36953 16.35836 16.35311 16.34683 16.34329 16.33221 16.33266 16.3384 16.32735 16.32784 16.31989 16.31201 16.29762 16.2693 16.23772 16.1928 16.13654 16.07849 16.01783 15.94673
0 0 0 0 0 0 0 0 19.72222 19.16799 17.98235 17.08757 17.0742 17.06611 16.65533 16.654 16.23103 15.46538 15.49272 15.55866 15.62923 15.6989 15.75414 15.79037 15.82444 15.87034 15.88883 15.88691 15.88017 15.87987 15.87458 15.90177 15.92761 15.94806 15.95394 15.96851 15.97961 15.97938 15.99455 16.00447 16.00694 16.01377 16.02604 16.03744 16.05759 16.08297 16.10421 16.11023 16.12127 16.13475 16.14157 16.16352 16.17292 16.19041 16.19165 16.20897 16.23039 16.24266 16.2484 16.24805 16.24454 16.24163 16.23923 16.23739 16.23774 16.24837 16.25839 16.27051 16.28593 16.31115 16.36081 16.39663 16.42001 16.43746 16.45038 16.45206 16.45483 16.45149 16.46339 16.47233 16.46782 16.47002 16.47124 16.45985 16.44356 16.43024 16.41653 16.40553 16.39006 16.37909 16.37014 16.36224 16.35225 16.34829 16.34432 16.35143 16.35222 16.3599 16.36545 16.36263 16.34957 16.33062 16.31193 16.2854 16.24747 16.19939 16.14632 16.09427 16.03269
0 0 0 0 0 0 0 18.73578 18.85204 17.1237 16.64233 16.62007 16.61449 16.61604 16.64058 16.26273 15.50367 15.52527 15.58343 15.63672 15.70877 15.7617 15.81209 15.8431 15.87355 15.89989 15.91077 15.91623 15.91366 15.912 15.92711 15.94482 15.97279 15.97765 15.98802 15.9983 16.00321 16.00625 16.01107 16.01218 16.01523 16.03497 16.0308 16.04945 16.06915 16.08092 16.09405 16.11439 16.13206 16.13792 16.14793 16.16309 16.17727 16.19695 16.19721 16.21097 16.21938 16.23278 16.24998 16.25785 16.25542 16.25601 16.25511 16.26069 16.26421 16.26835 16.2754 16.30384 16.31831 16.34804 16.3858 16.42091 16.44123 16.45649 16.47519 16.48216 16.47827 16.48189 16.4893 16.48728 16.49454 16.49459 16.49344 16.49288 16.4778 16.4619 16.44674 16.4304 16.41577 16.40807 16.39646 16.37655 16.36685 16.37098 16.36974 16.37524 16.3813 16.39533 16.40424 16.40014 16.38804 16.37602 16.3545 16.32689 16.29686 16.25646 16.20335 16.15043 16.10283
0 0 0 0 0 0 19.23875 19.24553 17.12331 16.57019 16.52126 16.52167 16.56575 16.20433 15.87014 15.55464 15.55338 15.61143 15.66341 15.70814 15.77302 15.81687 15.85976 15.88539 15.91113 15.9306 15.9371 15.94666 15.95608 15.96268 15.97099 15.99332 16.00654 16.00002 16.01578 16.01815 16.02709 16.03278 16.03569 16.03567 16.0387 16.04697 16.05544 16.06425 16.06972 16.08221 16.10116 16.11192 16.12986 16.15174 16.15756 16.1736 16.18397 16.19702 16.20421 16.21263 16.21801 16.22796 16.24056 16.24764 16.25404 16.25622 16.26561 16.27864 16.29043 16.29953 16.31497 16.34154 16.3525 16.37577 16.4147 16.44326 16.46226 16.47504 16.49094 16.50475 16.51018 16.5097 16.50877 16.51214 16.50982 16.50409 16.50586 16.50242 16.49694 16.48359 16.46303 16.44587 16.43201 16.424 16.41497 16.40176 16.39111 16.39564 16.39348 16.41215 16.41278 16.42815 16.43898 16.43448 16.42797 16.41903 16.39841 16.37892 16.3492 16.32027 16.28162 16.23146 16.18305
0 0 0 0 0 0 20.01173 18.45899 17.03477 16.49143 16.04905 16.08665 15.74983 15.47445 15.56398 15.62053 15.66317 15.70391 15.74623 15.78063 15.83013 15.86004 15.89381 15.92297 15.94514 15.95252 15.96495 15.97598 15.98475 15.98804 15.9965 16.01607 16.01884 16.02999 16.04061 16.03602 16.04076 16.04071 16.04088 16.03799 16.06716 16.0822 16.08484 16.09414 16.10377 16.11072 16.11483 16.12193 16.13668 16.15611 16.15873 16.16719 16.18442 16.19829 16.20197 16.21458 16.22331 16.22878 16.23834 16.24732 16.25439 16.26541 16.27798 16.29136 16.30895 16.32696 16.34056 16.37276 16.38091 16.41007 16.43935 16.46655 16.48696 16.51201 16.53396 16.54408 16.54869 16.54329 16.54223 16.53437 16.52919 16.52378 16.5191 16.51227 16.50196 16.4931 16.48496 16.46981 16.45875 16.44815 16.43918 16.4226 16.41901 16.41705 16.43068 16.44754 16.44309 16.45325 16.46008 16.46112 16.4583 16.45269 16.43475 16.41644 16.39525 16.37386 16.3473 16.31083 16.27001
0 0 0 0 0 20.13579 19.74118 18.43787 17.00781 16.49495 15.69235 15.36558 15.44585 15.53658 15.60988 15.70107 15.75439 15.78135 15.8069 15.83478 15.8789 15.8988 15.92161 15.9495 15.97138 15.98394 15.99537 16.00188 16.00326 16.0079 16.01988 16.02991 16.04183 16.05152 16.04926 16.04887 16.04765 16.04442 16.0448 16.05585 16.07801 16.09484 16.11156 16.10709 16.10458 16.11474 16.11942 16.11851 16.12954 16.15343 16.15876 16.16931 16.18236 16.19324 16.20313 16.20947 16.22413 16.23331 16.24237 16.25447 16.26526 16.27717 16.29508 16.31475 16.33226 16.3514 16.37161 16.39972 16.4194 16.44352 16.47394 16.49888 16.52407 16.5486 16.56685 16.57365 16.57703 16.5656 16.56354 16.55665 16.54905 16.54271 16.53712 16.52967 16.51563 16.50479 16.50031 16.49603 16.48884 16.48533 16.4791 16.46237 16.46279 16.45073 16.47637 16.48963 16.4914 16.48921 16.50115 16.50512 16.50231 16.49653 16.47008 16.45589 16.44558 16.41986 16.39988 16.36759 16.33011
0 0 0 0 19.27957 19.05137 17.14845 16.59483 16.10871 15.34896 15.36886 15.43193 15.52163 15.59199 15.67027 15.73524 15.7834 15.81288 15.84423 15.87578 15.90822 15.92563 15.94753 15.97387 15.98531 15.99853 16.0088 16.01509 16.01729 16.02006 16.03048 16.03501 16.0411 16.03461 16.05251 16.05336 16.06034 16.06187 16.06999 16.07971 16.08979 16.10088 16.11459 16.11054 16.11813 16.11424 16.12338 16.12995 16.1275 16.14635 16.15549 16.16403 16.17707 16.19034 16.20316 16.20907 16.20583 16.22068 16.24266 16.25724 16.27107 16.29144 16.31387 16.33177 16.35399 16.37926 16.40251 16.43563 16.44701 16.47627 16.50841 16.53296 16.55209 16.57892 16.59574 16.60372 16.60063 16.58651 16.58078 16.57941 16.57593 16.56734 16.55733 16.54267 16.52776 16.5252 16.52624 16.51998 16.51369 16.50713 16.5031 16.49874 16.49232 16.4919 16.50845 16.52305 16.52388 16.52337 16.54065 16.55026 16.55537 16.54676 16.53036 16.52211 16.50355 16.48192 16.46221 16.43124 16.39625
0 0 0 0 20.25554 17.6756 15.49279 15.4399 15.38502 15.3973 15.44134 15.53058 15.59874 15.66894 15.72172 15.77878 15.79869 15.82988 15.86881 15.89397 15.91682 15.94945 15.97024 15.98043 15.99258 16.00224 16.01183 16.01164 16.01877 16.02297 16.02216 16.0232 16.0242 16.02776 16.04532 16.05137 16.06786 16.07941 16.08627 16.09657 16.10541 16.10447 16.11269 16.11662 16.13485 16.11852 16.11783 16.12574 16.13016 16.14202 16.15664 16.16113 16.16458 16.17841 16.19262 16.2001 16.20834 16.21525 16.23109 16.25543 16.28104 16.30984 16.32895 16.34671 16.36761 16.39309 16.41541 16.4482 16.47253 16.50273 16.53479 16.55485 16.57208 16.59531 16.61026 16.61473 16.61662 16.59822 16.59357 16.59553 16.59755 16.59089 16.57705 16.56709 16.55569 16.54668 16.54664 16.53888 16.53038 16.52863 16.52944 16.52417 16.51627 16.52105 16.54213 16.54988 16.55252 16.56436 16.58292 16.59337 16.59729 16.59106 16.57757 16.57976 16.5578 16.53963 16.52131 16.49705 16.46224
0 0 0 19.54568 19.19437 17.17865 15.45193 15.42287 15.42614 15.47474 15.54005 15.61284 15.67879 15.73108 15.7725 15.81199 15.8381 15.85298 15.87195 15.8976 15.92977 15.95032 15.97514 15.98512 15.98686 15.98777 15.99978 16.00185 16.01183 16.01054 15.99518 15.99828 16.01043 16.02866 16.0389 16.05048 16.05752 16.07364 16.0928 16.10271 16.09851 16.08941 16.09963 16.11505 16.12317 16.11521 16.12369 16.13357 16.12779 16.13469 16.14144 16.14892 16.16389 16.16339 16.1885 16.2094 16.22076 16.22652 16.24093 16.26412 16.28823 16.31891 16.33907 16.35928 16.3799 16.40347 16.4279 16.45196 16.47884 16.51173 16.54377 16.56901 16.58431 16.60275 16.61889 16.62068 16.6149 16.60457 16.60326 16.60073 16.60486 16.60991 16.59387 16.58801 16.57228 16.56831 16.55911 16.54909 16.55906 16.55243 16.55731 16.56535 16.55412 16.55866 16.56879 16.58116 16.58489 16.59838 16.60785 16.62134 16.63232 16.62484 16.62002 16.61181 16.60236 16.5808 16.5668 16.53851 16.50722
0 0 0 19.55012 19.18268 17.14449 16.18206 15.41968 15.46409 15.5552 15.61137 15.68053 15.72892 15.7731 15.81204 15.83268 15.85362 15.86872 15.89168 15.90663 15.91795 15.9343 15.95936 15.96438 15.96206 15.97164 15.97357 15.98286 15.99103 15.97929 15.9838 15.9982 16.01106 16.01089 16.03541 16.04534 16.05855 16.06247 16.07676 16.08024 16.07368 16.06325 16.05842 16.06515 16.08843 16.10383 16.1105 16.11559 16.11345 16.12357 16.12772 16.15208 16.15777 16.17451 16.18783 16.19616 16.20605 16.23097 16.25509 16.27457 16.30741 16.31856 16.35824 16.37905 16.38845 16.41402 16.43485 16.46085 16.47686 16.50408 16.53932 16.5667 16.58552 16.60256 16.61283 16.61543 16.61339 16.61218 16.6112 16.60178 16.60777 16.6109 16.60743 16.59659 16.59078 16.57564 16.56975 16.57672 16.57645 16.58394 16.58904 16.59488 16.59077 16.59701 16.60457 16.61161 16.61636 16.63194 16.64298 16.64811 16.66177 16.66403 16.65984 16.66151 16.65838 16.63562 16.62384 16.59378 16.55892
0 0 0 20.19158 19.43497 17.13785 15.78034 15.42813 15.48003 15.58053 15.66979 15.72187 15.75965 15.80518 15.84333 15.85393 15.86574 15.87963 15.8997 15.91195 15.92576 15.93734 15.94941 15.95454 15.95901 15.95317 15.96186 15.97757 15.96986 15.97042 15.97 15.99 15.99407 16.00988 16.03747 16.04891 16.05587 16.06464 16.0613 16.06537 16.05677 16.04058 16.03225 16.04203 16.04771 16.07739 16.09262 16.10128 16.09644 16.09599 16.12362 16.14935 16.15777 16.15755 16.17004 16.18459 16.21318 16.2451 16.25798 16.28203 16.31134 16.3387 16.35785 16.39354 16.40336 16.42619 16.44125 16.45909 16.46962 16.49712 16.53485 16.55969 16.57742 16.58893 16.59901 16.60703 16.6114 16.61118 16.61544 16.60719 16.61148 16.6161 16.61643 16.61414 16.61047 16.6046 16.60235 16.59882 16.5968 16.59635 16.6087 16.6133 16.6141 16.62636 16.6301 16.63779 16.64505 16.65537 16.66993 16.67938 16.6804 16.68239 16.68519 16.69718 16.69419 16.6848 16.67149 16.65774 16.63903
0 0 0 20.2459 18.09324 16.1905 15.40821 15.44901 15.52422 15.62479 15.69927 15.74697 15.7847 15.82335 15.85428 15.87631 15.88577 15.89996 15.90849 15.9099 15.91882 15.93363 15.93788 15.92213 15.94028 15.9501 15.955 15.96741 15.96308 15.96391 15.97225 15.98378 16.01335 16.02738 16.04528 16.04774 16.05273 16.06353 16.07663 16.07662 16.06679 16.0526 16.03943 16.04732 16.05087 16.05678 16.08219 16.08913 16.08086 16.09798 16.13981 16.16514 16.16672 16.17175 16.1814 16.20281 16.22886 16.26053 16.27597 16.30808 16.33987 16.36504 16.39127 16.4166 16.44115 16.4439 16.45826 16.47263 16.49142 16.51281 16.53866 16.5642 16.5822 16.59235 16.59406 16.60392 16.61614 16.6169 16.62309 16.62538 16.62616 16.62761 16.61856 16.62789 16.62954 16.63751 16.63966 16.6339 16.62401 16.62058 16.632 16.63798 16.65421 16.66082 16.66722 16.6735 16.67504 16.69098 16.70315 16.70966 16.70756 16.71417 16.71467 16.72035 16.72095 16.72169 16.71215 16.70204 16.67974
15.44479 15.44515 16.93114 18.06566 15.76225 15.37627 15.40567 15.46811 15.57036 15.66384 15.72536 15.76977 15.80901 15.83757 15.8621 15.88968 15.90194 15.91288 15.92451 15.92275 15.92409 15.91929 15.916 15.90609 15.91814 15.93712 15.94943 15.94526 15.96283 15.96933 15.97411 15.98895 16.01582 16.02905 16.0468 16.04951 16.0578 16.0705 16.08871 16.09451 16.08809 16.07949 16.05321 16.04051 16.03983 16.04834 16.06833 16.06863 16.07734 16.11626 16.15142 16.17109 16.1751 16.19243 16.20607 16.22444 16.2436 16.27183 16.29993 16.33105 16.35996 16.38688 16.40679 16.43131 16.44932 16.45855 16.47841 16.49352 16.50709 16.52566 16.54695 16.56612 16.58062 16.59302 16.5972 16.60982 16.61576 16.61878 16.62138 16.62793 16.63305 16.63618 16.6403 16.64289 16.64984 16.64934 16.65662 16.65265 16.65313 16.64743 16.65338 16.66682 16.67826 16.68626 16.69453 16.70157 16.7107 16.71485 16.7267 16.73279 16.73958 16.74682 16.75232 16.7514 16.7566 16.76119 16.7462 16.72688 16.71653
15.45155 15.43804 15.44587 15.46024 15.39587 15.40317 15.45454 15.54205 15.62712 15.70697 15.75892 15.79286 15.82993 15.85553 15.8767 15.8986 15.91551 15.91928 15.91328 15.90894 15.91295 15.9206 15.91533 15.90401 15.89991 15.91975 15.92618 15.94683 15.95116 15.96592 15.97659 15.99845 16.01451 16.02083 16.04065 16.05811 16.07118 16.08121 16.10317 16.11008 16.1067 16.09493 16.08331 16.05167 16.05062 16.06494 16.06823 16.06675 16.09346 16.11085 16.12279 16.16531 16.19047 16.20633 16.21867 16.23712 16.26852 16.3002 16.32116 16.341 16.36725 16.39145 16.41476 16.43782 16.46181 16.48099 16.4979 16.50402 16.5203 16.53245 16.55332 16.57051 16.577 16.59364 16.59923 16.60339 16.61229 16.61684 16.62289 16.62603 16.63298 16.63874 16.65975 16.67167 16.66954 16.67468 16.67793 16.66777 16.66983 16.67351 16.68147 16.6892 16.70597 16.71451 16.72183 16.72495 16.73333 16.73645 16.73926 16.74694 16.75992 16.76001 16.77115 16.78404 16.8007 16.79401 16.7799 16.77542 16.77387
15.4599 15.47479 15.49649 15.51128 15.49616 15.5164 15.56749 15.63256 15.68949 15.74662 15.79277 15.82337 15.84916 15.86852 15.88358 15.8945 15.91365 15.93079 15.91686 15.9038 15.90471 15.90194 15.90128 15.89277 15.88324 15.90491 15.91227 15.92954 15.95411 15.97134 15.99499 16.00386 16.00585 16.01599 16.03252 16.06003 16.07173 16.08916 16.10284 16.10677 16.11097 16.10683 16.08667 16.06853 16.06573 16.06658 16.06424 16.07342 16.09288 16.11909 16.13947 16.16844 16.18832 16.20295 16.237 16.27031 16.30445 16.33844 16.35972 16.376 16.38888 16.40498 16.42109 16.44791 16.46896 16.48492 16.50417 16.51942 16.52423 16.54166 16.55874 16.57719 16.57866 16.59336 16.59887 16.60289 16.60881 16.61224 16.62451 16.62696 16.63818 16.63695 16.65761 16.6682 16.66767 16.68073 16.69554 16.70228 16.70368 16.70978 16.72451 16.73208 16.74431 16.75215 16.75569 16.75398 16.75241 16.75181 16.75747 16.77734 16.78572 16.79993 16.81252 16.81956 16.82816 16.82689 16.81164 16.80899 16.80052
15.52135 15.54851 15.5765 15.60152 15.61494 15.63778 15.67022 15.7046 15.74337 15.77291 15.80263 15.8327 15.85047 15.86573 15.87702 15.8894 15.9025 15.92097 15.92408 15.91918 15.90801 15.8968 15.89562 15.89399 15.89291 15.90575 15.91131 15.92401 15.94018 15.96339 15.98535 16.00139 16.01625 16.02446 16.03468 16.06069 16.07127 16.08371 16.09095 16.095 16.09547 16.09335 16.0861 16.0736 16.06655 16.0645 16.05865 16.06769 16.09286 16.12384 16.13353 16.16758 16.20235 16.22934 16.24916 16.27551 16.30396 16.34126 16.36629 16.39122 16.40529 16.41979 16.44289 16.45923 16.46962 16.48926 16.5106 16.52486 16.54375 16.55983 16.56232 16.5736 16.58355 16.59588 16.60533 16.61376 16.61768 16.62377 16.62555 16.63137 16.64118 16.64265 16.64864 16.66255 16.676 16.69988 16.72332 16.74299 16.74787 16.75809 16.77795 16.78131 16.79528 16.80702 16.80895 16.80277 16.80238 16.81983 16.82587 16.83822 16.84916 16.86003 16.86955 16.8652 16.8608 16.85129 16.83234 16.82338 16.81824
15.61194 15.63339 15.65635 15.67644 15.69102 15.70451 15.71686 15.73091 15.76033 15.77778 15.81276 15.82914 15.84039 15.85185 15.8628 15.88297 15.88625 15.91424 15.91183 15.92427 15.91041 15.89996 15.89153 15.89234 15.90337 15.92588 15.93313 15.9365 15.946 15.96848 15.99467 16.01535 16.0333 16.04629 16.06788 16.08041 16.09065 16.09653 16.10793 16.10672 16.10204 16.09862 16.09185 16.09304 16.0846 16.08021 16.07994 16.09459 16.12402 16.13756 16.15633 16.19332 16.21847 16.25452 16.27735 16.30325 16.32734 16.35195 16.38058 16.40827 16.42894 16.44359 16.46359 16.47238 16.48324 16.50502 16.52444 16.5394 16.55628 16.56486 16.57519 16.57953 16.57818 16.59303 16.60767 16.61602 16.62746 16.63069 16.63207 16.63575 16.64755 16.6598 16.67327 16.68669 16.70277 16.73454 16.77184 16.78973 16.80944 16.82118 16.8329 16.8466 16.85884 16.8695 16.87438 16.86586 16.86413 16.87386 16.89258 16.9134 16.93291 16.94706 16.93732 16.92834 16.9293 16.91691 16.9058 16.89452 16.88678
15.68488 15.7067 15.70828 15.70411 15.71191 15.71866 15.72863 15.74272 15.76647 15.79281 15.81558 15.83114 15.83952 15.84674 15.87082 15.8771 15.88727 15.89645 15.89076 15.91206 15.90406 15.89757 15.89522 15.90195 15.91649 15.93833 15.95217 15.95498 15.96433 15.98421 16.01255 16.0383 16.0505 16.06889 16.08187 16.09573 16.11508 16.12797 16.1457 16.12954 16.1296 16.12317 16.12741 16.11279 16.11687 16.11832 16.12852 16.15174 16.17145 16.18243 16.20838 16.23935 16.27859 16.30322 16.3326 16.36261 16.38786 16.41999 16.44859 16.46503 16.49028 16.50212 16.50936 16.51801 16.53068 16.5379 16.55199 16.56767 16.57738 16.58923 16.59875 16.60409 16.60969 16.61237 16.61904 16.6302 16.63646 16.64265 16.64639 16.65161 16.66623 16.68196 16.70711 16.73694 16.77027 16.81067 16.85106 16.88887 16.91899 16.94282 16.9518 16.95949 16.95518 16.95734 16.94925 16.93804 16.93406 16.94285 16.97544 17.02085 17.04342 17.04263 17.03002 17.01252 16.99727 16.98814 16.98839 16.98088 16.97732
15.704 15.70517 15.71689 15.72131 15.71564 15.71538 15.72737 15.74006 15.76241 15.79004 15.8143 15.82117 15.8265 15.84027 15.85813 15.88065 15.89385 15.90177 15.90454 15.90784 15.90606 15.9142 15.91488 15.93278 15.95738 15.96266 15.96877 15.97886 16.00144 16.00807 16.0375 16.0628 16.07827 16.08708 16.10648 16.12272 16.14477 16.1525 16.16222 16.15855 16.15707 16.15937 16.15802 16.15959 16.16021 16.16967 16.19042 16.21102 16.22854 16.2436 16.28148 16.31642 16.35275 16.38191 16.40679 16.4318 16.45518 16.48171 16.51032 16.53935 16.56412 16.57221 16.58661 16.5952 16.60492 16.6081 16.61807 16.62951 16.63373 16.64782 16.66001 16.66602 16.66719 16.66061 16.66291 16.66545 16.66473 16.66761 16.67928 16.69273 16.70179 16.72611 16.75683 16.78721 16.82885 16.87943 16.9323 16.97973 0 0 17.04777 17.0774 17.05691 17.04345 17.03055 17.02539 17.03701 17.06636 17.07934 0 0 17.06731 17.15319 17.14519 17.11914 17.10325 17.09873 17.0881 17.0711
