ncols        109
nrows        82
xllcorner    -1.041666666667
yllcorner    37.041665395101
cellsize     0.083333333333
NODATA_value -9999
0.0 0 0 0 0 0 0 0 0 0 0 0 0 0 0 0 0 0 0 0 0 0 0 0 0 0 0 0 0 0 0 0 0 0 0 0 0 0 0 0 0 0 0 0 0 0 0 0 0 0 0 0 0 0 0 0 0 0 0 0 0 0 0 0 0 0 0 0 0 0 0 0 0 0 0 0 0 0 0 0 0 0 0 0 0 0 0 0 0 0 0 0 0 0 0 0 0 0 0 0 0 0 0 0 0 17.84956 16.53117 15.15298 15.14859
0 0 0 0 0 0 0 0 0 0 0 0 0 0 0 0 0 0 0 0 0 0 0 0 0 0 0 0 0 0 0 0 0 0 0 0 0 0 0 0 0 0 0 0 0 0 0 0 0 0 0 0 0 0 0 0 0 0 0 0 0 0 0 0 0 0 0 0 0 0 0 0 0 0 0 0 0 0 0 0 0 0 0 0 0 0 0 0 0 0 0 0 0 0 0 0 0 0 0 0 0 15.30015 15.31999 15.10951 15.123 15.13152 15.12902 15.11757 15.08798
0 0 0 0 0 0 0 0 0 0 0 0 0 0 0 0 0 0 0 0 0 0 0 0 0 0 0 0 0 0 0 0 0 0 0 0 0 0 0 0 0 0 0 0 0 0 0 0 0 0 0 0 0 0 0 0 0 0 0 0 0 0 0 0 0 0 0 0 0 0 0 0 0 0 0 0 0 0 0 0 0 0 0 0 0 0 0 0 0 0 0 0 0 0 0 0 0 0 15.11534 15.10765 15.09852 15.08483 15.06184 15.05063 15.04124 15.02484 14.99951 14.97194 14.94504
0 0 0 0 0 0 0 0 0 0 0 0 0 0 0 0 0 0 0 0 0 0 0 0 0 0 0 0 0 0 0 0 0 0 0 0 0 0 0 0 0 0 0 0 0 0 0 0 0 0 0 0 0 0 0 0 0 0 0 0 0 0 0 0 0 0 0 0 0 0 0 0 0 0 0 0 0 0 0 0 0 0 0 0 0 0 0 0 0 0 0 0 0 0 0 0 0 16.83255 15.09774 15.07506 15.0358 14.99418 14.95841 14.93932 14.91713 14.89477 14.86747 14.84602 14.81995
0 0 0 0 0 0 0 0 0 0 0 0 0 0 0 0 0 0 0 0 0 0 0 0 0 0 0 0 0 0 0 0 0 0 0 0 0 0 0 0 0 0 0 0 0 0 0 0 0 0 0 0 0 0 0 0 0 0 16.97403 16.59279 16.29886 16.43368 0 0 0 0 0 0 0 0 0 0 0 0 0 0 0 0 0 0 0 0 0 0 0 0 0 0 0 0 0 0 0 0 0 15.60029 15.1331 15.11155 15.06229 15.01233 14.95491 14.89628 14.84373 14.79663 14.7643 14.7385 14.7191 14.70881 14.69598
0 0 0 0 0 0 0 0 0 0 0 0 0 0 0 0 0 0 0 0 0 0 0 0 0 0 0 0 0 0 0 0 0 0 0 0 0 0 0 0 0 0 0 0 0 0 0 0 0 0 0 0 0 0 0 0 16.49383 16.51538 16.20866 15.95916 15.8576 15.85178 15.959 16.18983 16.40487 16.51235 16.49698 0 0 0 0 16.80966 0 0 0 0 0 0 0 0 0 0 0 0 0 0 0 0 0 0 0 0 0 16.22323 15.10471 15.12278 15.09219 15.03712 14.9673 14.89713 14.82767 14.76655 14.72014 14.6739 14.65484 14.64268 14.62937 14.61749 14.60577
0 0 0 0 0 0 0 0 0 0 0 0 0 0 0 0 0 0 0 0 0 0 0 0 0 0 0 0 0 0 0 0 0 0 0 0 0 0 0 0 0 0 0 0 0 0 0 0 0 0 0 0 0 0 0 16.6166 16.19364 15.83425 15.61273 15.31843 15.37851 15.40681 15.60269 15.75289 15.90826 16.02135 16.11539 16.3198 16.53169 16.49781 16.43271 16.16741 15.90968 15.95736 16.13792 15.86194 15.88815 0 0 0 0 0 0 0 0 0 0 0 0 0 0 0 15.49329 15.13116 15.10518 15.07159 15.01977 14.94697 14.87544 14.80372 14.73115 14.66126 14.61394 14.5706 14.56059 14.55686 14.55666 14.5572 14.56004
0 0 0 0 0 0 0 0 0 0 0 0 0 0 0 0 0 0 0 0 0 0 0 0 0 0 0 0 0 0 0 0 0 0 0 0 0 0 0 0 0 0 0 0 0 0 0 0 0 0 0 16.23487 16.43772 16.57021 16.29306 15.84171 15.5827 15.28483 15.15132 15.22185 15.26581 15.28563 15.28959 15.50812 15.51198 15.69918 15.66578 15.65839 15.6901 15.57347 15.42677 15.43957 15.25127 15.46021 15.49837 15.73674 0 0 0 0 0 0 0 0 0 0 0 0 0 0 0 0 15.1379 15.12547 15.05865 14.98981 14.91156 14.83277 14.75871 14.68733 14.62951 14.58024 14.54857 14.52798 14.52576 14.52637 14.52926 14.53407 14.54437
0 0 0 0 0 0 0 0 0 0 0 0 0 0 0 0 0 0 0 0 0 0 0 0 0 0 0 0 0 0 0 0 0 0 0 0 0 0 0 0 0 0 0 0 0 0 0 0 0 0 16.38601 16.2629 16.004 15.92306 15.80856 15.4849 15.12347 15.19129 15.02417 15.07493 15.11774 15.14161 15.15563 15.35933 15.35133 15.56616 15.56003 15.55995 15.38674 15.21291 15.23329 15.26286 15.08416 15.29611 15.31255 15.57602 15.62102 15.42729 15.4743 15.95255 16.51857 17.41195 0 0 0 0 0 0 0 16.27579 15.62766 15.17726 15.16221 15.09338 14.98882 14.90106 14.81819 14.74674 14.67398 14.6125 14.56921 14.53882 14.51961 14.5169 14.5217 14.52679 14.53107 14.54183 14.55266
0 0 0 0 0 0 0 0 0 0 0 0 0 0 0 0 0 0 0 0 0 0 0 0 0 0 0 0 0 0 0 0 0 0 0 0 0 0 0 0 0 0 0 0 0 0 0 0 0 17.23217 16.08197 15.967 15.90127 15.57166 15.39522 15.19783 15.23971 15.05799 15.09703 15.14583 15.18549 15.2117 15.22366 15.44131 15.44721 15.44422 15.44714 15.44729 15.45087 15.25907 15.27343 15.09808 14.90772 14.91373 14.92581 14.95951 14.99477 15.04011 15.08434 15.1081 15.574 16.23209 0 16.02235 16.67686 17.25485 17.56218 17.24812 16.68221 15.19486 15.21138 15.20087 15.12879 15.02277 14.90319 14.81385 14.72691 14.6685 14.61184 14.57299 14.55217 14.54104 14.53233 14.53834 14.54519 14.55528 14.56541 14.58001 14.59475
0 0 0 0 0 0 0 0 0 0 0 0 0 0 0 0 0 0 0 0 0 0 0 0 0 0 0 0 0 0 0 0 0 0 0 0 0 0 0 0 0 0 0 0 0 0 0 0 0 16.91862 16.01777 15.72738 15.40238 15.24512 15.28367 15.08965 15.12343 15.16416 15.20763 15.2394 15.27114 15.28703 15.29355 15.29056 15.29361 15.09636 14.91686 15.08864 15.08594 15.08392 15.08611 14.89222 14.88825 14.88777 14.92218 14.94082 14.96743 14.99818 15.03236 15.06615 15.09444 15.12754 15.15328 15.17365 15.20467 15.21878 16.35648 16.56978 16.12019 15.16508 15.14391 15.09082 15.01892 14.91991 14.83592 14.75508 14.68629 14.63575 14.59386 14.57101 14.56859 14.56882 14.57178 14.58044 14.59455 14.60622 14.61385 14.62512 14.64017
0 0 0 0 0 0 0 0 0 0 0 0 0 0 0 0 0 0 0 0 0 0 0 0 0 0 0 0 0 0 0 0 0 0 0 0 0 0 0 0 0 0 0 0 0 0 0 0 0 16.64502 15.94311 15.61686 15.25263 15.32259 15.14233 15.19306 15.22431 15.26496 15.29485 15.32346 15.1251 15.13625 15.13723 15.13171 15.1192 14.91816 14.91242 14.90383 14.87861 14.86639 14.86163 14.8556 14.85387 14.85865 14.90128 14.90695 14.91578 14.9254 14.94183 14.96796 14.99558 15.02911 15.05215 15.07387 15.09792 15.1218 15.13672 15.14305 15.122 15.07677 15.03034 14.97057 14.89572 14.82202 14.75624 14.70079 14.66178 14.61676 14.60445 14.60198 14.60645 14.61447 14.62334 14.63381 14.64399 14.65426 14.66438 14.67619 14.68892
0 0 0 0 0 0 0 0 0 0 0 0 0 0 0 0 0 0 0 0 0 0 0 0 0 0 0 0 0 0 0 0 0 0 0 0 0 0 0 0 0 0 0 0 0 0 0 0 0 16.54073 15.79512 15.45058 15.30031 15.14718 15.22484 15.29064 15.10999 15.13348 14.93475 14.93763 14.94187 14.94146 14.93863 14.93176 14.91513 14.89962 14.88645 14.86627 14.84024 14.81881 14.81365 14.80412 14.79931 14.79293 14.82212 14.81712 14.82 14.83452 14.85112 14.8728 14.89636 14.9198 14.93353 14.94096 14.94696 14.96046 14.97116 14.96766 14.94302 14.91474 14.87758 14.83634 14.78779 14.74126 14.70215 14.66895 14.65324 14.62705 14.62896 14.63729 14.64444 14.65417 14.66563 14.68002 14.69117 14.70141 14.71329 14.72109 14.73549
0 0 0 0 0 0 0 0 0 0 0 0 0 0 0 0 0 0 0 0 0 0 0 0 0 0 0 0 0 0 0 0 0 0 0 0 0 0 0 0 0 0 0 0 0 0 0 0 0 16.40016 15.82937 15.47164 15.33147 15.18452 15.26176 15.10347 14.93168 14.94483 14.94639 14.93775 14.92813 14.91752 14.90414 14.89022 14.87713 14.85833 14.84212 14.82565 14.80913 14.79522 14.78546 14.77275 14.76122 14.74754 14.73703 14.71569 14.71022 14.71396 14.72868 14.74278 14.75918 14.77396 14.78128 14.78891 14.80247 14.81897 14.83162 14.83554 14.81498 14.78477 14.75487 14.72626 14.70224 14.67865 14.65998 14.65173 14.65253 14.65914 14.66587 14.67716 14.68512 14.69671 14.70683 14.72075 14.72996 14.74212 14.75432 14.76679 14.78238
0 0 0 0 0 0 0 0 0 0 0 0 0 0 0 0 0 0 0 0 0 0 0 0 0 0 0 0 0 0 0 0 0 0 0 0 0 0 0 0 0 0 0 0 0 0 0 0 0 16.45605 15.62605 15.2512 15.36786 15.22705 15.29513 15.10685 14.92693 14.92938 14.92527 14.90889 14.89218 14.87874 14.86153 14.84726 14.83042 14.81048 14.78819 14.7672 14.74791 14.72567 14.70498 14.68331 14.66999 14.65874 14.64893 14.64362 14.64601 14.65539 14.66124 14.66504 14.66838 14.66791 14.67171 14.67663 14.68651 14.68863 14.69606 14.70116 14.69758 14.68924 14.68178 14.67376 14.66456 14.6616 14.66028 14.66343 14.67523 14.68811 14.70223 14.71356 14.72305 14.734 14.74738 14.76263 14.77412 14.78324 14.79167 14.80429 14.82041
0 0 0 0 0 0 0 0 0 0 0 0 0 0 0 0 0 0 0 0 0 0 0 0 0 0 0 0 0 0 0 0 0 0 0 0 0 0 0 0 0 0 0 0 0 0 0 0 0 15.92422 15.69057 15.28759 15.17151 15.05577 15.10333 14.89805 14.92012 14.90865 14.89077 14.8703 14.84744 14.82273 14.80386 14.79197 14.7783 14.76376 14.74338 14.72077 14.70124 14.67828 14.64794 14.6219 14.60202 14.59017 14.58264 14.58206 14.58255 14.58699 14.59352 14.60151 14.6036 14.60386 14.60867 14.61796 14.62878 14.63251 14.64127 14.64311 14.64597 14.64461 14.6474 14.64929 14.65501 14.66572 14.67501 14.68827 14.70345 14.71802 14.73143 14.74504 14.75711 14.77095 14.78614 14.80191 14.81288 14.82399 14.83464 14.84672 14.86345
0 0 0 0 0 0 0 0 0 0 0 0 0 0 0 0 0 0 0 0 0 0 0 0 0 0 0 0 0 0 0 0 0 0 0 0 0 0 0 0 0 0 0 0 0 0 0 0 0 0 15.41352 15.35759 15.22696 14.88159 14.90249 14.89644 14.91303 14.88669 14.86352 14.83818 14.81155 14.79067 14.77051 14.7534 14.73887 14.72428 14.7049 14.68618 14.66568 14.64211 14.61595 14.59351 14.5778 14.56929 14.56291 14.56302 14.56559 14.5661 14.56608 14.57165 14.56967 14.56893 14.57021 14.58071 14.58597 14.59667 14.60631 14.61599 14.62356 14.63039 14.64041 14.65231 14.66265 14.67732 14.69409 14.71331 14.72714 14.74265 14.75916 14.77723 14.7949 14.80922 14.82373 14.84048 14.85163 14.86206 14.8721 14.88212 14.89966
0 0 0 0 0 0 0 0 0 0 0 0 0 0 0 0 0 0 0 0 0 0 0 0 0 0 0 0 0 0 0 0 0 0 0 0 0 0 0 0 0 0 0 0 0 0 0 0 0 0 15.57746 15.15438 14.83906 14.89189 14.89927 14.89987 14.89732 14.87013 14.84064 14.80939 14.7811 14.75576 14.73938 14.7305 14.72067 14.71048 14.69638 14.67757 14.65695 14.63789 14.61575 14.59526 14.57979 14.57168 14.56609 14.56607 14.56917 14.56998 14.57002 14.56937 14.566 14.56466 14.5684 14.57367 14.58062 14.59057 14.60147 14.61327 14.62447 14.63709 14.65038 14.66873 14.68438 14.70126 14.72257 14.7422 14.75587 14.76841 14.78593 14.80743 14.8251 14.83749 14.85079 14.86761 14.88288 14.89682 14.90517 14.91971 14.93992
0 0 0 0 0 0 0 0 0 0 0 0 0 0 0 0 0 0 0 0 0 0 0 0 0 0 0 0 0 0 0 0 0 0 0 0 0 0 0 0 0 0 0 0 0 0 0 0 0 0 0 0 14.85581 14.8861 14.89629 14.90178 14.89096 14.85831 14.82269 14.78987 14.75951 14.73777 14.72376 14.72362 14.71974 14.71257 14.70146 14.68564 14.6707 14.65338 14.63342 14.61421 14.59677 14.58626 14.58357 14.58318 14.58675 14.58289 14.58119 14.58029 14.57663 14.57259 14.57346 14.57743 14.58872 14.59934 14.61302 14.62432 14.63792 14.65367 14.66939 14.69161 14.71607 14.73913 14.76211 14.7837 14.80315 14.81436 14.82929 14.84472 14.85612 14.87102 14.88515 14.8974 14.90983 14.92284 14.93307 14.94824 14.96941
0 0 0 0 0 0 0 0 0 0 0 0 0 0 0 0 0 0 0 0 0 0 0 0 0 0 0 0 0 0 0 0 0 0 0 0 0 0 0 0 0 0 0 0 0 0 0 0 0 0 17.18267 15.53315 15.08011 14.88947 14.89437 14.89448 14.86723 14.82844 14.79404 14.76218 14.74223 14.7254 14.71632 14.71559 14.71764 14.71683 14.71293 14.70225 14.69223 14.67822 14.65871 14.6418 14.62699 14.61349 14.60756 14.60356 14.60032 14.5939 14.58851 14.58849 14.58817 14.58454 14.58553 14.59053 14.60002 14.61286 14.62922 14.64551 14.66123 14.68396 14.7083 14.73498 14.76009 14.78548 14.80909 14.82918 14.84297 14.85581 14.86995 14.88156 14.89027 14.90359 14.91702 14.93083 14.94501 14.95238 14.96403 14.98238 15.00251
0 0 0 0 0 0 0 0 0 0 0 0 0 0 0 0 0 0 0 0 0 0 0 0 0 0 0 0 0 0 0 0 0 0 0 0 0 0 0 0 0 0 0 0 0 0 0 0 0 0 16.46227 15.52704 15.31344 14.87802 14.87012 14.85991 14.83777 14.79564 14.7666 14.74401 14.7277 14.72099 14.71639 14.72267 14.73065 14.73645 14.73716 14.73048 14.72281 14.70986 14.69084 14.66828 14.64708 14.63535 14.62686 14.61511 14.61015 14.59944 14.59514 14.5971 14.59788 14.5995 14.59863 14.60701 14.62131 14.63212 14.64989 14.66709 14.68877 14.71673 14.74984 14.78356 14.81475 14.84295 14.86649 14.88687 14.89885 14.91119 14.92069 14.9258 14.92846 14.93344 14.94023 14.95734 14.97131 14.9784 14.98808 15.00504 15.02979
0 0 0 0 0 0 0 0 0 0 0 0 0 0 0 0 0 0 0 0 0 0 0 0 0 0 0 0 0 0 0 0 0 0 0 0 0 0 0 0 0 0 0 0 0 0 0 0 0 0 0 15.52007 15.06302 14.86183 14.84057 14.81914 14.81444 14.77811 14.75018 14.73391 14.72706 14.72323 14.72677 14.7357 14.75096 14.75994 14.76568 14.76524 14.76343 14.75138 14.7296 14.70534 14.68002 14.66217 14.64284 14.62652 14.61492 14.60668 14.60218 14.60082 14.59906 14.60365 14.60838 14.61859 14.63574 14.657 14.6778 14.70217 14.73682 14.7715 14.80944 14.84571 14.87216 14.89417 14.91142 14.92587 14.94039 14.95131 14.96274 14.96471 14.97224 14.97427 14.97979 14.99114 14.99846 15.00804 15.01836 15.03742 15.06355
0 0 0 0 0 0 0 0 0 0 0 0 0 0 0 0 0 0 0 0 0 0 0 0 0 0 0 0 0 0 0 0 0 0 0 0 0 0 0 0 0 0 0 0 0 0 0 0 0 0 0 15.27059 14.84695 14.84531 14.82165 14.79411 14.80039 14.76896 14.74764 14.74336 14.74092 14.74274 14.75351 14.76848 14.78291 14.79431 14.79894 14.80029 14.79445 14.78245 14.75841 14.73108 14.70681 14.68492 14.66043 14.63884 14.62909 14.62086 14.621 14.61896 14.61781 14.62035 14.62455 14.63826 14.65587 14.67533 14.70368 14.74074 14.78146 14.82588 14.86902 14.9053 14.933 14.9508 14.96562 14.97985 14.99064 14.99941 15.00367 15.00425 15.00478 15.0099 15.01543 15.02423 15.03109 15.04165 15.05371 15.0729 15.09215
0 0 0 0 0 0 0 0 0 0 0 0 0 0 0 0 0 0 0 0 0 0 0 0 0 0 0 0 0 0 0 0 0 0 0 0 0 0 0 0 0 0 0 0 0 0 0 0 0 0 0 14.86433 14.85381 14.84553 14.82547 14.79448 14.78601 14.7575 14.74311 14.74242 14.74992 14.76515 14.78145 14.80417 14.82368 14.84146 14.85111 14.85235 14.84281 14.82419 14.7969 14.76415 14.73441 14.70539 14.67668 14.65287 14.64173 14.63026 14.62716 14.62801 14.63377 14.64356 14.65778 14.67657 14.6988 14.72677 14.75876 14.80449 14.84924 14.89088 14.92945 14.96673 14.98739 15.00673 15.0185 15.03281 15.03931 15.04479 15.04945 15.04738 15.04814 15.0451 15.05314 15.05756 15.06694 15.0794 15.08833 15.10294 15.12243
0 0 0 0 0 0 0 0 0 0 0 0 0 0 0 0 0 0 0 0 0 0 0 0 0 0 0 0 0 0 0 0 0 0 0 0 0 0 0 0 0 0 0 0 0 0 0 0 0 16.89535 15.90785 14.89901 14.88672 14.86034 14.8307 14.80454 14.78176 14.75543 14.74673 14.75102 14.76631 14.7901 14.81174 14.83385 14.85541 14.87397 14.88656 14.89217 14.88679 14.87463 14.84756 14.81641 14.78333 14.74903 14.71327 14.68408 14.66675 14.65364 14.6497 14.65008 14.65913 14.67477 14.69165 14.71318 14.74027 14.77243 14.81759 14.86435 14.91471 14.9573 15.00275 15.03838 15.05356 15.0706 15.07965 15.09179 15.09726 15.10052 15.09594 15.09289 15.09203 15.08527 15.08688 15.09128 15.09924 15.11094 15.11972 15.13844 15.15702
0 0 0 0 0 0 0 0 0 0 0 0 0 0 0 0 0 0 0 0 0 0 0 0 0 0 0 0 0 0 0 0 0 0 0 0 0 0 0 0 0 0 0 0 0 0 0 0 15.95573 15.41575 15.17072 14.91929 14.90051 14.8623 14.82294 14.79759 14.77735 14.75565 14.75119 14.76464 14.7907 14.81992 14.84558 14.87213 14.90013 14.92064 14.93202 14.93563 14.93349 14.91406 14.88812 14.85882 14.82339 14.78685 14.75023 14.71794 14.69601 14.68241 14.67851 14.68257 14.70033 14.72201 14.74785 14.77556 14.80524 14.83671 14.87948 14.92192 14.96104 15.00168 15.03682 15.0713 15.08959 15.10701 15.12134 15.13372 15.13931 15.14824 15.14775 15.1459 15.14505 15.13941 15.13002 15.13186 15.13485 15.13727 15.14725 15.16189 15.17717
0 0 0 0 0 0 0 0 0 0 0 0 0 0 0 0 0 0 0 0 0 0 0 0 0 0 0 0 0 0 0 0 0 0 0 0 0 0 0 0 0 0 0 0 0 15.54356 15.43175 15.9749 15.44796 15.47123 15.21339 14.94731 14.91037 14.86714 14.82833 14.79819 14.77913 14.76121 14.76173 14.77851 14.80999 14.84056 14.87391 14.8991 14.92958 14.95265 14.97051 14.97697 14.97505 14.96323 14.93601 14.90737 14.87441 14.83775 14.79938 14.76275 14.73678 14.72115 14.71319 14.71907 14.73568 14.75854 14.78912 14.82239 14.86442 14.90088 14.9453 14.98623 15.01589 15.05325 15.08762 15.11391 15.13462 15.15074 15.16446 15.1721 15.1828 15.1866 15.19223 15.19633 15.19328 15.18299 15.17304 15.17282 15.17322 15.17249 15.18115 15.18705 15.20217
0 0 0 0 0 0 0 0 0 0 0 0 0 0 0 0 0 0 0 0 0 0 0 0 0 0 0 0 0 0 0 0 0 0 0 0 0 0 0 0 0 0 17.6062 17.28637 16.30444 15.47283 14.96524 14.97916 15.50533 15.23349 14.97166 14.94985 14.91018 14.86925 14.83106 14.80374 14.78965 14.78197 14.79545 14.82071 14.84867 14.87602 14.90813 14.93976 14.9702 14.99334 15.00997 15.01053 15.00286 14.98851 14.96664 14.93697 14.90803 14.87551 14.84016 14.80728 14.78332 14.76768 14.76804 14.77785 14.79654 14.8194 14.8471 14.8788 14.91932 14.96116 14.99771 15.03532 15.06242 15.0928 15.12129 15.14685 15.17021 15.1889 15.20199 15.22079 15.22758 15.23406 15.2464 15.24732 15.24288 15.23079 15.21839 15.20972 15.20687 15.20382 15.20962 15.21893 15.23057
0 0 0 0 0 0 0 0 0 0 0 0 0 0 0 0 0 0 0 0 0 0 0 0 0 0 0 0 0 0 0 0 0 0 0 0 0 0 0 0 16.67825 17.08417 17.34198 16.39522 15.52188 15.00507 15.02432 15.04032 15.03024 15.0075 14.97351 14.95059 14.90942 14.871 14.84325 14.82152 14.81235 14.81286 14.82582 14.85722 14.88304 14.91544 14.9517 14.98661 15.01549 15.0362 15.0446 15.04878 15.0453 15.03035 15.00578 14.98244 14.95462 14.92024 14.88398 14.8511 14.8251 14.81059 14.80957 14.82142 14.84329 14.8695 14.90542 14.94048 14.97825 15.02107 15.06076 15.09102 15.11534 15.13958 15.16707 15.18669 15.20395 15.21631 15.235 15.25263 15.26675 15.27282 15.28173 15.28141 15.27434 15.26695 15.25469 15.24799 15.23962 15.23977 15.24943 15.2596 15.26818
0 0 0 0 0 0 0 0 0 0 0 0 0 0 0 0 0 0 0 0 0 0 0 0 0 0 0 0 0 0 0 0 0 0 0 0 0 0 0 16.89403 16.64357 16.09122 15.83578 15.0198 15.03902 15.05539 15.064 15.06967 15.05378 15.02236 14.98572 14.95567 14.91966 14.89166 14.87201 14.86283 14.86223 14.87186 14.88859 14.9101 14.93486 14.96953 15.00276 15.03318 15.05469 15.06856 15.07753 15.0803 15.07198 15.06211 15.04761 15.02644 15.00151 14.97334 14.94518 14.9143 14.88829 14.87173 14.87026 14.87782 14.89574 14.92012 14.94938 14.98313 15.02119 15.06304 15.10127 15.13089 15.15543 15.18013 15.20676 15.22509 15.23823 15.25767 15.27634 15.29172 15.30255 15.3088 15.31426 15.3123 15.30239 15.29504 15.28367 15.27455 15.27098 15.27226 15.28118 15.29369 15.30307
0 0 0 0 0 0 0 0 0 0 0 0 0 0 0 0 0 0 0 0 0 0 0 0 0 0 0 0 0 0 0 0 0 0 0 0 0 0 16.10641 15.80609 15.54313 15.02128 15.05218 15.07496 15.09111 15.08976 15.09282 15.08484 15.06623 15.04109 15.00839 14.97621 14.94824 14.92374 14.9088 14.90424 14.90787 14.92047 14.9442 14.96577 14.99212 15.02214 15.05219 15.077 15.09764 15.11517 15.12292 15.12399 15.11828 15.1119 15.09444 15.0728 15.04577 15.01992 14.99027 14.96538 14.94282 14.92912 14.92719 14.93427 14.95591 14.98151 15.01177 15.04642 15.07946 15.11599 15.14511 15.16805 15.19005 15.20984 15.23414 15.25422 15.2705 15.28571 15.30581 15.32013 15.33283 15.33668 15.34014 15.34201 15.33778 15.3296 15.32075 15.31692 15.31488 15.31875 15.3253 15.338 15.34492
0 0 0 0 0 0 0 0 0 0 0 0 0 0 0 0 0 0 0 0 0 0 0 0 0 0 0 0 0 0 0 0 0 0 17.80233 18.41022 17.5235 15.83586 15.0003 15.01991 15.04045 15.06039 15.07492 15.09352 15.10687 15.10242 15.09768 15.08335 15.06768 15.05484 15.03708 15.02202 15.00504 14.99076 14.97792 14.97189 14.97522 14.98385 15.00181 15.02329 15.04128 15.06044 15.08471 15.10912 15.13155 15.14788 15.15752 15.16361 15.16736 15.16394 15.1518 15.13617 15.11351 15.08974 15.06212 15.03897 15.01857 15.00254 14.99651 15.0026 15.01768 15.03787 15.06347 15.09234 15.12052 15.14962 15.18015 15.20254 15.22648 15.25078 15.2748 15.2976 15.31153 15.32646 15.34311 15.35611 15.36593 15.36619 15.36594 15.36393 15.36081 15.35635 15.34852 15.34759 15.35233 15.35774 15.3726 15.39112 15.3924
0 0 0 0 0 0 0 0 0 0 0 0 0 0 0 0 0 0 0 0 0 0 0 0 0 0 0 0 0 18.32897 17.91009 17.67153 17.65594 17.42063 17.1231 16.53113 15.04381 15.04613 15.05638 15.06745 15.07852 15.08706 15.09272 15.10062 15.10849 15.10174 15.09398 15.08273 15.07255 15.06387 15.05341 15.0458 15.03996 15.03127 15.0287 15.02904 15.03129 15.04574 15.06193 15.08309 15.09876 15.11223 15.12999 15.15159 15.17405 15.18881 15.19641 15.1995 15.19851 15.20078 15.19533 15.18297 15.16467 15.14667 15.12489 15.1074 15.09042 15.08452 15.08405 15.08479 15.09975 15.11828 15.14003 15.15842 15.17721 15.19582 15.2167 15.23317 15.25478 15.28002 15.30473 15.32389 15.34415 15.36104 15.37848 15.39001 15.39701 15.40241 15.4 15.39693 15.39577 15.38718 15.38534 15.39028 15.39257 15.40297 15.4153 15.42898 15.41586
0 0 0 0 0 0 0 0 0 0 0 0 0 0 0 0 0 0 0 0 0 0 0 0 0 18.13492 17.39959 17.39252 16.4326 15.75521 15.42935 15.12886 15.12028 15.11162 15.10207 15.08834 15.07986 15.07898 15.08468 15.09591 15.09708 15.09522 15.09511 15.09478 15.09579 15.09971 15.10101 15.09659 15.09291 15.0899 15.08437 15.08707 15.07985 15.0717 15.06764 15.06754 15.07622 15.08573 15.10274 15.11983 15.13163 15.14601 15.1643 15.1881 15.21116 15.2281 15.23926 15.2442 15.24903 15.24963 15.24411 15.23434 15.2192 15.20585 15.19004 15.17156 15.15657 15.14972 15.14591 15.14868 15.16414 15.18192 15.19855 15.21892 15.23187 15.2464 15.26111 15.27822 15.29738 15.31837 15.3436 15.36518 15.37944 15.39508 15.41176 15.41943 15.42642 15.42347 15.42464 15.42208 15.42344 15.4209 15.4233 15.4274 15.43779 15.45166 15.46278 15.45424 15.41385
0 0 0 0 0 0 0 0 0 0 0 0 0 0 0 0 0 0 0 0 0 0 0 18.32559 17.44621 16.84873 16.51697 16.18041 15.2163 15.20182 15.18053 15.16111 15.14637 15.13435 15.12014 15.10487 15.09756 15.09938 15.10675 15.11069 15.10786 15.09885 15.09295 15.08765 15.09355 15.10204 15.11022 15.11358 15.12055 15.1231 15.12198 15.12607 15.125 15.11764 15.11181 15.11336 15.12501 15.134 15.14637 15.15814 15.16686 15.18259 15.20034 15.21895 15.23259 15.25356 15.26594 15.27531 15.27885 15.28515 15.28263 15.27692 15.27045 15.26122 15.25574 15.24943 15.24068 15.23645 15.23264 15.23441 15.24254 15.25001 15.26134 15.2728 15.282 15.28908 15.30116 15.31358 15.33213 15.35417 15.37635 15.39795 15.41638 15.43129 15.44454 15.45384 15.46082 15.46098 15.45579 15.45608 15.45651 15.45833 15.4598 15.46414 15.47191 15.48365 15.4835 15.46145 15.40288
0 0 0 0 0 0 0 0 0 0 0 0 0 0 0 0 0 0 0 0 0 0 17.75861 16.8851 16.54998 16.54415 16.21065 15.86715 15.22393 15.20168 15.17899 15.16068 15.14577 15.12904 15.11436 15.1024 15.0991 15.10285 15.10768 15.10917 15.10321 15.09922 15.09888 15.10349 15.10766 15.1159 15.12481 15.1348 15.14218 15.14951 15.14926 15.14862 15.14611 15.13984 15.13711 15.14355 15.16025 15.17056 15.18082 15.18782 15.19813 15.21438 15.23631 15.24932 15.26732 15.28507 15.29806 15.31046 15.31668 15.32296 15.32278 15.3203 15.31725 15.31027 15.30875 15.30514 15.3034 15.30324 15.3057 15.30986 15.31513 15.32353 15.32873 15.33712 15.346 15.35654 15.36413 15.37449 15.38414 15.40114 15.41921 15.4327 15.44317 15.45791 15.4721 15.48092 15.48194 15.48378 15.48467 15.48592 15.49359 15.49762 15.50252 15.50833 15.51447 15.51786 15.50586 15.46296 15.39553
0 0 0 0 0 0 0 0 0 0 0 0 0 0 0 0 0 0 0 0 0 18.99846 17.98006 16.88733 16.23439 16.21652 15.86966 15.8694 15.21853 15.19762 15.1752 15.15542 15.13389 15.11394 15.10614 15.09834 15.09208 15.08963 15.0934 15.09893 15.09935 15.09839 15.1019 15.11044 15.11582 15.12645 15.14022 15.15056 15.16254 15.17349 15.17432 15.17603 15.17379 15.17037 15.16987 15.17259 15.18677 15.19581 15.20803 15.21307 15.22487 15.24097 15.25918 15.27469 15.29466 15.31588 15.33213 15.34876 15.36127 15.37191 15.38036 15.38544 15.38527 15.38578 15.3869 15.38609 15.38548 15.38333 15.37804 15.37653 15.37549 15.37864 15.38358 15.38688 15.39881 15.40926 15.4234 15.43601 15.44558 15.45234 15.46643 15.47644 15.48493 15.49523 15.50441 15.51094 15.5144 15.51245 15.51523 15.51583 15.51924 15.52461 15.53356 15.54118 15.54643 15.54221 15.51375 15.46466 15.38855
0 0 0 0 0 0 0 0 0 0 0 0 0 0 0 0 0 0 0 0 0 0 0 17.50027 16.58484 16.23094 15.87824 15.55734 15.21666 15.18988 15.17103 15.1529 15.12807 15.11357 15.10288 15.09462 15.08522 15.0866 15.09033 15.09361 15.09536 15.10065 15.11031 15.11799 15.1228 15.13241 15.14704 15.15959 15.17051 15.17955 15.18624 15.19505 15.2016 15.20297 15.20555 15.21366 15.21848 15.22702 15.23549 15.24931 15.26003 15.2776 15.29012 15.30752 15.32557 15.34192 15.36552 15.37996 15.39386 15.41115 15.42106 15.42995 15.43976 15.44785 15.45405 15.45824 15.46016 15.46124 15.45872 15.45557 15.455 15.45492 15.45784 15.46065 15.46376 15.47518 15.48398 15.49199 15.49634 15.5005 15.50688 15.51209 15.51979 15.52915 15.5371 15.54519 15.54811 15.54907 15.54831 15.5487 15.55735 15.56468 15.57312 15.58097 15.57912 15.56221 15.52489 15.46408 15.38454
0 0 0 0 0 0 0 0 0 0 0 0 0 0 0 0 0 0 0 0 0 19.41883 19.1185 18.12911 16.63682 16.27433 15.90769 15.89233 15.52357 15.19148 15.16899 15.15143 15.13171 15.11724 15.10591 15.09646 15.08816 15.08611 15.09298 15.09726 15.10143 15.10866 15.11607 15.12335 15.12626 15.13666 15.14998 15.1646 15.17849 15.19253 15.20342 15.21838 15.2293 15.23644 15.23951 15.24709 15.25127 15.25808 15.26645 15.27576 15.28439 15.30311 15.31894 15.33677 15.35644 15.37764 15.40275 15.41911 15.43425 15.45069 15.46433 15.47918 15.49077 15.50595 15.51076 15.51772 15.52013 15.51636 15.51633 15.51355 15.51647 15.51837 15.52329 15.52675 15.53181 15.54233 15.54837 15.55567 15.55591 15.55572 15.55375 15.55751 15.56039 15.56805 15.57448 15.57844 15.58053 15.58004 15.58067 15.58332 15.58647 15.59576 15.60404 15.61277 15.60292 15.57939 15.53613 15.47083 15.38222
0 0 0 0 0 0 0 0 0 0 0 0 0 0 0 0 0 0 0 19.44504 19.37764 19.27822 18.43853 17.33786 16.67718 16.31491 15.94297 16.25145 15.23427 15.1962 15.17246 15.15622 15.14324 15.1284 15.11491 15.10265 15.09832 15.09956 15.10314 15.10669 15.11188 15.12061 15.12632 15.13529 15.13764 15.14497 15.16016 15.17842 15.20346 15.22025 15.23735 15.25459 15.26933 15.27916 15.28925 15.29548 15.29974 15.30124 15.30829 15.31134 15.32043 15.32946 15.34715 15.36522 15.3858 15.40217 15.42714 15.44566 15.46238 15.48076 15.50156 15.52178 15.54609 15.56171 15.57514 15.58005 15.58377 15.5901 15.59025 15.59025 15.5898 15.59139 15.59354 15.592 15.59444 15.59516 15.59537 15.5962 15.59422 15.59534 15.59408 15.59524 15.59888 15.60638 15.61379 15.62065 15.62504 15.625 15.62394 15.62817 15.63205 15.63466 15.63644 15.6353 15.62263 15.59377 15.55068 15.4787 15.39125
0 0 0 0 0 0 0 0 0 0 0 0 0 0 0 0 0 0 18.94563 18.82579 18.46279 17.98344 17.37485 16.71552 16.36911 16.33892 15.96984 15.59971 15.25122 15.20785 15.18228 15.16577 15.15215 15.13896 15.12623 15.12051 15.11577 15.11235 15.11513 15.12053 15.12856 15.13508 15.14403 15.15184 15.15947 15.16897 15.18464 15.207 15.2333 15.25412 15.27523 15.29548 15.30996 15.32109 15.33233 15.34257 15.34655 15.35288 15.35405 15.36098 15.36677 15.37834 15.38568 15.40082 15.41814 15.43465 15.4544 15.46954 15.48447 15.50701 15.53156 15.55544 15.57865 15.60123 15.61918 15.62914 15.63391 15.64536 15.65188 15.65841 15.66326 15.66828 15.67032 15.67018 15.66535 15.66152 15.65632 15.64739 15.64354 15.63727 15.63248 15.63305 15.63167 15.63527 15.64292 15.65126 15.65718 15.65583 15.65815 15.65956 15.66908 15.67176 15.67279 15.66732 15.65214 15.62374 15.57453 15.50494 15.42353
0 0 0 0 0 0 0 0 0 0 0 0 0 0 0 0 0 19.3983 18.84816 18.21086 17.69101 17.06627 16.74103 16.7437 16.73995 16.35167 15.9739 15.29597 15.25164 15.21115 15.18793 15.17075 15.15696 15.14392 15.13498 15.13159 15.13166 15.13169 15.13269 15.13907 15.14629 15.15611 15.16357 15.17889 15.18849 15.20249 15.22251 15.24472 15.2736 15.29916 15.32047 15.34455 15.36358 15.3755 15.38583 15.39309 15.39003 15.39135 15.39436 15.40728 15.4166 15.4178 15.42405 15.43538 15.44921 15.46786 15.48601 15.50053 15.51119 15.53742 15.56328 15.59041 15.61738 15.63999 15.65757 15.6723 15.6845 15.69352 15.70261 15.71009 15.71989 15.72457 15.72472 15.72363 15.71623 15.71099 15.70295 15.69512 15.68985 15.68643 15.68116 15.67961 15.68018 15.67968 15.68416 15.69227 15.69507 15.69307 15.69151 15.69043 15.69477 15.69907 15.6999 15.69466 15.68113 15.65272 15.60258 15.53993 15.46962
0 0 0 0 0 0 0 0 0 0 0 0 0 0 0 0 18.91332 18.89524 18.02319 17.42857 17.10715 16.76903 16.75898 16.75639 16.73982 16.36063 15.97641 15.3003 15.24895 15.21486 15.19245 15.17552 15.16384 15.15522 15.15248 15.15358 15.15427 15.15668 15.16139 15.1667 15.17504 15.1832 15.19624 15.20978 15.22274 15.24208 15.26244 15.28762 15.31131 15.33839 15.36454 15.39172 15.4112 15.42392 15.43563 15.4462 15.44788 15.45185 15.45917 15.4659 15.46899 15.46897 15.47308 15.47366 15.48509 15.49045 15.50484 15.51865 15.53228 15.5557 15.5805 15.61156 15.64348 15.66898 15.69177 15.71356 15.73232 15.74464 15.76066 15.76844 15.77853 15.78334 15.78351 15.7804 15.77474 15.7615 15.74766 15.73461 15.72514 15.72021 15.71504 15.71211 15.71411 15.7162 15.72038 15.72573 15.72888 15.72834 15.72685 15.72647 15.72861 15.73241 15.73133 15.72998 15.71858 15.6929 15.64639 15.58471 15.51408
0 0 0 0 0 0 0 0 0 0 0 0 0 0 0 19.48017 18.74532 18.04759 17.44789 17.12854 16.78761 16.78355 16.76477 16.40316 16.38076 16.01491 15.32709 15.29098 15.24857 15.21767 15.19855 15.18375 15.17449 15.17064 15.17212 15.17794 15.18113 15.19065 15.19659 15.20454 15.21821 15.23227 15.24942 15.26374 15.28008 15.30168 15.32115 15.34437 15.36934 15.3957 15.41592 15.43946 15.45693 15.47099 15.48471 15.49791 15.51033 15.51856 15.52655 15.53237 15.53475 15.53594 15.54086 15.53441 15.5319 15.53387 15.53595 15.54199 15.55263 15.57296 15.59962 15.63037 15.66444 15.69264 15.71868 15.74456 15.76595 15.78516 15.7973 15.80579 15.81923 15.82632 15.83003 15.83081 15.82582 15.814 15.80104 15.78658 15.77462 15.76613 15.75949 15.75689 15.75677 15.75336 15.74978 15.75455 15.75222 15.75273 15.74913 15.74862 15.74963 15.7522 15.75703 15.75904 15.74912 15.72929 15.68842 15.63168 15.5661
0 0 0 0 0 0 0 0 0 0 0 0 0 0 18.81704 18.81805 18.09937 17.46225 17.13565 16.78517 16.77844 16.4121 16.38359 16.38437 16.0231 15.65622 15.31638 15.28219 15.25078 15.2274 15.21175 15.1999 15.19196 15.191 15.19615 15.20157 15.21184 15.22081 15.23068 15.24701 15.26585 15.28739 15.31274 15.33463 15.35643 15.37697 15.40288 15.42859 15.4545 15.47427 15.49021 15.50866 15.52156 15.53535 15.54966 15.56325 15.57519 15.58399 15.59247 15.60158 15.60614 15.60415 15.6117 15.60036 15.58398 15.57014 15.56424 15.566 15.57296 15.58611 15.61329 15.64544 15.68192 15.71998 15.7526 15.78274 15.80643 15.8226 15.8361 15.84566 15.85518 15.8621 15.86514 15.86337 15.86059 15.85409 15.84309 15.83035 15.81622 15.80843 15.80064 15.79744 15.79536 15.79075 15.78702 15.78685 15.78577 15.78079 15.77776 15.77314 15.77297 15.77759 15.78171 15.78048 15.77166 15.75158 15.71137 15.65964 15.59304
0 0 0 0 0 0 0 0 0 0 0 0 0 18.69017 18.86334 18.10661 17.46021 17.13363 16.77751 16.77035 16.40734 16.38878 16.3774 16.37921 16.00989 15.32437 15.30187 15.27963 15.25486 15.2374 15.22811 15.22327 15.22131 15.2233 15.23366 15.24387 15.25158 15.26496 15.2852 15.30527 15.33054 15.35905 15.38704 15.41137 15.43424 15.4567 15.48556 15.51248 15.5361 15.55069 15.56151 15.57757 15.59211 15.60397 15.61309 15.62016 15.62918 15.63841 0 0 0 15.60733 15.62367 15.67847 15.65913 15.6273 15.5995 15.58729 15.58923 15.5962 15.61891 15.65016 15.69178 15.73617 15.77231 15.80692 15.8313 15.85324 15.86862 15.87959 15.89211 15.89931 15.90512 15.90634 15.905 15.90271 15.89366 15.88164 15.86472 15.85261 15.84551 15.83834 15.82972 15.82128 15.81828 15.81433 15.80839 15.80393 15.8009 15.79695 15.79967 15.80555 15.81033 15.80972 15.80235 15.77977 15.74009 15.68493 15.61607
0 0 0 0 0 0 0 0 0 0 0 0 0 19.07618 18.13099 17.4717 17.11349 16.73606 16.74452 16.37389 16.37498 16.37609 16.37821 15.33965 15.32849 15.31237 15.29333 15.2771 15.26005 15.24829 15.24523 15.24672 15.25107 15.25884 15.26948 15.28408 15.29748 15.31985 15.34477 15.3772 15.41446 15.4476 15.46954 15.49791 15.5282 15.55724 15.57975 15.6005 15.6103 15.61818 15.62567 16.40602 15.64972 15.64898 15.65188 16.01904 16.7926 17.58646 0 0 0 0 0 16.09641 15.70996 15.67795 15.63676 15.61262 15.60108 15.60525 15.62703 15.66451 15.70549 15.74802 15.79087 15.82717 15.8539 15.87743 15.89402 15.90775 15.92031 15.93037 15.93698 15.93853 15.94262 15.94133 15.93852 15.92982 15.91939 15.91025 15.90409 15.89299 15.88241 15.86983 15.86194 15.85342 15.84419 15.83714 15.83083 15.82718 15.82904 15.83023 15.8343 15.83076 15.82497 15.80424 15.76421 15.70303 15.63
0 0 0 0 0 0 0 0 0 0 0 0 19.23938 18.4351 17.46929 17.09932 16.71726 16.35168 16.3652 16.37262 16.38537 16.39024 16.02807 15.34134 15.32905 15.30918 15.29779 15.28671 15.27184 15.26437 15.2671 15.274 15.28396 15.29287 15.30553 15.32029 15.34056 15.36639 15.4011 15.43084 15.4788 15.51899 15.54243 15.56984 15.59752 15.62095 15.6292 0 0 15.61805 0 17.29953 16.49391 16.06879 16.45691 16.43491 17.21338 17.63579 18.59945 16.42539 15.70464 0 0 0 17.33809 15.7006 15.65637 15.6324 15.61501 15.61898 15.6369 15.67152 15.71653 15.76246 15.80619 15.84484 15.87579 15.90297 15.92542 15.93945 15.95528 15.9643 15.9707 15.97261 15.97519 15.97274 15.97094 15.9675 15.96047 15.95123 15.94423 15.93496 15.92457 15.91344 15.90413 15.89318 15.88571 15.87868 15.87465 15.86842 15.86895 15.86723 15.86748 15.86641 15.85636 15.83067 15.79065 15.72525 15.6429
0 0 0 0 0 0 0 0 0 0 0 18.49075 18.47164 17.48424 17.10377 16.33055 16.35092 16.36703 16.38204 16.39843 16.41353 15.70652 15.36714 15.35174 15.33652 15.31933 15.31264 15.30662 15.30085 15.30003 15.30037 15.30839 15.31621 15.32905 15.34427 15.36696 15.39543 15.43281 15.47755 15.51517 15.56882 15.60648 15.62752 15.64589 16.42976 0 0 0 0 0 18.09278 18.88602 18.65524 18.07628 17.69767 17.26733 17.24085 16.05659 15.69288 15.70271 15.70653 15.70469 15.70382 17.73591 18.08856 15.70389 15.67322 15.6508 15.63602 15.6362 15.65294 15.68546 15.7274 15.77287 15.81908 15.85934 15.89409 15.9244 15.94758 15.96561 15.98234 15.99227 15.99472 15.99912 16.00417 16.00657 16.01142 16.01226 16.00933 15.99971 15.98936 15.9793 15.96737 15.95132 15.93781 15.92618 15.91605 15.91119 15.90852 15.90354 15.902 15.90124 15.90032 15.89884 15.88526 15.85972 15.81795 15.7535 15.66477
0 0 0 0 0 0 0 0 0 0 19.20454 18.486 17.48197 16.71606 16.35503 16.00761 16.02568 16.04932 16.06605 16.08311 16.09447 15.41008 15.39114 15.3744 15.35945 15.34444 15.33989 15.33676 15.33467 15.33266 15.33355 15.33789 15.34655 15.36026 15.38161 15.41146 15.44753 15.49766 15.55324 15.61224 15.66648 15.68871 16.08183 0 0 0 0 0 0 0 0 0 0 0 18.10781 17.73572 16.90892 15.71652 15.72609 15.73551 15.73709 15.73544 15.73361 15.73081 15.72715 15.7184 15.69609 15.67803 15.66599 15.6661 15.67936 15.70738 15.74558 15.78912 15.83346 15.87617 15.91379 15.94218 15.96653 15.98414 16.00069 16.00922 16.01242 16.01651 16.01949 16.02524 16.03481 16.04148 16.04375 16.04181 16.03188 16.02311 16.00982 15.99522 15.9798 15.96677 15.95825 15.95565 15.95344 15.94845 15.94746 15.94208 15.9406 15.9284 15.91068 15.8801 15.83848 15.77265 15.68329
0 0 0 0 0 0 0 0 0 0 18.73499 17.44976 16.70286 16.34986 15.67327 15.69749 15.38916 15.40753 15.43117 15.43894 15.43957 15.43755 15.42359 15.40955 15.39571 15.38374 15.37985 15.38039 15.37944 15.38057 15.38331 15.38611 15.39371 15.4029 15.42886 15.46374 15.50442 15.55113 15.60807 15.67164 16.92306 0 0 0 0 0 0 0 0 0 0 0 0 0 18.78598 17.39656 15.75742 15.76243 15.77102 15.78098 15.78169 15.78145 15.77675 15.76423 15.75164 15.73556 15.71458 15.69948 15.69179 15.69339 15.70744 15.73186 15.76504 15.80891 15.85337 15.89368 15.93021 15.95875 15.98432 16.00553 16.01926 16.03051 16.03419 16.03827 16.04506 16.04861 16.05759 16.06641 16.0683 16.0669 16.06079 16.05218 16.03811 16.02423 16.01056 16.00131 15.99579 15.99457 15.99542 15.99414 15.99205 15.98516 15.9808 15.96418 15.93997 15.90647 15.85742 15.79173 15.70727
0 0 0 0 0 0 0 0 0 18.80942 18.15789 17.06054 16.31361 15.64259 15.36294 15.3878 15.40257 15.4202 15.43748 15.44897 15.46036 15.46304 15.45562 15.44645 15.43423 15.4234 15.42171 15.42315 15.42485 15.42852 15.43471 15.44197 15.44676 15.4614 15.48634 15.52093 15.56189 15.60925 15.6614 16.49834 16.73101 0 0 0 0 0 0 0 0 0 0 0 0 18.07456 17.84245 16.58298 15.78241 15.79321 15.80529 15.8192 15.82452 15.82518 15.81916 15.80456 15.78332 15.76321 15.74418 15.72875 15.72544 15.72874 15.74338 15.76466 15.7954 15.83343 15.87246 15.90796 15.94238 15.97244 15.99896 16.02061 16.03676 16.04324 16.05119 16.05882 16.06504 16.07117 16.08445 16.09365 16.09923 16.09856 16.09319 16.08436 16.07228 16.05804 16.047 16.03987 16.03239 16.02916 16.02903 16.02635 16.02386 16.01666 16.00808 15.98643 15.95743 15.91776 15.8675 15.80252 15.72618
0 0 0 0 0 0 0 0 19.6385 18.53881 17.06499 16.27923 15.92232 15.2933 15.33174 15.36757 15.39072 15.40703 15.42341 15.44026 15.45434 15.4682 15.46975 15.46778 15.46096 15.45976 15.46223 15.46787 15.47599 15.48271 15.48506 15.49013 15.49374 15.51026 15.53365 15.56682 15.60561 15.64238 16.06357 16.50542 16.96919 17.81839 0 18.66198 19.24385 0 0 0 0 0 0 0 18.86719 17.85515 17.02202 15.78837 15.80917 15.82805 15.84796 15.8623 15.86499 15.8583 15.84629 15.82886 15.81011 15.79194 15.77673 15.76531 15.76018 15.76854 15.78261 15.80369 15.82915 15.86013 15.89661 15.93197 15.96174 15.9941 16.02256 16.04131 16.05493 16.0617 16.06832 16.07491 16.08138 16.09183 16.10253 16.11201 16.11749 16.11794 16.11704 16.11197 16.09981 16.09247 16.08385 16.0787 16.07481 16.07258 16.0698 16.06411 16.05904 16.04686 16.03007 16.00506 15.97033 15.93 15.87652 15.81294 15.73963
0 0 0 0 0 0 0 0 19.67562 18.58168 17.06429 16.26837 15.25097 15.27987 15.31732 15.35382 15.38053 15.39697 15.41529 15.43585 15.45858 15.47837 15.48382 15.48335 15.49172 15.49996 15.51651 15.53113 15.54259 15.55149 15.55701 15.55787 15.56055 15.57297 15.58879 15.61306 15.64577 15.67097 15.69866 16.11399 16.5439 16.99078 17.43745 17.87404 18.64823 0 0 0 0 0 0 18.27254 17.4485 17.4498 15.79374 15.81728 15.84856 15.87276 15.89065 15.90119 15.90044 15.88885 15.87523 15.85747 15.83728 15.8183 15.80574 15.7949 15.79425 15.80101 15.81155 15.83206 15.85655 15.88488 15.91976 15.95676 15.98796 16.02184 16.04848 16.06673 16.08238 16.08848 16.09434 16.10364 16.11166 16.12175 16.13105 16.13906 16.14314 16.14256 16.141 16.13611 16.12387 16.11791 16.11025 16.10441 16.10059 16.09859 16.09623 16.09169 16.08193 16.0723 16.0518 16.02015 15.98167 15.9356 15.87927 15.81722 15.74763
0 0 0 0 0 0 0 0 0 18.61222 17.07481 16.27577 15.24261 15.2665 15.30283 15.34576 15.37669 15.39575 15.41594 15.44048 15.46816 15.49069 15.49832 15.50504 15.51749 15.53458 15.56027 15.58358 15.60573 15.62655 15.63527 15.63512 15.633 15.6361 15.65076 15.67164 15.68997 15.7068 15.72759 15.73931 15.74419 15.75192 15.76163 16.16092 17.01652 17.85697 18.66506 18.98777 0 0 18.61881 17.437 16.58821 15.78838 15.8147 15.84809 15.88794 15.90977 15.92361 15.92749 15.92339 15.91609 15.90405 15.88965 15.87291 15.85788 15.84722 15.83851 15.83244 15.83981 15.85148 15.86558 15.8871 15.9151 15.9474 15.98131 16.01138 16.04367 16.07245 16.09031 16.10381 16.11093 16.11927 16.12913 16.13704 16.14764 16.15895 16.16879 16.17366 16.17595 16.17144 16.16481 16.15646 16.15115 16.14414 16.13687 16.13092 16.12628 16.11994 16.11469 16.10546 16.09038 16.06603 16.03095 15.98843 15.93861 15.87775 15.816 15.74528
0 0 0 0 0 0 0 0 0 19.54845 17.88743 16.69482 15.56255 15.26111 15.29278 15.33998 15.37084 15.39573 15.41861 15.44684 15.47432 15.49843 15.51316 15.5323 15.5559 15.58105 15.61498 15.64492 15.67271 15.6906 15.69781 15.7004 15.69151 15.69372 15.70335 15.71641 15.73018 15.74089 15.75171 15.75764 15.76168 15.75771 15.75407 15.75579 16.15216 16.57984 17.01521 17.4301 18.62698 17.44398 16.14875 15.76793 15.79134 15.81999 15.85443 15.88765 15.91876 15.93803 15.94622 15.94703 15.94405 15.9384 15.92647 15.91194 15.89812 15.89027 15.88215 15.87357 15.87071 15.87792 15.88864 15.90543 15.92267 15.94955 15.97799 16.01099 16.04149 16.07153 16.09593 16.11219 16.12565 16.13315 16.14071 16.15213 16.15977 16.17266 16.1802 16.18974 16.19635 16.1982 16.19488 16.19081 16.1811 16.17651 16.16924 16.16414 16.15945 16.1504 16.14237 16.13646 16.12269 16.10417 16.07643 16.03899 15.99532 15.94066 15.8772 15.8077 15.73599
0 0 0 0 0 0 0 0 0 19.66335 18.88745 17.12732 15.92499 15.2658 15.29202 15.33377 15.36415 15.3886 15.4155 15.44549 15.47422 15.50688 15.53437 15.56254 15.59635 15.63812 15.68477 15.72428 15.76467 15.77206 15.77452 15.77382 15.76034 15.75325 15.75265 15.76191 15.76869 15.77318 15.77692 15.77658 15.77553 15.7683 15.7594 15.75617 15.75689 15.76635 16.17793 0 17.46377 16.17633 15.79282 15.81616 15.84229 15.87301 15.90545 15.93357 15.95655 15.96556 15.97347 15.97181 15.96828 15.9634 15.95672 15.94667 15.93278 15.92157 15.91493 15.90756 15.90458 15.9081 15.91835 15.93217 15.95135 15.97484 16.00365 16.03548 16.06456 16.09077 16.11244 16.12787 16.14093 16.15029 16.15887 16.171 16.18195 16.19648 16.20537 16.21292 16.21871 16.21914 16.2186 16.2116 16.20543 16.19535 16.18947 16.18284 16.17925 16.17214 16.16362 16.15135 16.13591 16.11308 16.0823 16.0455 15.99682 15.938 15.87479 15.80405 15.72344
0 0 0 0 0 0 0 0 0 0 19.39089 17.9565 16.33899 15.61737 15.31885 15.33441 15.34431 15.37358 15.39994 15.43442 15.47208 15.5165 15.55315 15.58686 15.63158 15.6798 15.73656 15.78495 0 0 0 16.02599 15.80354 15.79769 15.79608 15.79948 15.80456 15.80467 15.79864 15.78758 15.77616 15.76768 15.76388 15.76453 15.77254 15.78405 15.7996 16.2128 15.81696 15.8257 15.84181 15.86565 15.89337 15.92049 15.9455 15.96466 15.97902 15.98464 15.98819 15.99056 15.99227 15.99079 15.98365 15.97559 15.96575 15.95718 15.94802 15.94307 15.94065 15.94289 15.95184 15.96423 15.9822 16.00371 16.03096 16.05888 16.08367 16.10611 16.12411 16.13811 16.14995 16.15839 16.17176 16.1851 16.19818 16.2125 16.22406 16.23266 16.23679 16.2388 16.23905 16.23363 16.22669 16.22094 16.21396 16.20541 16.19884 16.19221 16.18269 16.16666 16.14529 16.11986 16.08807 16.04277 15.99652 15.9371 15.87341 15.79906 15.70844
0 0 0 0 0 0 0 0 0 0 0 19.32507 18.01909 16.38352 15.6381 15.31635 15.31493 15.34556 15.38198 15.41846 15.47187 15.53192 15.57613 15.61653 15.65726 15.7169 16.14556 16.56896 0 0 0 16.73046 17.0177 15.82009 15.81835 15.82273 15.82727 15.82443 15.81912 15.80574 15.78704 15.77612 15.7735 15.77996 15.79177 15.8087 15.8231 15.84277 15.85542 15.87202 15.8945 15.92012 15.94475 15.9653 15.98202 15.99266 15.99882 16.00179 16.00261 16.00401 16.00651 16.00791 16.0051 15.9966 15.99047 15.98191 15.97331 15.97062 15.97057 15.97473 15.98284 15.99534 16.01142 16.03396 16.05858 16.07914 16.10386 16.1239 16.13881 16.14865 16.16329 16.17485 16.1869 16.20174 16.21641 16.23074 16.23915 16.24792 16.25373 16.25504 16.25684 16.2511 16.24469 16.23848 16.2326 16.22853 16.22139 16.21038 16.19658 16.17722 16.15677 16.12881 16.09442 16.05511 16.00478 15.94726 15.87861 15.80206 15.71255
0 0 0 0 0 0 0 0 0 0 0 0 19.54678 18.42279 16.37094 15.62192 15.28275 15.31475 15.35853 15.40899 15.47544 15.54561 15.5968 15.63527 15.67086 15.73647 16.5504 0 0 18.2267 18.31247 16.66509 15.85348 15.83587 15.83009 15.8326 15.83799 15.83843 15.8328 15.82415 15.80707 15.7948 15.79104 15.79972 15.81162 15.83149 15.85166 15.87028 15.88859 15.91094 15.93872 15.96186 15.98663 16.0056 16.01865 16.0274 16.03282 16.03145 16.03016 16.02757 16.02675 16.02669 16.02623 16.01982 16.01418 16.00862 16.00382 16.00112 16.00042 16.00561 16.01432 16.02381 16.03812 16.05685 16.07861 16.10204 16.12184 16.14024 16.15191 16.16312 16.1767 16.19153 16.20505 16.22006 16.23135 16.24449 16.25466 16.26272 16.26855 16.27105 16.27303 16.26861 16.26533 16.25903 16.25297 16.24865 16.23954 16.22664 16.20984 16.19016 16.16691 16.13616 16.10149 16.06375 16.01333 15.95578 15.88668 15.81087 15.73396
0 0 0 0 0 0 0 0 0 0 0 0 0 0 0 16.32395 15.56949 15.28669 15.34288 15.40781 15.48257 15.56158 15.61351 15.6441 15.67543 16.09967 16.16421 16.58842 17.00621 19.26895 18.31917 16.65368 15.85601 15.84483 15.83579 15.84011 15.8474 15.85265 15.85402 15.84568 15.83508 15.82633 15.82469 15.82824 15.83525 15.85343 15.87272 15.89634 15.9201 15.94612 15.97431 15.99766 16.01914 16.03573 16.05103 16.05746 16.06082 16.06095 16.06003 16.05597 16.05142 16.04833 16.04556 16.04027 16.03678 16.03323 16.03355 16.03508 16.03658 16.04279 16.05225 16.05943 16.07111 16.08824 16.10874 16.12794 16.14655 16.15847 16.16894 16.1788 16.19298 16.20881 16.22193 16.23501 16.24805 16.25985 16.26903 16.27748 16.28389 16.28468 16.28848 16.28974 16.28439 16.27871 16.27503 16.26913 16.26012 16.24604 16.22786 16.20666 16.18031 16.15019 16.11506 16.08004 16.03138 15.97865 15.91167 15.83606 15.76397
0 0 0 0 0 0 0 0 0 0 0 0 0 0 0 17.07603 16.28504 15.26296 15.3357 15.4148 15.4972 15.58635 15.63273 15.65769 15.69041 15.73502 16.54877 16.605 17.0301 0 18.36391 15.87249 15.86211 15.84932 15.85783 15.84923 15.86129 15.86947 15.87524 15.87219 15.86475 15.85894 15.85816 15.86068 15.864 15.87958 15.90271 15.92567 15.95058 15.9791 16.00937 16.03243 16.05183 16.06661 16.0763 16.08457 16.0903 16.08952 16.08409 16.07874 16.07424 16.06745 16.06486 16.05887 16.05979 16.05822 16.05942 16.06114 16.0646 16.07039 16.07658 16.08671 16.1007 16.11843 16.13832 16.15772 16.1724 16.18157 16.19236 16.20075 16.21554 16.22961 16.24387 16.25833 16.27102 16.28124 16.28695 16.2927 16.29592 16.29851 16.3018 16.30132 16.29856 16.29605 16.28962 16.28157 16.27215 16.25982 16.2433 16.22589 16.20238 16.1754 16.1431 16.11042 16.07053 16.01565 15.9586 15.89276 15.82303
0 0 0 0 0 0 0 0 0 0 0 0 0 18.36745 17.95215 17.06578 16.31592 15.26609 15.34015 15.42862 15.5228 15.60992 15.65497 15.68959 15.71535 15.75255 16.95954 17.42081 17.87852 17.77982 18.77524 16.25724 15.8624 15.8619 15.86399 15.87318 15.88194 15.89366 15.89724 15.89612 15.89031 15.88653 15.88421 15.88587 15.89157 15.90637 15.92832 15.95373 15.98209 16.01146 16.03826 16.05901 16.07592 16.09095 16.10169 16.10912 16.11081 16.11406 16.10771 16.10422 16.09672 16.09457 16.09 16.0876 16.08497 16.08227 16.08299 16.08535 16.08792 16.09225 16.10002 16.11173 16.1243 16.13986 16.16098 16.17897 16.19373 16.20477 16.21291 16.22229 16.238 16.25362 16.26567 16.27807 16.28853 16.29732 16.30365 16.30877 16.31077 16.31201 16.31466 16.31407 16.3095 16.30899 16.30325 16.29495 16.28725 16.27601 16.26239 16.24522 16.22305 16.19583 16.16491 16.1326 16.10007 16.05376 16.00507 15.94321 15.88367
0 0 0 0 0 0 0 0 0 0 0 0 17.58232 17.13304 17.12853 16.72112 15.99274 15.32559 15.39978 15.47778 15.55308 15.62867 15.67668 15.70808 15.73826 15.77197 16.60349 16.63788 17.46312 18.30204 16.6458 15.84755 15.86343 15.882 15.89173 15.90452 15.91241 15.92248 15.92439 15.91908 15.9138 15.91183 15.91175 15.91354 15.91771 15.93273 15.95443 15.97756 16.00311 16.02756 16.04937 16.0664 16.08278 16.09895 16.11347 16.12597 16.13377 16.13183 16.12624 16.12131 16.12024 16.11946 16.11591 16.10769 16.10646 16.10527 16.10454 16.10758 16.11264 16.12045 16.13221 16.1471 16.16186 16.17964 16.19629 16.21165 16.22231 16.23484 16.24226 16.24782 16.25988 16.27252 16.28368 16.29197 16.30119 16.3074 16.31255 16.31559 16.31545 16.31542 16.31913 16.32298 16.32102 16.31947 16.31403 16.30719 16.30327 16.29425 16.28424 16.26909 16.25048 16.22898 16.1991 16.16942 16.13522 16.09296 16.04404 15.99158 15.93753
0 0 0 0 0 0 0 0 19.42873 18.82265 17.61265 16.769 16.75664 16.75576 16.37901 16.41426 16.08418 15.41808 15.47646 15.54045 15.60716 15.67195 15.71464 15.74882 15.78014 15.80876 15.83657 15.84408 15.85117 15.8535 15.85282 15.8671 15.88999 15.90507 15.91888 15.92883 15.93594 15.9421 15.94434 15.93643 15.9315 15.92955 15.9296 15.93139 15.93943 15.95676 15.9768 15.99363 16.0163 16.03805 16.05968 16.07662 16.09223 16.10838 16.12231 16.13814 16.14881 16.14873 16.14311 16.14257 16.14066 16.13823 16.13462 16.12646 16.1217 16.11992 16.11828 16.12508 16.13695 16.15136 16.16522 16.18669 16.20466 16.21816 16.23205 16.24491 16.25638 16.26773 16.27277 16.27752 16.28548 16.29334 16.30071 16.30852 16.31347 16.31768 16.31702 16.31607 16.31719 16.3203 16.32295 16.32809 16.32649 16.3254 16.32361 16.31909 16.31286 16.30671 16.30039 16.28917 16.27645 16.25738 16.23046 16.20591 16.17182 16.13613 16.09058 16.04469 15.99334
0 0 0 0 0 0 0 18.40792 18.49822 16.77912 16.36561 16.3579 16.3684 16.40059 16.44811 16.15036 15.46012 15.50489 15.55589 15.6105 15.67072 15.72254 15.76356 15.79545 15.82185 15.84642 15.86704 15.87648 15.88366 15.89178 15.89892 15.91309 15.9314 15.93696 15.94416 15.95071 15.95384 15.95597 15.9547 15.9513 15.94545 15.94408 15.94162 15.94431 15.95433 15.97022 15.9852 16.00462 16.02518 16.04596 16.06532 16.07685 16.08933 16.10743 16.12478 16.14276 16.1575 16.16279 16.1642 16.16267 16.1619 16.15746 16.15163 16.14624 16.1416 16.14116 16.14731 16.15354 16.16723 16.18257 16.20042 16.221 16.23818 16.25117 16.26306 16.27291 16.28191 16.29284 16.29432 16.29468 16.30385 16.31014 16.31606 16.31835 16.3235 16.32257 16.32069 16.32049 16.31782 16.32218 16.32638 16.32988 16.33128 16.33017 16.33156 16.33023 16.32633 16.32169 16.31742 16.30869 16.29953 16.28158 16.2585 16.23342 16.2036 16.16863 16.13171 16.08672 16.03534
0 0 0 0 0 0 18.92366 18.91712 16.7876 16.33233 16.30602 16.32225 16.38622 16.09083 15.81701 15.53794 15.53959 15.57953 15.62278 15.67032 15.71814 15.75912 15.79984 15.82599 15.85048 15.87772 15.89394 15.90894 15.92452 15.93551 15.94424 15.95595 15.96567 15.96975 15.96943 15.96956 15.97021 15.96966 15.96836 15.96635 15.96281 15.95977 15.95855 15.96149 15.96715 15.97693 15.99048 16.00615 16.02331 16.04421 16.06261 16.07621 16.09078 16.1059 16.12329 16.14183 16.15667 16.16473 16.16752 16.17272 16.17202 16.16874 16.16484 16.1634 16.16828 16.17752 16.18894 16.19835 16.20902 16.22309 16.23905 16.25821 16.27321 16.28525 16.29526 16.30355 16.31354 16.31819 16.31849 16.31619 16.31981 16.32365 16.32693 16.32722 16.32532 16.32421 16.32266 16.32332 16.32052 16.3246 16.32953 16.33478 16.33581 16.34084 16.34326 16.34427 16.34363 16.34161 16.33512 16.3318 16.3272 16.31174 16.29196 16.27131 16.24215 16.21143 16.17861 16.1369 16.09008
0 0 0 0 0 0 19.75497 18.0989 16.7357 16.28256 15.90542 15.97227 15.71379 15.47683 15.55848 15.61803 15.63405 15.66191 15.69546 15.72871 15.76246 15.79454 15.8231 15.84846 15.87737 15.90113 15.91707 15.93767 15.95069 15.96214 15.97153 15.97947 15.9838 15.98721 15.98799 15.98188 15.97926 15.97659 15.97798 15.97291 15.9725 15.97239 15.97409 15.97604 15.97736 15.98549 15.99627 16.00485 16.01682 16.03372 16.05347 16.07088 16.08934 16.10694 16.12576 16.13911 16.1545 16.16001 16.16677 16.16986 16.17309 16.17814 16.1806 16.18857 16.19783 16.20959 16.22147 16.23431 16.24886 16.26395 16.27598 16.29106 16.30471 16.3152 16.32568 16.33251 16.33917 16.3417 16.33861 16.33205 16.33498 16.33336 16.33409 16.33067 16.32936 16.32429 16.3236 16.32476 16.32557 16.32881 16.33345 16.33862 16.34054 16.34836 16.352 16.3542 16.3525 16.35412 16.3515 16.34983 16.34586 16.33449 16.31747 16.30062 16.28083 16.2521 16.22567 16.1928 16.15182
0 0 0 0 0 19.85552 19.42838 18.07231 16.72394 16.29976 15.62936 15.36822 15.45475 15.53544 15.60016 15.6644 15.70209 15.72834 15.75587 15.7836 15.81237 15.83375 15.85676 15.88148 15.91006 15.93129 15.94316 15.9589 15.96902 15.98043 15.98655 15.99307 15.99504 15.99298 15.98883 15.98309 15.97654 15.97274 15.97299 15.96773 15.96626 15.96814 15.97338 15.97004 15.97166 15.97814 15.98326 15.99062 15.99999 16.01704 16.03354 16.05327 16.07475 16.09664 16.11513 16.13153 16.14692 16.15151 16.15682 16.1647 16.17421 16.18595 16.19656 16.21031 16.22323 16.23861 16.25378 16.26573 16.28017 16.29456 16.30558 16.3196 16.33094 16.3387 16.34714 16.3505 16.3546 16.35577 16.34958 16.34328 16.34142 16.34064 16.34049 16.33597 16.33223 16.32891 16.32933 16.3317 16.33488 16.33829 16.34184 16.34776 16.35147 16.35804 16.36409 16.36484 16.36688 16.36742 16.36802 16.36631 16.36641 16.35964 16.34418 16.33129 16.31292 16.2906 16.26827 16.2402 16.20345
0 0 0 0 18.93169 18.6116 16.80989 16.35989 15.96686 15.30699 15.36557 15.4452 15.51879 15.57729 15.63612 15.69172 15.73039 15.75888 15.78916 15.81639 15.84211 15.86405 15.89143 15.91428 15.93352 15.9509 15.96363 15.96906 15.97583 15.97854 15.9866 15.9887 15.98853 15.98682 15.98102 15.97655 15.96833 15.96221 15.96295 15.96029 15.95932 15.95724 15.95845 15.95981 15.95731 15.95807 15.96374 15.969 15.97864 15.99244 16.00778 16.028 16.05027 16.0775 16.09949 16.12036 16.13278 16.14121 16.15132 16.16275 16.17703 16.19203 16.20926 16.22646 16.24458 16.26206 16.27566 16.29233 16.30846 16.32218 16.33322 16.34662 16.35559 16.3596 16.36531 16.36955 16.37027 16.36651 16.3576 16.34944 16.3489 16.34645 16.34742 16.34291 16.33626 16.33476 16.33596 16.33731 16.34427 16.35058 16.35502 16.35761 16.36324 16.37038 16.37453 16.37862 16.38309 16.38685 16.38909 16.39518 16.39604 16.39005 16.38458 16.37709 16.36107 16.34142 16.32461 16.30268 16.27333
0 0 0 0 19.97178 17.28785 15.35658 15.33526 15.33361 15.38331 15.44112 15.51325 15.57308 15.62505 15.6724 15.71956 15.75294 15.78045 15.81226 15.84337 15.86895 15.89435 15.91517 15.92881 15.94284 15.95307 15.96172 15.96835 15.97339 15.97596 15.97273 15.97664 15.97523 15.97373 15.97038 15.96314 15.96054 15.95703 15.95268 15.94944 15.94674 15.9453 15.94519 15.94195 15.93993 15.94088 15.94313 15.94935 15.95794 15.96621 15.97903 16.00076 16.02791 16.05179 16.07562 16.10337 16.1226 16.13395 16.14672 16.16 16.17397 16.19195 16.2129 16.23335 16.25292 16.27403 16.29149 16.30769 16.32525 16.34348 16.35715 16.36712 16.37233 16.37701 16.37878 16.37737 16.37812 16.36984 16.36224 16.35673 16.35675 16.35595 16.35456 16.35205 16.34911 16.34602 16.34545 16.35013 16.35584 16.36309 16.36348 16.36851 16.37055 16.37512 16.38075 16.38767 16.39237 16.39861 16.40755 16.41338 16.41801 16.41844 16.41604 16.41516 16.41169 16.401 16.38788 16.36503 16.33831
0 0 0 19.11296 18.70894 16.84635 15.33524 15.33703 15.38937 15.44986 15.50772 15.57699 15.62374 15.67216 15.71727 15.75222 15.77988 15.80828 15.83974 15.86959 15.89598 15.91939 15.93114 15.93529 15.93958 15.9455 15.95105 15.95065 15.95459 15.95561 15.95413 15.95807 15.96211 15.96407 15.96272 15.95914 15.95282 15.94523 15.94044 15.9373 15.93402 15.92928 15.92703 15.92409 15.922 15.92101 15.92582 15.93253 15.93624 15.94225 15.95574 15.97755 16.00557 16.03114 16.05979 16.08411 16.10847 16.12568 16.14027 16.1565 16.17026 16.19297 16.21687 16.23631 16.25404 16.27175 16.2945 16.31677 16.33897 16.35518 16.36721 16.37741 16.38363 16.38356 16.38291 16.3797 16.37949 16.3724 16.36572 16.36386 16.36026 16.36005 16.35905 16.36158 16.35986 16.36011 16.36258 16.36585 16.37136 16.37625 16.38603 16.39106 16.393 16.3978 16.40252 16.40912 16.41196 16.41746 16.42896 16.43762 16.44431 16.44716 16.44383 16.44668 16.44499 16.44023 16.43165 16.4147 16.38689
0 0 0 19.09005 18.68107 16.81791 16.00639 15.35734 15.4285 15.50904 15.56882 15.62887 15.66714 15.70981 15.7426 15.76985 15.79884 15.82968 15.86072 15.8868 15.90856 15.92524 15.93006 15.92741 15.92728 15.92608 15.92494 15.92339 15.9308 15.93082 15.93313 15.94231 15.95147 15.95439 15.95143 15.94766 15.93704 15.93301 15.92578 15.91775 15.91207 15.90918 15.90245 15.89956 15.90231 15.9046 15.90814 15.91405 15.92127 15.92558 15.93455 15.95885 15.98714 16.01403 16.04179 16.07044 16.09731 16.11895 16.13505 16.15267 16.17127 16.19639 16.21568 16.23785 16.25585 16.27496 16.29533 16.32076 16.34255 16.36002 16.37399 16.38523 16.38739 16.38644 16.38243 16.38239 16.37953 16.37354 16.37087 16.36693 16.36354 16.36037 16.36299 16.3677 16.36964 16.37194 16.37648 16.38007 16.38529 16.39345 16.40577 16.414 16.41983 16.42409 16.43087 16.43507 16.44255 16.45134 16.46244 16.46896 16.47639 16.48232 16.48767 16.49068 16.4941 16.49084 16.48123 16.46484 16.44346
0 0 0 19.84458 18.93901 16.79336 15.62847 15.35068 15.44041 15.53717 15.61566 15.65972 15.69484 15.73231 15.76422 15.78287 15.81335 15.8424 15.86458 15.88597 15.90469 15.9213 15.92088 15.91746 15.91948 15.91185 15.90633 15.90322 15.9046 15.9125 15.91634 15.92923 15.93925 15.94274 15.94251 15.93595 15.9279 15.92241 15.91307 15.90218 15.89282 15.88403 15.87911 15.87782 15.87915 15.88222 15.88649 15.89439 15.90056 15.90845 15.9206 15.94778 15.97508 16.00419 16.03222 16.05904 16.09095 16.11232 16.12817 16.15077 16.17347 16.19797 16.2221 16.24316 16.26125 16.27938 16.29752 16.32402 16.34476 16.36391 16.37963 16.39056 16.39111 16.38914 16.38641 16.384 16.3817 16.37978 16.37943 16.37347 16.3678 16.37005 16.37103 16.37853 16.38439 16.38774 16.39343 16.40326 16.4108 16.41878 16.43154 16.43991 16.44519 16.45285 16.45846 16.46349 16.47269 16.48392 16.49515 16.50745 16.51588 16.52305 16.52866 16.53696 16.53747 16.53174 16.52605 16.5138 16.4948
0 0 0 19.89169 17.64002 15.96944 15.32112 15.39258 15.48329 15.57186 15.63731 15.67975 15.71571 15.75466 15.78436 15.81004 15.82946 15.84725 15.86377 15.87604 15.88928 15.89838 15.89494 15.88955 15.88836 15.88269 15.88178 15.88124 15.88393 15.88948 15.89872 15.91167 15.9244 15.92958 15.93377 15.92788 15.92036 15.91257 15.90421 15.89492 15.88352 15.87298 15.8704 15.86901 15.87021 15.87202 15.87854 15.88805 15.89536 15.90609 15.92217 15.95178 15.97846 16.00587 16.03177 16.06199 16.0944 16.11798 16.13894 16.15802 16.18009 16.20576 16.23133 16.25264 16.2736 16.29091 16.3073 16.32865 16.34996 16.3706 16.38666 16.39578 16.39787 16.39455 16.39367 16.38797 16.38584 16.38454 16.38671 16.38229 16.38268 16.38667 16.38978 16.39643 16.40569 16.41643 16.42538 16.43557 16.44334 16.45635 16.46991 16.48323 16.49075 16.49455 16.50252 16.51066 16.52067 16.53541 16.54736 16.5602 16.57057 16.57441 16.5771 16.57948 16.57825 16.5754 16.56525 16.55435 16.53489
15.33373 15.33268 16.70512 17.6274 15.59187 15.28817 15.35626 15.44046 15.52712 15.60583 15.66318 15.70343 15.74208 15.77185 15.79634 15.81688 15.83666 15.84929 15.85746 15.86148 15.86497 15.86561 15.86236 15.85658 15.85667 15.85422 15.85909 15.86292 15.86942 15.88016 15.89184 15.90253 15.91399 15.92016 15.92017 15.91937 15.91371 15.90962 15.90296 15.89037 15.88189 15.87397 15.86716 15.86587 15.86881 15.8728 15.8778 15.88628 15.89778 15.91074 15.9301 15.95882 15.98626 16.01358 16.04005 16.06953 16.10107 16.12727 16.14834 16.17103 16.19287 16.21818 16.24793 16.27063 16.28796 16.30486 16.31887 16.33998 16.36139 16.37884 16.39292 16.40153 16.40676 16.40491 16.4022 16.39757 16.39439 16.39343 16.38975 16.38982 16.38972 16.39734 16.40704 16.41559 16.42491 16.43594 16.44671 16.45921 16.47276 16.48858 16.50436 16.5212 16.53077 16.53955 16.55118 16.56117 16.57762 16.59086 16.60193 16.61549 16.62116 16.627 16.63406 16.63305 16.62823 16.6231 16.61098 16.59683 16.58107
15.34031 15.32715 15.33058 15.34876 15.33358 15.37381 15.44045 15.51924 15.59284 15.65576 15.70003 15.73505 15.76645 15.79027 15.8102 15.82578 15.83768 15.84407 15.84119 15.83843 15.83573 15.83467 15.82916 15.82908 15.82559 15.83071 15.83464 15.84211 15.85279 15.86628 15.8793 15.88996 15.90381 15.90958 15.9103 15.91254 15.90937 15.9032 15.89885 15.89021 15.88457 15.88008 15.87554 15.87664 15.87615 15.88009 15.88316 15.89132 15.90347 15.92248 15.94281 15.97366 16.00407 16.02995 16.0561 16.0839 16.1131 16.13903 16.16372 16.18861 16.20908 16.23285 16.26094 16.28136 16.29954 16.31949 16.3369 16.35389 16.37116 16.38739 16.39872 16.40746 16.41318 16.41705 16.41341 16.40774 16.40333 16.40169 16.39783 16.39588 16.4017 16.41105 16.42274 16.43422 16.44328 16.45575 16.47286 16.48934 16.50981 16.52779 16.54346 16.56003 16.57139 16.58471 16.59158 16.60425 16.61633 16.62835 16.64247 16.65502 16.66572 16.67449 16.68106 16.68217 16.68008 16.67145 16.66141 16.646 16.62999
15.41619 15.42756 15.44401 15.46259 15.46833 15.5054 15.5565 15.60728 15.65293 15.69831 15.73448 15.76093 15.78111 15.80259 15.81558 15.82448 15.83497 15.83643 15.82752 15.81865 15.80701 15.80006 15.79622 15.79925 15.80363 15.8106 15.81872 15.82912 15.84142 15.85216 15.86991 15.87967 15.88925 15.89908 15.9043 15.90559 15.90446 15.90047 15.89482 15.89256 15.8898 15.88682 15.88605 15.88804 15.88933 15.89063 15.89746 15.904 15.91849 15.93745 15.96312 15.99682 16.02703 16.05208 16.07836 16.10584 16.13753 16.16263 16.1886 16.21045 16.23042 16.25035 16.27189 16.29334 16.31511 16.3331 16.35314 16.36918 16.38448 16.39742 16.40743 16.4184 16.42292 16.42544 16.42619 16.42042 16.41673 16.41436 16.41248 16.41284 16.42089 16.4296 16.44113 16.45571 16.47389 16.4907 16.5133 16.53633 16.56126 16.58292 16.60058 16.61574 16.62368 16.63107 16.64195 16.65269 16.66731 16.68121 16.69554 16.71196 16.72156 16.73101 16.73692 16.73417 16.72876 16.72007 16.7084 16.69322 16.6794
15.49092 15.50788 15.52939 15.56053 15.5795 15.60645 15.63709 15.66362 15.69173 15.71967 15.74221 15.76149 15.77601 15.79038 15.80507 15.81932 15.82338 15.82247 15.81458 15.80276 15.79063 15.7767 15.7788 15.78011 15.78817 15.79722 15.80377 15.81936 15.83164 15.84549 15.85858 15.87192 15.88564 15.89924 15.90588 15.90825 15.91205 15.90662 15.90036 15.89567 15.89386 15.89581 15.89584 15.89678 15.90314 15.90899 15.915 15.92408 15.94123 15.96415 15.99283 16.02154 16.05388 16.08479 16.11159 16.13949 16.16833 16.19201 16.21468 16.24207 16.25785 16.28052 16.29903 16.31546 16.33531 16.35437 16.37227 16.3906 16.40157 16.4154 16.4226 16.42946 16.43445 16.44189 16.4401 16.43747 16.43618 16.43284 16.42996 16.4332 16.44268 16.45219 16.46731 16.48401 16.50383 16.52639 16.55447 16.58428 16.61369 16.63998 16.65991 16.67758 16.68863 16.69885 16.70503 16.72026 16.73575 16.75477 16.77455 16.79482 16.81051 16.81696 16.81487 16.8078 16.79826 16.78846 16.77749 16.76367 16.75128
15.5821 15.59999 15.61266 15.62103 15.63272 15.64681 15.66114 15.67186 15.69455 15.70903 15.72617 15.7385 15.748 15.76694 15.77912 15.80189 15.80576 15.8066 15.79818 15.79358 15.78175 15.77148 15.77443 15.77983 15.79187 15.79775 15.80918 15.82539 15.83861 15.84959 15.86587 15.8849 15.89789 15.91131 15.91946 15.92562 15.93108 15.9344 15.93464 15.9299 15.92312 15.92339 15.92311 15.92744 15.93655 15.94391 15.95854 15.96893 15.98484 16.00531 16.03001 16.06015 16.0919 16.12344 16.1494 16.1758 16.20413 16.22501 16.25275 16.27273 16.29242 16.31603 16.33297 16.34976 16.36837 16.38741 16.40317 16.41393 16.42521 16.43453 16.43753 16.44525 16.4535 16.45836 16.46017 16.46046 16.45748 16.45533 16.45605 16.45765 16.46593 16.47909 16.4988 16.52449 16.55296 16.5783 16.60774 16.63821 16.67583 16.70509 16.72549 16.74043 16.74781 16.75526 16.76623 16.77955 16.79381 16.80856 16.83175 16.85911 16.88814 16.90025 16.89766 16.88348 16.86878 16.85527 16.84737 16.8374 16.83109
15.62968 15.63635 15.63606 15.63317 15.63345 15.63676 15.64234 15.65308 15.66643 15.68646 15.70045 15.7177 15.72965 15.74331 15.76367 15.78186 15.79399 15.79676 15.78551 15.78101 15.7781 15.76993 15.77123 15.78203 15.7903 15.80049 15.81488 15.83345 15.85124 15.86676 15.88524 15.90449 15.91779 15.92947 15.93911 15.94996 15.96033 15.96631 15.96908 15.96751 15.9612 15.9619 15.96226 15.97083 15.99168 16.00556 16.0219 16.03907 16.05809 16.07633 16.09872 16.12829 16.15589 16.18551 16.21283 16.24004 16.26857 16.29605 16.31443 16.3315 16.35517 16.37044 16.38805 16.40045 16.41875 16.43224 16.44137 16.45284 16.45586 16.46174 16.4665 16.47025 16.47626 16.4827 16.4816 16.4818 16.47989 16.48004 16.48436 16.49336 16.51277 16.53144 16.5528 16.58009 16.61333 16.64274 16.67634 16.71672 16.75422 16.78297 16.80189 16.81707 16.82945 16.83373 16.83993 16.84757 16.85806 16.87413 16.89832 16.9273 16.95002 16.95985 16.95694 16.94609 16.93707 16.92504 16.91441 16.9052 16.89499
15.62868 15.62388 15.61893 15.61231 15.60786 15.61207 15.61406 15.6206 15.63545 15.65211 15.6665 15.6841 15.6986 15.71983 15.74411 15.77017 15.78264 15.79209 15.78374 15.77835 15.77776 15.78176 15.78955 15.79457 15.80574 15.81826 15.83469 15.85326 15.87565 15.89922 15.91718 15.93376 15.9489 15.96166 15.97472 15.98646 15.99682 16.00363 16.00931 16.01006 16.01118 16.01241 16.02139 16.03808 16.05699 16.07693 16.098 16.11665 16.13764 16.15413 16.17778 16.20157 16.23347 16.26349 16.29013 16.31642 16.33948 16.36644 16.38865 16.40826 16.42546 16.44137 16.45951 16.4738 16.48707 16.49501 16.50392 16.50853 16.51326 16.51518 16.51735 16.52323 16.52539 16.52465 16.52161 16.5176 16.51813 16.52169 16.53241 16.55075 16.56936 16.58956 16.61231 16.6371 16.6668 16.70062 16.73528 16.76782 0 0 16.84668 16.88647 16.89278 16.90049 16.90627 16.91156 16.92039 16.93612 16.94188 0 0 16.96844 17.00693 17.00578 16.99751 16.99106 16.9905 16.98241 16.96821
