ncols        109
nrows        82
xllcorner    -1.041666666667
yllcorner    37.041665395101
cellsize     0.083333333333
NODATA_value -9999
0.0 0 0 0 0 0 0 0 0 0 0 0 0 0 0 0 0 0 0 0 0 0 0 0 0 0 0 0 0 0 0 0 0 0 0 0 0 0 0 0 0 0 0 0 0 0 0 0 0 0 0 0 0 0 0 0 0 0 0 0 0 0 0 0 0 0 0 0 0 0 0 0 0 0 0 0 0 0 0 0 0 0 0 0 0 0 0 0 0 0 0 0 0 0 0 0 0 0 0 0 0 0 0 0 0 19.77066 18.46064 16.94889 16.94277
0 0 0 0 0 0 0 0 0 0 0 0 0 0 0 0 0 0 0 0 0 0 0 0 0 0 0 0 0 0 0 0 0 0 0 0 0 0 0 0 0 0 0 0 0 0 0 0 0 0 0 0 0 0 0 0 0 0 0 0 0 0 0 0 0 0 0 0 0 0 0 0 0 0 0 0 0 0 0 0 0 0 0 0 0 0 0 0 0 0 0 0 0 0 0 0 0 0 0 0 0 17.12704 17.14568 16.91939 16.9271 16.93149 16.92722 16.91438 16.87599
0 0 0 0 0 0 0 0 0 0 0 0 0 0 0 0 0 0 0 0 0 0 0 0 0 0 0 0 0 0 0 0 0 0 0 0 0 0 0 0 0 0 0 0 0 0 0 0 0 0 0 0 0 0 0 0 0 0 0 0 0 0 0 0 0 0 0 0 0 0 0 0 0 0 0 0 0 0 0 0 0 0 0 0 0 0 0 0 0 0 0 0 0 0 0 0 0 0 16.91646 16.91315 16.90598 16.89341 16.8721 16.85922 16.84474 16.81736 16.78305 16.7534 16.72355
0 0 0 0 0 0 0 0 0 0 0 0 0 0 0 0 0 0 0 0 0 0 0 0 0 0 0 0 0 0 0 0 0 0 0 0 0 0 0 0 0 0 0 0 0 0 0 0 0 0 0 0 0 0 0 0 0 0 0 0 0 0 0 0 0 0 0 0 0 0 0 0 0 0 0 0 0 0 0 0 0 0 0 0 0 0 0 0 0 0 0 0 0 0 0 0 0 18.72097 16.89189 16.87078 16.83454 16.79424 16.75886 16.73261 16.7049 16.68062 16.65206 16.62769 16.60408
0 0 0 0 0 0 0 0 0 0 0 0 0 0 0 0 0 0 0 0 0 0 0 0 0 0 0 0 0 0 0 0 0 0 0 0 0 0 0 0 0 0 0 0 0 0 0 0 0 0 0 0 0 0 0 0 0 0 18.45424 18.08851 17.79604 17.91765 0 0 0 0 0 0 0 0 0 0 0 0 0 0 0 0 0 0 0 0 0 0 0 0 0 0 0 0 0 0 0 0 0 17.4019 16.91997 16.8959 16.84493 16.80101 16.74818 16.69345 16.64247 16.59393 16.55909 16.52562 16.50302 16.48983 16.47291
0 0 0 0 0 0 0 0 0 0 0 0 0 0 0 0 0 0 0 0 0 0 0 0 0 0 0 0 0 0 0 0 0 0 0 0 0 0 0 0 0 0 0 0 0 0 0 0 0 0 0 0 0 0 0 0 17.97423 18.00928 17.73643 17.51279 17.4214 17.41484 17.5144 17.73169 17.92777 18.03738 18.03099 0 0 0 0 18.35505 0 0 0 0 0 0 0 0 0 0 0 0 0 0 0 0 0 0 0 0 0 18.02627 16.88603 16.90664 16.87367 16.81421 16.7501 16.68031 16.61685 16.55594 16.51175 16.47308 16.44707 16.42521 16.41627 16.40132 16.39531
0 0 0 0 0 0 0 0 0 0 0 0 0 0 0 0 0 0 0 0 0 0 0 0 0 0 0 0 0 0 0 0 0 0 0 0 0 0 0 0 0 0 0 0 0 0 0 0 0 0 0 0 0 0 0 18.11338 17.7253 17.40711 17.20338 16.91975 16.98617 17.01658 17.20633 17.34346 17.4808 17.58595 17.68017 17.87504 18.08361 18.04604 17.9911 17.73341 17.49682 17.55276 17.72762 17.44795 17.4649 0 0 0 0 0 0 0 0 0 0 0 0 0 0 0 17.27807 16.90904 16.88811 16.85489 16.79996 16.72861 16.6567 16.58759 16.51485 16.45116 16.40559 16.35797 16.34737 16.34404 16.34349 16.34575 16.35176
0 0 0 0 0 0 0 0 0 0 0 0 0 0 0 0 0 0 0 0 0 0 0 0 0 0 0 0 0 0 0 0 0 0 0 0 0 0 0 0 0 0 0 0 0 0 0 0 0 0 0 17.73647 17.91119 18.07157 17.83593 17.42747 17.18523 16.89761 16.77728 16.85531 16.90907 16.93436 16.94109 17.13097 17.11669 17.29972 17.27176 17.26865 17.29501 17.18007 17.06305 17.09117 16.9271 17.12901 17.16451 17.3729 0 0 0 0 0 0 0 0 0 0 0 0 0 0 0 0 16.89865 16.89889 16.84075 16.77344 16.69624 16.61542 16.53913 16.46896 16.41281 16.36701 16.33773 16.31958 16.31461 16.31829 16.32334 16.33183 16.34227
0 0 0 0 0 0 0 0 0 0 0 0 0 0 0 0 0 0 0 0 0 0 0 0 0 0 0 0 0 0 0 0 0 0 0 0 0 0 0 0 0 0 0 0 0 0 0 0 0 0 17.90159 17.76367 17.53454 17.50144 17.40137 17.09465 16.74911 16.82385 16.67508 16.7366 16.77935 16.8068 16.81872 17.02286 17.00792 17.20919 17.19239 17.19461 17.03052 16.88323 16.9183 16.95378 16.79366 16.99944 17.0143 17.25079 17.27365 17.09362 17.11719 17.53348 18.03322 18.86319 0 0 0 0 0 0 0 17.93446 17.33648 16.91262 16.912 16.86068 16.76387 16.68081 16.60406 16.52811 16.45541 16.39373 16.35273 16.32493 16.31351 16.31069 16.3148 16.32369 16.33281 16.34272 16.35346
0 0 0 0 0 0 0 0 0 0 0 0 0 0 0 0 0 0 0 0 0 0 0 0 0 0 0 0 0 0 0 0 0 0 0 0 0 0 0 0 0 0 0 0 0 0 0 0 0 18.73297 17.59672 17.51298 17.46675 17.15869 16.98792 16.81593 16.85926 16.69525 16.74244 16.79359 16.83296 16.85881 16.87859 17.09672 17.09979 17.10004 17.099 17.09972 17.10023 16.93141 16.95556 16.79645 16.62687 16.63823 16.64915 16.67886 16.70372 16.73271 16.76655 16.7804 17.1934 17.78395 0 17.60767 18.20342 18.76968 19.08068 18.81544 18.29768 16.898 16.91709 16.91947 16.86843 16.7779 16.66586 16.58463 16.50248 16.44685 16.38995 16.35116 16.33341 16.32699 16.32214 16.32898 16.33618 16.34638 16.35666 16.37055 16.3836
0 0 0 0 0 0 0 0 0 0 0 0 0 0 0 0 0 0 0 0 0 0 0 0 0 0 0 0 0 0 0 0 0 0 0 0 0 0 0 0 0 0 0 0 0 0 0 0 0 18.41171 17.54578 17.278 16.96481 16.82271 16.87844 16.70723 16.74903 16.79298 16.83692 16.87366 16.91217 16.93306 16.94347 16.94545 16.94627 16.77492 16.61081 16.76999 16.76685 16.76835 16.77569 16.60389 16.60308 16.60652 16.62411 16.63914 16.66602 16.69165 16.71824 16.74183 16.76607 16.79357 16.81577 16.83905 16.87128 16.88487 17.95258 18.16425 17.76048 16.86648 16.85211 16.80445 16.74218 16.6582 16.58594 16.51822 16.45506 16.40935 16.3653 16.34466 16.34301 16.3478 16.35753 16.3642 16.3731 16.38182 16.39286 16.40327 16.41587
0 0 0 0 0 0 0 0 0 0 0 0 0 0 0 0 0 0 0 0 0 0 0 0 0 0 0 0 0 0 0 0 0 0 0 0 0 0 0 0 0 0 0 0 0 0 0 0 0 18.13435 17.47028 17.16578 16.82251 16.90271 16.743 16.79967 16.84485 16.89027 16.92292 16.94954 16.77207 16.78673 16.79023 16.79177 16.78382 16.60773 16.60901 16.60321 16.5817 16.57375 16.57395 16.57113 16.57135 16.57632 16.591 16.59664 16.60921 16.62257 16.63769 16.65578 16.67702 16.70146 16.72377 16.74576 16.77352 16.79767 16.81569 16.82017 16.81037 16.77391 16.73119 16.67764 16.61845 16.55058 16.49468 16.44953 16.41225 16.37922 16.36506 16.36588 16.3709 16.38103 16.38983 16.39805 16.40923 16.42135 16.42937 16.44111 16.45222
0 0 0 0 0 0 0 0 0 0 0 0 0 0 0 0 0 0 0 0 0 0 0 0 0 0 0 0 0 0 0 0 0 0 0 0 0 0 0 0 0 0 0 0 0 0 0 0 0 18.03372 17.32992 16.99986 16.87867 16.74461 16.82036 16.89084 16.74032 16.76733 16.59289 16.60041 16.60696 16.60722 16.60593 16.60282 16.59507 16.58856 16.58497 16.57365 16.55351 16.52824 16.52335 16.51414 16.50149 16.50025 16.51326 16.51104 16.51426 16.52177 16.5373 16.55612 16.5752 16.59279 16.60679 16.6223 16.63293 16.64442 16.65795 16.65599 16.63863 16.61368 16.58289 16.55022 16.51 16.46931 16.43682 16.40937 16.39661 16.38029 16.38538 16.39632 16.40631 16.41735 16.42537 16.43601 16.44726 16.45602 16.46391 16.47263 16.48137
0 0 0 0 0 0 0 0 0 0 0 0 0 0 0 0 0 0 0 0 0 0 0 0 0 0 0 0 0 0 0 0 0 0 0 0 0 0 0 0 0 0 0 0 0 0 0 0 0 17.89962 17.36268 17.02633 16.91503 16.78988 16.87082 16.72838 16.58056 16.59887 16.6052 16.59997 16.60004 16.58843 16.57524 16.56486 16.55618 16.54856 16.54347 16.5343 16.51563 16.49436 16.48296 16.46784 16.45469 16.44578 16.43243 16.41198 16.40444 16.40614 16.41677 16.43413 16.44817 16.45817 16.4617 16.47504 16.48971 16.50808 16.52224 16.53118 16.51984 16.49255 16.46987 16.44416 16.41841 16.40577 16.39242 16.39242 16.4031 16.41129 16.41979 16.4319 16.44272 16.45328 16.46326 16.47682 16.48523 16.49496 16.49937 16.5066 16.51992
0 0 0 0 0 0 0 0 0 0 0 0 0 0 0 0 0 0 0 0 0 0 0 0 0 0 0 0 0 0 0 0 0 0 0 0 0 0 0 0 0 0 0 0 0 0 0 0 0 17.95566 17.16655 16.83242 16.96051 16.83765 16.91526 16.74984 16.6013 16.60552 16.6026 16.59352 16.57881 16.56121 16.54288 16.5327 16.52254 16.50838 16.48916 16.47769 16.45325 16.42914 16.40599 16.38665 16.37215 16.36346 16.35139 16.34491 16.34334 16.34688 16.35135 16.35619 16.35699 16.35699 16.35674 16.36103 16.37217 16.38487 16.39167 16.39724 16.3978 16.39134 16.3876 16.3833 16.38099 16.38627 16.38855 16.39974 16.41891 16.43483 16.44987 16.45888 16.46843 16.47701 16.49618 16.51139 16.51985 16.52165 16.52837 16.5364 16.54755
0 0 0 0 0 0 0 0 0 0 0 0 0 0 0 0 0 0 0 0 0 0 0 0 0 0 0 0 0 0 0 0 0 0 0 0 0 0 0 0 0 0 0 0 0 0 0 0 0 17.45389 17.23947 16.88787 16.79356 16.69174 16.7543 16.58663 16.61319 16.60577 16.59436 16.57021 16.5452 16.52145 16.50925 16.49634 16.48036 16.46379 16.4456 16.4308 16.41032 16.38438 16.3562 16.33194 16.31384 16.29848 16.28903 16.28103 16.27739 16.27642 16.28158 16.28821 16.28885 16.29294 16.29884 16.30646 16.3144 16.32013 16.33 16.33642 16.33589 16.33275 16.33902 16.34931 16.36422 16.37834 16.3967 16.41571 16.43863 16.45465 16.46976 16.48012 16.4901 16.50403 16.52033 16.54361 16.55399 16.56101 16.56859 16.5753 16.58469
0 0 0 0 0 0 0 0 0 0 0 0 0 0 0 0 0 0 0 0 0 0 0 0 0 0 0 0 0 0 0 0 0 0 0 0 0 0 0 0 0 0 0 0 0 0 0 0 0 0 17.01318 16.96987 16.8648 16.56042 16.59978 16.60052 16.6194 16.59931 16.57709 16.54932 16.52247 16.50087 16.48343 16.46514 16.44962 16.43498 16.41798 16.40075 16.37818 16.35299 16.32259 16.29859 16.28268 16.27366 16.26233 16.25556 16.25231 16.25048 16.25355 16.25992 16.25986 16.25969 16.25739 16.26392 16.2705 16.28041 16.28945 16.29964 16.30813 16.31644 16.32856 16.34664 16.36278 16.38457 16.40731 16.43541 16.45835 16.47675 16.49057 16.50458 16.52109 16.53683 16.55294 16.56907 16.57982 16.58629 16.59341 16.60305 16.61547
0 0 0 0 0 0 0 0 0 0 0 0 0 0 0 0 0 0 0 0 0 0 0 0 0 0 0 0 0 0 0 0 0 0 0 0 0 0 0 0 0 0 0 0 0 0 0 0 0 0 17.17757 16.7911 16.51947 16.58497 16.61445 16.61866 16.61992 16.59031 16.55976 16.52708 16.49857 16.47756 16.45867 16.44829 16.4375 16.42457 16.40918 16.39641 16.37119 16.34716 16.31847 16.29331 16.27709 16.26408 16.25686 16.24957 16.24722 16.24831 16.24996 16.25394 16.24978 16.24889 16.25196 16.25327 16.25599 16.26065 16.27293 16.28423 16.29856 16.30969 16.32654 16.35259 16.37328 16.39555 16.4255 16.4527 16.47621 16.4929 16.51067 16.52947 16.54824 16.56214 16.58033 16.59475 16.60754 16.61627 16.62392 16.63349 16.64896
0 0 0 0 0 0 0 0 0 0 0 0 0 0 0 0 0 0 0 0 0 0 0 0 0 0 0 0 0 0 0 0 0 0 0 0 0 0 0 0 0 0 0 0 0 0 0 0 0 0 0 0 16.54769 16.58873 16.61335 16.6269 16.61849 16.58391 16.54803 16.51495 16.48583 16.46271 16.44859 16.44078 16.4291 16.42109 16.41128 16.39676 16.37962 16.35815 16.33348 16.30771 16.28366 16.26818 16.25836 16.25433 16.25149 16.25237 16.25234 16.25661 16.25347 16.25013 16.24861 16.24895 16.25451 16.25857 16.27149 16.28869 16.30585 16.32181 16.34125 16.368 16.39424 16.42307 16.4519 16.48087 16.50934 16.52282 16.54491 16.563 16.58074 16.59514 16.61067 16.62328 16.63464 16.64606 16.65223 16.65975 16.67588
0 0 0 0 0 0 0 0 0 0 0 0 0 0 0 0 0 0 0 0 0 0 0 0 0 0 0 0 0 0 0 0 0 0 0 0 0 0 0 0 0 0 0 0 0 0 0 0 0 0 18.80198 17.20366 16.77958 16.60859 16.61993 16.62234 16.60415 16.56484 16.53356 16.50187 16.47939 16.45965 16.44685 16.44046 16.43545 16.42856 16.42478 16.41301 16.39856 16.38326 16.35955 16.33532 16.31503 16.29608 16.28441 16.27633 16.2707 16.26519 16.26062 16.26184 16.25971 16.25641 16.25674 16.25755 16.26338 16.27323 16.28791 16.30243 16.32021 16.3401 16.36587 16.39688 16.42815 16.46198 16.4875 16.51503 16.53793 16.55479 16.57622 16.59141 16.6081 16.62247 16.63899 16.65252 16.66789 16.67596 16.6817 16.69635 16.71304
0 0 0 0 0 0 0 0 0 0 0 0 0 0 0 0 0 0 0 0 0 0 0 0 0 0 0 0 0 0 0 0 0 0 0 0 0 0 0 0 0 0 0 0 0 0 0 0 0 0 18.14001 17.22425 17.0215 16.61557 16.6105 16.59656 16.58368 16.54569 16.51711 16.49484 16.47674 16.46639 16.45935 16.45677 16.46077 16.46426 16.45858 16.44614 16.43593 16.41842 16.39143 16.36843 16.34407 16.32687 16.31308 16.29725 16.29232 16.2848 16.27982 16.27892 16.27565 16.27498 16.27394 16.2813 16.28852 16.29494 16.30875 16.32572 16.34645 16.37011 16.40374 16.43887 16.47147 16.50427 16.52958 16.55842 16.58139 16.59931 16.61501 16.63058 16.64379 16.65553 16.66733 16.68118 16.6936 16.70176 16.7105 16.72544 16.74629
0 0 0 0 0 0 0 0 0 0 0 0 0 0 0 0 0 0 0 0 0 0 0 0 0 0 0 0 0 0 0 0 0 0 0 0 0 0 0 0 0 0 0 0 0 0 0 0 0 0 0 17.26054 16.81263 16.62027 16.60014 16.57634 16.57091 16.53632 16.5128 16.49824 16.48837 16.48314 16.48212 16.48256 16.49364 16.49903 16.50081 16.49374 16.48553 16.47125 16.44521 16.41144 16.38616 16.36322 16.34242 16.32295 16.31076 16.30393 16.29945 16.29832 16.29314 16.29641 16.29838 16.30247 16.31352 16.32804 16.34171 16.36319 16.39139 16.424 16.46197 16.4992 16.5291 16.55513 16.58009 16.60239 16.62672 16.63894 16.65425 16.66421 16.67847 16.69063 16.70113 16.71737 16.72278 16.73415 16.74509 16.76208 16.78116
0 0 0 0 0 0 0 0 0 0 0 0 0 0 0 0 0 0 0 0 0 0 0 0 0 0 0 0 0 0 0 0 0 0 0 0 0 0 0 0 0 0 0 0 0 0 0 0 0 0 0 17.04096 16.62407 16.62159 16.59896 16.57213 16.56551 16.53615 16.51883 16.51448 16.51131 16.51123 16.51778 16.52633 16.53412 16.541 16.54503 16.54285 16.53309 16.51491 16.48609 16.45237 16.42532 16.40329 16.37996 16.35738 16.34161 16.33458 16.33035 16.32809 16.3257 16.32826 16.33256 16.34161 16.35088 16.36497 16.38482 16.41356 16.44621 16.48591 16.52568 16.56274 16.59601 16.61907 16.63974 16.65652 16.67051 16.68392 16.69207 16.69967 16.70893 16.7255 16.73516 16.74839 16.75581 16.76523 16.77912 16.79666 16.81663
0 0 0 0 0 0 0 0 0 0 0 0 0 0 0 0 0 0 0 0 0 0 0 0 0 0 0 0 0 0 0 0 0 0 0 0 0 0 0 0 0 0 0 0 0 0 0 0 0 0 0 16.66176 16.64804 16.6367 16.60928 16.57714 16.56035 16.535 16.52279 16.5218 16.52535 16.53863 16.55161 16.56429 16.57602 16.59413 16.60114 16.60194 16.59121 16.572 16.5411 16.50326 16.47213 16.44256 16.41427 16.3907 16.37128 16.36228 16.35654 16.35733 16.3624 16.37109 16.38247 16.39437 16.40739 16.42806 16.45313 16.48791 16.52269 16.55898 16.59192 16.62519 16.64893 16.6683 16.68877 16.70442 16.71882 16.72977 16.73669 16.74163 16.75022 16.76232 16.7759 16.7856 16.79252 16.8001 16.81091 16.82538 16.84416
0 0 0 0 0 0 0 0 0 0 0 0 0 0 0 0 0 0 0 0 0 0 0 0 0 0 0 0 0 0 0 0 0 0 0 0 0 0 0 0 0 0 0 0 0 0 0 0 0 18.66771 17.68524 16.69845 16.67961 16.64818 16.61461 16.58753 16.56344 16.5396 16.53361 16.53679 16.5492 16.57242 16.58751 16.60433 16.62167 16.63614 16.64592 16.65094 16.64453 16.62522 16.59932 16.56879 16.53427 16.50065 16.46692 16.43895 16.41742 16.40432 16.39562 16.39857 16.40641 16.41767 16.42872 16.44636 16.46516 16.48915 16.51972 16.55643 16.59506 16.62974 16.66151 16.69088 16.70855 16.72904 16.74565 16.76101 16.77037 16.78023 16.78412 16.78844 16.79353 16.80155 16.80863 16.81646 16.82369 16.83618 16.84649 16.85909 16.87407
0 0 0 0 0 0 0 0 0 0 0 0 0 0 0 0 0 0 0 0 0 0 0 0 0 0 0 0 0 0 0 0 0 0 0 0 0 0 0 0 0 0 0 0 0 0 0 0 17.76968 17.22519 16.97383 16.72796 16.70008 16.66003 16.61651 16.59084 16.56948 16.55193 16.55308 16.56618 16.59037 16.61939 16.6366 16.65734 16.6814 16.69853 16.71166 16.71282 16.7052 16.68413 16.65447 16.62528 16.58661 16.5508 16.51536 16.48203 16.4601 16.44486 16.44114 16.44518 16.4582 16.47802 16.49386 16.51416 16.53826 16.56348 16.58971 16.62206 16.65361 16.68336 16.71052 16.73295 16.75435 16.77491 16.79005 16.80655 16.81662 16.82523 16.83303 16.83515 16.84095 16.84894 16.84736 16.85147 16.85557 16.8606 16.87202 16.88268 16.89548
0 0 0 0 0 0 0 0 0 0 0 0 0 0 0 0 0 0 0 0 0 0 0 0 0 0 0 0 0 0 0 0 0 0 0 0 0 0 0 0 0 0 0 0 0 17.41883 17.29438 17.83644 17.28824 17.30565 17.0369 16.77057 16.73055 16.6777 16.6367 16.60487 16.58703 16.57394 16.57792 16.59609 16.62411 16.65455 16.6809 16.7065 16.7346 16.75784 16.77218 16.77699 16.76767 16.74979 16.71798 16.68958 16.65335 16.61725 16.57947 16.54251 16.51592 16.49962 16.48968 16.49143 16.50573 16.52461 16.54936 16.57536 16.6057 16.63577 16.66517 16.69249 16.71631 16.74274 16.76724 16.7859 16.80791 16.82643 16.84103 16.84772 16.85648 16.86445 16.8713 16.87562 16.88247 16.88703 16.88701 16.89182 16.89275 16.89827 16.90122 16.90861 16.92329
0 0 0 0 0 0 0 0 0 0 0 0 0 0 0 0 0 0 0 0 0 0 0 0 0 0 0 0 0 0 0 0 0 0 0 0 0 0 0 0 0 0 19.53597 19.21166 18.20855 17.34837 16.82403 16.83087 17.36129 17.08737 16.8239 16.79292 16.75008 16.69857 16.65837 16.62957 16.61252 16.60848 16.61973 16.64446 16.67659 16.70992 16.74019 16.77026 16.79916 16.81487 16.82785 16.82512 16.815 16.79613 16.77088 16.73849 16.70583 16.6721 16.63365 16.59953 16.57209 16.55514 16.55495 16.5631 16.57696 16.59426 16.61624 16.64295 16.67498 16.6983 16.7289 16.75103 16.7703 16.79245 16.8134 16.8351 16.8552 16.87522 16.88829 16.89768 16.90608 16.91718 16.92599 16.92915 16.93229 16.93124 16.92792 16.92589 16.92138 16.92411 16.92821 16.93645 16.94881
0 0 0 0 0 0 0 0 0 0 0 0 0 0 0 0 0 0 0 0 0 0 0 0 0 0 0 0 0 0 0 0 0 0 0 0 0 0 0 0 18.62946 19.02372 19.26902 18.2964 17.40324 16.86967 16.88456 16.89877 16.89281 16.87228 16.84236 16.81045 16.76635 16.72374 16.68553 16.65806 16.64651 16.64915 16.66572 16.69285 16.72962 16.7638 16.79849 16.8339 16.86121 16.87795 16.88697 16.88673 16.87799 16.85945 16.83077 16.79843 16.76641 16.72907 16.68972 16.65318 16.62242 16.60668 16.60479 16.61308 16.63089 16.64901 16.68014 16.7089 16.74097 16.77492 16.79885 16.81563 16.83118 16.84833 16.87181 16.8877 16.89592 16.90756 16.92167 16.93335 16.9448 16.95586 16.96512 16.96849 16.9715 16.96843 16.96256 16.96015 16.95843 16.96261 16.96699 16.97571 16.98659
0 0 0 0 0 0 0 0 0 0 0 0 0 0 0 0 0 0 0 0 0 0 0 0 0 0 0 0 0 0 0 0 0 0 0 0 0 0 0 18.87392 18.60635 18.01386 17.73441 16.8857 16.89871 16.91254 16.92499 16.93227 16.92031 16.89113 16.85716 16.82365 16.78716 16.75279 16.72693 16.71049 16.70948 16.72083 16.74061 16.76587 16.7954 16.82779 16.8588 16.88818 16.9101 16.92902 16.93693 16.936 16.92664 16.9113 16.89336 16.8623 16.82925 16.79637 16.76065 16.72362 16.69483 16.67558 16.6717 16.67278 16.68632 16.70844 16.73373 16.76349 16.79497 16.82524 16.84867 16.86629 16.88062 16.89623 16.91592 16.92932 16.93576 16.94976 16.96347 16.97628 16.98793 16.99367 17.00166 17.00296 17.00209 16.99418 16.99126 16.98751 16.99057 16.99296 16.9994 17.01153 17.02314
0 0 0 0 0 0 0 0 0 0 0 0 0 0 0 0 0 0 0 0 0 0 0 0 0 0 0 0 0 0 0 0 0 0 0 0 0 0 18.07562 17.75696 17.47193 16.91021 16.9273 16.93772 16.95006 16.95428 16.95566 16.95197 16.9409 16.91958 16.88979 16.85543 16.82546 16.79541 16.77692 16.76594 16.76643 16.78522 16.80882 16.83752 16.86524 16.89917 16.92736 16.95276 16.97474 16.99363 17.00274 17.00026 16.9905 16.97408 16.9517 16.9257 16.88936 16.85773 16.82057 16.78775 16.76294 16.74587 16.74129 16.74354 16.75823 16.78092 16.80608 16.83186 16.85904 16.88503 16.90358 16.91701 16.92871 16.9442 16.95564 16.96733 16.97626 16.9877 16.99756 17.01193 17.02068 17.02884 17.03141 17.03281 17.03135 17.02882 17.02437 17.0269 17.0305 17.03654 17.04413 17.05696 17.06687
0 0 0 0 0 0 0 0 0 0 0 0 0 0 0 0 0 0 0 0 0 0 0 0 0 0 0 0 0 0 0 0 0 0 19.80057 20.42811 19.54351 17.80881 16.93053 16.9351 16.94495 16.9518 16.96098 16.9699 16.98213 16.98587 16.98535 16.98079 16.97016 16.95197 16.93118 16.91425 16.88956 16.86918 16.85851 16.85308 16.85578 16.86756 16.88887 16.90832 16.93567 16.95963 16.98433 17.01016 17.02998 17.04965 17.06113 17.06595 17.06028 17.04795 17.02617 17.00445 16.97622 16.94369 16.91115 16.88022 16.85447 16.83574 16.82559 16.82292 16.83172 16.84686 16.86883 16.88871 16.91404 16.93634 16.95387 16.96774 16.98081 16.99356 17.01057 17.02403 17.03079 17.03851 17.04719 17.05291 17.05802 17.06261 17.06115 17.05871 17.05849 17.05376 17.05102 17.05471 17.06208 17.07292 17.08913 17.10827 17.11361
0 0 0 0 0 0 0 0 0 0 0 0 0 0 0 0 0 0 0 0 0 0 0 0 0 0 0 0 0 20.32115 19.90238 19.67652 19.65563 19.42383 19.12787 18.51852 16.97171 16.97468 16.97778 16.98606 16.99047 16.99031 16.99356 16.99981 17.00889 17.00541 17.00695 17.00252 16.99411 16.98413 16.96933 16.96074 16.95242 16.94323 16.93998 16.9429 16.94651 16.95877 16.9783 16.99755 17.01308 17.0345 17.05563 17.07923 17.09825 17.1119 17.12047 17.12351 17.11821 17.10684 17.08654 17.06568 17.04299 17.01869 16.9916 16.96751 16.94546 16.92995 16.92181 16.91648 16.92279 16.93294 16.95087 16.96515 16.98508 16.99747 17.00466 17.01278 17.02588 17.03724 17.04822 17.05927 17.07219 17.0823 17.09079 17.09331 17.09696 17.09925 17.09856 17.095 17.09399 17.09053 17.08932 17.09295 17.10004 17.11318 17.12661 17.13996 17.13412
0 0 0 0 0 0 0 0 0 0 0 0 0 0 0 0 0 0 0 0 0 0 0 0 0 20.10081 19.35678 19.3481 18.38322 17.69427 17.35542 17.04549 17.04104 17.02903 17.01534 17.00587 17.00319 17.00729 17.01857 17.02724 17.02488 17.01577 17.01268 17.01925 17.03189 17.03513 17.03809 17.03525 17.02966 17.02748 17.02342 17.02419 17.02499 17.02064 17.01039 17.00999 17.01795 17.02809 17.0449 17.05805 17.07061 17.09327 17.11887 17.14064 17.16185 17.17747 17.18298 17.1847 17.18418 17.17317 17.15824 17.13816 17.1172 17.09594 17.07297 17.04894 17.0256 17.00941 16.99986 16.9946 16.99944 17.00983 17.02313 17.03804 17.04719 17.05698 17.06445 17.07045 17.08198 17.09122 17.10225 17.11049 17.11907 17.12842 17.13239 17.13038 17.12691 17.12405 17.12766 17.12584 17.1247 17.12327 17.12719 17.13394 17.14643 17.16195 17.17428 17.17202 17.14115
0 0 0 0 0 0 0 0 0 0 0 0 0 0 0 0 0 0 0 0 0 0 0 20.28488 19.40997 18.80959 18.46477 18.11162 17.11133 17.09136 17.07187 17.06304 17.0547 17.04386 17.02889 17.02243 17.02273 17.0383 17.05523 17.05729 17.04478 17.02913 17.01944 17.02406 17.03882 17.0484 17.06118 17.06312 17.06392 17.07028 17.07703 17.08813 17.09068 17.08656 17.08015 17.08063 17.09891 17.10662 17.11304 17.12044 17.12991 17.1463 17.16964 17.19456 17.20956 17.22361 17.23162 17.23717 17.23568 17.22739 17.21492 17.19805 17.1855 17.16927 17.15284 17.13823 17.12164 17.11014 17.09927 17.09043 17.09298 17.09124 17.09708 17.10536 17.11176 17.11699 17.11506 17.12065 17.12722 17.13847 17.14721 17.15593 17.16414 17.17171 17.17433 17.16935 17.16612 17.16322 17.16119 17.16391 17.1641 17.16474 17.16529 17.17564 17.18831 17.19925 17.19944 17.18567 17.13675
0 0 0 0 0 0 0 0 0 0 0 0 0 0 0 0 0 0 0 0 0 0 19.69013 18.83828 18.50796 18.49109 18.14262 17.77662 17.10626 17.0824 17.06643 17.05835 17.04821 17.03814 17.03319 17.03504 17.03584 17.0467 17.05686 17.05857 17.04523 17.03756 17.03361 17.04032 17.05084 17.06265 17.08001 17.09315 17.10094 17.10525 17.1075 17.11586 17.12358 17.12283 17.12261 17.13278 17.1524 17.15529 17.16269 17.17306 17.17805 17.19342 17.21385 17.23502 17.25448 17.27258 17.28102 17.28934 17.28688 17.27924 17.26971 17.25421 17.24299 17.22787 17.21835 17.20705 17.19577 17.18736 17.18433 17.1785 17.17508 17.17798 17.17704 17.18337 17.1857 17.19167 17.18996 17.19171 17.1914 17.19954 17.20101 17.20171 17.20234 17.20663 17.20822 17.20345 17.19591 17.19259 17.19499 17.19775 17.19997 17.20128 17.20814 17.21911 17.23343 17.24006 17.22776 17.1921 17.13468
0 0 0 0 0 0 0 0 0 0 0 0 0 0 0 0 0 0 0 0 0 20.91637 19.89046 18.82277 18.16979 18.14701 17.77756 17.75801 17.08526 17.06944 17.05602 17.04408 17.02767 17.01595 17.01438 17.01832 17.02095 17.02873 17.03988 17.04173 17.03384 17.03174 17.03263 17.0357 17.04616 17.06671 17.09302 17.11807 17.12085 17.12414 17.12544 17.13387 17.144 17.15217 17.15992 17.16982 17.18183 17.18545 17.19519 17.20417 17.21164 17.22373 17.24514 17.26466 17.28236 17.30135 17.31562 17.32706 17.33001 17.33049 17.32792 17.32374 17.31572 17.30893 17.30207 17.29217 17.2791 17.27148 17.26113 17.25118 17.24482 17.2419 17.23844 17.24073 17.24922 17.25769 17.26367 17.26428 17.26115 17.26328 17.25971 17.25666 17.2556 17.25318 17.25109 17.24779 17.24099 17.23397 17.23348 17.23442 17.23351 17.2365 17.2433 17.25656 17.26861 17.26952 17.2461 17.19678 17.13015
0 0 0 0 0 0 0 0 0 0 0 0 0 0 0 0 0 0 0 0 0 0 0 19.40883 18.50383 18.14249 17.76744 17.42616 17.07421 17.05654 17.04303 17.02435 17.00887 17.00121 16.99635 16.99759 17.00548 17.01656 17.02842 17.02937 17.02255 17.02483 17.02222 17.02821 17.03914 17.06607 17.09508 17.11337 17.12373 17.13011 17.13265 17.15075 17.16275 17.17688 17.18547 17.1979 17.21883 17.23065 17.23885 17.24948 17.25636 17.26759 17.28543 17.30049 17.31815 17.32844 17.34378 17.35898 17.36686 17.37168 17.37219 17.37278 17.37255 17.37321 17.37456 17.37287 17.36286 17.35439 17.34567 17.33459 17.33037 17.3286 17.32609 17.32348 17.32783 17.33345 17.33554 17.32956 17.32248 17.31393 17.30838 17.30047 17.29669 17.29227 17.29035 17.29225 17.28522 17.28348 17.28207 17.28302 17.28559 17.28929 17.29344 17.30228 17.30584 17.2956 17.26296 17.205 17.13065
0 0 0 0 0 0 0 0 0 0 0 0 0 0 0 0 0 0 0 0 0 21.29909 20.99914 20.01256 18.53477 18.16031 17.77812 17.76412 17.39055 17.05013 17.03166 17.01092 16.99857 16.99104 16.98594 16.98768 16.99818 17.00653 17.02033 17.01891 17.00963 17.00987 17.01083 17.02444 17.02842 17.04695 17.07414 17.09913 17.11759 17.13135 17.14482 17.16683 17.18287 17.20492 17.2148 17.23484 17.25651 17.26722 17.27402 17.28356 17.29117 17.30222 17.31863 17.33246 17.35166 17.3659 17.37999 17.39594 17.40863 17.41443 17.42038 17.42569 17.42868 17.43307 17.43292 17.43387 17.42722 17.41786 17.41026 17.40037 17.39892 17.40292 17.39965 17.40081 17.4081 17.41348 17.40747 17.40198 17.38951 17.37936 17.3702 17.36078 17.35182 17.34389 17.33819 17.33445 17.32916 17.32708 17.32357 17.32501 17.32796 17.32858 17.33665 17.34153 17.33641 17.31899 17.2782 17.21817 17.13714
0 0 0 0 0 0 0 0 0 0 0 0 0 0 0 0 0 0 0 21.30935 21.23689 21.14079 20.30237 19.21239 18.55797 18.18658 17.80085 18.12376 17.07911 17.04347 17.02108 16.9997 16.99118 16.98457 16.97884 16.97439 16.98204 16.99383 17.00206 17.00345 17.00116 17.00028 17.00315 17.00906 17.01383 17.0312 17.05684 17.08294 17.11569 17.14147 17.16337 17.19053 17.21778 17.24105 17.25819 17.27856 17.30064 17.30829 17.31924 17.32484 17.32953 17.33561 17.3476 17.36223 17.37695 17.39425 17.41102 17.42766 17.4393 17.44597 17.45951 17.46956 17.48027 17.4926 17.49993 17.5041 17.50178 17.50037 17.49155 17.4818 17.48011 17.47938 17.47859 17.47793 17.47633 17.47396 17.46097 17.45061 17.43651 17.43004 17.42278 17.41193 17.40388 17.39653 17.39234 17.38988 17.38807 17.3831 17.38017 17.37983 17.38052 17.38118 17.38146 17.3779 17.36689 17.3403 17.29703 17.23282 17.15013
0 0 0 0 0 0 0 0 0 0 0 0 0 0 0 0 0 0 20.77282 20.67124 20.31695 19.85216 19.23983 18.58194 18.23412 18.20034 17.82139 17.44851 17.08467 17.04166 17.01474 16.99401 16.98326 16.97505 16.96926 16.96742 16.97353 16.9834 16.99551 17.00151 17.00555 17.00716 17.01593 17.02603 17.02387 17.04108 17.06561 17.09605 17.1284 17.16171 17.19274 17.22158 17.25077 17.27807 17.30427 17.32 17.34024 17.35341 17.35555 17.3624 17.37017 17.37615 17.38462 17.3949 17.41122 17.42805 17.44387 17.45669 17.4674 17.47317 17.48854 17.5006 17.51804 17.53607 17.54639 17.55411 17.56106 17.56051 17.56012 17.55674 17.56145 17.56554 17.56294 17.56279 17.55814 17.54872 17.52982 17.5112 17.49427 17.48267 17.47334 17.45827 17.44709 17.44195 17.43427 17.43135 17.43178 17.42997 17.4261 17.42439 17.4287 17.42896 17.42611 17.41874 17.40423 17.37184 17.32849 17.26616 17.18821
0 0 0 0 0 0 0 0 0 0 0 0 0 0 0 0 0 21.18344 20.65623 20.04387 19.54599 18.92678 18.59356 18.59144 18.5876 18.19251 17.81773 17.11934 17.06974 17.02966 16.99997 16.9792 16.96498 16.95253 16.9516 16.95754 16.96742 16.97799 16.98915 17.00168 17.01083 17.02315 17.03231 17.04321 17.05144 17.06881 17.09533 17.12321 17.1566 17.19739 17.23216 17.26716 17.29257 17.32096 17.33827 17.35961 17.37239 17.37685 17.38409 17.40149 17.4131 17.41692 17.41585 17.42149 17.43228 17.45187 17.47235 17.48552 17.49436 17.50252 17.51631 17.53513 17.55755 17.57401 17.59288 17.60449 17.61238 17.6157 17.61559 17.61911 17.62772 17.63004 17.62956 17.62329 17.61495 17.60208 17.58322 17.56717 17.55007 17.5374 17.52318 17.51169 17.50307 17.4976 17.48955 17.48198 17.4768 17.47309 17.46722 17.46502 17.46299 17.46115 17.45651 17.45163 17.43662 17.40818 17.36156 17.30478 17.23688
0 0 0 0 0 0 0 0 0 0 0 0 0 0 0 0 20.64573 20.64358 19.7964 19.24034 18.9254 18.59598 18.57675 18.57334 18.56552 18.18126 17.79563 17.10756 17.05026 17.01383 16.98278 16.96058 16.94857 16.93962 16.94761 16.95898 16.97299 16.98445 16.99429 17.00141 17.01634 17.03126 17.04368 17.05825 17.07524 17.09968 17.13107 17.16082 17.19143 17.22936 17.26426 17.30046 17.33693 17.36445 17.3872 17.40734 17.42057 17.43077 17.44091 17.44651 17.45692 17.46038 17.46195 17.45813 17.46243 17.47487 17.48781 17.49811 17.51314 17.52379 17.54066 17.56262 17.58434 17.60804 17.63339 17.64832 17.66433 17.67201 17.67905 17.68341 17.69454 17.70099 17.69893 17.68994 17.67782 17.66047 17.6331 17.61382 17.59187 17.57408 17.56075 17.55135 17.54115 17.53536 17.5326 17.52657 17.51938 17.51393 17.50782 17.50477 17.50303 17.50107 17.49558 17.4942 17.47829 17.45442 17.40944 17.35245 17.28446
0 0 0 0 0 0 0 0 0 0 0 0 0 0 0 21.18262 20.44921 19.76982 19.18876 18.89102 18.55062 18.54681 18.55206 18.19219 18.17545 17.80609 17.11651 17.08213 17.03164 17.00049 16.96896 16.94619 16.93499 16.93122 16.94342 16.9618 16.98152 16.99945 17.01284 17.02725 17.04252 17.06452 17.08143 17.09696 17.11823 17.14454 17.17523 17.20935 17.24148 17.27462 17.30554 17.34184 17.37511 17.40567 17.42855 17.45164 17.4689 17.48145 17.49426 17.50773 17.51288 17.5145 17.522 17.51051 17.50369 17.50437 17.50926 17.51916 17.53336 17.54507 17.5619 17.58284 17.6108 17.63829 17.66225 17.6832 17.6985 17.71397 17.72475 17.73015 17.74187 17.749 17.74931 17.74246 17.73496 17.7172 17.69366 17.66749 17.64815 17.6241 17.60814 17.59694 17.58781 17.58023 17.571 17.55879 17.55106 17.54756 17.54291 17.53549 17.53174 17.52864 17.52702 17.52501 17.51541 17.49551 17.45623 17.40065 17.33716
0 0 0 0 0 0 0 0 0 0 0 0 0 0 20.49274 20.48454 19.78627 19.17449 18.85071 18.50924 18.50303 18.13719 18.14361 18.14317 17.78965 17.4224 17.08795 17.06365 17.02433 16.98988 16.95987 16.94359 16.93317 16.93107 16.94893 16.96985 16.98967 17.0108 17.03135 17.05199 17.07535 17.10186 17.12639 17.15092 17.17714 17.21068 17.24707 17.28252 17.3173 17.34835 17.37412 17.40564 17.43576 17.46243 17.48292 17.51008 17.52329 17.53796 17.54979 17.56268 17.57013 17.5726 17.58474 17.57605 17.55519 17.53825 17.53732 17.54061 17.54362 17.55581 17.57687 17.59817 17.63393 17.66628 17.69353 17.71901 17.74316 17.76093 17.77115 17.77389 17.78247 17.78774 17.78795 17.7811 17.77349 17.76198 17.74027 17.71773 17.69386 17.67248 17.65808 17.64453 17.63246 17.62392 17.61337 17.6002 17.59189 17.58203 17.57788 17.5727 17.56911 17.56216 17.55644 17.54864 17.54196 17.52345 17.48377 17.42922 17.36691
0 0 0 0 0 0 0 0 0 0 0 0 0 20.34451 20.52433 19.77947 19.1511 18.82669 18.47988 18.47431 18.11647 18.09882 18.10823 18.11651 17.75649 17.07494 17.05838 17.04773 17.01674 16.98614 16.96391 16.95073 16.94718 16.94879 16.966 16.98397 17.00286 17.02521 17.0528 17.08079 17.11369 17.14938 17.18064 17.21209 17.24296 17.27733 17.31894 17.35764 17.3859 17.41076 17.43153 17.45948 17.48895 17.51214 17.5308 17.55485 17.57079 17.58442 0 0 0 17.57583 17.59738 17.65614 17.63825 17.60488 17.58234 17.56477 17.55783 17.56557 17.58359 17.61126 17.64854 17.6864 17.72273 17.75591 17.77781 17.79807 17.81149 17.81781 17.82813 17.8308 17.8327 17.83181 17.82578 17.81447 17.79456 17.77642 17.75201 17.72623 17.70855 17.69104 17.67568 17.66126 17.6478 17.63526 17.62442 17.61532 17.60957 17.60676 17.6041 17.59753 17.5871 17.58597 17.57934 17.55652 17.51728 17.462 17.39236
0 0 0 0 0 0 0 0 0 0 0 0 0 20.71497 19.79422 19.16593 18.80393 18.4375 18.44285 18.07843 18.07698 18.07871 18.09018 17.06032 17.05463 17.04761 17.03727 17.03045 17.00342 16.97884 16.9702 16.96345 16.96107 16.96048 16.97606 16.99958 17.02814 17.05702 17.08858 17.12862 17.17442 17.21837 17.25977 17.29873 17.33766 17.36999 17.40615 17.44628 17.46826 17.48513 17.49493 18.29286 17.5327 17.55167 17.57499 17.97063 18.78809 19.59181 0 0 0 0 0 18.09056 17.68862 17.65669 17.62306 17.58887 17.57973 17.5804 17.60002 17.62819 17.65979 17.70704 17.74959 17.78554 17.81025 17.83028 17.84685 17.85473 17.86235 17.86713 17.86867 17.86933 17.86588 17.85632 17.84267 17.82604 17.81034 17.78638 17.77136 17.75283 17.73296 17.71557 17.69765 17.68256 17.66828 17.65995 17.64929 17.6424 17.64042 17.62987 17.6196 17.61622 17.60894 17.58766 17.54629 17.4885 17.41512
0 0 0 0 0 0 0 0 0 0 0 0 20.84517 20.05736 19.13801 18.78102 18.40244 18.04488 18.06006 18.06661 18.06676 18.07133 17.71872 17.0438 17.03412 17.02638 17.02361 17.0194 16.99708 16.98519 16.98369 16.98076 16.97695 16.97472 16.99462 17.02061 17.0457 17.08023 17.12315 17.18097 17.22971 17.27828 17.32355 17.3653 17.40678 17.43716 17.45489 0 0 17.48277 0 19.21765 18.3972 17.98478 18.39501 18.39235 19.20526 19.64454 20.64327 18.38634 17.64266 0 0 0 19.37922 17.67654 17.63889 17.6112 17.59891 17.60248 17.61611 17.64416 17.68048 17.72459 17.76979 17.80854 17.83868 17.86459 17.87977 17.88944 17.89896 17.90558 17.90775 17.90555 17.90133 17.8914 17.87915 17.86751 17.85381 17.83445 17.81582 17.79964 17.7818 17.76577 17.74862 17.73109 17.71907 17.70763 17.69839 17.69034 17.6819 17.67626 17.66485 17.65926 17.64401 17.61791 17.57702 17.51614 17.43549
0 0 0 0 0 0 0 0 0 0 0 20.07481 20.05536 19.11778 18.75244 18.01193 18.03302 18.04728 18.05262 18.05568 18.06863 17.37824 17.04477 17.03692 17.02466 17.02558 17.02482 17.0205 17.00716 17.0012 16.99936 16.99901 16.99517 16.9973 17.01907 17.04809 17.08084 17.12816 17.18031 17.24368 17.29373 17.34207 17.37912 17.41191 18.23015 0 0 0 0 0 20.02608 20.83451 20.60039 20.03031 19.65825 19.22219 19.22012 17.99169 17.6232 17.63568 17.6432 17.6491 17.65503 19.7474 20.11988 17.67305 17.65233 17.62604 17.62422 17.61999 17.63086 17.65953 17.69703 17.73826 17.79065 17.82988 17.86372 17.88811 17.90525 17.91656 17.9259 17.93591 17.93903 17.9379 17.93479 17.9291 17.92411 17.91819 17.90822 17.89228 17.8709 17.85084 17.83192 17.81249 17.79213 17.77527 17.75913 17.74651 17.7362 17.73011 17.72376 17.71632 17.70428 17.69692 17.67791 17.65091 17.61217 17.55 17.46404
0 0 0 0 0 0 0 0 0 0 20.77018 20.06119 19.09656 18.36809 18.0043 17.66686 17.694 17.70528 17.71262 17.72127 17.72522 17.05314 17.04911 17.0405 17.02928 17.03118 17.02929 17.0315 17.02378 17.01613 17.01467 17.01494 17.01273 17.01597 17.03957 17.07711 17.1195 17.18058 17.23376 17.28872 17.35173 17.39896 17.80293 0 0 0 0 0 0 0 0 0 0 0 20.04198 19.67076 18.83833 17.62167 17.64322 17.65843 17.66573 17.66737 17.67074 17.67458 17.67769 17.67823 17.65673 17.6436 17.64212 17.64305 17.65679 17.6851 17.72311 17.76493 17.80936 17.84954 17.8843 17.90686 17.92657 17.93662 17.94734 17.95568 17.9571 17.96112 17.96279 17.95856 17.95867 17.96009 17.95501 17.94411 17.92359 17.90557 17.88344 17.86351 17.84447 17.82551 17.80925 17.80027 17.78805 17.78215 17.77393 17.76385 17.74784 17.73044 17.70941 17.67932 17.63842 17.57662 17.49378
0 0 0 0 0 0 0 0 0 0 20.31801 19.06732 18.36434 18.00166 17.341 17.34061 17.03898 17.04674 17.06724 17.06992 17.06295 17.0523 17.05318 17.05516 17.04936 17.04311 17.04742 17.05666 17.04839 17.04437 17.04583 17.04383 17.03817 17.04377 17.07057 17.10793 17.15653 17.20902 17.26988 17.3256 18.5626 0 0 0 0 0 0 0 0 0 0 0 0 0 20.70675 19.31215 17.64763 17.65453 17.6707 17.69174 17.70827 17.71054 17.70792 17.7025 17.69564 17.68695 17.67694 17.66757 17.66878 17.67035 17.68561 17.71567 17.74829 17.78821 17.82845 17.86708 17.90003 17.92693 17.94711 17.96073 17.97196 17.97816 17.98421 17.99239 17.99564 17.99542 17.99319 17.99179 17.98654 17.97989 17.96478 17.94599 17.92791 17.90644 17.88723 17.86992 17.85686 17.84872 17.84045 17.83424 17.8268 17.81429 17.79641 17.7743 17.74822 17.71036 17.66526 17.6022 17.52386
0 0 0 0 0 0 0 0 0 20.40136 19.76197 18.70369 17.97474 17.31347 17.01475 17.02559 17.02913 17.0351 17.04499 17.05368 17.05866 17.05517 17.05718 17.06257 17.06348 17.05787 17.05849 17.07031 17.07183 17.06696 17.0702 17.06945 17.06466 17.07246 17.10376 17.1461 17.18943 17.24504 17.30516 18.11857 18.34732 0 0 0 0 0 0 0 0 0 0 0 0 19.96232 19.74148 18.48534 17.66638 17.67948 17.70344 17.73072 17.74724 17.75375 17.74974 17.74014 17.73083 17.72221 17.71097 17.70229 17.70422 17.70484 17.72307 17.74923 17.77985 17.81137 17.84749 17.8818 17.91246 17.94125 17.96603 17.98008 17.99089 17.99701 18.0032 18.01362 18.02086 18.02605 18.02945 18.02894 18.02446 18.01781 18.00906 17.99366 17.97379 17.95563 17.93649 17.91931 17.90465 17.89635 17.89095 17.87953 17.87035 17.85656 17.83421 17.80768 17.77915 17.7358 17.68435 17.61976 17.54463
0 0 0 0 0 0 0 0 21.23229 20.1145 18.70763 17.94253 17.59329 16.96139 16.97049 16.98516 16.98927 17.00473 17.01661 17.03142 17.04364 17.04829 17.05911 17.06473 17.06475 17.06949 17.08205 17.09696 17.09574 17.10035 17.09559 17.08809 17.08416 17.09396 17.12528 17.16713 17.20836 17.25458 17.66762 18.11484 18.56224 19.4001 0 20.23093 20.84565 0 0 0 0 0 0 0 20.72828 19.7292 18.9059 17.67098 17.6895 17.7168 17.75001 17.77235 17.78223 17.78314 17.77861 17.76849 17.76027 17.75103 17.74539 17.74143 17.7405 17.7506 17.77408 17.79769 17.82387 17.85011 17.87781 17.91034 17.93618 17.96694 17.99209 18.00839 18.02002 18.02491 18.03415 18.04044 18.04925 18.0536 18.05453 18.05375 18.05268 18.04704 18.03655 18.02126 18.00775 17.99673 17.98266 17.96833 17.95496 17.94579 17.94051 17.93064 17.91646 17.89826 17.87111 17.84132 17.80597 17.7596 17.70338 17.63876 17.56382
0 0 0 0 0 0 0 0 21.23634 20.11885 18.69257 17.92091 16.92678 16.92857 16.93747 16.94373 16.95946 16.97652 16.99294 17.01701 17.03433 17.0476 17.05551 17.06206 17.06823 17.08749 17.11171 17.13485 17.14348 17.14559 17.1415 17.13405 17.12448 17.12833 17.15786 17.19681 17.23351 17.2643 17.30046 17.71562 18.12862 18.55418 18.99258 19.43309 20.23164 0 0 0 0 0 0 20.10083 19.29409 19.307 17.64842 17.68247 17.72945 17.76631 17.7945 17.81606 17.82368 17.81636 17.80865 17.79767 17.78919 17.78079 17.77454 17.7731 17.77338 17.78643 17.80768 17.83056 17.85153 17.87769 17.90633 17.93717 17.96503 17.99783 18.02359 18.04216 18.05043 18.05996 18.06925 18.07573 18.08535 18.08779 18.08501 18.08347 18.08516 18.07581 18.06113 18.05074 18.03361 18.02408 18.01739 18.00233 17.99101 17.98425 17.97703 17.96727 17.95655 17.93377 17.903 17.86722 17.82797 17.77724 17.71978 17.65417 17.57944
0 0 0 0 0 0 0 0 0 20.11889 18.6825 17.91447 16.90135 16.8978 16.90561 16.92056 16.93658 16.95333 16.97587 17.00452 17.02468 17.04079 17.05579 17.06572 17.0794 17.10932 17.14135 17.17505 17.19192 17.19947 17.19762 17.19219 17.18183 17.17825 17.20054 17.23376 17.25815 17.27928 17.3083 17.3133 17.33189 17.34612 17.36165 17.75042 18.59431 19.45662 20.26427 20.62745 0 0 20.3456 19.24506 18.41731 17.62624 17.66517 17.70964 17.76934 17.80173 17.8261 17.84132 17.84599 17.8482 17.84357 17.83246 17.82165 17.81697 17.8135 17.81505 17.81953 17.82957 17.84688 17.86458 17.88277 17.90585 17.93264 17.96341 17.99198 18.02246 18.05168 18.07022 18.08451 18.09166 18.09722 18.10601 18.11479 18.11934 18.12126 18.12301 18.11649 18.10975 18.09673 18.08306 18.06807 18.06037 18.05255 18.04353 18.02867 18.02132 18.01011 17.99854 17.98131 17.95854 17.92367 17.88662 17.8421 17.79013 17.73007 17.66199 17.58943
0 0 0 0 0 0 0 0 0 21.066 19.43968 18.30242 17.20319 16.87762 16.8809 16.89344 16.91091 16.9289 16.95759 16.98239 17.00928 17.03234 17.05436 17.07754 17.10533 17.13991 17.18308 17.22515 17.24523 17.25773 17.25666 17.24457 17.23173 17.22287 17.23731 17.25874 17.28128 17.29574 17.30939 17.30185 17.31373 17.32817 17.35541 17.37508 17.7675 18.19581 18.63327 19.06816 20.30116 19.16374 17.90769 17.55229 17.59383 17.6551 17.70821 17.75099 17.79709 17.82314 17.84334 17.85403 17.86482 17.86825 17.86412 17.85773 17.85244 17.84452 17.84588 17.85106 17.85555 17.8641 17.87891 17.89708 17.91371 17.93785 17.96621 17.99814 18.02896 18.06161 18.08616 18.10101 18.1159 18.12153 18.13093 18.13703 18.14557 18.15164 18.15039 18.14957 18.14104 18.13486 18.12484 18.11271 18.10129 18.09356 18.08497 18.07633 18.06453 18.0516 18.04402 18.02864 18.0083 17.98476 17.94893 17.90898 17.85977 17.80161 17.73839 17.66605 17.58909
0 0 0 0 0 0 0 0 0 21.19961 20.40558 18.69899 17.53777 16.86949 16.86738 16.87268 16.88657 16.90734 16.93398 16.96042 16.9912 17.02629 17.05579 17.08352 17.1229 17.17453 17.23392 17.28707 17.31859 17.31991 17.31223 17.29926 17.28731 17.27855 17.27588 17.28608 17.29956 17.31002 17.31427 17.30641 17.31465 17.32875 17.35123 17.37341 17.38747 17.40488 17.82129 0 19.15266 17.92629 17.55575 17.58349 17.63525 17.69843 17.75751 17.8029 17.83625 17.85743 17.87478 17.88651 17.89384 17.8971 17.89423 17.89001 17.88395 17.87826 17.87596 17.87962 17.88627 17.89292 17.90482 17.91937 17.94047 17.96205 17.9951 18.03097 18.06309 18.0894 18.11148 18.12631 18.13991 18.14888 18.15903 18.16825 18.17825 18.18364 18.17963 18.17572 18.17054 18.16028 18.15275 18.13982 18.13141 18.1177 18.10828 18.09737 18.08651 18.07973 18.06779 18.05091 18.03011 18.0033 17.96901 17.92813 17.87515 17.81062 17.74289 17.66904 17.58657
0 0 0 0 0 0 0 0 0 0 20.91622 19.46106 17.89315 17.17716 16.87137 16.87177 16.85304 16.86773 16.89326 16.92526 16.95921 17.00131 17.04002 17.07722 17.1267 17.18814 17.25754 17.31656 0 0 0 17.5317 17.31479 17.30991 17.3044 17.30563 17.31127 17.32385 17.32513 17.32494 17.32426 17.33535 17.35043 17.37118 17.39657 17.42926 17.46942 17.89807 17.52878 17.56063 17.60103 17.64723 17.69381 17.74182 17.78284 17.82717 17.8653 17.88824 17.90144 17.91007 17.91681 17.92531 17.92541 17.92253 17.92483 17.9174 17.91253 17.91565 17.92166 17.92995 17.94265 17.95646 17.97728 17.99897 18.02853 18.05911 18.08602 18.11403 18.13241 18.14526 18.15963 18.17008 18.18095 18.19036 18.19651 18.20395 18.2036 18.19732 18.19088 18.18381 18.17949 18.16935 18.15896 18.14766 18.13638 18.12482 18.11389 18.10248 18.08859 18.07217 18.04957 18.01869 17.98222 17.9353 17.88309 17.81982 17.74956 17.67388 17.58222
0 0 0 0 0 0 0 0 0 0 0 20.7891 19.43744 17.87434 17.15482 16.84904 16.7983 16.82073 16.84131 16.87636 16.9226 16.97887 17.02172 17.06053 17.11286 17.1798 17.60643 18.02256 0 0 0 18.15023 18.44492 17.30776 17.311 17.30649 17.31767 17.32502 17.33347 17.33791 17.34042 17.34763 17.36587 17.39402 17.42388 17.46175 17.49973 17.53572 17.56767 17.6006 17.64957 17.69584 17.7437 17.78541 17.82324 17.85782 17.88988 17.90586 17.91577 17.92761 17.93703 17.94158 17.94765 17.94934 17.95346 17.94849 17.94483 17.95003 17.95215 17.9641 17.98102 17.99863 18.01505 18.03751 18.06374 18.09194 18.11567 18.14009 18.15792 18.16965 18.18104 18.19351 18.19938 18.20942 18.21802 18.21998 18.21722 18.21426 18.21041 18.20373 18.19726 18.1916 18.17859 18.1684 18.15804 18.14518 18.13428 18.12287 18.10614 18.08698 18.06311 18.03165 17.99114 17.94619 17.89456 17.82918 17.75758 17.68092 17.59481
0 0 0 0 0 0 0 0 0 0 0 0 20.92129 19.73423 17.78229 17.08787 16.74221 16.76565 16.79769 16.83386 16.881 16.94489 16.99588 17.04004 17.08885 17.16072 17.93678 0 0 19.51333 19.63527 18.05571 17.30045 17.29756 17.2939 17.30979 17.31874 17.32958 17.33894 17.34842 17.35462 17.36693 17.38745 17.42007 17.45558 17.49846 17.53287 17.56407 17.59303 17.63543 17.68506 17.7304 17.783 17.82141 17.85796 17.88912 17.91725 17.92393 17.93141 17.94617 17.95711 17.96557 17.96826 17.9739 17.97925 17.98132 17.97822 17.98353 17.98697 17.99678 18.01331 18.03071 18.04809 18.07191 18.09428 18.11741 18.13943 18.16151 18.17547 18.18869 18.19894 18.21251 18.22005 18.22765 18.23061 18.23389 18.23103 18.23041 18.22734 18.22444 18.22119 18.21196 18.20167 18.19099 18.17933 18.16703 18.1504 18.13601 18.12124 18.10022 18.07342 18.0397 18.00037 17.95759 17.90902 17.84947 17.77817 17.70501 17.62596
0 0 0 0 0 0 0 0 0 0 0 0 0 0 0 17.66616 16.99018 16.71668 16.76006 16.8003 16.85982 16.91784 16.96821 17.00905 17.04999 17.45689 17.53678 17.94583 18.35052 20.4565 19.61101 18.01891 17.28333 17.28481 17.28673 17.30911 17.32492 17.33755 17.35213 17.36807 17.37958 17.39315 17.41727 17.45072 17.48004 17.51342 17.54202 17.57359 17.61588 17.65845 17.71166 17.76413 17.80929 17.84326 17.87779 17.90735 17.92814 17.94797 17.96071 17.97085 17.97993 17.98431 17.99035 17.99527 18.00456 18.01124 18.01778 18.02328 18.03045 18.04201 18.05694 18.07373 18.0939 18.11138 18.13291 18.15203 18.1705 18.18375 18.19793 18.21049 18.21937 18.22909 18.23636 18.24087 18.24375 18.24802 18.24613 18.24745 18.24463 18.23969 18.23547 18.23059 18.22011 18.21084 18.20032 18.18558 18.17001 18.15108 18.13556 18.1162 18.08757 18.05333 18.01585 17.97811 17.93118 17.87647 17.81187 17.73873 17.66679
0 0 0 0 0 0 0 0 0 0 0 0 0 0 0 18.33404 17.63063 16.67818 16.73212 16.77803 16.84224 16.9001 16.94857 16.98647 17.0167 17.0705 17.85524 17.91715 18.338 0 19.63039 17.26025 17.26976 17.27316 17.29959 17.30565 17.32534 17.3415 17.36251 17.37978 17.39672 17.41728 17.44254 17.46993 17.49492 17.52659 17.5583 17.59098 17.64117 17.68946 17.74426 17.78771 17.82592 17.86587 17.8977 17.92995 17.95885 17.97336 17.98348 17.98835 17.99573 18.00422 18.00632 18.008 18.01959 18.02883 18.0404 18.05066 18.06175 18.07607 18.09455 18.11297 18.13199 18.1483 18.16455 18.18419 18.20194 18.21423 18.22884 18.24182 18.24915 18.25305 18.25746 18.25876 18.26179 18.26732 18.26459 18.2621 18.25786 18.25076 18.24554 18.24043 18.23591 18.22647 18.21697 18.2034 18.18572 18.16998 18.15312 18.13404 18.11018 18.08021 18.04497 18.01096 17.96748 17.91501 17.85603 17.79231 17.72637
0 0 0 0 0 0 0 0 0 0 0 0 0 19.49703 19.12905 18.32522 17.62757 16.66749 16.71662 16.7776 16.83745 16.89561 16.93824 16.97925 17.00869 17.05257 18.19467 18.63625 19.09398 19.0285 20.01006 17.5937 17.25129 17.27027 17.29111 17.30922 17.33465 17.3533 17.36898 17.38261 17.39604 17.42641 17.45612 17.48632 17.51258 17.53737 17.57361 17.6141 17.66327 17.7195 17.77658 17.81289 17.8489 17.88456 17.91576 17.952 17.98235 17.99917 18.00547 18.00936 18.01798 18.02613 18.02632 18.03385 18.04296 18.05167 18.05883 18.07891 18.09173 18.10493 18.12948 18.14957 18.16441 18.1788 18.19868 18.21514 18.23167 18.24141 18.25703 18.26959 18.27953 18.28164 18.27878 18.28042 18.28299 18.28727 18.28494 18.28139 18.27139 18.26195 18.2556 18.25024 18.24329 18.24156 18.23303 18.22174 18.20897 18.19445 18.17951 18.1565 18.13201 18.10269 18.07026 18.03378 17.99572 17.95008 17.89973 17.84549 17.78736
0 0 0 0 0 0 0 0 0 0 0 0 18.69311 18.32239 18.35712 18.00486 17.3119 16.70021 16.74654 16.79829 16.85064 16.90902 16.94895 16.98627 17.02078 17.06455 17.8372 17.88151 18.6865 19.50654 17.93402 17.20861 17.24099 17.27589 17.30041 17.32063 17.34053 17.35615 17.37243 17.39058 17.41 17.43469 17.45592 17.47855 17.51057 17.54771 17.58998 17.62852 17.68052 17.72706 17.77617 17.82357 17.85767 17.88922 17.92515 17.95852 17.98829 18.00542 18.01271 18.02092 18.03234 18.04226 18.04618 18.05176 18.06192 18.0743 18.0882 18.10555 18.12164 18.13694 18.16448 18.18805 18.20182 18.22035 18.23759 18.25271 18.25864 18.26779 18.2771 18.28893 18.29351 18.29382 18.29101 18.28984 18.28825 18.28468 18.28515 18.27899 18.27065 18.25948 18.25393 18.25216 18.24788 18.24253 18.23779 18.22769 18.22002 18.21399 18.19793 18.17995 18.15715 18.12985 18.09749 18.06826 18.03435 17.98778 17.93575 17.8848 17.83043
0 0 0 0 0 0 0 0 20.25243 19.61964 18.5699 17.84384 17.89783 17.92116 17.62397 17.69239 17.38572 16.75496 16.79933 16.84516 16.89554 16.94808 16.98775 17.01875 17.05046 17.0854 17.11778 17.13909 17.16043 17.17789 17.18961 17.21732 17.24916 17.28561 17.30309 17.323 17.34139 17.36242 17.38007 17.39408 17.41092 17.43682 17.46304 17.48312 17.5192 17.56386 17.6063 17.64286 17.68721 17.73848 17.77435 17.8223 17.85508 17.89055 17.91501 17.94413 17.97919 18.00063 18.0166 18.03031 18.04461 18.05233 18.05944 18.06566 18.07486 18.08921 18.10631 18.12564 18.14159 18.16477 18.19673 18.22299 18.24093 18.2569 18.27444 18.28395 18.29041 18.29421 18.30234 18.30926 18.30646 18.3086 18.30562 18.2995 18.29449 18.28888 18.28197 18.27729 18.26924 18.2607 18.25343 18.24841 18.24229 18.23873 18.2373 18.23333 18.22323 18.21961 18.21025 18.1973 18.17717 18.15371 18.12784 18.10082 18.07074 18.03124 17.97999 17.93287 17.88407
0 0 0 0 0 0 0 19.22507 19.2613 17.77507 17.43704 17.45401 17.50063 17.5803 17.66284 17.38831 16.76763 16.79823 16.84384 16.88632 16.94513 16.98188 17.01905 17.05128 17.07854 17.1037 17.13058 17.15705 17.18493 17.20262 17.22119 17.24747 17.2783 17.29932 17.3126 17.32719 17.34568 17.368 17.38324 17.3967 17.4127 17.44451 17.46635 17.48913 17.52972 17.57549 17.61293 17.65442 17.69644 17.72925 17.76531 17.8042 17.84173 17.88377 17.90663 17.9372 17.9713 17.99987 18.0271 18.04311 18.05626 18.06757 18.07703 18.08615 18.09396 18.10655 18.12501 18.15545 18.17431 18.19956 18.22741 18.24845 18.26466 18.27846 18.2958 18.30457 18.30852 18.31211 18.31834 18.31888 18.3236 18.32315 18.31709 18.31203 18.29866 18.29014 18.28388 18.27555 18.2685 18.26255 18.25834 18.24911 18.24427 18.24112 18.23764 18.23741 18.23477 18.22925 18.22632 18.21602 18.19959 18.18072 18.15638 18.12965 18.09911 18.06413 18.02238 17.97433 17.92429
0 0 0 0 0 0 19.70999 19.62417 17.76236 17.38567 17.37487 17.42678 17.51493 17.28337 17.04972 16.78372 16.81536 16.86259 16.90094 16.94345 16.97811 17.0088 17.04958 17.07565 17.09826 17.11288 17.13687 17.18067 17.21119 17.22569 17.23907 17.26754 17.28875 17.30464 17.3179 17.32912 17.35118 17.37441 17.39303 17.40945 17.42405 17.44549 17.47004 17.49837 17.53138 17.5657 17.60486 17.63721 17.68077 17.72504 17.76507 17.79878 17.83425 17.8675 17.90048 17.93454 17.96565 17.98995 18.01121 18.03317 18.05315 18.06654 18.08341 18.099 18.11773 18.13568 18.1618 18.19343 18.2104 18.23199 18.25962 18.2779 18.29222 18.30439 18.31614 18.32752 18.33228 18.33506 18.33641 18.33572 18.33316 18.32612 18.32115 18.3107 18.29855 18.28936 18.28024 18.27027 18.26323 18.25755 18.25427 18.24974 18.24761 18.2465 18.24451 18.24722 18.24224 18.24268 18.24122 18.23482 18.22763 18.21241 18.19022 18.16822 18.13813 18.11156 18.06934 18.02152 17.97237
0 0 0 0 0 0 20.65094 18.85484 17.72726 17.34791 17.03882 17.12677 16.90039 16.69337 16.77231 16.8364 16.88185 16.91176 16.94662 16.97708 17.01178 17.04285 17.07483 17.09635 17.12163 17.12955 17.1566 17.19989 17.22331 17.23105 17.24187 17.26547 17.28225 17.2964 17.30887 17.322 17.34204 17.36472 17.38641 17.40093 17.43194 17.45466 17.47999 17.51 17.54051 17.5666 17.59349 17.62625 17.6679 17.71361 17.74553 17.77633 17.81446 17.85019 17.88202 17.91677 17.95309 17.9773 18.00316 18.02926 18.05044 18.07244 18.0947 18.11517 18.13933 18.16229 18.18704 18.2229 18.23748 18.26054 18.28015 18.29952 18.31729 18.33416 18.3493 18.35565 18.36204 18.35938 18.35677 18.35025 18.34407 18.33494 18.32347 18.3088 18.29305 18.28126 18.27491 18.26662 18.26171 18.25804 18.25623 18.25488 18.25462 18.25587 18.25618 18.25626 18.25057 18.25186 18.25386 18.25034 18.24474 18.23366 18.22013 18.19989 18.17958 18.15182 18.12278 18.08033 18.03315
0 0 0 0 0 20.69988 20.12428 18.82493 17.73054 17.38674 16.80264 16.56966 16.64054 16.7209 16.80378 16.87402 16.91536 16.94917 16.98564 17.01437 17.04837 17.07134 17.10565 17.13088 17.1488 17.1613 17.18492 17.22216 17.2327 17.24567 17.25594 17.26221 17.27872 17.28598 17.29672 17.31188 17.33463 17.3559 17.37618 17.401 17.42779 17.45356 17.48175 17.50109 17.52417 17.56011 17.5871 17.6169 17.64956 17.69495 17.73005 17.76603 17.79864 17.83604 17.87015 17.90342 17.93687 17.96981 18.00167 18.02899 18.05138 18.07931 18.10538 18.13245 18.15565 18.18364 18.21186 18.24526 18.2671 18.28708 18.30655 18.32345 18.34517 18.36315 18.3748 18.37731 18.38307 18.37672 18.37026 18.36132 18.34924 18.33696 18.32475 18.3086 18.29317 18.27751 18.27385 18.27028 18.26903 18.26819 18.26807 18.26507 18.26485 18.26547 18.27276 18.27591 18.27057 18.2684 18.27023 18.27403 18.27189 18.26605 18.25197 18.23781 18.221 18.19303 18.1652 18.12893 18.08717
0 0 0 0 19.66083 19.18862 17.67147 17.34397 17.05193 16.50229 16.56762 16.6324 16.70839 16.77319 16.84149 16.90315 16.93926 16.97291 17.00898 17.03922 17.06473 17.09869 17.12977 17.15106 17.17545 17.19686 17.22095 17.24035 17.24833 17.26002 17.26492 17.27097 17.27751 17.28015 17.29204 17.30523 17.32201 17.35367 17.38151 17.39999 17.42209 17.44729 17.47203 17.48621 17.52018 17.55007 17.58145 17.61294 17.63925 17.68296 17.7206 17.75496 17.78855 17.82648 17.86427 17.89786 17.92248 17.95148 17.99079 18.02345 18.05084 18.08652 18.11469 18.14347 18.17284 18.20673 18.23334 18.27467 18.29503 18.31449 18.33953 18.35602 18.36907 18.38335 18.3935 18.3975 18.3933 18.38397 18.37291 18.36459 18.35289 18.34049 18.3265 18.30986 18.29092 18.2794 18.27642 18.27292 18.27367 18.27416 18.27308 18.2723 18.27533 18.28221 18.28988 18.29129 18.29057 18.29218 18.30198 18.31217 18.31139 18.30647 18.30103 18.28965 18.27184 18.24914 18.22303 18.19132 18.15472
0 0 0 0 20.73583 18.01898 16.43468 16.45582 16.50976 16.56452 16.64681 16.72473 16.78118 16.83586 16.89463 16.94936 16.98273 17.00434 17.03551 17.06045 17.08465 17.12002 17.14906 17.17997 17.19249 17.20781 17.2314 17.24724 17.25727 17.26265 17.26559 17.27237 17.27694 17.27684 17.28642 17.29669 17.31953 17.35211 17.37447 17.40082 17.42352 17.43715 17.45411 17.48145 17.51874 17.54197 17.56957 17.60417 17.6352 17.67274 17.71728 17.74803 17.78048 17.81549 17.85138 17.88476 17.9174 17.94413 17.97656 18.01502 18.05278 18.09265 18.12381 18.15364 18.18754 18.22011 18.24816 18.2853 18.31026 18.33405 18.36138 18.37362 18.38119 18.39388 18.39995 18.39699 18.39174 18.37808 18.36825 18.36636 18.35841 18.34472 18.32911 18.31226 18.29724 18.28476 18.28173 18.28122 18.28107 18.28305 18.28653 18.28849 18.28995 18.29552 18.30396 18.30705 18.30555 18.31327 18.32652 18.33607 18.34071 18.34665 18.34619 18.33824 18.32374 18.30392 18.28321 18.25446 18.22207
0 0 0 19.66439 19.20361 17.62321 16.41814 16.48569 16.56285 16.65483 16.7349 16.79315 16.84681 16.89405 16.93763 16.97623 17.00055 17.02024 17.04718 17.08315 17.11662 17.14594 17.16729 17.19056 17.20416 17.2178 17.23957 17.25235 17.26352 17.26539 17.27144 17.27799 17.28093 17.27926 17.28237 17.29497 17.30906 17.33919 17.36672 17.38881 17.40159 17.41152 17.44204 17.47899 17.51444 17.54145 17.56832 17.59899 17.62061 17.66368 17.6989 17.73627 17.77704 17.80195 17.84817 17.89437 17.92856 17.9547 17.98707 18.02067 18.05443 18.09688 18.13043 18.16187 18.19323 18.22707 18.25854 18.28906 18.31796 18.34321 18.36668 18.38323 18.39014 18.39961 18.40088 18.39427 18.38726 18.37508 18.36604 18.35991 18.35449 18.34899 18.32959 18.31744 18.30255 18.29647 18.29263 18.28969 18.30032 18.30144 18.31053 18.3169 18.31807 18.3219 18.32755 18.32915 18.33021 18.33547 18.35131 18.36374 18.37345 18.38194 18.38006 18.37418 18.36391 18.34906 18.32896 18.30551 18.27379
0 0 0 19.57226 19.14585 17.573 16.97517 16.51575 16.6405 16.75146 16.8092 16.8593 16.89728 16.92904 16.96412 16.98479 17.01298 17.03191 17.05817 17.09293 17.1244 17.15172 17.17666 17.19123 17.20593 17.22373 17.23636 17.251 17.25892 17.26243 17.27317 17.27937 17.28227 17.27938 17.27813 17.28068 17.29301 17.32115 17.35103 17.36471 17.38224 17.40003 17.41889 17.44559 17.49232 17.53357 17.56182 17.59116 17.61238 17.6539 17.68839 17.73482 17.77218 17.81194 17.85354 17.88987 17.92223 17.96051 17.99698 18.02696 18.06899 18.0892 18.13847 18.1706 18.19758 18.23321 18.26442 18.30325 18.3205 18.33857 18.3627 18.38294 18.39288 18.3988 18.39606 18.39033 18.38112 18.37228 18.36222 18.35123 18.34568 18.34197 18.3365 18.3251 18.31725 18.30359 18.30481 18.31086 18.31616 18.32352 18.33591 18.34489 18.34447 18.35081 18.35289 18.35733 18.35767 18.36828 18.38521 18.40445 18.41613 18.42372 18.42626 18.42118 18.41485 18.4004 18.38255 18.36052 18.3343
0 0 0 20.53048 19.41392 17.58358 16.69672 16.51825 16.64339 16.77435 16.87103 16.90634 16.932 16.95743 16.9817 16.99815 17.02292 17.04393 17.07015 17.1001 17.12779 17.14877 17.16166 17.17371 17.1874 17.20037 17.21849 17.23665 17.24354 17.24733 17.24871 17.26163 17.27246 17.27338 17.26732 17.26542 17.2771 17.30282 17.32693 17.34887 17.36554 17.37584 17.3936 17.42752 17.46364 17.51201 17.55003 17.58007 17.59378 17.62519 17.6766 17.7255 17.76205 17.79498 17.83534 17.87677 17.92285 17.96752 17.99549 18.02561 18.06251 18.10393 18.13087 18.17922 18.2003 18.23745 18.26495 18.29965 18.31541 18.33133 18.35238 18.371 18.38078 18.38602 18.38135 18.37322 18.36992 18.36318 18.35591 18.34302 18.34257 18.34284 18.34137 18.33818 18.33253 18.3273 18.33033 18.33338 18.33705 18.34176 18.35691 18.36338 18.36527 18.37545 18.37692 18.38141 18.38856 18.39684 18.42211 18.43947 18.4516 18.45862 18.45985 18.46292 18.45822 18.44454 18.43334 18.42058 18.39639
0 0 0 20.58425 18.24556 16.93488 16.44149 16.55796 16.68904 16.80193 16.88361 16.914 16.9379 16.95471 16.98026 17.00325 17.02464 17.04643 17.0663 17.08124 17.10188 17.12043 17.12302 17.12797 17.14191 17.14987 17.16238 17.19249 17.20543 17.21301 17.2225 17.23062 17.25008 17.25906 17.25157 17.24538 17.25235 17.27533 17.31053 17.33445 17.35402 17.37095 17.38745 17.41377 17.44902 17.48044 17.52573 17.56108 17.57416 17.61446 17.6779 17.72944 17.75927 17.79224 17.82713 17.87119 17.91643 17.96285 17.99427 18.02946 18.06616 18.10475 18.14237 18.17508 18.21039 18.22811 18.25231 18.28162 18.30145 18.31877 18.33177 18.35156 18.36474 18.3701 18.36568 18.36024 18.36027 18.35466 18.34582 18.33949 18.33902 18.33909 18.3328 18.33979 18.34438 18.3482 18.35652 18.36084 18.36152 18.36614 18.38187 18.38896 18.4018 18.40968 18.41784 18.41943 18.42323 18.4391 18.46038 18.48192 18.49662 18.50151 18.50668 18.50792 18.50191 18.49359 18.48349 18.47359 18.45176
16.4736 16.47327 17.65849 18.27854 16.59217 16.39029 16.49448 16.62338 16.73576 16.83715 16.89368 16.91823 16.93789 16.95277 16.9676 16.99105 17.00673 17.02959 17.04687 17.05801 17.06856 17.07114 17.08109 17.08564 17.09818 17.11043 17.12552 17.14191 17.16856 17.19044 17.2055 17.2166 17.23037 17.23497 17.23805 17.23609 17.2395 17.25708 17.30426 17.33068 17.35022 17.3748 17.39404 17.40785 17.43645 17.46665 17.50323 17.53108 17.56361 17.62534 17.68193 17.72405 17.75753 17.79301 17.83299 17.87585 17.91701 17.95737 17.99403 18.03166 18.06604 18.1027 18.13577 18.16721 18.19801 18.21407 18.24504 18.27341 18.28787 18.30329 18.31954 18.33134 18.34462 18.35562 18.35696 18.35624 18.3478 18.34704 18.33633 18.33213 18.3344 18.33404 18.33618 18.34107 18.3499 18.35494 18.36881 18.37576 18.38292 18.39054 18.40222 18.41506 18.43027 18.44072 18.45027 18.45656 18.46726 18.47907 18.49749 18.51954 18.53219 18.5435 18.55423 18.55584 18.55179 18.54446 18.53411 18.52084 18.50685
16.48136 16.46584 16.47261 16.49117 16.47025 16.53984 16.63073 16.72907 16.80795 16.87631 16.91562 16.92938 16.93642 16.94491 16.9594 16.97536 16.98851 16.99444 17.00291 17.0146 17.01564 17.02711 17.03748 17.04233 17.04852 17.06272 17.0776 17.1046 17.12744 17.15046 17.17526 17.1991 17.21249 17.22299 17.23056 17.23977 17.24522 17.26001 17.31285 17.33814 17.35289 17.37143 17.4038 17.41374 17.43845 17.47049 17.49879 17.52263 17.5705 17.6154 17.65999 17.71333 17.75436 17.79965 17.83862 17.8761 17.93106 17.97495 18.00212 18.02597 18.05488 18.09353 18.12673 18.15964 18.18604 18.21151 18.23816 18.25505 18.27013 18.28916 18.3026 18.31308 18.31856 18.33676 18.34135 18.33903 18.3339 18.32763 18.32609 18.31867 18.32447 18.33411 18.34961 18.36094 18.3628 18.374 18.3879 18.38993 18.40255 18.41652 18.43117 18.44507 18.46095 18.47007 18.48162 18.49336 18.50147 18.51188 18.52789 18.54763 18.56769 18.57724 18.59445 18.59992 18.60151 18.59954 18.59346 18.58179 18.5685
16.59587 16.6009 16.6209 16.65095 16.64894 16.69957 16.75637 16.81657 16.86306 16.91158 16.92768 16.92763 16.93386 16.94802 16.95729 16.96962 16.98204 16.98149 16.97211 16.96499 16.96592 16.97796 16.98592 16.99603 17.00606 17.02208 17.045 17.07867 17.10146 17.12644 17.14979 17.17092 17.19141 17.20831 17.21521 17.23521 17.25064 17.27041 17.31909 17.34185 17.36341 17.38155 17.40298 17.42836 17.45679 17.47955 17.49699 17.52942 17.57325 17.62242 17.66589 17.71546 17.75627 17.79315 17.84856 17.90456 17.95729 18.00132 18.0333 18.05315 18.06834 18.08962 18.11951 18.15223 18.17167 18.19885 18.22089 18.24367 18.25646 18.2743 18.28738 18.30067 18.30649 18.32294 18.32711 18.32336 18.31731 18.31214 18.31133 18.30342 18.31759 18.32172 18.34632 18.3576 18.36364 18.38321 18.40119 18.41855 18.436 18.45198 18.47251 18.48749 18.50308 18.51301 18.52341 18.53478 18.54292 18.55532 18.57625 18.6022 18.61894 18.63567 18.64667 18.64977 18.65079 18.64995 18.64324 18.63214 18.62492
16.68442 16.69333 16.72278 16.75444 16.7753 16.80113 16.83157 16.8617 16.8904 16.90731 16.9149 16.92004 16.92184 16.93127 16.94165 16.94535 16.94561 16.92921 16.92614 16.9277 16.93473 16.93174 16.93282 16.94808 16.96767 16.99719 17.00825 17.03863 17.06761 17.10017 17.1327 17.16533 17.1911 17.21294 17.22588 17.24811 17.26286 17.28438 17.32775 17.34219 17.35931 17.38451 17.41025 17.4366 17.46152 17.48663 17.50384 17.53381 17.58352 17.63665 17.67175 17.7225 17.7746 17.82367 17.86168 17.90453 17.9506 17.99284 18.02605 18.05548 18.07707 18.1014 18.12781 18.14742 18.16331 18.1843 18.20975 18.23578 18.25803 18.27318 18.2776 18.29043 18.29977 18.30732 18.31096 18.31096 18.30753 18.30457 18.29751 18.29346 18.30272 18.30968 18.32564 18.34431 18.36407 18.39162 18.42117 18.44723 18.46933 18.49356 18.51862 18.5323 18.55099 18.56844 18.57984 18.59227 18.6093 18.63154 18.65423 18.68153 18.70076 18.71762 18.72815 18.7217 18.71979 18.71722 18.70864 18.70077 18.6964
16.76374 16.77259 16.77611 16.78011 16.78774 16.80304 16.8242 16.84402 16.85909 16.86709 16.88001 16.8824 16.88279 16.89131 16.90365 16.90582 16.90468 16.90631 16.9072 16.90421 16.90542 16.90732 16.91107 16.93503 16.96185 16.99739 17.00704 17.02731 17.0522 17.08956 17.12786 17.16243 17.19087 17.22012 17.24556 17.25843 17.27606 17.30849 17.34873 17.36733 17.38173 17.40035 17.42641 17.46285 17.48441 17.50613 17.52778 17.56334 17.61126 17.649 17.69517 17.74724 17.79054 17.84117 17.8764 17.92007 17.9725 17.99844 18.03333 18.06823 18.10002 18.12836 18.15514 18.1735 18.19035 18.21433 18.23548 18.2556 18.27397 18.28563 18.29263 18.3028 18.3038 18.31064 18.30588 18.3098 18.30856 18.30255 18.29769 18.29497 18.31969 18.33937 18.36114 18.37965 18.39825 18.431 18.47202 18.5064 18.54397 18.56786 18.58144 18.59418 18.60979 18.6291 18.64327 18.65664 18.66631 18.6801 18.70949 18.74712 18.78933 18.81147 18.80521 18.79667 18.79308 18.79193 18.79974 18.79171 18.78465
16.77856 16.77326 16.77097 16.76679 16.77217 16.78326 16.79141 16.802 16.81092 16.82289 16.83441 16.83947 16.84032 16.8504 16.85273 16.85983 16.86983 16.87862 16.87472 16.88743 16.87904 16.89741 16.90349 16.94022 16.96078 16.99481 17.02502 17.03615 17.06294 17.09924 17.14197 17.17806 17.20357 17.23011 17.26049 17.28322 17.30379 17.33289 17.37863 17.39658 17.41453 17.43594 17.46908 17.4821 17.51408 17.54002 17.56984 17.6168 17.65987 17.6966 17.74594 17.79094 17.83972 17.87675 17.9184 17.96134 18.01583 18.05056 18.087 18.11403 18.15539 18.17984 18.20138 18.21338 18.23336 18.24209 18.25697 18.27712 18.29496 18.30606 18.31999 18.32324 18.3243 18.32642 18.31246 18.31444 18.31161 18.30674 18.30704 18.312 18.35048 18.37366 18.4032 18.43365 18.46696 18.50239 18.54368 18.58815 18.62863 18.65873 18.6762 18.69247 18.70052 18.70693 18.71902 18.72421 18.72976 18.74603 18.77846 18.82115 18.85989 18.87008 18.87415 18.87346 18.87215 18.87314 18.88453 18.88069 18.87641
16.76801 16.75886 16.74996 16.73852 16.73639 16.74485 16.75605 16.76454 16.77481 16.78491 16.80227 16.80147 16.79884 16.80746 16.81319 16.82756 16.83875 16.84928 16.85545 16.86591 16.87026 16.88938 16.91546 16.95204 16.98318 17.01487 17.04443 17.07365 17.10524 17.1408 17.17241 17.19883 17.22536 17.25854 17.28734 17.3133 17.34247 17.37319 17.40879 17.43364 17.45672 17.48454 17.50922 17.53723 17.56114 17.59143 17.63207 17.67359 17.71433 17.74948 17.80613 17.85171 17.89867 17.94486 17.98246 18.01485 18.05256 18.08434 18.13107 18.17256 18.21311 18.23223 18.26571 18.28299 18.30261 18.30416 18.31379 18.32685 18.33719 18.35034 18.3644 18.37066 18.36517 18.35794 18.34418 18.33817 18.33409 18.33449 18.34449 18.35766 18.38304 18.4075 18.44596 18.48287 18.52171 18.56373 18.60813 18.65033 0 0 18.74053 18.77781 18.77607 18.77708 18.79004 18.7969 18.80864 18.83168 18.842 0 0 18.8888 18.95108 18.95579 18.95667 18.96202 18.98474 18.99046 18.98184
