ncols        109
nrows        82
xllcorner    -1.041666666667
yllcorner    37.041665395101
cellsize     0.083333333333
NODATA_value -9999
0.0 0 0 0 0 0 0 0 0 0 0 0 0 0 0 0 0 0 0 0 0 0 0 0 0 0 0 0 0 0 0 0 0 0 0 0 0 0 0 0 0 0 0 0 0 0 0 0 0 0 0 0 0 0 0 0 0 0 0 0 0 0 0 0 0 0 0 0 0 0 0 0 0 0 0 0 0 0 0 0 0 0 0 0 0 0 0 0 0 0 0 0 0 0 0 0 0 0 0 0 0 0 0 0 0 17.63418 16.394 15.37438 15.3891
0 0 0 0 0 0 0 0 0 0 0 0 0 0 0 0 0 0 0 0 0 0 0 0 0 0 0 0 0 0 0 0 0 0 0 0 0 0 0 0 0 0 0 0 0 0 0 0 0 0 0 0 0 0 0 0 0 0 0 0 0 0 0 0 0 0 0 0 0 0 0 0 0 0 0 0 0 0 0 0 0 0 0 0 0 0 0 0 0 0 0 0 0 0 0 0 0 0 0 0 0 15.42269 15.43989 15.28207 15.31327 15.33931 15.35671 15.38616 15.39843
0 0 0 0 0 0 0 0 0 0 0 0 0 0 0 0 0 0 0 0 0 0 0 0 0 0 0 0 0 0 0 0 0 0 0 0 0 0 0 0 0 0 0 0 0 0 0 0 0 0 0 0 0 0 0 0 0 0 0 0 0 0 0 0 0 0 0 0 0 0 0 0 0 0 0 0 0 0 0 0 0 0 0 0 0 0 0 0 0 0 0 0 0 0 0 0 0 0 15.25681 15.27621 15.27529 15.26825 15.25683 15.27005 15.27924 15.28496 15.30304 15.30538 15.2965
0 0 0 0 0 0 0 0 0 0 0 0 0 0 0 0 0 0 0 0 0 0 0 0 0 0 0 0 0 0 0 0 0 0 0 0 0 0 0 0 0 0 0 0 0 0 0 0 0 0 0 0 0 0 0 0 0 0 0 0 0 0 0 0 0 0 0 0 0 0 0 0 0 0 0 0 0 0 0 0 0 0 0 0 0 0 0 0 0 0 0 0 0 0 0 0 0 16.39385 15.25771 15.26675 15.25643 15.23477 15.21157 15.20422 15.19005 15.1846 15.17148 15.17138 15.15132
0 0 0 0 0 0 0 0 0 0 0 0 0 0 0 0 0 0 0 0 0 0 0 0 0 0 0 0 0 0 0 0 0 0 0 0 0 0 0 0 0 0 0 0 0 0 0 0 0 0 0 0 0 0 0 0 0 0 16.2779 15.8963 15.5554 15.69493 0 0 0 0 0 0 0 0 0 0 0 0 0 0 0 0 0 0 0 0 0 0 0 0 0 0 0 0 0 0 0 0 0 15.55165 15.22995 15.26136 15.2356 15.22584 15.1897 15.14697 15.099 15.06612 15.04379 15.01982 15.00926 14.98956 14.97265
0 0 0 0 0 0 0 0 0 0 0 0 0 0 0 0 0 0 0 0 0 0 0 0 0 0 0 0 0 0 0 0 0 0 0 0 0 0 0 0 0 0 0 0 0 0 0 0 0 0 0 0 0 0 0 0 15.68129 15.73093 15.50886 15.32803 15.27291 15.23033 15.29969 15.4818 15.69748 15.83708 15.84375 0 0 0 0 16.04221 0 0 0 0 0 0 0 0 0 0 0 0 0 0 0 0 0 0 0 0 0 15.87555 15.15512 15.20267 15.21384 15.20754 15.17359 15.1193 15.06867 15.01808 14.97615 14.92859 14.91583 14.90975 14.92002 14.90002 14.89114
0 0 0 0 0 0 0 0 0 0 0 0 0 0 0 0 0 0 0 0 0 0 0 0 0 0 0 0 0 0 0 0 0 0 0 0 0 0 0 0 0 0 0 0 0 0 0 0 0 0 0 0 0 0 0 15.91042 15.52437 15.27218 15.12838 14.92165 14.97924 15.00227 15.14723 15.26343 15.38887 15.47359 15.54179 15.70635 15.88778 15.84131 15.7745 15.54431 15.38152 15.42616 15.53768 15.34612 15.3572 0 0 0 0 0 0 0 0 0 0 0 0 0 0 0 15.40207 15.16015 15.19042 15.1961 15.19825 15.12967 15.08504 15.02135 14.96928 14.91798 14.86124 14.84215 14.85826 14.85743 14.8585 14.87102 14.87896
0 0 0 0 0 0 0 0 0 0 0 0 0 0 0 0 0 0 0 0 0 0 0 0 0 0 0 0 0 0 0 0 0 0 0 0 0 0 0 0 0 0 0 0 0 0 0 0 0 0 0 15.53625 15.6283 15.9073 15.72352 15.33517 15.15133 14.94844 14.86227 14.92442 14.99613 15.01443 14.98008 15.12962 15.1047 15.29678 15.30751 15.29563 15.31073 15.23549 15.15897 15.19849 15.10478 15.26388 15.2791 15.40643 0 0 0 0 0 0 0 0 0 0 0 0 0 0 0 0 15.1568 15.1705 15.17553 15.17163 15.10083 15.0287 14.96691 14.91077 14.88239 14.83961 14.80502 14.8013 14.8224 14.8276 14.83548 14.83918 14.83087
0 0 0 0 0 0 0 0 0 0 0 0 0 0 0 0 0 0 0 0 0 0 0 0 0 0 0 0 0 0 0 0 0 0 0 0 0 0 0 0 0 0 0 0 0 0 0 0 0 0 15.76252 15.5713 15.40917 15.42433 15.33983 15.12312 14.8434 14.9346 14.82605 14.89663 14.93438 14.94617 14.9429 15.09971 15.1033 15.2938 15.3083 15.33191 15.19838 15.08994 15.12941 15.17459 15.06852 15.23109 15.24681 15.41622 15.4185 15.27528 15.26985 15.51614 15.84916 16.37958 0 0 0 0 0 0 0 15.75801 15.39003 15.13345 15.16151 15.1584 15.15531 15.0875 15.01659 14.94797 14.88755 14.85971 14.8348 14.8104 14.79377 14.7979 14.81369 14.82994 14.84394 14.84909 14.8556
0 0 0 0 0 0 0 0 0 0 0 0 0 0 0 0 0 0 0 0 0 0 0 0 0 0 0 0 0 0 0 0 0 0 0 0 0 0 0 0 0 0 0 0 0 0 0 0 0 16.60089 15.46042 15.41745 15.39828 15.13669 15.00929 14.88825 14.97482 14.86729 14.91703 14.95667 14.9833 14.99367 14.99986 15.19462 15.23122 15.26509 15.31117 15.33144 15.3173 15.17302 15.19871 15.09537 15.0034 15.006 15.02019 15.03751 15.05181 15.06577 15.09977 15.10385 15.35998 15.71864 0 15.56103 15.9927 16.37404 16.64764 16.44689 16.02531 15.10952 15.1356 15.16363 15.15344 15.1128 15.0477 14.98063 14.92597 14.87971 14.83792 14.81562 14.78991 14.79574 14.80074 14.81364 14.81472 14.83574 14.85529 14.85487 14.85431
0 0 0 0 0 0 0 0 0 0 0 0 0 0 0 0 0 0 0 0 0 0 0 0 0 0 0 0 0 0 0 0 0 0 0 0 0 0 0 0 0 0 0 0 0 0 0 0 0 16.23507 15.44665 15.19126 14.93632 14.86708 14.93538 14.83321 14.90582 14.96804 15.00899 15.03545 15.05864 15.07968 15.08854 15.12352 15.15568 15.06417 14.97722 15.10995 15.10705 15.10339 15.11676 15.01187 15.01141 15.00659 15.01249 15.02539 15.05231 15.08932 15.12551 15.13829 15.14259 15.15253 15.14984 15.16591 15.18675 15.18719 15.91182 16.06474 15.75658 15.15112 15.11838 15.06673 15.06449 15.02339 14.95066 14.91402 14.8649 14.82621 14.77591 14.77137 14.78959 14.81013 14.8379 14.84474 14.85089 14.85888 14.86225 14.8616 14.86068
0 0 0 0 0 0 0 0 0 0 0 0 0 0 0 0 0 0 0 0 0 0 0 0 0 0 0 0 0 0 0 0 0 0 0 0 0 0 0 0 0 0 0 0 0 0 0 0 0 15.98698 15.3761 15.12208 14.85666 14.96853 14.86047 14.91728 15.01922 15.08248 15.12899 15.14991 15.01264 15.03418 15.05876 15.08655 15.11381 15.00371 15.02336 15.03048 15.01677 15.00886 15.01043 15.01211 15.00407 15.01013 15.00136 15.00577 15.02353 15.05424 15.08695 15.11488 15.12388 15.13289 15.13588 15.14706 15.16248 15.17948 15.19109 15.18236 15.13108 15.06844 15.02921 14.99875 14.98083 14.89967 14.86783 14.8355 14.80582 14.73861 14.75396 14.79758 14.81956 14.83946 14.86657 14.86244 14.87015 14.85367 14.85486 14.86802 14.87747
0 0 0 0 0 0 0 0 0 0 0 0 0 0 0 0 0 0 0 0 0 0 0 0 0 0 0 0 0 0 0 0 0 0 0 0 0 0 0 0 0 0 0 0 0 0 0 0 0 15.92464 15.25752 15.00107 14.93299 14.85293 14.95226 15.06465 15.0088 15.04798 14.93435 14.94476 14.96303 14.98234 14.99656 15.00286 15.01139 15.02314 15.04898 15.05541 15.03745 15.00437 14.99475 14.97539 14.9318 14.92983 14.96026 14.94976 14.96442 14.9858 15.01046 15.04336 15.05425 15.04346 15.02573 15.04609 15.06391 15.08017 15.07906 15.06244 15.0181 14.97505 14.9424 14.93002 14.89373 14.85065 14.82523 14.78209 14.74465 14.75456 14.76589 14.78997 14.84836 14.87303 14.87741 14.87374 14.87801 14.88487 14.88976 14.88124 14.88702
0 0 0 0 0 0 0 0 0 0 0 0 0 0 0 0 0 0 0 0 0 0 0 0 0 0 0 0 0 0 0 0 0 0 0 0 0 0 0 0 0 0 0 0 0 0 0 0 0 15.80124 15.3038 15.05374 14.98172 14.90987 15.02788 14.99354 14.91753 14.96668 15.00512 15.02125 15.03302 15.03271 15.03745 15.03857 15.0386 15.04881 15.05807 15.0635 15.05264 15.01749 14.99637 14.97028 14.94548 14.93163 14.90583 14.86645 14.85758 14.88565 14.93532 14.97136 14.96947 14.94712 14.91364 14.91349 14.92821 14.96131 14.96072 14.95876 14.91905 14.87493 14.85905 14.84113 14.81136 14.8053 14.78084 14.77131 14.77403 14.7698 14.77583 14.7887 14.83342 14.88978 14.88957 14.89796 14.90648 14.91714 14.91922 14.92561 14.90356
0 0 0 0 0 0 0 0 0 0 0 0 0 0 0 0 0 0 0 0 0 0 0 0 0 0 0 0 0 0 0 0 0 0 0 0 0 0 0 0 0 0 0 0 0 0 0 0 0 15.82422 15.1272 14.91028 15.06069 14.99008 15.12508 15.03189 14.96468 14.99349 15.00374 14.99434 14.98535 14.9959 14.99534 14.99303 14.99995 14.99779 14.98516 14.99431 14.96593 14.94386 14.92668 14.89876 14.87947 14.87316 14.85289 14.8452 14.84032 14.8449 14.86367 14.87478 14.86566 14.86122 14.84534 14.83399 14.83399 14.8681 14.85497 14.83429 14.82485 14.79817 14.79841 14.79729 14.78174 14.78572 14.79118 14.78836 14.79224 14.79412 14.80849 14.81904 14.8506 14.89449 14.91989 14.9279 14.93195 14.93369 14.93398 14.94788 14.94954
0 0 0 0 0 0 0 0 0 0 0 0 0 0 0 0 0 0 0 0 0 0 0 0 0 0 0 0 0 0 0 0 0 0 0 0 0 0 0 0 0 0 0 0 0 0 0 0 0 15.3829 15.19729 14.96323 14.93922 14.91916 15.03296 14.94817 14.99216 14.99203 14.98846 14.97669 14.9654 14.95473 14.94057 14.94165 14.9271 14.91356 14.90829 14.91857 14.90622 14.88181 14.84925 14.81296 14.80229 14.78178 14.77433 14.75625 14.73987 14.73525 14.75734 14.77696 14.77362 14.78709 14.79612 14.79742 14.80463 14.80409 14.80407 14.77972 14.75205 14.72555 14.71811 14.75163 14.76233 14.78343 14.78836 14.79764 14.82464 14.84151 14.85308 14.86385 14.88244 14.91183 14.9255 14.95546 14.9419 14.94319 14.95061 14.96264 15.0006
0 0 0 0 0 0 0 0 0 0 0 0 0 0 0 0 0 0 0 0 0 0 0 0 0 0 0 0 0 0 0 0 0 0 0 0 0 0 0 0 0 0 0 0 0 0 0 0 0 0 15.04487 15.04305 15.03984 14.86631 14.94523 14.95467 15.00778 15.00305 14.97608 14.96408 14.92917 14.89982 14.88824 14.88582 14.86425 14.849 14.85672 14.85885 14.84036 14.82707 14.79212 14.77376 14.76904 14.75915 14.72739 14.70443 14.6875 14.68321 14.69681 14.72211 14.72793 14.72742 14.72538 14.75048 14.76031 14.75598 14.75017 14.74949 14.73975 14.73395 14.72401 14.74763 14.76833 14.79 14.81145 14.83027 14.84656 14.86854 14.90122 14.91083 14.9251 14.94795 14.95187 14.96238 14.95629 14.95682 14.9843 15.0111 15.02157
0 0 0 0 0 0 0 0 0 0 0 0 0 0 0 0 0 0 0 0 0 0 0 0 0 0 0 0 0 0 0 0 0 0 0 0 0 0 0 0 0 0 0 0 0 0 0 0 0 0 15.13077 14.89002 14.76939 14.8907 14.9585 15.00212 15.03493 15.01099 14.97829 14.93499 14.8936 14.86534 14.83802 14.83607 14.81878 14.80932 14.81278 14.82145 14.81109 14.79639 14.76885 14.74826 14.75487 14.73698 14.71471 14.69069 14.66507 14.65528 14.66977 14.68533 14.68968 14.71407 14.73328 14.74008 14.73604 14.7366 14.74283 14.75134 14.75951 14.7352 14.74441 14.7744 14.78725 14.80923 14.86036 14.86218 14.88053 14.90708 14.94409 14.97831 14.98967 15.0014 15.00104 14.99521 14.98788 14.98667 15.01003 15.04263 15.06912
0 0 0 0 0 0 0 0 0 0 0 0 0 0 0 0 0 0 0 0 0 0 0 0 0 0 0 0 0 0 0 0 0 0 0 0 0 0 0 0 0 0 0 0 0 0 0 0 0 0 0 0 14.78903 14.8881 14.9584 15.01965 15.05634 15.00842 14.96104 14.90555 14.85342 14.81218 14.78786 14.77742 14.76274 14.76397 14.78531 14.78576 14.7758 14.76572 14.74598 14.72623 14.71447 14.71537 14.69992 14.6803 14.65224 14.65349 14.65981 14.67641 14.69698 14.71581 14.72941 14.73389 14.74765 14.75297 14.75417 14.7548 14.75703 14.77103 14.78706 14.79469 14.79656 14.84342 14.86734 14.89417 14.92455 14.93094 14.94468 14.9895 15.011 15.0199 15.03592 15.02225 15.0339 15.02645 15.0422 15.07423 15.10406
0 0 0 0 0 0 0 0 0 0 0 0 0 0 0 0 0 0 0 0 0 0 0 0 0 0 0 0 0 0 0 0 0 0 0 0 0 0 0 0 0 0 0 0 0 0 0 0 0 0 16.38418 15.20839 14.95147 14.88716 14.9733 15.02706 15.03873 14.98853 14.93743 14.87159 14.82668 14.77938 14.75354 14.74257 14.73214 14.74014 14.75776 14.74326 14.74447 14.74708 14.72642 14.70571 14.6965 14.69228 14.69867 14.67472 14.65934 14.65397 14.65818 14.68085 14.7041 14.71176 14.74244 14.74314 14.75412 14.75821 14.77139 14.76429 14.76695 14.76492 14.78486 14.79745 14.82785 14.86295 14.88154 14.92073 14.93393 14.9363 14.96874 14.98358 15.00614 15.03174 15.05873 15.06514 15.06893 15.07122 15.08649 15.12193 15.15158
0 0 0 0 0 0 0 0 0 0 0 0 0 0 0 0 0 0 0 0 0 0 0 0 0 0 0 0 0 0 0 0 0 0 0 0 0 0 0 0 0 0 0 0 0 0 0 0 0 0 15.82366 15.18578 15.10038 14.86962 14.93638 14.98026 14.99468 14.94593 14.89778 14.85188 14.8141 14.7657 14.73885 14.71532 14.70639 14.73556 14.73658 14.70213 14.73052 14.71562 14.69017 14.68497 14.6851 14.6811 14.67715 14.66031 14.67758 14.67122 14.67176 14.68651 14.70495 14.72702 14.7363 14.74777 14.75594 14.76748 14.77516 14.7861 14.77967 14.77937 14.7956 14.83177 14.84647 14.86779 14.88179 14.90473 14.93157 14.94787 14.96445 14.98621 15.01831 15.05633 15.09452 15.11444 15.11162 15.10967 15.12267 15.15518 15.18769
0 0 0 0 0 0 0 0 0 0 0 0 0 0 0 0 0 0 0 0 0 0 0 0 0 0 0 0 0 0 0 0 0 0 0 0 0 0 0 0 0 0 0 0 0 0 0 0 0 0 0 15.14521 14.90707 14.84242 14.884 14.90709 14.94539 14.9141 14.87173 14.83758 14.7982 14.7437 14.71902 14.70634 14.70451 14.71683 14.69046 14.69293 14.67934 14.67351 14.66852 14.66635 14.67775 14.68261 14.66863 14.66349 14.66656 14.67184 14.69151 14.7113 14.72146 14.73826 14.75265 14.74088 14.75489 14.76535 14.77361 14.7822 14.80634 14.82325 14.8585 14.87602 14.88747 14.90429 14.9232 14.94414 14.9634 14.97502 14.99975 15.02171 15.05507 15.0875 15.12948 15.16386 15.15899 15.15306 15.15981 15.19245 15.22886
0 0 0 0 0 0 0 0 0 0 0 0 0 0 0 0 0 0 0 0 0 0 0 0 0 0 0 0 0 0 0 0 0 0 0 0 0 0 0 0 0 0 0 0 0 0 0 0 0 0 0 14.95118 14.74039 14.81917 14.83417 14.82668 14.89354 14.86996 14.85125 14.82606 14.78422 14.7438 14.71869 14.7165 14.7081 14.68425 14.70308 14.70762 14.68416 14.63735 14.64048 14.65326 14.66747 14.68648 14.70147 14.67393 14.67359 14.67517 14.70935 14.72742 14.73718 14.76093 14.7669 14.78221 14.78623 14.79028 14.8022 14.8208 14.8487 14.87574 14.90865 14.92966 14.95106 14.97339 14.99062 15.00495 15.02139 15.03632 15.06433 15.08103 15.09916 15.12127 15.15649 15.18745 15.19208 15.18708 15.19824 15.23568 15.27062
0 0 0 0 0 0 0 0 0 0 0 0 0 0 0 0 0 0 0 0 0 0 0 0 0 0 0 0 0 0 0 0 0 0 0 0 0 0 0 0 0 0 0 0 0 0 0 0 0 0 0 14.70601 14.75613 14.82647 14.82437 14.80237 14.8443 14.82877 14.82539 14.79111 14.75906 14.73961 14.71479 14.69369 14.68661 14.72164 14.70758 14.68811 14.66056 14.64727 14.64997 14.65869 14.68214 14.71355 14.72893 14.70745 14.6911 14.70395 14.72498 14.75288 14.77608 14.80033 14.81143 14.81514 14.82866 14.84509 14.85465 14.87921 14.91325 14.95623 14.98693 15.00274 15.01793 15.03639 15.04334 15.05924 15.08591 15.10117 15.11862 15.13323 15.15223 15.16182 15.18562 15.21496 15.22515 15.23275 15.25109 15.28315 15.30333
0 0 0 0 0 0 0 0 0 0 0 0 0 0 0 0 0 0 0 0 0 0 0 0 0 0 0 0 0 0 0 0 0 0 0 0 0 0 0 0 0 0 0 0 0 0 0 0 0 16.2137 15.46702 14.76657 14.77488 14.80384 14.81273 14.81166 14.82587 14.7862 14.79838 14.76989 14.756 14.75438 14.73423 14.71852 14.70978 14.7113 14.71111 14.69902 14.66794 14.66343 14.67249 14.698 14.74534 14.77373 14.7278 14.7659 14.7647 14.77194 14.79969 14.82461 14.835 14.84505 14.85626 14.85954 14.86857 14.88482 14.89439 14.9197 14.95377 14.98667 15.02113 15.05736 15.07772 15.09082 15.10133 15.1149 15.13261 15.15079 15.15836 15.17592 15.19733 15.21352 15.22088 15.24175 15.26412 15.28108 15.30278 15.31852 15.3344
0 0 0 0 0 0 0 0 0 0 0 0 0 0 0 0 0 0 0 0 0 0 0 0 0 0 0 0 0 0 0 0 0 0 0 0 0 0 0 0 0 0 0 0 0 0 0 0 15.53852 15.17835 14.92916 14.79331 14.78953 14.79092 14.79074 14.80314 14.82826 14.78954 14.7873 14.79727 14.79749 14.80068 14.78344 14.74818 14.72996 14.73927 14.75591 14.75859 14.7375 14.72596 14.73217 14.74758 14.77088 14.80244 14.79339 14.82742 14.8603 14.86777 14.89025 14.90272 14.90409 14.92028 14.91119 14.91413 14.92368 14.93852 14.93842 14.95405 14.9822 15.02776 15.06644 15.09281 15.11706 15.13834 15.14187 15.15293 15.16927 15.19091 15.22269 15.23604 15.24108 15.25981 15.27568 15.28206 15.29292 15.30563 15.33024 15.34782 15.36362
0 0 0 0 0 0 0 0 0 0 0 0 0 0 0 0 0 0 0 0 0 0 0 0 0 0 0 0 0 0 0 0 0 0 0 0 0 0 0 0 0 0 0 0 0 15.31242 15.14667 15.64758 15.27833 15.29513 15.05673 14.83635 14.80471 14.76656 14.77545 14.80565 14.83849 14.81785 14.78732 14.81166 14.8463 14.82726 14.82146 14.79645 14.79439 14.79617 14.79981 14.79632 14.77679 14.79555 14.79419 14.80933 14.82373 14.8555 14.88181 14.89221 14.90191 14.916 14.93045 14.94763 14.94561 14.94345 14.94493 14.96262 14.97033 14.9885 14.98883 14.99891 15.03562 15.07528 15.11866 15.162 15.1801 15.19409 15.21197 15.22002 15.2342 15.25802 15.28115 15.29662 15.30454 15.31349 15.32556 15.3319 15.32837 15.34073 15.36036 15.38201 15.39979
0 0 0 0 0 0 0 0 0 0 0 0 0 0 0 0 0 0 0 0 0 0 0 0 0 0 0 0 0 0 0 0 0 0 0 0 0 0 0 0 0 0 17.11969 16.87142 15.90852 15.28251 14.91198 14.94734 15.35023 15.13626 14.95186 14.86821 14.82623 14.79652 14.82753 14.83794 14.83609 14.81753 14.82649 14.83613 14.88227 14.89363 14.87701 14.86657 14.85987 14.86166 14.85875 14.8509 14.83697 14.83817 14.82382 14.84022 14.86895 14.89524 14.91466 14.92407 14.94179 14.9608 14.96895 14.99472 14.98935 14.99421 15.011 15.02547 15.02644 15.04067 15.04359 15.05181 15.08788 15.12308 15.16325 15.20958 15.24453 15.27032 15.28164 15.31222 15.33766 15.35673 15.37905 15.3856 15.37777 15.37359 15.38459 15.3836 15.38344 15.38637 15.39467 15.41247 15.42595
0 0 0 0 0 0 0 0 0 0 0 0 0 0 0 0 0 0 0 0 0 0 0 0 0 0 0 0 0 0 0 0 0 0 0 0 0 0 0 0 16.29223 16.62301 16.95463 15.96379 15.39564 14.95169 14.99137 15.01747 14.99701 14.94557 14.93122 14.89368 14.86084 14.82719 14.83907 14.83618 14.84853 14.83634 14.85038 14.87221 14.92517 14.93848 14.94429 14.91061 14.91168 14.91363 14.90644 14.91064 14.91003 14.91066 14.89311 14.89953 14.93154 14.97374 14.96923 14.97473 14.97895 14.99639 15.03468 15.04913 15.0511 15.05619 15.07824 15.08279 15.08561 15.09544 15.10589 15.12467 15.15623 15.18624 15.221 15.25917 15.29093 15.31987 15.33571 15.36193 15.38626 15.4205 15.43178 15.44107 15.44127 15.4445 15.44175 15.43535 15.43167 15.42985 15.43489 15.45111 15.46833
0 0 0 0 0 0 0 0 0 0 0 0 0 0 0 0 0 0 0 0 0 0 0 0 0 0 0 0 0 0 0 0 0 0 0 0 0 0 0 16.51579 16.26672 15.76341 15.61305 14.94282 14.96028 14.99149 15.00873 15.02586 15.00811 14.9604 14.92121 14.87741 14.88269 14.87102 14.85866 14.8615 14.86065 14.87713 14.86621 14.9259 14.96741 14.99496 15.02906 14.97779 14.97274 14.99314 14.98758 15.00461 15.00329 15.00079 14.98558 14.97987 14.99808 15.03506 15.05805 15.05425 15.06286 15.08226 15.10004 15.12499 15.12737 15.13327 15.13395 15.1416 15.14168 15.15093 15.16865 15.19349 15.21748 15.24498 15.27741 15.32436 15.36087 15.38743 15.39878 15.42056 15.45118 15.47215 15.48444 15.49035 15.4945 15.48563 15.48166 15.47415 15.47388 15.47069 15.47121 15.48956 15.5027
0 0 0 0 0 0 0 0 0 0 0 0 0 0 0 0 0 0 0 0 0 0 0 0 0 0 0 0 0 0 0 0 0 0 0 0 0 0 15.8686 15.64317 15.45253 15.04493 15.05379 15.03687 15.01316 15.01604 15.01411 15.02083 14.99773 14.97577 14.9504 14.95299 14.93362 14.92643 14.90246 14.88513 14.90019 14.92567 14.9464 14.99699 15.03017 15.06015 15.05766 15.04685 15.05358 15.06632 15.07547 15.10358 15.09604 15.08083 15.07607 15.05722 15.06129 15.07956 15.09805 15.102 15.11859 15.13352 15.15979 15.18279 15.20131 15.21084 15.21223 15.22294 15.22917 15.23687 15.2573 15.26999 15.29669 15.32962 15.35828 15.38378 15.40667 15.42596 15.43285 15.46612 15.48702 15.51683 15.5175 15.52385 15.52504 15.5183 15.51686 15.5112 15.51278 15.51613 15.52281 15.53677 15.55467
0 0 0 0 0 0 0 0 0 0 0 0 0 0 0 0 0 0 0 0 0 0 0 0 0 0 0 0 0 0 0 0 0 0 17.50303 18.06272 17.24887 15.75765 15.10594 15.13278 15.14659 15.13307 15.11221 15.07062 15.04677 15.02595 15.03337 15.05183 15.07081 15.06784 15.04125 15.04388 15.0188 15.00774 15.00294 14.99515 15.01105 15.02792 15.06047 15.07218 15.10806 15.10811 15.11425 15.118 15.11752 15.12704 15.15188 15.18267 15.19335 15.20359 15.18014 15.16454 15.16181 15.15424 15.15283 15.1655 15.18611 15.20194 15.22117 15.24925 15.26276 15.27307 15.2767 15.28586 15.29242 15.30701 15.32599 15.34728 15.35926 15.39259 15.41836 15.44106 15.46068 15.48227 15.50085 15.51709 15.53141 15.55262 15.55974 15.55375 15.5504 15.54648 15.54771 15.54424 15.55146 15.55698 15.57067 15.58658 15.60022
0 0 0 0 0 0 0 0 0 0 0 0 0 0 0 0 0 0 0 0 0 0 0 0 0 0 0 0 0 17.924 17.5514 17.3719 17.38888 17.19092 16.91937 16.36847 15.16378 15.19059 15.21648 15.23918 15.22312 15.17838 15.15289 15.13042 15.1409 15.11152 15.10657 15.10355 15.10995 15.10324 15.12528 15.10935 15.10051 15.10799 15.0871 15.09821 15.09567 15.10206 15.12793 15.16335 15.17981 15.18318 15.1816 15.16132 15.16992 15.1879 15.21922 15.23617 15.25363 15.26078 15.25706 15.25124 15.24356 15.26433 15.23773 15.25309 15.27927 15.28292 15.30142 15.33151 15.33717 15.35357 15.36822 15.36647 15.37933 15.38448 15.38958 15.41092 15.4198 15.44319 15.46935 15.4901 15.51034 15.5294 15.55285 15.56774 15.57516 15.58075 15.59545 15.59137 15.58796 15.58325 15.58797 15.5874 15.59248 15.60158 15.6159 15.63009 15.63078
0 0 0 0 0 0 0 0 0 0 0 0 0 0 0 0 0 0 0 0 0 0 0 0 0 17.75228 17.09232 17.12746 16.28641 15.74898 15.49329 15.24193 15.24146 15.25673 15.24612 15.22883 15.23504 15.25402 15.27771 15.28543 15.26741 15.24825 15.2283 15.21002 15.19295 15.1257 15.12846 15.13901 15.1432 15.15806 15.17772 15.18369 15.17648 15.16963 15.15322 15.18208 15.17783 15.17988 15.19627 15.23683 15.23951 15.2205 15.21037 15.20742 15.21828 15.25096 15.27245 15.29239 15.313 15.33281 15.35153 15.33889 15.33096 15.35107 15.35032 15.33626 15.34558 15.36243 15.38446 15.41014 15.40954 15.42133 15.43583 15.4434 15.44905 15.46507 15.47606 15.48512 15.49478 15.50791 15.53448 15.55235 15.56679 15.58493 15.6055 15.61816 15.61905 15.61854 15.62412 15.63012 15.62934 15.62434 15.62884 15.63831 15.64595 15.65538 15.66165 15.66613 15.65068
0 0 0 0 0 0 0 0 0 0 0 0 0 0 0 0 0 0 0 0 0 0 0 17.91155 17.11601 16.60396 16.356 16.10154 15.3209 15.32468 15.31226 15.30577 15.30494 15.29102 15.27884 15.26844 15.2903 15.32373 15.3589 15.36618 15.32595 15.28371 15.22865 15.1958 15.17698 15.15545 15.15237 15.15733 15.17009 15.19887 15.24263 15.23116 15.22814 15.24162 15.22899 15.22568 15.22849 15.23705 15.25495 15.28444 15.31998 15.30713 15.27061 15.2625 15.27942 15.31536 15.32729 15.34609 15.36382 15.39654 15.42572 15.41714 15.42879 15.42663 15.43025 15.43238 15.43992 15.46128 15.48156 15.50432 15.49917 15.49929 15.51181 15.51875 15.52728 15.53331 15.53819 15.54664 15.55909 15.56935 15.58405 15.60098 15.61834 15.64035 15.65167 15.65771 15.66611 15.6694 15.67038 15.68095 15.67901 15.6818 15.6881 15.69304 15.69087 15.6944 15.6939 15.68746 15.6604
0 0 0 0 0 0 0 0 0 0 0 0 0 0 0 0 0 0 0 0 0 0 17.35653 16.54411 16.31266 16.36825 16.10378 15.82839 15.32342 15.32678 15.32981 15.32174 15.32246 15.31711 15.33717 15.34913 15.34706 15.33728 15.34625 15.36509 15.32593 15.29348 15.26568 15.238 15.20495 15.20366 15.20019 15.20675 15.22553 15.25409 15.27547 15.27862 15.28466 15.28848 15.29512 15.3019 15.30027 15.29445 15.30377 15.32001 15.35512 15.34282 15.33609 15.32395 15.33818 15.36134 15.38655 15.40797 15.43838 15.46264 15.50156 15.48483 15.49401 15.4994 15.51008 15.51632 15.53076 15.54467 15.57511 15.57906 15.58264 15.58845 15.59631 15.60167 15.60783 15.61038 15.61608 15.62101 15.62544 15.62625 15.63184 15.64941 15.66796 15.68196 15.68878 15.68656 15.69879 15.7087 15.7195 15.72099 15.72511 15.72895 15.74285 15.73905 15.73663 15.74194 15.73163 15.7087 15.66991
0 0 0 0 0 0 0 0 0 0 0 0 0 0 0 0 0 0 0 0 0 18.49248 17.55629 16.53653 16.01096 16.06895 15.82934 15.8629 15.34924 15.34665 15.34301 15.3278 15.32198 15.3246 15.3356 15.33139 15.32739 15.33152 15.35387 15.35852 15.34226 15.3135 15.27831 15.27726 15.26057 15.25941 15.25868 15.27317 15.29204 15.30676 15.3221 15.33733 15.35255 15.36127 15.38752 15.40313 15.3757 15.36013 15.36525 15.38347 15.3909 15.40601 15.38567 15.37797 15.38394 15.42936 15.45495 15.48753 15.51752 15.54807 15.57834 15.56729 15.57401 15.58177 15.60268 15.61158 15.62415 15.63117 15.64769 15.6553 15.65319 15.65243 15.64809 15.65004 15.66004 15.6808 15.68021 15.68087 15.69304 15.69652 15.7005 15.71492 15.72555 15.72637 15.7262 15.73424 15.74987 15.75785 15.76101 15.75868 15.7565 15.76526 15.77682 15.78172 15.78477 15.77899 15.76562 15.72788 15.66927
0 0 0 0 0 0 0 0 0 0 0 0 0 0 0 0 0 0 0 0 0 0 0 17.10169 16.31407 16.06994 15.83035 15.61603 15.34487 15.34781 15.34436 15.34083 15.33709 15.33372 15.32615 15.33315 15.33721 15.34826 15.35438 15.37235 15.35862 15.33817 15.33303 15.32096 15.30999 15.31266 15.32062 15.32807 15.33977 15.353 15.37281 15.39295 15.41253 15.42606 15.43808 15.44574 15.45531 15.44502 15.43377 15.43654 15.4505 15.45312 15.44995 15.44976 15.45614 15.49469 15.52378 15.5536 15.58314 15.62354 15.6497 15.64861 15.65742 15.68071 15.68596 15.69095 15.70125 15.70906 15.72487 15.73194 15.73085 15.72417 15.72262 15.72105 15.73881 15.74486 15.74462 15.75417 15.75716 15.75572 15.76066 15.76752 15.76486 15.76137 15.77511 15.79691 15.8095 15.81271 15.81541 15.80951 15.81178 15.82138 15.83564 15.83736 15.83196 15.82375 15.7954 15.74506 15.67444
0 0 0 0 0 0 0 0 0 0 0 0 0 0 0 0 0 0 0 0 0 18.93676 18.6641 17.75143 16.36173 16.11235 15.84827 15.89405 15.60849 15.36054 15.35157 15.34454 15.34867 15.33934 15.32799 15.32097 15.34607 15.36418 15.3739 15.38119 15.37649 15.36288 15.35819 15.34712 15.33292 15.36281 15.35648 15.38179 15.41499 15.4333 15.44367 15.45578 15.46366 15.48207 15.49135 15.51291 15.50784 15.49556 15.48416 15.49887 15.49538 15.51605 15.52748 15.53861 15.55988 15.57366 15.61679 15.64404 15.66865 15.70475 15.72433 15.74468 15.76263 15.76405 15.76878 15.77322 15.77827 15.77921 15.77971 15.78135 15.78394 15.78082 15.78686 15.80138 15.80976 15.81775 15.82055 15.82408 15.82243 15.82936 15.82798 15.82439 15.81956 15.82865 15.83903 15.85117 15.86054 15.86374 15.86676 15.86545 15.86476 15.87341 15.88381 15.87869 15.87371 15.85341 15.82081 15.76391 15.68547
0 0 0 0 0 0 0 0 0 0 0 0 0 0 0 0 0 0 0 18.87938 18.84021 18.77846 18.03052 16.9939 16.41246 16.17275 15.92834 16.20946 15.39257 15.36688 15.35668 15.35155 15.35354 15.34633 15.32453 15.32952 15.34003 15.35684 15.40077 15.40898 15.39882 15.38291 15.3717 15.37061 15.36727 15.39052 15.41395 15.42754 15.46004 15.4776 15.49656 15.51899 15.5308 15.54788 15.56907 15.57848 15.58221 15.57657 15.56587 15.53938 15.53924 15.55086 15.58442 15.59956 15.61702 15.63599 15.66194 15.70206 15.73431 15.76509 15.78913 15.80377 15.82687 15.82943 15.83541 15.84203 15.84745 15.84623 15.85176 15.8519 15.85292 15.85518 15.86491 15.87243 15.87794 15.88192 15.87857 15.87882 15.87698 15.87843 15.87462 15.87653 15.88146 15.89453 15.91093 15.92591 15.93252 15.93398 15.93521 15.93518 15.92933 15.93366 15.93139 15.91986 15.90548 15.88122 15.84234 15.78369 15.70447
0 0 0 0 0 0 0 0 0 0 0 0 0 0 0 0 0 0 18.40637 18.29378 18.00285 17.57905 17.03609 16.44803 16.22043 16.25237 16.00026 15.71431 15.43057 15.38139 15.3651 15.35053 15.34502 15.33661 15.33795 15.35327 15.35663 15.37547 15.41698 15.43916 15.43837 15.4259 15.43358 15.42981 15.42681 15.44049 15.45542 15.49098 15.52739 15.54616 15.58275 15.60808 15.61509 15.63894 15.64877 15.65546 15.65649 15.65444 15.65814 15.64417 15.63196 15.63291 15.6425 15.65557 15.67603 15.70435 15.73415 15.75868 15.77946 15.80144 15.83507 15.85984 15.87264 15.87749 15.88835 15.89709 15.89545 15.90188 15.91237 15.91294 15.9255 15.93358 15.94125 15.94672 15.9522 15.95031 15.94363 15.94344 15.94123 15.93889 15.92994 15.92965 15.93696 15.95082 15.96416 15.97961 15.9919 15.99228 15.99662 15.99422 15.9917 15.98955 15.98678 15.9717 15.9494 15.91291 15.87774 15.82035 15.74658
0 0 0 0 0 0 0 0 0 0 0 0 0 0 0 0 0 18.80991 18.27229 17.77649 17.34021 16.7569 16.49854 16.53751 16.57068 16.27231 15.99312 15.46724 15.4334 15.389 15.37284 15.38305 15.36537 15.34036 15.34545 15.37317 15.37575 15.40899 15.43857 15.4576 15.45967 15.44885 15.44372 15.47236 15.482 15.51621 15.52638 15.55084 15.5802 15.61563 15.65654 15.69439 15.70448 15.71053 15.72037 15.72487 15.71406 15.71129 15.70276 15.69299 15.69339 15.69571 15.69366 15.69666 15.71019 15.74281 15.7745 15.79264 15.81594 15.84006 15.87612 15.89809 15.91961 15.92859 15.93444 15.9396 15.95683 15.96235 15.961 15.97234 15.99098 15.99266 15.9967 15.99933 16.00371 16.00202 15.99694 16.00018 16.00263 15.99989 15.98972 15.99212 15.99777 16.00952 16.02599 16.03592 16.04095 16.04326 16.04562 16.04151 16.03663 16.03456 16.0231 16.00407 15.97915 15.95213 15.91499 15.857 15.78982
0 0 0 0 0 0 0 0 0 0 0 0 0 0 0 0 18.3346 18.28222 17.55228 17.04545 16.78306 16.50092 16.51599 16.54724 16.54791 16.29766 15.99754 15.47538 15.42357 15.39335 15.37646 15.37767 15.3723 15.37255 15.38455 15.40034 15.41919 15.44367 15.45014 15.45069 15.46327 15.47638 15.4804 15.49559 15.52217 15.54533 15.57339 15.59383 15.62236 15.66745 15.70931 15.74667 15.77441 15.79243 15.80333 15.81276 15.79133 15.77853 15.78425 15.79132 15.77859 15.77164 15.75549 15.75091 15.76218 15.78404 15.81052 15.83634 15.87307 15.89038 15.90752 15.92186 15.94986 15.97312 15.98665 16.00457 16.0168 16.02426 16.0393 16.05587 16.06739 16.06907 16.06554 16.06337 16.06334 16.06401 16.0594 16.05614 16.05002 16.04329 16.0315 16.04274 16.04151 16.05392 16.06987 16.07734 16.08415 16.0831 16.08325 16.0824 16.07997 16.07246 16.06362 16.04681 16.01965 15.99282 15.9547 15.89954 15.83176
0 0 0 0 0 0 0 0 0 0 0 0 0 0 0 18.89131 18.16166 17.52793 17.02069 16.78159 16.52326 16.54657 16.52249 16.2525 16.29861 16.02495 15.47682 15.46803 15.42471 15.39974 15.38018 15.37655 15.37765 15.37546 15.37631 15.40879 15.42607 15.46313 15.48291 15.49923 15.51581 15.53717 15.55386 15.56875 15.59813 15.62581 15.64329 15.66765 15.70345 15.74808 15.76984 15.79282 15.81065 15.83368 15.85431 15.87168 15.87182 15.87756 15.88449 15.88725 15.88239 15.87076 15.86816 15.85437 15.85549 15.85264 15.88162 15.89499 15.91247 15.92325 15.94217 15.9541 15.98163 16.01221 16.04079 16.0614 16.06961 16.08915 16.10404 16.12207 16.12419 16.12485 16.12671 16.12766 16.13134 16.13091 16.12791 16.12237 16.11407 16.1011 16.09243 16.09074 16.09567 16.10402 16.10674 16.10872 16.10895 16.1091 16.10957 16.11095 16.10775 16.10259 16.08879 16.07617 16.05935 16.03365 15.99842 15.94672 15.88141
0 0 0 0 0 0 0 0 0 0 0 0 0 0 18.20014 18.19843 17.53751 17.00251 16.74112 16.47124 16.4966 16.22244 16.22186 16.24192 15.99053 15.726 15.47109 15.46589 15.42931 15.41355 15.39521 15.39541 15.39073 15.3861 15.41491 15.43802 15.4597 15.48953 15.53123 15.5604 15.57227 15.58597 15.60715 15.63451 15.67025 15.70541 15.74462 15.78968 15.813 15.82814 15.84065 15.8569 15.87154 15.8925 15.91873 15.94138 15.9466 15.94064 15.93747 15.94102 15.9559 15.95725 15.96065 15.95494 15.931 15.93608 15.94497 15.94362 15.9444 15.95435 15.97425 15.99223 16.01738 16.05248 16.09422 16.11976 16.13013 16.15361 16.16835 16.17826 16.17958 16.18022 16.18289 16.18454 16.18759 16.19017 16.19038 16.18595 16.18118 16.16386 16.1502 16.14446 16.14652 16.14888 16.14905 16.14834 16.14624 16.14246 16.1403 16.13874 16.13843 16.13111 16.12181 16.10336 16.09141 16.06444 16.02625 15.97733 15.90897
0 0 0 0 0 0 0 0 0 0 0 0 0 18.0654 18.20347 17.50735 16.96051 16.70356 16.43171 16.45085 16.17696 16.17954 16.19621 16.2514 15.99246 15.45505 15.45535 15.46008 15.43811 15.43116 15.42244 15.42278 15.43098 15.43602 15.46489 15.49018 15.50643 15.5436 15.57863 15.60098 15.62221 15.65176 15.68973 15.73108 15.77289 15.81267 15.84077 15.86655 15.88435 15.89375 15.9012 15.91806 15.9458 15.96603 15.99027 16.00241 16.00681 16.00167 0 0 0 15.95793 15.97884 16.04251 16.03314 16.01938 16.01199 16.01706 15.99335 15.99106 16.00404 16.02218 16.04923 16.08773 16.13113 16.16287 16.17738 16.20815 16.22444 16.23884 16.2501 16.25548 16.25547 16.25467 16.2633 16.26533 16.26742 16.26163 16.25054 16.23499 16.21934 16.20747 16.19885 16.19312 16.18973 16.18509 16.17838 16.17058 16.16855 16.16472 16.16489 16.15794 16.14833 16.13826 16.1232 16.10356 16.06405 16.00906 15.94088
0 0 0 0 0 0 0 0 0 0 0 0 0 18.4256 17.56712 16.93624 16.66246 16.39041 16.41608 16.16887 16.18709 16.19087 16.23691 15.42583 15.44191 15.45546 15.4574 15.46435 15.45358 15.4506 15.45878 15.45745 15.46353 15.46542 15.48502 15.51357 15.55694 15.58603 15.63576 15.67154 15.71082 15.75364 15.78951 15.83525 15.88183 15.90563 15.92677 15.93813 15.94564 15.94718 15.9573 16.64307 15.98437 16.00696 16.02637 16.36677 17.05647 17.73999 0 0 0 0 0 16.43795 16.09287 16.07963 16.06062 16.05267 16.0485 16.04374 16.04788 16.06858 16.09321 16.12817 16.16979 16.2032 16.22948 16.25336 16.27197 16.28613 16.29934 16.3018 16.30704 16.31136 16.31704 16.32672 16.32518 16.32511 16.31726 16.30718 16.29776 16.28555 16.27062 16.25725 16.24591 16.23047 16.22434 16.21659 16.2062 16.19537 16.19145 16.18043 16.17469 16.1616 16.14724 16.12984 16.08933 16.03241 15.96265
0 0 0 0 0 0 0 0 0 0 0 0 18.56556 17.79921 16.93766 16.65194 16.39694 16.18813 16.1927 16.19991 16.20659 16.22534 15.97124 15.4375 15.45059 15.45238 15.47232 15.4791 15.47438 15.48485 15.49145 15.49819 15.50027 15.50352 15.52694 15.55895 15.58215 15.63106 15.6832 15.71706 15.77374 15.82121 15.86364 15.89804 15.92398 15.95543 15.96273 0 0 15.95004 0 17.48118 16.73676 16.37672 16.75077 16.74537 17.44757 17.82014 18.71143 16.75917 16.11614 0 0 0 17.58328 16.10876 16.08861 16.07393 16.07973 16.07407 16.08099 16.10276 16.13741 16.17418 16.21684 16.24362 16.26885 16.28985 16.31344 16.33191 16.34787 16.35006 16.35246 16.3585 16.36031 16.36174 16.36651 16.36688 16.36892 16.36117 16.35454 16.33992 16.32686 16.31496 16.29757 16.28309 16.27073 16.26189 16.24973 16.23826 16.22496 16.2144 16.20462 16.18775 16.16938 16.1511 16.10784 16.04616 15.9716
0 0 0 0 0 0 0 0 0 0 0 17.8117 17.7838 16.95517 16.67727 16.17066 16.21192 16.22336 16.20918 16.21498 16.25117 15.67286 15.41497 15.43137 15.44665 15.45127 15.48137 15.50486 15.51142 15.51885 15.53054 15.53382 15.53685 15.54105 15.5633 15.60281 15.64742 15.70961 15.76675 15.80998 15.86624 15.90226 15.92775 15.95202 16.65366 0 0 0 0 0 18.19184 18.9025 18.7243 18.2385 17.9108 17.50964 17.49506 16.43222 16.09786 16.10697 16.12043 16.121 16.12929 17.97544 18.31111 16.1346 16.1193 16.10885 16.11447 16.10828 16.12273 16.14008 16.17186 16.20731 16.2462 16.27409 16.29928 16.32359 16.34794 16.3755 16.38762 16.39022 16.4037 16.39902 16.40016 16.40242 16.41192 16.41415 16.41986 16.42194 16.40922 16.39533 16.37851 16.36329 16.34675 16.33135 16.31425 16.29836 16.28476 16.271 16.25867 16.24448 16.23 16.21033 16.19303 16.16446 16.12995 16.06976 15.99435
0 0 0 0 0 0 0 0 0 0 18.50337 17.81833 16.97227 16.38822 16.18189 15.93375 15.95269 15.96819 15.97711 15.97462 15.97674 15.41448 15.41611 15.44185 15.45802 15.46924 15.49059 15.53111 15.53987 15.54966 15.56632 15.57156 15.57272 15.57512 15.59998 15.64851 15.71252 15.78823 15.84369 15.89128 15.94025 15.9621 16.30613 0 0 0 0 0 0 0 0 0 0 0 18.30977 17.97004 17.22405 16.13644 16.13558 16.14705 16.15867 16.16784 16.17255 16.17317 16.17042 16.1704 16.16156 16.1616 16.15736 16.1527 16.15875 16.1759 16.2019 16.23695 16.27081 16.306 16.33946 16.36036 16.38476 16.40637 16.42012 16.43011 16.42872 16.43268 16.43519 16.43756 16.44479 16.45283 16.45846 16.4633 16.4565 16.44908 16.43134 16.41806 16.40051 16.38299 16.36254 16.34929 16.32963 16.31561 16.30414 16.28947 16.26557 16.23789 16.21115 16.17951 16.14337 16.0825 16.01256
0 0 0 0 0 0 0 0 0 0 18.04678 16.94536 16.37501 16.17686 15.67444 15.7017 15.4453 15.44347 15.43034 15.4318 15.4401 15.42987 15.44086 15.45842 15.47784 15.49169 15.53019 15.56339 15.56944 15.59265 15.60348 15.60419 15.60676 15.62267 15.65625 15.70979 15.77608 15.82855 15.88134 15.9338 17.03949 0 0 0 0 0 0 0 0 0 0 0 0 0 18.96406 17.67834 16.18699 16.1854 16.19282 16.20745 16.22356 16.23362 16.22513 16.21494 16.20573 16.19881 16.20311 16.20669 16.20027 16.19242 16.1953 16.20698 16.22874 16.2645 16.29859 16.33935 16.37857 16.39831 16.42534 16.44652 16.45394 16.45904 16.4642 16.46961 16.47368 16.47924 16.48603 16.49401 16.50032 16.50222 16.49671 16.48838 16.47495 16.46129 16.44215 16.42203 16.40106 16.38731 16.37342 16.36205 16.34614 16.32793 16.30071 16.26824 16.23485 16.19942 16.15824 16.09858 16.0298
0 0 0 0 0 0 0 0 0 18.1233 17.55933 16.63871 16.11104 15.62311 15.43088 15.44671 15.42889 15.43194 15.44008 15.4522 15.44519 15.44538 15.47013 15.48706 15.49948 15.52565 15.56061 15.58625 15.60666 15.61666 15.63042 15.64298 15.6494 15.67078 15.70912 15.77242 15.82187 15.87509 15.92776 16.65233 16.85901 0 0 0 0 0 0 0 0 0 0 0 0 18.29753 18.08165 16.9265 16.20617 16.21201 16.22509 16.24835 16.27203 16.2779 16.27452 16.25781 16.24535 16.24379 16.24929 16.24955 16.24581 16.24035 16.2402 16.2508 16.27144 16.30168 16.33722 16.37224 16.40688 16.43335 16.45729 16.46922 16.48315 16.49508 16.49495 16.49702 16.50783 16.52203 16.53147 16.5383 16.54444 16.54617 16.5436 16.53414 16.51741 16.50252 16.4847 16.46515 16.44702 16.42838 16.41182 16.39897 16.3786 16.35769 16.3267 16.29285 16.25609 16.21535 16.16921 16.10825 16.03947
0 0 0 0 0 0 0 0 19.15345 17.89079 16.59798 16.06742 15.81802 15.35006 15.36767 15.39341 15.40588 15.41431 15.42549 15.43334 15.45231 15.47103 15.49119 15.50537 15.52602 15.56569 15.60877 15.63064 15.6419 15.6523 15.66088 15.66936 15.67932 15.70039 15.74665 15.80541 15.84962 15.89547 16.26799 16.64802 17.05825 17.8222 0 18.64419 19.21994 0 0 0 0 0 0 0 19.02903 18.08853 17.32439 16.20226 16.22703 16.24684 16.27263 16.29346 16.29995 16.30232 16.29934 16.2924 16.28494 16.2768 16.27392 16.27724 16.27737 16.27317 16.27122 16.28196 16.30716 16.33314 16.36714 16.40141 16.42875 16.45681 16.48179 16.49701 16.51211 16.51786 16.52246 16.52242 16.53166 16.55007 16.55824 16.56658 16.5722 16.57164 16.57072 16.56044 16.54778 16.53681 16.52349 16.5055 16.48864 16.46956 16.45311 16.43806 16.418 16.3886 16.35124 16.31762 16.28143 16.23311 16.1783 16.11754 16.05091
0 0 0 0 0 0 0 0 19.15923 17.91098 16.60635 16.06374 15.30072 15.32872 15.34718 15.36375 15.38981 15.40279 15.41787 15.44309 15.45958 15.48009 15.50779 15.54345 15.56746 15.61217 15.6525 15.68107 15.69638 15.7106 15.72669 15.73494 15.74415 15.76549 15.8031 15.85145 15.88752 15.91428 15.94606 16.30377 16.68209 17.09592 17.51802 17.91461 18.66996 0 0 0 0 0 0 18.46326 17.72792 17.73487 16.20285 16.22026 16.26781 16.29437 16.31618 16.32752 16.33561 16.33179 16.32616 16.32209 16.31176 16.30098 16.29209 16.29456 16.29996 16.29407 16.29041 16.30758 16.33119 16.35584 16.39079 16.42384 16.45254 16.48095 16.50618 16.5224 16.53635 16.54456 16.54743 16.55254 16.56851 16.58425 16.59315 16.59505 16.59939 16.59824 16.59273 16.58466 16.57181 16.55967 16.54903 16.5306 16.51436 16.50032 16.48053 16.4653 16.44826 16.41766 16.38042 16.34007 16.29538 16.24567 16.18733 16.13003 16.06667
0 0 0 0 0 0 0 0 0 17.93717 16.61879 16.06337 15.29287 15.31242 15.32425 15.34962 15.36518 15.37973 15.41263 15.44948 15.48183 15.50248 15.52934 15.5725 15.60778 15.65525 15.6964 15.75574 15.78529 15.79967 15.81026 15.81901 15.82284 15.83419 15.86146 15.89837 15.92601 15.94654 15.97638 15.99457 16.00727 16.02876 16.05082 16.41892 17.21384 17.98142 18.74839 19.09614 0 0 18.77174 17.70964 16.93644 16.21686 16.23637 16.26946 16.31861 16.33497 16.35094 16.3556 16.35744 16.35887 16.3601 16.3558 16.34589 16.33185 16.32563 16.32206 16.3193 16.32175 16.32637 16.3441 16.36461 16.38988 16.41698 16.44594 16.47304 16.50061 16.53209 16.54733 16.55531 16.56031 16.5653 16.58 16.59612 16.60846 16.62065 16.63174 16.6339 16.62823 16.62256 16.61453 16.59971 16.58628 16.57485 16.55946 16.54238 16.52881 16.50813 16.48806 16.47061 16.43885 16.39818 16.35538 16.3098 16.25819 16.20451 16.14094 16.07852
0 0 0 0 0 0 0 0 0 19.0596 17.32946 16.3663 15.53497 15.31791 15.31283 15.33686 15.34005 15.36618 15.41122 15.45164 15.50196 15.53038 15.56063 15.61056 15.64907 15.6967 15.77193 15.84148 15.86838 15.88744 15.89927 15.89992 15.89946 15.89934 15.91154 15.93844 15.96575 15.97868 15.99661 16.01163 16.02114 16.03721 16.06531 16.09023 16.45726 16.85193 17.25424 17.65083 18.77104 17.68989 16.53227 16.19961 16.22232 16.25285 16.28959 16.32766 16.35748 16.37196 16.38054 16.3815 16.37711 16.37604 16.37295 16.36901 16.36058 16.35973 16.35504 16.34723 16.34053 16.34794 16.36312 16.37919 16.39629 16.42105 16.45249 16.47782 16.50229 16.5274 16.55636 16.56832 16.5791 16.5851 16.59386 16.60327 16.61571 16.631 16.6461 16.65486 16.65734 16.65603 16.64991 16.6394 16.62388 16.61242 16.59781 16.58241 16.56915 16.55521 16.53642 16.51432 16.49331 16.45884 16.41804 16.37346 16.32864 16.27443 16.21837 16.15342 16.08468
0 0 0 0 0 0 0 0 0 19.23063 18.28939 16.67911 15.80899 15.31954 15.32599 15.34444 15.33764 15.3676 15.41703 15.46807 15.50153 15.54692 15.58222 15.61604 15.67516 15.75433 15.84249 15.91852 15.95785 15.97425 15.9746 15.97142 15.97294 15.97534 15.9698 15.97949 16.00356 16.0221 16.02192 16.03172 16.03902 16.04706 16.06726 16.09394 16.11705 16.13681 16.51295 0 17.70301 16.56054 16.22832 16.25101 16.27695 16.30666 16.34266 16.37576 16.40066 16.41348 16.41708 16.41346 16.40685 16.40045 16.3993 16.39776 16.39119 16.38344 16.37551 16.37038 16.36938 16.37355 16.38457 16.40144 16.42149 16.44623 16.47316 16.49371 16.52086 16.54576 16.56477 16.58131 16.59375 16.6037 16.61249 16.62112 16.63733 16.6545 16.67178 16.67964 16.68535 16.6836 16.67835 16.67194 16.65233 16.63635 16.62103 16.60833 16.59166 16.57679 16.55568 16.53297 16.50807 16.47512 16.43537 16.39731 16.34713 16.29157 16.22781 16.16353 16.08369
0 0 0 0 0 0 0 0 0 0 18.90007 17.3947 16.0768 15.56318 15.36004 15.35462 15.33525 15.35716 15.39969 15.42949 15.48803 15.52904 15.57038 15.62298 15.69335 15.78127 15.87875 15.95425 0 0 0 16.20263 16.01 16.01806 16.01324 16.01825 16.03415 16.05382 16.06214 16.06064 16.05598 16.06415 16.07595 16.0995 16.12425 16.154 16.18767 16.58265 16.22436 16.243 16.27695 16.30705 16.336 16.36473 16.38361 16.40403 16.42193 16.43676 16.44052 16.43724 16.4344 16.43751 16.42737 16.42465 16.41344 16.40194 16.40037 16.39779 16.39661 16.40011 16.40657 16.41919 16.43538 16.45532 16.48095 16.51091 16.53584 16.55756 16.5726 16.5935 16.60263 16.61207 16.62706 16.63508 16.65215 16.67072 16.68686 16.69809 16.70224 16.70522 16.70375 16.69951 16.68505 16.66884 16.6536 16.63835 16.62049 16.59918 16.57539 16.55195 16.52515 16.49074 16.455 16.41384 16.35792 16.29628 16.23475 16.16218 16.07912
0 0 0 0 0 0 0 0 0 0 0 18.77975 17.41795 16.0974 15.57696 15.34095 15.3133 15.33488 15.36066 15.39536 15.44557 15.49466 15.56058 15.613 15.68994 15.78767 16.21181 16.62555 0 0 0 16.79533 17.08418 16.02306 16.03052 16.02929 16.05194 16.06971 16.08218 16.08374 16.08129 16.0817 16.09935 16.12691 16.15452 16.18976 16.21937 16.24833 16.26549 16.28376 16.31906 16.35157 16.37904 16.40297 16.41753 16.442 16.45618 16.45879 16.454 16.44833 16.44564 16.4429 16.44062 16.42773 16.42521 16.42 16.42109 16.42155 16.41915 16.42177 16.42363 16.43409 16.45047 16.46863 16.49095 16.51653 16.54204 16.56606 16.58854 16.60188 16.61291 16.62289 16.63579 16.6562 16.67236 16.69061 16.70553 16.71705 16.72428 16.7246 16.72299 16.71874 16.70081 16.68676 16.66972 16.65888 16.64121 16.6191 16.59276 16.56439 16.53861 16.49993 16.46028 16.41765 16.36307 16.30776 16.24068 16.16688 16.08514
0 0 0 0 0 0 0 0 0 0 0 0 19.01508 17.72972 16.06227 15.53669 15.28092 15.29942 15.33113 15.36714 15.39821 15.46117 15.53545 15.59678 15.66979 15.77217 16.52545 0 0 18.05815 18.18483 16.69509 16.00254 16.0172 16.01516 16.04429 16.06265 16.08538 16.1006 16.10186 16.10073 16.11027 16.12341 16.15322 16.18683 16.22454 16.25094 16.27213 16.29142 16.31135 16.33955 16.36664 16.40073 16.42515 16.45136 16.46272 16.48092 16.48385 16.47668 16.46777 16.46065 16.46015 16.46121 16.44706 16.44083 16.43965 16.43914 16.43704 16.43442 16.43997 16.44031 16.44667 16.4606 16.47754 16.49623 16.5235 16.55151 16.58291 16.60033 16.61328 16.62757 16.64086 16.66044 16.67975 16.69714 16.71288 16.7251 16.73527 16.74125 16.73828 16.73404 16.72941 16.71805 16.70515 16.68895 16.67545 16.65687 16.63137 16.60424 16.57619 16.54587 16.50608 16.46454 16.42375 16.37069 16.32248 16.25578 16.18713 16.11207
0 0 0 0 0 0 0 0 0 0 0 0 0 0 0 16.01769 15.47611 15.26319 15.29759 15.31924 15.37358 15.43429 15.5112 15.57956 15.64403 16.05343 16.14533 16.55095 16.95143 18.92026 18.17608 16.67585 15.99733 16.00839 16.01457 16.0497 16.07593 16.09858 16.11609 16.12605 16.1308 16.13857 16.15103 16.17442 16.20398 16.23936 16.2621 16.27757 16.30259 16.33019 16.36171 16.39588 16.42401 16.44983 16.47947 16.4909 16.50148 16.50255 16.50137 16.49026 16.48175 16.47694 16.46792 16.4556 16.45195 16.44729 16.44865 16.45321 16.45765 16.46413 16.46058 16.46489 16.47392 16.49061 16.51219 16.53568 16.5649 16.58953 16.61281 16.63499 16.64975 16.66739 16.68145 16.69722 16.71249 16.72381 16.73524 16.74289 16.74219 16.74249 16.73839 16.73604 16.72789 16.71523 16.70366 16.68887 16.6719 16.64809 16.6173 16.59041 16.55818 16.52053 16.47668 16.43976 16.395 16.34176 16.27606 16.2108 16.14691
0 0 0 0 0 0 0 0 0 0 0 0 0 0 0 16.55292 15.99967 15.21787 15.26647 15.28697 15.3539 15.41597 15.49983 15.57488 15.62687 15.70118 16.44901 16.53508 16.95673 0 18.21948 15.97295 15.99307 16.00371 16.03648 16.05628 16.08297 16.11095 16.13228 16.14309 16.15189 16.16455 16.18377 16.20535 16.22699 16.25394 16.27403 16.28667 16.3234 16.35324 16.39333 16.4164 16.43703 16.46482 16.4949 16.51411 16.52398 16.51937 16.51736 16.51126 16.50009 16.48968 16.47627 16.46715 16.45971 16.459 16.46558 16.47009 16.46965 16.4732 16.4759 16.47979 16.49259 16.51205 16.53612 16.55592 16.58092 16.60833 16.63583 16.65812 16.6769 16.6977 16.71219 16.72085 16.73147 16.73741 16.74432 16.74337 16.74064 16.73959 16.73586 16.73345 16.73171 16.72308 16.71142 16.69706 16.67851 16.65894 16.63584 16.60814 16.5726 16.53426 16.4966 16.46303 16.42295 16.3772 16.32359 16.26431 16.20627
0 0 0 0 0 0 0 0 0 0 0 0 0 17.60702 17.29534 16.58175 15.99813 15.21408 15.2681 15.30873 15.36393 15.42484 15.50162 15.57841 15.63273 15.69133 16.75285 17.18959 17.66236 17.63628 18.60326 16.28908 15.97943 16.00261 16.03716 16.06764 16.10137 16.12695 16.14054 16.14945 16.15752 16.17485 16.20018 16.23428 16.26065 16.2697 16.284 16.30596 16.34058 16.37424 16.40598 16.42673 16.45218 16.46649 16.47927 16.50682 16.52515 16.53236 16.52506 16.52049 16.51352 16.50596 16.49531 16.48693 16.47932 16.47538 16.47839 16.47997 16.48351 16.48293 16.48953 16.49684 16.5089 16.53035 16.55592 16.57818 16.59932 16.6274 16.65466 16.68017 16.70137 16.72178 16.73078 16.73188 16.73506 16.74073 16.74187 16.73918 16.73933 16.73461 16.73199 16.73352 16.73822 16.73338 16.72169 16.70861 16.69113 16.67145 16.64703 16.62143 16.58468 16.54462 16.51128 16.47443 16.43702 16.39408 16.35368 16.3106 16.26658
0 0 0 0 0 0 0 0 0 0 0 0 16.87895 16.57611 16.62232 16.33648 15.7626 15.24836 15.30888 15.36212 15.41848 15.48772 15.54847 15.60868 15.66619 15.72596 16.43786 16.50822 17.29539 18.09561 16.62112 15.94008 15.98017 16.0266 16.0626 16.08881 16.11803 16.13657 16.14499 16.1523 16.16842 16.18911 16.20695 16.23065 16.2581 16.27722 16.2995 16.32195 16.35045 16.38136 16.40489 16.42526 16.44028 16.46033 16.4826 16.50083 16.51778 16.52217 16.51623 16.51034 16.51049 16.51022 16.50472 16.49879 16.49198 16.49414 16.49396 16.49294 16.49492 16.50234 16.51194 16.51751 16.53812 16.55808 16.57826 16.60155 16.62377 16.64862 16.66664 16.68549 16.70723 16.7188 16.72679 16.73058 16.74023 16.74003 16.7364 16.73419 16.72913 16.72507 16.7244 16.72688 16.72241 16.72159 16.7155 16.70863 16.69788 16.67891 16.65159 16.62276 16.58791 16.55751 16.52122 16.48887 16.45146 16.41653 16.3795 16.33714 16.29648
0 0 0 0 0 0 0 0 18.20987 17.54576 16.6963 16.13029 16.22602 16.25295 16.03312 16.10555 15.85917 15.32112 15.38384 15.44538 15.50648 15.57196 15.62404 15.66303 15.70802 15.76262 15.81039 15.84388 15.8824 15.9098 15.93487 15.96492 16.00622 16.05837 16.08252 16.1041 16.12805 16.15084 16.16343 16.1691 16.18073 16.2055 16.22348 16.24323 16.27383 16.29896 16.31713 16.33197 16.35495 16.38665 16.40702 16.42939 16.4442 16.4587 16.47269 16.48427 16.49982 16.50661 16.50629 16.50905 16.51418 16.51192 16.50794 16.50391 16.49897 16.50068 16.50146 16.50395 16.50918 16.5276 16.53352 16.547 16.56712 16.58631 16.59982 16.61574 16.638 16.66134 16.68051 16.69745 16.7147 16.72389 16.72882 16.73641 16.73614 16.73609 16.72766 16.72315 16.72162 16.71845 16.71349 16.71455 16.71175 16.70685 16.70574 16.70502 16.69501 16.67921 16.65492 16.62485 16.60356 16.56808 16.53857 16.50214 16.46964 16.43967 16.41037 16.37286 16.3348
0 0 0 0 0 0 0 17.23497 17.20182 16.0354 15.8122 15.84953 15.90965 16.02707 16.12946 15.89721 15.34816 15.38967 15.45068 15.51124 15.58156 15.62139 15.6691 15.71688 15.75669 15.7987 15.84163 15.87639 15.91599 15.95122 15.98379 16.02101 16.0613 16.09081 16.10419 16.11753 16.13893 16.16233 16.17318 16.17872 16.18975 16.21215 16.23825 16.24662 16.28072 16.31008 16.32665 16.33867 16.352 16.36218 16.37201 16.39139 16.41266 16.43092 16.4476 16.46403 16.4771 16.4892 16.50625 16.50924 16.5139 16.51282 16.50656 16.50565 16.50565 16.50867 16.51367 16.52388 16.53236 16.54851 16.55609 16.57507 16.59217 16.5991 16.61682 16.63648 16.65684 16.67656 16.68939 16.71032 16.72878 16.72684 16.7301 16.73196 16.72936 16.71996 16.71209 16.70558 16.70261 16.7008 16.69668 16.69836 16.69734 16.69782 16.69538 16.69694 16.69103 16.67848 16.66261 16.64058 16.61538 16.58124 16.55056 16.51706 16.48549 16.45417 16.4242 16.39068 16.35355
0 0 0 0 0 0 17.71016 17.51101 16.01715 15.78109 15.79155 15.86143 15.98586 15.82032 15.62949 15.40679 15.42319 15.48557 15.54144 15.60204 15.63983 15.66955 15.72525 15.75801 15.79445 15.81873 15.86028 15.90974 15.95371 15.98879 16.01518 16.06151 16.09547 16.11845 16.12533 16.13397 16.15317 16.17319 16.19098 16.19627 16.20167 16.2122 16.22859 16.25079 16.27855 16.29254 16.30679 16.31535 16.32331 16.33136 16.34688 16.35767 16.37591 16.3944 16.41379 16.42912 16.4481 16.45972 16.4746 16.49007 16.50252 16.508 16.50643 16.50828 16.50806 16.51783 16.52806 16.5413 16.54758 16.56835 16.57807 16.59976 16.60896 16.62175 16.63738 16.65469 16.67365 16.689 16.70667 16.72173 16.72694 16.72964 16.7296 16.72339 16.7139 16.69892 16.6862 16.6805 16.68046 16.67699 16.67703 16.68225 16.67782 16.68504 16.69388 16.69452 16.6933 16.68434 16.66833 16.65007 16.62804 16.60252 16.57041 16.54313 16.51327 16.48173 16.44959 16.41562 16.37696
0 0 0 0 0 0 18.77018 16.84927 16.03438 15.7643 15.5513 15.6755 15.49953 15.32462 15.3932 15.4547 15.51088 15.54725 15.60005 15.64645 15.68589 15.72832 15.7709 15.79427 15.82734 15.84528 15.89043 15.94469 15.9888 16.01252 16.0388 16.07809 16.10676 16.12315 16.12605 16.13722 16.15239 16.16626 16.18161 16.19112 16.2009 16.20985 16.22995 16.25042 16.26506 16.27409 16.27682 16.28145 16.29019 16.30316 16.31177 16.32248 16.33823 16.34826 16.3808 16.39509 16.40641 16.42474 16.44774 16.46316 16.47099 16.47694 16.48287 16.49444 16.50937 16.5201 16.53416 16.55616 16.56876 16.58585 16.59561 16.60987 16.6227 16.63521 16.65484 16.66976 16.68701 16.7019 16.71773 16.7282 16.72629 16.72629 16.72082 16.71082 16.69647 16.67437 16.66406 16.65398 16.65698 16.6542 16.65557 16.65961 16.66365 16.67788 16.68556 16.69185 16.69274 16.68487 16.6727 16.65308 16.63628 16.62251 16.60099 16.57606 16.55292 16.52002 16.48749 16.45173 16.42157
0 0 0 0 0 18.75282 17.94847 16.81486 16.07017 15.83073 15.40181 15.21021 15.27214 15.35117 15.42855 15.48765 15.53903 15.59305 15.65187 15.6946 15.73863 15.7688 15.81201 15.83834 15.86408 15.8877 15.92114 15.97613 16.00645 16.03468 16.05975 16.0797 16.10561 16.11596 16.11787 16.12968 16.14732 16.15882 16.16914 16.18303 16.18718 16.19742 16.21062 16.22179 16.23569 16.24479 16.24198 16.25327 16.26254 16.27472 16.28561 16.29743 16.30209 16.3105 16.32127 16.33709 16.36019 16.38961 16.41598 16.43456 16.44588 16.45736 16.46687 16.49308 16.51489 16.53362 16.55162 16.56606 16.58548 16.60242 16.60887 16.61435 16.63547 16.63928 16.65963 16.67655 16.69406 16.71125 16.72592 16.72877 16.71914 16.71249 16.70143 16.68654 16.67116 16.64536 16.63192 16.63057 16.62625 16.63313 16.63574 16.63581 16.64305 16.66453 16.67786 16.68725 16.68617 16.68638 16.67663 16.66561 16.652 16.63767 16.61798 16.60151 16.58193 16.55319 16.51451 16.48907 16.45601
0 0 0 0 17.59885 16.94202 15.88509 15.74236 15.56127 15.13718 15.19854 15.25466 15.33427 15.40342 15.47444 15.53693 15.5831 15.63133 15.68878 15.72965 15.75613 15.8056 15.8416 15.86736 15.90403 15.93936 15.97238 16.00465 16.02765 16.05515 16.06696 16.08539 16.10387 16.10936 16.10867 16.12123 16.13118 16.1521 16.16274 16.16429 16.16898 16.1768 16.18175 16.17883 16.19258 16.20337 16.2059 16.20949 16.22435 16.23845 16.24623 16.2596 16.26427 16.28016 16.29176 16.30435 16.31342 16.32159 16.35934 16.38619 16.40564 16.41989 16.43666 16.47738 16.50868 16.52936 16.54312 16.57203 16.59722 16.61569 16.62376 16.63233 16.6519 16.65869 16.67036 16.68503 16.70079 16.71519 16.71899 16.72369 16.71459 16.70043 16.68301 16.66902 16.64862 16.62493 16.61528 16.61148 16.61056 16.62062 16.62199 16.63557 16.6499 16.6647 16.67466 16.67851 16.68034 16.68572 16.67893 16.6736 16.67142 16.6597 16.64999 16.63655 16.61496 16.58794 16.55629 16.53008 16.51007
0 0 0 0 18.66876 16.0318 14.97463 15.03641 15.13061 15.18842 15.26437 15.35646 15.41445 15.47212 15.5493 15.61839 15.66464 15.68657 15.72838 15.76797 15.80172 15.84379 15.88091 15.91773 15.93824 15.96491 16.00099 16.02813 16.0472 16.06263 16.07165 16.08733 16.10412 16.10634 16.10719 16.11751 16.12957 16.1427 16.13907 16.14411 16.1496 16.13921 16.12931 16.13312 16.14369 16.15675 16.16785 16.17493 16.18336 16.18861 16.19148 16.20313 16.22071 16.23973 16.25126 16.26632 16.28171 16.29753 16.31475 16.34272 16.36405 16.38236 16.42271 16.46789 16.5034 16.52648 16.55663 16.58334 16.60642 16.62708 16.63766 16.65247 16.66425 16.67262 16.68546 16.69325 16.70461 16.71645 16.71399 16.70763 16.70323 16.69183 16.66237 16.64063 16.62578 16.6101 16.60546 16.60892 16.61696 16.62482 16.62708 16.6429 16.65171 16.66757 16.67335 16.67844 16.68081 16.67839 16.67671 16.67506 16.67085 16.67358 16.67073 16.66151 16.64807 16.63352 16.60374 16.58569 16.56355
0 0 0 17.29266 16.77374 15.73419 14.96201 15.08096 15.16871 15.26652 15.35547 15.42214 15.48746 15.55026 15.61733 15.67251 15.70053 15.72169 15.75959 15.80846 15.85505 15.89855 15.92087 15.96044 15.97822 15.99637 16.02821 16.05318 16.06602 16.0754 16.08486 16.09766 16.10532 16.10556 16.10594 16.11256 16.10972 16.11524 16.11431 16.11705 16.10702 16.09978 16.10191 16.10353 16.11611 16.12777 16.13348 16.13994 16.1425 16.14346 16.14915 16.16446 16.18287 16.19129 16.21162 16.22996 16.24928 16.27142 16.29645 16.31983 16.34126 16.37053 16.41828 16.44781 16.48006 16.51724 16.55538 16.58069 16.60896 16.63346 16.64649 16.65827 16.67358 16.6833 16.69503 16.70109 16.70815 16.71358 16.70983 16.69957 16.68574 16.66998 16.64938 16.63402 16.61872 16.61484 16.6223 16.62663 16.63291 16.64251 16.65847 16.6785 16.6795 16.67755 16.67936 16.68114 16.67848 16.67654 16.67942 16.68084 16.68256 16.6891 16.68298 16.67797 16.67836 16.67105 16.63557 16.62207 16.60832
0 0 0 17.06642 16.66171 15.65531 15.36486 15.10374 15.25715 15.36428 15.42405 15.49626 15.55889 15.609 15.66754 15.69254 15.73239 15.74993 15.7819 15.82871 15.87477 15.92242 15.96127 15.98889 16.01384 16.02882 16.04816 16.06667 16.07428 16.08208 16.09321 16.09718 16.10176 16.10153 16.09731 16.08984 16.08389 16.08711 16.09047 16.08646 16.08187 16.07882 16.07557 16.07789 16.0886 16.09981 16.10566 16.11069 16.11687 16.11909 16.11973 16.12811 16.15226 16.16614 16.18131 16.19946 16.22215 16.25239 16.27073 16.29441 16.32385 16.36069 16.39044 16.45022 16.48856 16.51936 16.54048 16.58977 16.62465 16.64638 16.67199 16.68962 16.69445 16.69722 16.70759 16.7146 16.7039 16.70098 16.69768 16.68497 16.67703 16.65743 16.64921 16.63753 16.6301 16.63129 16.6363 16.63677 16.6553 16.66937 16.68916 16.70332 16.70583 16.70113 16.70151 16.7033 16.69687 16.69963 16.70285 16.69572 16.70662 16.70904 16.70696 16.70395 16.69943 16.70315 16.68815 16.6624 16.65072
0 0 0 18.24806 16.8863 15.68004 15.16512 15.06611 15.22367 15.37822 15.5126 15.56083 15.60709 15.65387 15.69047 15.7159 15.75142 15.77544 15.80826 15.85542 15.9065 15.93783 15.95978 15.97619 15.9986 16.01514 16.03713 16.06296 16.0672 16.07098 16.06847 16.08014 16.09005 16.09066 16.07448 16.06323 16.06119 16.05816 16.06316 16.06194 16.0532 16.04507 16.04554 16.05054 16.06125 16.07382 16.07579 16.08346 16.08535 16.0838 16.08798 16.10506 16.12652 16.15063 16.1647 16.18625 16.21247 16.2384 16.25619 16.28454 16.32116 16.35954 16.41522 16.45623 16.48705 16.5152 16.55713 16.60139 16.62594 16.65768 16.68032 16.70528 16.71233 16.71715 16.71656 16.7136 16.69777 16.68505 16.68198 16.67501 16.67072 16.66488 16.65215 16.64676 16.65087 16.6528 16.66373 16.67166 16.69098 16.70881 16.71842 16.72766 16.72993 16.72842 16.72263 16.72086 16.72148 16.72432 16.72481 16.73207 16.7384 16.74151 16.74131 16.73171 16.73021 16.72867 16.72488 16.71463 16.70547
0 0 0 18.3602 16.08773 15.32016 14.98738 15.13124 15.30866 15.44385 15.55325 15.59749 15.6415 15.65518 15.69604 15.73353 15.76321 15.79198 15.82688 15.85485 15.89038 15.91994 15.92614 15.93722 15.9485 15.96247 15.98445 16.01744 16.03086 16.03285 16.03726 16.04517 16.06158 16.07315 16.05115 16.03394 16.02945 16.02748 16.02711 16.02765 16.02497 16.0187 16.01679 16.02054 16.02996 16.03904 16.04731 16.06334 16.06224 16.05971 16.08357 16.10533 16.12346 16.146 16.15896 16.17817 16.20315 16.23899 16.26682 16.29736 16.33183 16.37588 16.41874 16.45698 16.4983 16.52411 16.56079 16.60752 16.63483 16.65405 16.67523 16.69208 16.71443 16.72346 16.71388 16.70488 16.69415 16.6801 16.67495 16.66552 16.66484 16.66567 16.65757 16.65718 16.673 16.68303 16.70644 16.72639 16.74406 16.75486 16.76572 16.77627 16.7778 16.77455 16.77394 16.77438 16.77699 16.77285 16.77337 16.78622 16.80089 16.806 16.79867 16.79307 16.79018 16.78776 16.78733 16.78107 16.7658
15.18005 15.17727 16.02638 16.24241 15.06095 14.97232 15.09292 15.26828 15.40409 15.52611 15.59246 15.62783 15.65651 15.67209 15.69442 15.72894 15.74674 15.78161 15.81337 15.83995 15.86512 15.87234 15.89405 15.90231 15.9116 15.92135 15.94263 15.96353 15.9899 16.00707 16.02007 16.02927 16.036 16.03486 16.02369 16.01737 16.01319 16.00666 16.00857 16.00713 16.00418 16.00413 16.00307 16.00528 16.01018 16.02084 16.03057 16.0406 16.05045 16.06889 16.09 16.10606 16.12442 16.14171 16.16652 16.18909 16.21091 16.24409 16.27328 16.30311 16.33064 16.36693 16.43064 16.47411 16.51193 16.54019 16.56675 16.60293 16.64102 16.66171 16.68154 16.69773 16.71283 16.72506 16.72196 16.7046 16.69081 16.67851 16.66163 16.65261 16.65325 16.66328 16.66752 16.67715 16.69884 16.70689 16.73443 16.76157 16.77939 16.7962 16.81478 16.82684 16.83139 16.83397 16.83484 16.82678 16.82802 16.83276 16.84419 16.86232 16.8729 16.87829 16.87393 16.86778 16.855 16.85858 16.85521 16.84677 16.83807
15.1897 15.17039 15.17173 15.18719 15.13099 15.21917 15.33365 15.45274 15.53218 15.59972 15.64534 15.65998 15.66079 15.66607 15.69077 15.71528 15.73302 15.74107 15.76615 15.80393 15.81493 15.83932 15.85641 15.85707 15.85575 15.86427 15.88112 15.91017 15.93102 15.95461 15.97931 15.99878 16.0106 16.01905 16.01844 16.01137 16.00597 16.00014 15.99497 15.99778 15.99413 15.99468 15.9984 16.00188 16.00257 16.01488 16.02143 16.03307 16.04928 16.07523 16.10143 16.11863 16.13687 16.1647 16.19373 16.21715 16.2419 16.27772 16.30583 16.32394 16.34544 16.39334 16.44316 16.48486 16.51567 16.54834 16.57737 16.61195 16.63586 16.66377 16.68368 16.69413 16.71292 16.72502 16.72124 16.71827 16.69393 16.682 16.6667 16.64961 16.64715 16.66339 16.6859 16.71151 16.72003 16.74116 16.77501 16.80307 16.83291 16.86133 16.88003 16.89191 16.89449 16.89363 16.88763 16.8928 16.89136 16.8945 16.90367 16.92556 16.94497 16.95136 16.95283 16.94651 16.92883 16.92236 16.92217 16.92044 16.92226
15.35738 15.36933 15.39742 15.4313 15.3895 15.45128 15.50483 15.56226 15.5938 15.65772 15.67789 15.66894 15.66674 15.69223 15.70945 15.73898 15.76138 15.76475 15.75844 15.76177 15.76772 15.80263 15.80276 15.80659 15.80878 15.81723 15.83873 15.8738 15.89111 15.91087 15.93725 15.96229 15.98415 16.003 16.001 15.99872 15.99564 15.99431 15.9861 15.99209 16.00089 16.00072 16.00188 16.00637 16.00606 16.0128 16.02432 16.03981 16.0637 16.08864 16.12409 16.1551 16.178 16.20425 16.22178 16.2483 16.28062 16.315 16.34144 16.35447 16.38104 16.41497 16.45759 16.494 16.52738 16.55836 16.59496 16.62496 16.65099 16.6712 16.68576 16.69768 16.71662 16.73438 16.73893 16.71257 16.70289 16.69253 16.67819 16.66343 16.67521 16.6798 16.69945 16.72801 16.76004 16.79181 16.81824 16.85759 16.89765 16.92537 16.95133 16.96635 16.96853 16.96961 16.96315 16.96687 16.97931 16.98888 16.99587 17.0086 17.01894 17.02167 17.02148 17.01961 17.00473 17.00433 17.00074 17.00343 17.00557
15.43035 15.46294 15.51057 15.54425 15.55706 15.56868 15.59738 15.61442 15.63375 15.65953 15.66852 15.66794 15.66114 15.67613 15.7028 15.7136 15.7139 15.69705 15.70823 15.727 15.75066 15.74876 15.73686 15.74385 15.76313 15.7948 15.79262 15.82514 15.84724 15.88375 15.91677 15.94757 15.97501 16.00257 16.01002 16.00785 16.00393 16.00142 16.002 15.99865 16.00252 16.02004 16.02181 16.01504 16.02079 16.03506 16.04456 16.0674 16.10005 16.13284 16.17092 16.1965 16.22165 16.25591 16.26665 16.28971 16.32155 16.34663 16.36362 16.40267 16.42454 16.45785 16.48799 16.51312 16.55412 16.58521 16.61711 16.65208 16.67318 16.69125 16.70155 16.71772 16.7309 16.7437 16.7446 16.72945 16.72078 16.70826 16.6946 16.69122 16.69491 16.70242 16.72688 16.74699 16.77322 16.81938 16.86204 16.90103 16.95013 16.9862 17.01192 17.03514 17.04522 17.05022 17.04524 17.06048 17.07209 17.0883 17.10039 17.11955 17.14148 17.15377 17.1466 17.13665 17.13432 17.13021 17.13035 17.12976 17.13113
15.5156 15.53538 15.5443 15.55535 15.57114 15.5824 15.60351 15.6233 15.62761 15.62729 15.64277 15.64068 15.63559 15.64613 15.66287 15.66564 15.6727 15.68699 15.70483 15.70768 15.71902 15.72846 15.71852 15.74641 15.76563 15.8057 15.79621 15.81078 15.83178 15.8733 15.91695 15.95564 15.98557 16.0125 16.02409 16.0294 16.02741 16.03549 16.03852 16.04144 16.03917 16.04153 16.04497 16.0538 16.06514 16.07813 16.097 16.12128 16.14797 16.17536 16.21272 16.24033 16.27112 16.29117 16.30485 16.3254 16.35793 16.37159 16.40394 16.43528 16.47115 16.50431 16.5243 16.55908 16.59422 16.62767 16.65714 16.67579 16.69584 16.71381 16.71638 16.73433 16.75579 16.76563 16.75988 16.75719 16.74543 16.732 16.72449 16.71734 16.72723 16.73127 16.75316 16.79222 16.83117 16.86955 16.90241 16.94381 16.9949 17.04452 17.07525 17.09053 17.09478 17.09466 17.1055 17.1201 17.13368 17.14248 17.15897 17.18758 17.21854 17.238 17.24331 17.23455 17.22867 17.22235 17.2232 17.22451 17.22142
15.52941 15.52599 15.54047 15.55386 15.57669 15.59066 15.60325 15.61418 15.60279 15.59981 15.60823 15.60927 15.59373 15.60594 15.60415 15.61299 15.64232 15.66476 15.65729 15.69699 15.68247 15.72705 15.71901 15.76899 15.77708 15.81128 15.82729 15.82885 15.86121 15.90307 15.94934 15.9926 16.01402 16.03678 16.05708 16.06157 16.0621 16.06339 16.07158 16.08225 16.0783 16.07904 16.07791 16.07896 16.11718 16.1336 16.15742 16.1946 16.21889 16.25009 16.27195 16.29805 16.31574 16.33773 16.35495 16.37709 16.41392 16.44161 16.46386 16.48975 16.53722 16.5587 16.58979 16.60376 16.63593 16.6606 16.68439 16.70743 16.72044 16.73627 16.75385 16.75943 16.77118 16.78064 16.77603 16.77331 16.76192 16.75473 16.75282 16.75419 16.77511 16.79151 16.81162 16.85012 16.89003 16.92398 16.9634 17.01386 17.06067 17.0954 17.12956 17.15477 17.16451 17.16677 17.17949 17.18429 17.19117 17.19533 17.21055 17.22799 17.26305 17.28296 17.3028 17.30883 17.31099 17.31052 17.31734 17.30735 17.30112
15.53949 15.54686 15.55724 15.55974 15.5718 15.58197 15.59618 15.60314 15.60271 15.59515 15.61754 15.5892 15.56983 15.56854 15.56027 15.57856 15.60623 15.61665 15.63135 15.65107 15.66546 15.6983 15.74648 15.78626 15.81222 15.84278 15.86393 15.88567 15.92128 15.96904 15.99934 16.01948 16.04477 16.07714 16.09066 16.10038 16.1045 16.10845 16.12037 16.12706 16.13149 16.13426 16.13603 16.16045 16.18149 16.19986 16.22828 16.25739 16.28744 16.29679 16.32614 16.33874 16.36655 16.40399 16.42716 16.4509 16.47587 16.50184 16.5322 16.55634 16.59246 16.61573 16.65123 16.67178 16.70132 16.70863 16.72992 16.74625 16.76355 16.77317 16.78656 16.80587 16.81494 16.81714 16.81734 16.80462 16.79868 16.7978 16.80382 16.81395 16.83565 16.84629 16.87152 16.89791 16.93206 16.96617 17.00269 17.03641 0 0 17.12806 17.17024 17.18982 17.20106 17.21169 17.20931 17.21207 17.21672 17.21546 0 0 17.29617 17.33589 17.3471 17.35849 17.36571 17.37862 17.38124 17.37535
