ncols        109
nrows        82
xllcorner    -1.041666666667
yllcorner    37.041665395101
cellsize     0.083333333333
NODATA_value -9999
0.0 0 0 0 0 0 0 0 0 0 0 0 0 0 0 0 0 0 0 0 0 0 0 0 0 0 0 0 0 0 0 0 0 0 0 0 0 0 0 0 0 0 0 0 0 0 0 0 0 0 0 0 0 0 0 0 0 0 0 0 0 0 0 0 0 0 0 0 0 0 0 0 0 0 0 0 0 0 0 0 0 0 0 0 0 0 0 0 0 0 0 0 0 0 0 0 0 0 0 0 0 0 0 0 0 17.81561 16.54444 15.23315 15.23484
0 0 0 0 0 0 0 0 0 0 0 0 0 0 0 0 0 0 0 0 0 0 0 0 0 0 0 0 0 0 0 0 0 0 0 0 0 0 0 0 0 0 0 0 0 0 0 0 0 0 0 0 0 0 0 0 0 0 0 0 0 0 0 0 0 0 0 0 0 0 0 0 0 0 0 0 0 0 0 0 0 0 0 0 0 0 0 0 0 0 0 0 0 0 0 0 0 0 0 0 0 15.32028 15.34857 15.15613 15.17784 15.19585 15.20472 15.20979 15.18982
0 0 0 0 0 0 0 0 0 0 0 0 0 0 0 0 0 0 0 0 0 0 0 0 0 0 0 0 0 0 0 0 0 0 0 0 0 0 0 0 0 0 0 0 0 0 0 0 0 0 0 0 0 0 0 0 0 0 0 0 0 0 0 0 0 0 0 0 0 0 0 0 0 0 0 0 0 0 0 0 0 0 0 0 0 0 0 0 0 0 0 0 0 0 0 0 0 0 15.11063 15.12967 15.13468 15.12831 15.11373 15.10271 15.09466 15.08791 15.08482 15.07803 15.05976
0 0 0 0 0 0 0 0 0 0 0 0 0 0 0 0 0 0 0 0 0 0 0 0 0 0 0 0 0 0 0 0 0 0 0 0 0 0 0 0 0 0 0 0 0 0 0 0 0 0 0 0 0 0 0 0 0 0 0 0 0 0 0 0 0 0 0 0 0 0 0 0 0 0 0 0 0 0 0 0 0 0 0 0 0 0 0 0 0 0 0 0 0 0 0 0 0 16.60292 15.0814 15.08333 15.06498 15.03848 15.00951 14.99099 14.97674 14.96258 14.94575 14.93523 14.91919
0 0 0 0 0 0 0 0 0 0 0 0 0 0 0 0 0 0 0 0 0 0 0 0 0 0 0 0 0 0 0 0 0 0 0 0 0 0 0 0 0 0 0 0 0 0 0 0 0 0 0 0 0 0 0 0 0 0 16.3777 16.01572 15.71694 15.84154 0 0 0 0 0 0 0 0 0 0 0 0 0 0 0 0 0 0 0 0 0 0 0 0 0 0 0 0 0 0 0 0 0 15.42435 15.03648 15.05169 15.02599 14.9992 14.96511 14.91666 14.86982 14.83073 14.80604 14.79079 14.78336 14.78114 14.77507
0 0 0 0 0 0 0 0 0 0 0 0 0 0 0 0 0 0 0 0 0 0 0 0 0 0 0 0 0 0 0 0 0 0 0 0 0 0 0 0 0 0 0 0 0 0 0 0 0 0 0 0 0 0 0 0 15.91767 15.96169 15.69811 15.47781 15.39262 15.37402 15.45293 15.64996 15.83755 15.93136 15.90965 0 0 0 0 16.17349 0 0 0 0 0 0 0 0 0 0 0 0 0 0 0 0 0 0 0 0 0 15.87845 14.96089 15.0018 14.99475 14.96273 14.91782 14.86012 14.8114 14.7571 14.71117 14.6924 14.68709 14.68371 14.67877 14.675 14.66993
0 0 0 0 0 0 0 0 0 0 0 0 0 0 0 0 0 0 0 0 0 0 0 0 0 0 0 0 0 0 0 0 0 0 0 0 0 0 0 0 0 0 0 0 0 0 0 0 0 0 0 0 0 0 0 16.07082 15.70038 15.39129 15.196 14.93798 15.00684 15.0359 15.20249 15.32461 15.44008 15.52268 15.58606 15.75798 15.95035 15.91255 15.85633 15.61471 15.41612 15.46832 15.61481 15.36771 15.37313 0 0 0 0 0 0 0 0 0 0 0 0 0 0 0 15.25876 14.96207 14.97413 14.9693 14.93739 14.8737 14.81163 14.74636 14.6838 14.6304 14.58705 14.58006 14.58189 14.58601 14.59322 14.60014 14.6105
0 0 0 0 0 0 0 0 0 0 0 0 0 0 0 0 0 0 0 0 0 0 0 0 0 0 0 0 0 0 0 0 0 0 0 0 0 0 0 0 0 0 0 0 0 0 0 0 0 0 0 15.69029 15.85005 16.03261 15.81864 15.42302 15.19594 14.93019 14.81862 14.89575 14.95983 14.99093 14.99246 15.15804 15.12542 15.27621 15.23718 15.22762 15.2508 15.15367 15.04973 15.08351 14.95285 15.13937 15.16759 15.33851 0 0 0 0 0 0 0 0 0 0 0 0 0 0 0 0 14.91392 14.93575 14.93684 14.90643 14.84463 14.76652 14.68578 14.62612 14.5812 14.53962 14.51908 14.52188 14.52862 14.53916 14.54684 14.56063 14.57724
0 0 0 0 0 0 0 0 0 0 0 0 0 0 0 0 0 0 0 0 0 0 0 0 0 0 0 0 0 0 0 0 0 0 0 0 0 0 0 0 0 0 0 0 0 0 0 0 0 0 15.8712 15.7157 15.50513 15.48776 15.40703 15.12717 14.80561 14.87988 14.744 14.80994 14.85732 14.88536 14.89763 15.06828 15.04629 15.22163 15.20648 15.19762 15.04198 14.91318 14.95005 14.9912 14.85578 15.04708 15.06338 15.26726 15.27625 15.10079 15.09995 15.42983 15.84044 16.52976 0 0 0 0 0 0 0 15.63083 15.18276 14.86984 14.90102 14.90093 14.86383 14.81842 14.75778 14.67414 14.60802 14.55592 14.51848 14.49542 14.48963 14.4935 14.50472 14.51702 14.53411 14.54819 14.56523
0 0 0 0 0 0 0 0 0 0 0 0 0 0 0 0 0 0 0 0 0 0 0 0 0 0 0 0 0 0 0 0 0 0 0 0 0 0 0 0 0 0 0 0 0 0 0 0 0 16.70302 15.56903 15.49706 15.46346 15.17903 15.02415 14.86454 14.92834 14.77335 14.82609 14.87832 14.92362 14.95259 14.96348 15.15398 15.15061 15.1428 15.14457 15.13774 15.13091 14.97221 14.99761 14.86343 14.72475 14.73556 14.74803 14.76828 14.78172 14.79195 14.81378 14.82134 15.15698 15.64004 0 15.42913 15.92574 16.37283 16.64582 16.40916 15.93453 14.80831 14.83594 14.85527 14.85373 14.80721 14.742 14.68704 14.62858 14.55847 14.51316 14.48555 14.47139 14.47528 14.48018 14.49267 14.49927 14.51675 14.53557 14.55021 14.56769
0 0 0 0 0 0 0 0 0 0 0 0 0 0 0 0 0 0 0 0 0 0 0 0 0 0 0 0 0 0 0 0 0 0 0 0 0 0 0 0 0 0 0 0 0 0 0 0 0 16.37369 15.52675 15.27769 14.99964 14.87869 14.94082 14.78475 14.84383 14.89065 14.93147 14.97021 15.00796 15.02993 15.03703 15.03385 15.03073 14.86972 14.72558 14.86483 14.85445 14.85138 14.85703 14.70876 14.70772 14.70941 14.72399 14.73483 14.75167 14.76613 14.79452 14.80707 14.81842 14.83358 14.83252 14.84227 14.8626 14.86535 15.73517 15.90332 15.52851 14.80448 14.78547 14.74425 14.71925 14.67442 14.61189 14.56583 14.51764 14.47583 14.44404 14.43833 14.45295 14.46711 14.48363 14.49672 14.51383 14.53063 14.54425 14.5579 14.57571
0 0 0 0 0 0 0 0 0 0 0 0 0 0 0 0 0 0 0 0 0 0 0 0 0 0 0 0 0 0 0 0 0 0 0 0 0 0 0 0 0 0 0 0 0 0 0 0 0 16.09642 15.45439 15.18035 14.87043 14.96845 14.82813 14.88949 14.95656 15.00238 15.03416 15.06381 14.90159 14.91629 14.92278 14.91719 14.90512 14.73949 14.73622 14.72798 14.70296 14.68884 14.68712 14.68484 14.68141 14.68711 14.69499 14.70137 14.70986 14.72004 14.73391 14.74888 14.76263 14.7732 14.77569 14.78594 14.80145 14.81385 14.82394 14.81175 14.76788 14.71549 14.67567 14.63604 14.60122 14.53036 14.49184 14.45789 14.42927 14.39948 14.41099 14.43425 14.45268 14.47025 14.49221 14.50637 14.52228 14.53258 14.54522 14.56407 14.5813
0 0 0 0 0 0 0 0 0 0 0 0 0 0 0 0 0 0 0 0 0 0 0 0 0 0 0 0 0 0 0 0 0 0 0 0 0 0 0 0 0 0 0 0 0 0 0 0 0 16.00018 15.31723 15.02143 14.93024 14.82167 14.91961 15.00513 14.88061 14.91128 14.74839 14.75732 14.76945 14.77609 14.77423 14.76335 14.74948 14.73631 14.72778 14.71326 14.68675 14.65961 14.65167 14.6374 14.62421 14.61865 14.63711 14.62568 14.62819 14.63623 14.65007 14.67305 14.68578 14.6839 14.66597 14.66907 14.67809 14.6937 14.6925 14.67586 14.6312 14.58443 14.54593 14.52134 14.491 14.45657 14.4316 14.39445 14.36371 14.38112 14.40025 14.4275 14.46237 14.48237 14.50453 14.51761 14.53275 14.54734 14.56029 14.57168 14.59125
0 0 0 0 0 0 0 0 0 0 0 0 0 0 0 0 0 0 0 0 0 0 0 0 0 0 0 0 0 0 0 0 0 0 0 0 0 0 0 0 0 0 0 0 0 0 0 0 0 15.86393 15.34829 15.04978 14.96427 14.87354 14.97562 14.86986 14.73897 14.76329 14.77749 14.77698 14.77764 14.77375 14.76327 14.74971 14.7344 14.7209 14.70752 14.69056 14.67105 14.6466 14.6312 14.61332 14.5967 14.58387 14.56587 14.53914 14.52339 14.52768 14.55065 14.57255 14.57998 14.56681 14.53683 14.53131 14.53991 14.56513 14.5722 14.56518 14.52054 14.46899 14.43811 14.41506 14.3976 14.39875 14.38432 14.37529 14.37319 14.37871 14.39389 14.42119 14.4585 14.4978 14.51376 14.52632 14.5398 14.55661 14.57314 14.59006 14.59793
0 0 0 0 0 0 0 0 0 0 0 0 0 0 0 0 0 0 0 0 0 0 0 0 0 0 0 0 0 0 0 0 0 0 0 0 0 0 0 0 0 0 0 0 0 0 0 0 0 15.91522 15.16375 14.86921 15.02123 14.93404 15.03016 14.88855 14.75946 14.77045 14.77298 14.76389 14.75152 14.74241 14.72769 14.70946 14.69437 14.67578 14.6518 14.6371 14.6096 14.58376 14.56276 14.53801 14.51811 14.50828 14.4954 14.48412 14.4777 14.47776 14.48037 14.48373 14.47556 14.467 14.45538 14.44448 14.44076 14.45478 14.44608 14.42844 14.41189 14.38323 14.37166 14.36514 14.3605 14.36627 14.37228 14.37698 14.38807 14.40263 14.42444 14.44633 14.48032 14.51693 14.54263 14.56047 14.57037 14.58066 14.5949 14.61776 14.63052
0 0 0 0 0 0 0 0 0 0 0 0 0 0 0 0 0 0 0 0 0 0 0 0 0 0 0 0 0 0 0 0 0 0 0 0 0 0 0 0 0 0 0 0 0 0 0 0 0 15.43905 15.23819 14.92994 14.8731 14.80884 14.88599 14.73463 14.77814 14.77259 14.76281 14.74386 14.72243 14.70163 14.68432 14.66706 14.64573 14.6203 14.59725 14.58458 14.56044 14.53143 14.50043 14.47046 14.45366 14.43749 14.42587 14.41192 14.40156 14.39469 14.39784 14.4073 14.39979 14.39823 14.39741 14.39513 14.39222 14.38694 14.3835 14.36594 14.34161 14.31624 14.30349 14.32183 14.33692 14.35509 14.36837 14.38479 14.40899 14.43106 14.45439 14.48042 14.50544 14.53674 14.55692 14.59014 14.59643 14.61187 14.6251 14.64474 14.67496
0 0 0 0 0 0 0 0 0 0 0 0 0 0 0 0 0 0 0 0 0 0 0 0 0 0 0 0 0 0 0 0 0 0 0 0 0 0 0 0 0 0 0 0 0 0 0 0 0 0 15.04437 15.01584 14.95344 14.69 14.74427 14.75129 14.79382 14.77541 14.75062 14.72641 14.69415 14.67014 14.64791 14.62547 14.5971 14.56982 14.55478 14.54156 14.5152 14.49068 14.4579 14.43425 14.4188 14.40692 14.38811 14.37292 14.35928 14.35242 14.35349 14.36317 14.36024 14.35331 14.34578 14.34995 14.34929 14.34255 14.33487 14.32943 14.31851 14.30758 14.29661 14.31065 14.33345 14.35505 14.37972 14.40024 14.42355 14.45445 14.49023 14.51404 14.53661 14.56242 14.58284 14.60542 14.61801 14.62523 14.64744 14.67498 14.69922
0 0 0 0 0 0 0 0 0 0 0 0 0 0 0 0 0 0 0 0 0 0 0 0 0 0 0 0 0 0 0 0 0 0 0 0 0 0 0 0 0 0 0 0 0 0 0 0 0 0 15.18601 14.85185 14.62999 14.71638 14.75986 14.77767 14.79763 14.7683 14.73608 14.70119 14.66457 14.63503 14.61083 14.59012 14.56708 14.54439 14.52987 14.51651 14.49299 14.46875 14.44008 14.41718 14.40682 14.38954 14.37336 14.35691 14.34128 14.33274 14.33403 14.33782 14.33334 14.33772 14.34012 14.33581 14.32474 14.31958 14.31883 14.31747 14.31659 14.29967 14.30155 14.32254 14.34291 14.36899 14.41284 14.42638 14.44758 14.47823 14.51814 14.5523 14.57351 14.59218 14.61187 14.62975 14.6415 14.65231 14.67593 14.70464 14.73548
0 0 0 0 0 0 0 0 0 0 0 0 0 0 0 0 0 0 0 0 0 0 0 0 0 0 0 0 0 0 0 0 0 0 0 0 0 0 0 0 0 0 0 0 0 0 0 0 0 0 0 0 14.64941 14.71392 14.7643 14.79897 14.79757 14.76181 14.72385 14.6806 14.63919 14.60605 14.58163 14.56265 14.54356 14.52917 14.5204 14.50491 14.48191 14.46074 14.43485 14.41041 14.38924 14.38027 14.36453 14.34863 14.33165 14.32769 14.32651 14.32994 14.32912 14.32887 14.3247 14.31922 14.32208 14.32033 14.31893 14.31303 14.31169 14.31858 14.32735 14.33515 14.35293 14.39543 14.42263 14.45053 14.48065 14.50373 14.5288 14.56717 14.59154 14.61016 14.63462 14.64405 14.66623 14.67693 14.69815 14.7276 14.76215
0 0 0 0 0 0 0 0 0 0 0 0 0 0 0 0 0 0 0 0 0 0 0 0 0 0 0 0 0 0 0 0 0 0 0 0 0 0 0 0 0 0 0 0 0 0 0 0 0 0 16.69354 15.21855 14.85441 14.73034 14.77068 14.79556 14.77898 14.73563 14.69863 14.65557 14.61837 14.58613 14.56089 14.54427 14.53029 14.5213 14.51627 14.49598 14.47983 14.46882 14.44499 14.41836 14.40021 14.38437 14.37379 14.35583 14.34062 14.33186 14.32545 14.32917 14.33015 14.32312 14.32799 14.32173 14.32287 14.32088 14.32141 14.31517 14.31485 14.31578 14.32767 14.34247 14.37578 14.41109 14.43611 14.47209 14.49324 14.51147 14.54458 14.56902 14.59757 14.62454 14.6506 14.6708 14.68982 14.70824 14.72873 14.76395 14.79482
0 0 0 0 0 0 0 0 0 0 0 0 0 0 0 0 0 0 0 0 0 0 0 0 0 0 0 0 0 0 0 0 0 0 0 0 0 0 0 0 0 0 0 0 0 0 0 0 0 0 16.01842 15.21668 15.06078 14.72636 14.74655 14.75525 14.74709 14.70522 14.66902 14.63522 14.60711 14.57633 14.55454 14.54308 14.53389 14.53697 14.52922 14.50612 14.49918 14.47923 14.45239 14.43192 14.41387 14.39886 14.38238 14.36273 14.35729 14.3488 14.34138 14.33724 14.33688 14.33934 14.33497 14.33347 14.33162 14.33172 14.33153 14.33235 14.33021 14.33139 14.34245 14.36941 14.39552 14.4259 14.44859 14.47665 14.5059 14.5277 14.55383 14.5833 14.61621 14.64473 14.67649 14.70271 14.71769 14.73555 14.75835 14.78949 14.82234
0 0 0 0 0 0 0 0 0 0 0 0 0 0 0 0 0 0 0 0 0 0 0 0 0 0 0 0 0 0 0 0 0 0 0 0 0 0 0 0 0 0 0 0 0 0 0 0 0 0 0 15.20819 14.84501 14.71369 14.71508 14.70639 14.72399 14.68672 14.65181 14.62485 14.59871 14.57039 14.55718 14.54834 14.54665 14.5502 14.54507 14.53755 14.51977 14.49706 14.47801 14.45255 14.43714 14.41985 14.39767 14.37966 14.36911 14.36373 14.35944 14.35891 14.35517 14.3531 14.35305 14.34454 14.34693 14.34898 14.34905 14.35069 14.36486 14.37544 14.3976 14.41869 14.44424 14.47311 14.49506 14.5187 14.53773 14.55953 14.58784 14.61202 14.64255 14.67389 14.70746 14.73745 14.75127 14.76654 14.78494 14.81593 14.8501
0 0 0 0 0 0 0 0 0 0 0 0 0 0 0 0 0 0 0 0 0 0 0 0 0 0 0 0 0 0 0 0 0 0 0 0 0 0 0 0 0 0 0 0 0 0 0 0 0 0 0 14.98145 14.65283 14.69135 14.68649 14.66271 14.70026 14.67086 14.6418 14.6215 14.60065 14.58722 14.57738 14.57361 14.5694 14.5659 14.57684 14.57177 14.55132 14.52098 14.4994 14.4788 14.46074 14.44836 14.43329 14.40794 14.39429 14.38344 14.38277 14.38138 14.37733 14.38042 14.37712 14.378 14.37745 14.37573 14.38 14.3938 14.40908 14.42577 14.45252 14.47557 14.50578 14.53144 14.55727 14.57727 14.595 14.61401 14.63562 14.65534 14.67968 14.709 14.73793 14.7621 14.77717 14.79409 14.81256 14.84466 14.87912
0 0 0 0 0 0 0 0 0 0 0 0 0 0 0 0 0 0 0 0 0 0 0 0 0 0 0 0 0 0 0 0 0 0 0 0 0 0 0 0 0 0 0 0 0 0 0 0 0 0 0 14.64848 14.66443 14.69321 14.68341 14.65976 14.67686 14.64575 14.63136 14.61207 14.60142 14.59959 14.59471 14.59 14.58977 14.60845 14.61233 14.60301 14.58842 14.56662 14.54246 14.51585 14.50174 14.48676 14.46871 14.44327 14.42132 14.41321 14.40893 14.41021 14.41252 14.42165 14.42206 14.41932 14.42255 14.42783 14.4345 14.44891 14.47213 14.49786 14.51512 14.53348 14.56003 14.58555 14.60464 14.62407 14.64993 14.66771 14.68813 14.704 14.72633 14.74525 14.76856 14.79527 14.80533 14.82356 14.84319 14.87066 14.89521
0 0 0 0 0 0 0 0 0 0 0 0 0 0 0 0 0 0 0 0 0 0 0 0 0 0 0 0 0 0 0 0 0 0 0 0 0 0 0 0 0 0 0 0 0 0 0 0 0 16.46513 15.5762 14.6982 14.69698 14.69614 14.68534 14.67138 14.6623 14.6295 14.6227 14.61239 14.61434 14.62046 14.61859 14.61846 14.61863 14.62932 14.63913 14.63644 14.62311 14.60532 14.58729 14.5691 14.55737 14.54279 14.5053 14.49604 14.47544 14.46454 14.4606 14.46332 14.46082 14.46404 14.46509 14.46684 14.46914 14.47767 14.48866 14.5059 14.52972 14.55082 14.57105 14.59424 14.61617 14.63956 14.65739 14.67629 14.69202 14.71523 14.72798 14.74901 14.76985 14.78517 14.79918 14.81893 14.83361 14.85356 14.87558 14.8945 14.91302
0 0 0 0 0 0 0 0 0 0 0 0 0 0 0 0 0 0 0 0 0 0 0 0 0 0 0 0 0 0 0 0 0 0 0 0 0 0 0 0 0 0 0 0 0 0 0 0 15.60583 15.1544 14.91933 14.71588 14.70383 14.68286 14.66681 14.65876 14.65575 14.62325 14.61505 14.62462 14.63678 14.65207 14.65206 14.64596 14.6476 14.66477 14.68153 14.68092 14.66723 14.64589 14.62661 14.60722 14.58548 14.57053 14.54554 14.53366 14.52361 14.5142 14.51669 14.51855 14.51785 14.52453 14.52049 14.5228 14.52903 14.5399 14.54774 14.55913 14.57478 14.59381 14.61346 14.63319 14.65781 14.68306 14.69821 14.71038 14.72971 14.75521 14.7855 14.80055 14.81085 14.82253 14.83409 14.84211 14.852 14.86779 14.89074 14.90903 14.92713
0 0 0 0 0 0 0 0 0 0 0 0 0 0 0 0 0 0 0 0 0 0 0 0 0 0 0 0 0 0 0 0 0 0 0 0 0 0 0 0 0 0 0 0 0 15.26198 15.12835 15.65558 15.20195 15.22786 14.98207 14.74294 14.71034 14.67437 14.65976 14.65598 14.65603 14.63158 14.61499 14.63162 14.66239 14.67002 14.6737 14.66946 14.6866 14.70393 14.71536 14.71428 14.70169 14.69415 14.67188 14.65229 14.63113 14.61823 14.60119 14.58182 14.56646 14.55899 14.56104 14.56278 14.56051 14.55994 14.56258 14.5678 14.57831 14.59495 14.60277 14.61215 14.63098 14.6528 14.66706 14.69197 14.71518 14.73482 14.75315 14.76232 14.7791 14.80433 14.82862 14.8441 14.85238 14.85761 14.8651 14.87292 14.87701 14.89094 14.90827 14.92593 14.94598
0 0 0 0 0 0 0 0 0 0 0 0 0 0 0 0 0 0 0 0 0 0 0 0 0 0 0 0 0 0 0 0 0 0 0 0 0 0 0 0 0 0 17.20386 16.9125 15.94753 15.20566 14.76637 14.79495 15.26187 15.01776 14.79351 14.75208 14.71606 14.68321 14.67634 14.66901 14.65426 14.63568 14.64608 14.6606 14.69572 14.71036 14.70769 14.7165 14.73464 14.75199 14.75688 14.75599 14.74186 14.72466 14.69892 14.68086 14.67054 14.65716 14.64101 14.62478 14.61254 14.60875 14.60533 14.61452 14.61159 14.61496 14.62041 14.6279 14.63153 14.64323 14.64961 14.65688 14.67544 14.6938 14.71102 14.74163 14.76875 14.79316 14.80455 14.82609 14.84872 14.86816 14.88731 14.89634 14.89861 14.89732 14.90432 14.90597 14.90991 14.91567 14.92398 14.94196 14.96053
0 0 0 0 0 0 0 0 0 0 0 0 0 0 0 0 0 0 0 0 0 0 0 0 0 0 0 0 0 0 0 0 0 0 0 0 0 0 0 0 16.32877 16.69568 16.9745 16.01839 15.27691 14.80365 14.83453 14.85391 14.84508 14.80902 14.78479 14.76133 14.72902 14.698 14.68458 14.67265 14.67116 14.66 14.66953 14.69233 14.72577 14.73822 14.74837 14.75572 14.77936 14.7942 14.7975 14.79843 14.79075 14.77381 14.74841 14.73212 14.72536 14.71453 14.69053 14.67137 14.65331 14.64515 14.64946 14.65417 14.65867 14.66232 14.67672 14.68382 14.68964 14.69635 14.70598 14.71576 14.72805 14.74509 14.76689 14.78827 14.8118 14.83168 14.84621 14.86719 14.8865 14.90884 14.92524 14.93223 14.93876 14.94127 14.94333 14.93933 14.94006 14.94628 14.95408 14.97056 14.99178
0 0 0 0 0 0 0 0 0 0 0 0 0 0 0 0 0 0 0 0 0 0 0 0 0 0 0 0 0 0 0 0 0 0 0 0 0 0 0 16.55446 16.29849 15.76646 15.55075 14.80815 14.82451 14.84809 14.86331 14.87511 14.8649 14.83014 14.78967 14.75828 14.74131 14.721 14.7091 14.70557 14.70098 14.70722 14.70444 14.73929 14.76566 14.78122 14.80716 14.80507 14.82335 14.84077 14.84573 14.85098 14.84125 14.82819 14.80738 14.78937 14.78252 14.77378 14.75816 14.73661 14.71793 14.70671 14.70305 14.70833 14.71353 14.71651 14.7202 14.7327 14.73417 14.74043 14.74845 14.76334 14.77413 14.78933 14.80963 14.83548 14.85755 14.88156 14.89609 14.9108 14.93129 14.94953 14.96596 14.96972 14.97631 14.96916 14.96855 14.96378 14.96961 14.97361 14.9796 14.99978 15.01712
0 0 0 0 0 0 0 0 0 0 0 0 0 0 0 0 0 0 0 0 0 0 0 0 0 0 0 0 0 0 0 0 0 0 0 0 0 0 15.83613 15.56108 15.32578 14.85864 14.87752 14.88487 14.88233 14.88044 14.88124 14.88303 14.86671 14.84199 14.80923 14.79319 14.7728 14.75932 14.74164 14.72806 14.73479 14.74866 14.7643 14.79643 14.8163 14.83435 14.84023 14.85741 14.87908 14.8953 14.90473 14.91825 14.90936 14.8913 14.87266 14.84895 14.82986 14.8166 14.79867 14.77919 14.76548 14.75822 14.75722 14.76087 14.76837 14.77732 14.78567 14.79216 14.79859 14.80161 14.81236 14.81948 14.83367 14.85049 14.86533 14.8789 14.89531 14.91105 14.92392 14.94743 14.96095 14.9834 14.99193 15.0012 14.99889 14.99327 14.99458 14.9938 14.99971 15.00685 15.01662 15.03636 15.05322
0 0 0 0 0 0 0 0 0 0 0 0 0 0 0 0 0 0 0 0 0 0 0 0 0 0 0 0 0 0 0 0 0 0 17.5277 18.1107 17.25109 15.63657 14.86944 14.89622 14.91843 14.92062 14.92224 14.91213 14.90755 14.88691 14.89069 14.89507 14.89751 14.88613 14.86288 14.85475 14.83486 14.81915 14.81262 14.80032 14.80703 14.81827 14.83931 14.85196 14.87059 14.8708 14.88188 14.90765 14.92353 14.93473 14.95239 14.9718 14.97646 14.97249 14.94783 14.92472 14.90638 14.88425 14.86109 14.8425 14.83042 14.81957 14.81627 14.81898 14.82364 14.83171 14.83677 14.83968 14.84287 14.85267 14.86689 14.87693 14.8857 14.90147 14.92133 14.93592 14.94638 14.96305 14.97523 14.98963 15.00106 15.0149 15.02546 15.02175 15.01955 15.01636 15.0181 15.01835 15.02637 15.03623 15.05696 15.07738 15.08978
0 0 0 0 0 0 0 0 0 0 0 0 0 0 0 0 0 0 0 0 0 0 0 0 0 0 0 0 0 17.99285 17.60544 17.40114 17.4038 17.18736 16.90392 16.32187 14.94041 14.95128 14.96791 14.98192 14.98031 14.96193 14.94517 14.93233 14.94168 14.92004 14.91906 14.9139 14.91236 14.90139 14.90055 14.88937 14.88304 14.88381 14.86705 14.87072 14.86753 14.86902 14.89036 14.91491 14.92456 14.9286 14.93865 14.9421 14.95753 14.97514 14.99909 15.0125 15.01882 15.01712 15.00561 14.98583 14.96565 14.95811 14.92835 14.914 14.90404 14.89079 14.89065 14.89557 14.89571 14.90218 14.90876 14.90838 14.91149 14.91253 14.91826 14.93022 14.93166 14.94702 14.96369 14.97431 14.98817 14.99921 15.016 15.02993 15.03441 15.04591 15.05433 15.05005 15.04604 15.04323 15.04625 15.04781 15.05862 15.07355 15.09614 15.11024 15.10956
0 0 0 0 0 0 0 0 0 0 0 0 0 0 0 0 0 0 0 0 0 0 0 0 0 17.79089 17.10087 17.12141 16.20719 15.59449 15.29926 15.02696 15.02689 15.02583 15.0154 15.00061 15.00024 15.00814 15.02683 15.03622 15.01754 14.99096 14.97033 14.9575 14.94699 14.92119 14.92375 14.92698 14.92821 14.93545 14.94133 14.945 14.93923 14.92458 14.91059 14.92717 14.9264 14.92321 14.9336 14.96087 14.96388 14.95916 14.96345 14.97904 14.99515 15.02267 15.03922 15.05586 15.06676 15.07087 15.06557 15.04301 15.02375 15.02101 15.00604 14.98287 14.9664 14.95745 14.95969 14.96133 14.95956 14.96397 14.9705 14.96859 14.96819 14.97663 14.98494 14.99129 14.99336 15.00069 15.0153 15.02505 15.03333 15.04546 15.05768 15.06337 15.06709 15.06986 15.07649 15.07618 15.07451 15.07333 15.07238 15.08755 15.09953 15.11604 15.13036 15.13507 15.11616
0 0 0 0 0 0 0 0 0 0 0 0 0 0 0 0 0 0 0 0 0 0 0 17.93079 17.10908 16.58123 16.2974 16.00351 15.11147 15.09739 15.08442 15.07704 15.07788 15.07315 15.05544 15.0395 15.04538 15.0665 15.09614 15.10177 15.06266 15.01456 14.97164 14.94478 14.93761 14.93764 14.94006 14.94554 14.95087 14.96364 14.9886 14.98465 14.97368 14.9742 14.9626 14.96253 14.9668 14.97238 14.98467 14.99965 15.01903 15.01152 15.00235 15.01445 15.03318 15.06192 15.07715 15.09503 15.10651 15.11186 15.11364 15.0978 15.08869 15.07838 15.07338 15.06207 15.05144 15.04804 15.04773 15.05141 15.03908 15.03208 15.03345 15.03006 15.03156 15.0329 15.03252 15.03725 15.04263 15.04828 15.05513 15.06909 15.0771 15.08902 15.0971 15.10135 15.10585 15.10328 15.10247 15.11035 15.11246 15.11475 15.12047 15.12789 15.13289 15.14355 15.14992 15.14441 15.11735
0 0 0 0 0 0 0 0 0 0 0 0 0 0 0 0 0 0 0 0 0 0 17.33298 16.52239 16.26096 16.30697 16.02808 15.71168 15.12604 15.1173 15.10912 15.09768 15.09009 15.08627 15.08812 15.08833 15.09123 15.09344 15.10633 15.09967 15.06601 15.03215 15.00801 14.98496 14.96011 14.96052 14.96694 14.97409 14.98143 14.9976 15.00803 15.00568 15.00582 15.00027 14.99704 15.00396 15.0084 15.00926 15.01114 15.02104 15.04306 15.0419 15.04384 15.04748 15.07135 15.09208 15.11682 15.13936 15.15452 15.15608 15.16482 15.14782 15.14084 15.13476 15.13061 15.12468 15.12222 15.11876 15.12812 15.11988 15.11542 15.11187 15.10789 15.10362 15.10255 15.10188 15.10296 15.10611 15.10451 15.09819 15.0996 15.10744 15.11619 15.12402 15.13018 15.12451 15.12815 15.12973 15.13826 15.14409 15.14697 15.15036 15.16528 15.16522 15.16998 15.18032 15.17536 15.15599 15.11986
0 0 0 0 0 0 0 0 0 0 0 0 0 0 0 0 0 0 0 0 0 18.4905 17.5241 16.49426 15.9293 15.97397 15.69292 15.72248 15.12503 15.11383 15.09918 15.08706 15.07698 15.06802 15.06678 15.06331 15.06152 15.06473 15.07756 15.07436 15.05302 15.02662 15.00303 14.99534 14.98207 14.98429 14.99247 15.00528 15.01762 15.02762 15.03302 15.03576 15.04031 15.04349 15.05207 15.05796 15.04563 15.04136 15.04522 15.0579 15.06524 15.07862 15.07741 15.0831 15.09654 15.12793 15.15294 15.18025 15.19826 15.20972 15.22135 15.2111 15.2068 15.20572 15.20462 15.20423 15.20151 15.19608 15.19496 15.18393 15.17435 15.16637 15.15416 15.15561 15.15811 15.16777 15.16494 15.16687 15.16836 15.16395 15.16016 15.16479 15.16832 15.16575 15.16237 15.16336 15.17012 15.1688 15.17345 15.17285 15.17415 15.18348 15.19567 15.20537 15.21391 15.21294 15.20602 15.17408 15.11562
0 0 0 0 0 0 0 0 0 0 0 0 0 0 0 0 0 0 0 0 0 0 0 17.05821 16.22344 15.95505 15.66656 15.42502 15.11206 15.09789 15.08618 15.07683 15.06328 15.05812 15.04611 15.0434 15.0415 15.05187 15.05616 15.05875 15.04325 15.02524 15.01484 15.00739 14.99749 15.001 15.0142 15.0264 15.03754 15.04532 15.05551 15.065 15.07424 15.07978 15.08481 15.0864 15.087 15.08501 15.0844 15.09349 15.10604 15.10982 15.1155 15.12544 15.13491 15.15855 15.1845 15.21363 15.22903 15.25038 15.26212 15.2609 15.26426 15.2733 15.27144 15.27165 15.27101 15.26222 15.26197 15.25284 15.24194 15.23328 15.22721 15.22259 15.23029 15.23258 15.22767 15.22512 15.22368 15.21864 15.21377 15.2094 15.20688 15.19984 15.20065 15.21133 15.21621 15.21228 15.21943 15.21731 15.22202 15.23443 15.24776 15.25592 15.25683 15.25289 15.22897 15.18671 15.11518
0 0 0 0 0 0 0 0 0 0 0 0 0 0 0 0 0 0 0 0 0 18.86451 18.60891 17.67827 16.25355 15.9712 15.67909 15.72792 15.39164 15.08965 15.07502 15.06321 15.056 15.04393 15.03578 15.03064 15.03564 15.03929 15.04795 15.04773 15.0384 15.02817 15.02152 15.01302 15.00135 15.02112 15.02568 15.04765 15.06926 15.08293 15.0934 15.10268 15.105 15.11233 15.1201 15.13042 15.12633 15.11643 15.11383 15.12682 15.12998 15.14506 15.15557 15.16656 15.1845 15.20132 15.23345 15.25709 15.27646 15.29644 15.30787 15.32093 15.32936 15.33041 15.32918 15.32296 15.32155 15.31265 15.30331 15.29498 15.29269 15.28515 15.28542 15.29 15.29571 15.29587 15.29259 15.28748 15.28227 15.28102 15.27342 15.26406 15.2579 15.25654 15.25598 15.25673 15.25621 15.25678 15.25897 15.26285 15.26785 15.28197 15.29243 15.29196 15.29387 15.28039 15.25324 15.20183 15.12329
0 0 0 0 0 0 0 0 0 0 0 0 0 0 0 0 0 0 0 18.82401 18.78572 18.71392 17.93215 16.88217 16.29448 16.02409 15.73178 16.06033 15.11963 15.08106 15.06623 15.05436 15.05174 15.04101 15.02932 15.02707 15.02911 15.03317 15.04998 15.04794 15.04227 15.0308 15.02067 15.01947 15.01238 15.02684 15.0491 15.06568 15.0904 15.1086 15.12616 15.14456 15.1547 15.16094 15.1736 15.17914 15.1819 15.17854 15.17035 15.15973 15.16124 15.16781 15.18685 15.20072 15.21677 15.23422 15.25747 15.2891 15.31185 15.3308 15.34898 15.36229 15.37852 15.38217 15.38602 15.3877 15.3821 15.37388 15.36665 15.36076 15.35761 15.35462 15.35356 15.35483 15.35626 15.35191 15.3415 15.33261 15.32801 15.32064 15.31384 15.31516 15.3131 15.31536 15.31988 15.32167 15.31915 15.31623 15.32052 15.325 15.32384 15.33143 15.33421 15.33007 15.32278 15.30566 15.27364 15.21598 15.13823
0 0 0 0 0 0 0 0 0 0 0 0 0 0 0 0 0 0 18.32227 18.2272 17.91348 17.47348 16.90214 16.29238 16.0419 16.07658 15.77945 15.4575 15.13379 15.08437 15.06234 15.05048 15.04113 15.02976 15.02458 15.02559 15.02724 15.03263 15.04785 15.05506 15.05179 15.04426 15.04198 15.04002 15.03827 15.05204 15.06882 15.09464 15.1251 15.14885 15.17897 15.19958 15.20857 15.22276 15.23145 15.23749 15.23629 15.23555 15.2348 15.22898 15.22222 15.2206 15.22314 15.23248 15.25011 15.27524 15.30023 15.32294 15.34019 15.35466 15.37573 15.39632 15.41048 15.4171 15.42545 15.42998 15.42538 15.42387 15.42311 15.41582 15.41613 15.41701 15.42055 15.42158 15.41746 15.40992 15.3985 15.38627 15.37759 15.37028 15.36017 15.35761 15.35968 15.3651 15.36636 15.37043 15.37443 15.37244 15.37495 15.37934 15.3813 15.37958 15.38459 15.37449 15.35944 15.33216 15.30295 15.24667 15.1767
0 0 0 0 0 0 0 0 0 0 0 0 0 0 0 0 0 18.71025 18.19743 17.65248 17.19287 16.60751 16.3167 16.35348 16.38962 16.06517 15.75228 15.15988 15.11574 15.06984 15.04751 15.04211 15.02582 15.00726 15.00782 15.0166 15.01661 15.0296 15.03968 15.04594 15.04685 15.04319 15.04143 15.05627 15.06328 15.08936 15.10462 15.12702 15.15459 15.18647 15.21925 15.24904 15.26435 15.27207 15.27912 15.2824 15.28354 15.27697 15.27096 15.26549 15.2652 15.26157 15.2618 15.26467 15.27767 15.30724 15.3347 15.35122 15.36459 15.38083 15.40516 15.42547 15.44622 15.45673 15.46221 15.46426 15.47393 15.47073 15.46722 15.464 15.46946 15.46818 15.46772 15.46528 15.46348 15.45882 15.44755 15.43818 15.42727 15.42397 15.41894 15.41467 15.41929 15.42214 15.42348 15.42603 15.42386 15.42437 15.42593 15.42323 15.42415 15.4211 15.41578 15.40431 15.38894 15.37072 15.33706 15.28141 15.21625
0 0 0 0 0 0 0 0 0 0 0 0 0 0 0 0 18.17713 18.16069 17.39044 16.88268 16.60802 16.31009 16.31485 16.34492 16.35412 16.051 15.72574 15.14184 15.0859 15.05322 15.03166 15.01871 15.00629 14.99794 14.9997 15.00832 15.01747 15.02912 15.0348 15.03566 15.04278 15.04998 15.05618 15.06755 15.08706 15.10726 15.12992 15.15504 15.18522 15.21966 15.25212 15.28403 15.30818 15.32107 15.33014 15.33898 15.33554 15.32912 15.32775 15.33198 15.32307 15.32204 15.30946 15.3054 15.30823 15.32893 15.35777 15.37771 15.39751 15.41055 15.42688 15.4417 15.46883 15.48896 15.49921 15.50856 15.51889 15.52054 15.52392 15.52889 15.53458 15.53359 15.52881 15.52641 15.51972 15.51209 15.50433 15.48824 15.47374 15.46049 15.45295 15.45743 15.45946 15.4595 15.46808 15.47012 15.47036 15.46222 15.4619 15.46571 15.4673 15.46077 15.45289 15.44504 15.43277 15.41028 15.37649 15.32288 15.25666
0 0 0 0 0 0 0 0 0 0 0 0 0 0 0 18.69678 17.98129 17.33663 16.81886 16.56396 16.27829 16.29312 16.29795 16.00279 16.02057 15.71752 15.12185 15.11177 15.06807 15.03609 15.01483 14.99999 14.98727 14.97908 14.98038 14.99672 15.0074 15.02767 15.04263 15.05514 15.0684 15.0847 15.10055 15.11712 15.13756 15.16044 15.18041 15.20447 15.23422 15.26893 15.29197 15.31626 15.33523 15.35174 15.36687 15.37969 15.38061 15.38544 15.39173 15.39545 15.39359 15.38901 15.38572 15.37066 15.36582 15.36606 15.39054 15.40252 15.42188 15.43031 15.44725 15.46324 15.49246 15.51432 15.53283 15.54637 15.55634 15.56603 15.56799 15.57418 15.58162 15.58392 15.58594 15.58372 15.58255 15.57368 15.56106 15.54829 15.53506 15.51283 15.50461 15.49818 15.50307 15.50413 15.50108 15.49907 15.49064 15.48512 15.48883 15.49413 15.49326 15.4899 15.47956 15.47437 15.46938 15.44906 15.41992 15.37175 15.30893
0 0 0 0 0 0 0 0 0 0 0 0 0 0 18.00292 17.99769 17.32782 16.77986 16.49935 16.21575 16.2387 15.92888 15.94513 15.96389 15.67228 15.37538 15.09605 15.08758 15.05155 15.02631 15.00242 14.98924 14.97514 14.9669 14.98466 14.99943 15.01353 15.03287 15.05713 15.07831 15.09484 15.11612 15.14128 15.16625 15.19551 15.22518 15.25407 15.28682 15.30989 15.32909 15.34174 15.36137 15.37924 15.39481 15.41418 15.4316 15.43113 15.43377 15.43759 15.4452 15.44997 15.45223 15.45653 15.44637 15.42559 15.42436 15.42339 15.42873 15.4433 15.44984 15.468 15.48408 15.51028 15.54023 15.56732 15.58946 15.60397 15.6139 15.62143 15.62443 15.62773 15.63138 15.63409 15.63141 15.62743 15.62573 15.61285 15.60268 15.58887 15.56909 15.5585 15.54622 15.54207 15.54142 15.53538 15.53106 15.52418 15.52 15.5176 15.51957 15.52203 15.5189 15.51419 15.49879 15.50037 15.47885 15.44786 15.40249 15.3353
0 0 0 0 0 0 0 0 0 0 0 0 0 17.85813 18.02184 17.29536 16.73135 16.45987 16.17657 16.192 15.88285 15.8783 15.90328 15.93414 15.63771 15.06841 15.06434 15.06517 15.03562 15.01581 14.99759 14.98796 14.98175 14.97862 14.99772 15.01612 15.02945 15.05351 15.07977 15.10377 15.12959 15.16234 15.19869 15.23456 15.27207 15.29998 15.32636 15.35018 15.36953 15.37818 15.38525 15.4034 15.42704 15.44596 15.46444 15.47608 15.47756 15.47835 0 0 0 15.45291 15.46956 15.52311 15.50918 15.49071 15.47709 15.47664 15.46878 15.46919 15.48048 15.49853 15.52675 15.55788 15.59009 15.61971 15.6333 15.65495 15.6672 15.67596 15.68304 15.68828 15.68999 15.68934 15.69051 15.68973 15.67984 15.67063 15.65871 15.63886 15.61931 15.6008 15.59036 15.58037 15.56972 15.56439 15.55236 15.54109 15.54328 15.53885 15.54363 15.54148 15.5418 15.53652 15.53177 15.51778 15.48424 15.435 15.367
0 0 0 0 0 0 0 0 0 0 0 0 0 18.22152 17.33104 16.72345 16.42626 16.12185 16.14386 15.85169 15.8615 15.86337 15.89465 15.02395 15.03613 15.04294 15.04419 15.04663 15.02446 15.00819 15.00259 14.9919 14.98617 14.98211 14.99619 15.0179 15.05193 15.07774 15.11468 15.15599 15.2014 15.24727 15.28295 15.32266 15.35777 15.38464 15.40956 15.42455 15.42927 15.42854 15.43553 16.14401 15.46492 15.4839 15.49723 15.84318 16.56055 17.27927 0 0 0 0 0 15.91533 15.55731 15.54082 15.52137 15.51248 15.50443 15.50133 15.50575 15.52258 15.54821 15.58054 15.61521 15.64479 15.66978 15.687 15.70321 15.71495 15.72535 15.72955 15.73736 15.73981 15.73944 15.74406 15.73779 15.72966 15.72246 15.70933 15.69387 15.67581 15.65593 15.63803 15.6241 15.6072 15.59516 15.58706 15.57953 15.57034 15.56824 15.5619 15.56666 15.56058 15.55624 15.54456 15.50951 15.45788 15.38972
0 0 0 0 0 0 0 0 0 0 0 0 18.33484 17.56385 16.69966 16.3969 16.1046 15.83468 15.84158 15.85033 15.85755 15.87057 15.57963 15.01361 15.01864 15.01984 15.02955 15.04094 15.02101 15.01145 15.00665 15.00377 15.00006 14.9967 15.01558 15.04414 15.06604 15.10591 15.14884 15.20576 15.25555 15.30278 15.34563 15.38038 15.40984 15.43487 15.44353 0 0 15.43111 0 16.98679 16.22537 15.85632 16.22937 16.22047 16.95682 17.34107 18.24122 16.22321 15.55725 0 0 0 17.07171 15.56102 15.54196 15.52983 15.52606 15.52057 15.52754 15.54401 15.57508 15.60902 15.64781 15.67774 15.70146 15.72108 15.74106 15.75507 15.77052 15.77787 15.78369 15.78994 15.79331 15.79213 15.78423 15.77616 15.76678 15.75598 15.74656 15.72653 15.70801 15.6935 15.67536 15.65907 15.64417 15.63598 15.62568 15.61415 15.60419 15.59925 15.59472 15.58989 15.58232 15.57119 15.53196 15.4784 15.40808
0 0 0 0 0 0 0 0 0 0 0 17.53405 17.53374 16.67969 16.38666 15.80222 15.84333 15.85323 15.84898 15.85577 15.87727 15.26841 14.99405 14.99729 15.00384 15.00717 15.0203 15.03682 15.02812 15.02196 15.02186 15.01786 15.0131 15.01206 15.03243 15.06611 15.10358 15.15954 15.21259 15.2778 15.32894 15.36683 15.3972 15.42223 16.14829 0 0 0 0 0 17.72645 18.46611 18.26318 17.73561 17.38987 16.98441 16.97858 15.88474 15.54315 15.55018 15.55831 15.56325 15.56712 17.45291 17.79468 15.57216 15.55722 15.54785 15.55291 15.54386 15.5523 15.56778 15.59831 15.63386 15.66907 15.70113 15.72424 15.74845 15.76894 15.79368 15.80621 15.81309 15.826 15.83049 15.8372 15.83867 15.8363 15.82656 15.82017 15.80786 15.79505 15.77877 15.76222 15.74472 15.7248 15.70944 15.68685 15.67147 15.66109 15.64918 15.64268 15.63123 15.62473 15.61396 15.60578 15.58797 15.5595 15.50663 15.43807
0 0 0 0 0 0 0 0 0 0 18.22959 17.53406 16.65683 16.04358 15.79934 15.52555 15.56596 15.57289 15.57661 15.57099 15.56745 14.9854 14.98234 14.99471 14.99966 15.00401 15.01291 15.04001 15.03363 15.03375 15.03547 15.03349 15.02494 15.02067 15.04471 15.08793 15.14801 15.21562 15.27513 15.32544 15.37562 15.41086 15.76692 0 0 0 0 0 0 0 0 0 0 0 17.7632 17.41678 16.64864 15.55726 15.56673 15.57733 15.58152 15.58392 15.58663 15.58967 15.58837 15.58835 15.57805 15.57675 15.58377 15.57717 15.58212 15.59839 15.6244 15.65761 15.68961 15.72282 15.75356 15.77503 15.80019 15.82117 15.83511 15.84587 15.85388 15.85895 15.86284 15.86716 15.86876 15.86524 15.85839 15.84952 15.83953 15.82946 15.81438 15.798 15.77871 15.76064 15.74392 15.72957 15.71483 15.70228 15.69173 15.68161 15.66209 15.64355 15.62942 15.60774 15.57889 15.52622 15.46264
0 0 0 0 0 0 0 0 0 0 17.76796 16.61289 16.01026 15.77802 15.24989 15.28026 15.01861 15.01278 15.00386 14.99876 14.99463 14.97856 14.9818 14.9939 15.00236 15.0063 15.02596 15.04997 15.04391 15.0528 15.05513 15.04773 15.03994 15.04399 15.07872 15.1286 15.19503 15.24991 15.30774 15.35621 16.45743 0 0 0 0 0 0 0 0 0 0 0 0 0 18.40367 17.09489 15.58703 15.59157 15.60202 15.61775 15.63101 15.63415 15.62456 15.61403 15.60838 15.60462 15.609 15.61206 15.61622 15.60667 15.60834 15.61985 15.6425 15.67794 15.71015 15.74724 15.78393 15.81135 15.83647 15.85388 15.86731 15.87843 15.88167 15.8838 15.88709 15.89362 15.89993 15.90026 15.89492 15.88444 15.87481 15.86708 15.85476 15.83904 15.81933 15.79898 15.78411 15.77322 15.76193 15.75509 15.73981 15.72563 15.70172 15.68073 15.65885 15.6323 15.59879 15.54627 15.48551
0 0 0 0 0 0 0 0 0 17.84373 17.26038 16.29043 15.7103 15.19696 14.99378 15.01691 15.00245 14.99362 14.99236 14.99483 14.98253 14.97224 14.98768 14.99494 15.00079 15.01174 15.0322 15.05076 15.05653 15.05679 15.06451 15.06438 15.05715 15.06999 15.11171 15.17177 15.22487 15.28474 15.34141 16.0656 16.27639 0 0 0 0 0 0 0 0 0 0 0 0 17.71453 17.48987 16.32365 15.60212 15.6107 15.63221 15.65418 15.67008 15.67428 15.66796 15.65724 15.65136 15.65415 15.65711 15.6568 15.65345 15.64462 15.64301 15.65435 15.67275 15.70339 15.73649 15.76929 15.80485 15.83035 15.8534 15.87264 15.89225 15.90038 15.90362 15.90724 15.91372 15.92427 15.93114 15.93696 15.93738 15.93108 15.91833 15.90945 15.89457 15.87869 15.85985 15.84216 15.82673 15.81399 15.80141 15.79255 15.77351 15.75685 15.73069 15.71113 15.68447 15.65118 15.61261 15.56164 15.50322
0 0 0 0 0 0 0 0 18.8026 17.59109 16.25393 15.66583 15.4062 14.90862 14.93148 14.95818 14.96002 14.95501 14.9567 14.95636 14.96337 14.96844 14.98282 14.99255 15.00151 15.02471 15.0527 15.07567 15.07831 15.08347 15.0809 15.07634 15.07871 15.09836 15.14333 15.20171 15.24977 15.30325 15.67342 16.06381 16.47393 17.24136 0 18.04961 18.61828 0 0 0 0 0 0 0 18.45029 17.49848 16.73036 15.60435 15.62347 15.64711 15.67435 15.69244 15.69705 15.69926 15.69451 15.68876 15.6858 15.68372 15.68318 15.68259 15.68301 15.67695 15.67884 15.68653 15.70896 15.73508 15.76672 15.80108 15.82865 15.85579 15.87928 15.90119 15.92031 15.92467 15.928 15.92862 15.93611 15.94672 15.95401 15.96186 15.96456 15.96097 15.95185 15.93804 15.92671 15.91709 15.90034 15.88493 15.87131 15.85872 15.848 15.8353 15.81737 15.79238 15.76166 15.74225 15.71401 15.67975 15.63214 15.5829 15.52227
0 0 0 0 0 0 0 0 18.79672 17.58122 16.23969 15.64543 14.84951 14.87747 14.89742 14.91697 14.92391 14.92265 14.92412 14.93737 14.94753 14.9553 14.97556 15.00047 15.01712 15.05104 15.0841 15.11223 15.11941 15.1252 15.12996 15.12886 15.13413 15.15424 15.19382 15.24387 15.28101 15.31748 15.35151 15.71336 16.091 16.49056 16.90907 17.31386 18.06181 0 0 0 0 0 0 17.85739 17.11589 17.12876 15.60075 15.62278 15.66432 15.69715 15.71929 15.73055 15.736 15.73117 15.72623 15.72365 15.71999 15.71089 15.70075 15.70339 15.70616 15.70093 15.70306 15.71413 15.73712 15.7622 15.79345 15.8266 15.85669 15.88264 15.91232 15.93511 15.94769 15.95203 15.95623 15.96387 15.9731 15.97992 15.9862 15.99302 15.99278 15.98959 15.98093 15.96714 15.95625 15.94411 15.93038 15.91641 15.90187 15.8907 15.88224 15.87011 15.85401 15.83386 15.80501 15.77495 15.73968 15.69905 15.65102 15.60377 15.54657
0 0 0 0 0 0 0 0 0 17.54741 16.22428 15.62448 14.82896 14.85145 14.8662 14.88892 14.89132 14.88775 14.90398 14.92502 14.94176 14.95037 14.9733 15.00973 15.03873 15.07965 15.11645 15.16513 15.18393 15.19199 15.1961 15.20132 15.20433 15.21821 15.24706 15.28395 15.31239 15.33264 15.36166 15.38121 15.40021 15.41939 15.4425 15.79568 16.57417 17.35396 18.11712 18.45883 0 0 18.13489 17.08761 16.31706 15.59904 15.6217 15.6586 15.70799 15.73229 15.75131 15.76064 15.75985 15.75903 15.76062 15.75976 15.75064 15.74056 15.73376 15.73102 15.73088 15.73067 15.73661 15.7511 15.76995 15.79635 15.82283 15.85228 15.88296 15.90962 15.94079 15.95893 15.97093 15.97315 15.97916 15.98785 15.99412 16.00575 16.01605 16.02179 16.02548 16.01864 16.01194 16.00018 15.9875 15.97244 15.96172 15.94944 15.93272 15.92685 15.91585 15.90196 15.88437 15.86168 15.83182 15.80127 15.76414 15.72003 15.67639 15.62038 15.56564
0 0 0 0 0 0 0 0 0 18.62639 16.92194 15.92587 15.06883 14.84023 14.84313 14.87014 14.86235 14.86665 14.88771 14.91045 14.94057 14.95657 14.98351 15.02782 15.0636 15.10672 15.17327 15.22935 15.2518 15.26742 15.27423 15.26992 15.27172 15.28034 15.2946 15.32219 15.34345 15.35708 15.37412 15.38471 15.39744 15.41142 15.43639 15.46269 15.81585 16.20444 16.60916 17.0064 18.14031 17.06255 15.89966 15.57083 15.59195 15.62615 15.66715 15.70647 15.74184 15.75876 15.77019 15.77645 15.77539 15.77324 15.77532 15.77327 15.76674 15.76505 15.76223 15.75946 15.7521 15.75532 15.76899 15.78751 15.80783 15.83541 15.86324 15.89087 15.91433 15.94419 15.96963 15.98513 15.99203 15.99827 15.99722 16.00599 16.01404 16.02887 16.03936 16.04908 16.04987 16.05205 16.04083 16.02886 16.01696 16.00561 15.99342 15.97818 15.96427 15.95408 15.94933 15.93014 15.91736 15.88875 15.85945 15.8248 15.78777 15.74091 15.69225 15.6356 15.57528
0 0 0 0 0 0 0 0 0 18.78994 17.87055 16.238 15.33214 14.82742 14.84054 14.86146 14.84871 14.85508 14.87917 14.90836 14.92664 14.95275 14.9823 15.01525 15.07235 15.14818 15.2275 15.29878 15.33543 15.34706 15.34811 15.34394 15.34287 15.34544 15.3511 15.36407 15.37994 15.38762 15.39343 15.39853 15.40581 15.41731 15.43805 15.46086 15.47827 15.49498 15.86516 0 17.0661 15.92492 15.59031 15.61061 15.63895 15.67435 15.7184 15.75816 15.78368 15.79388 15.80083 15.80203 15.79945 15.79741 15.79537 15.79155 15.79243 15.78986 15.78696 15.78525 15.78136 15.78342 15.79423 15.81297 15.83632 15.864 15.88979 15.91218 15.93632 15.96348 15.98376 15.99958 16.00771 16.01359 16.01609 16.02234 16.03324 16.05052 16.06389 16.07525 16.08217 16.07985 16.06874 16.06178 16.04581 16.03177 16.01978 16.00896 15.99223 15.98029 15.9714 15.95671 15.93867 15.91131 15.88198 15.85044 15.8098 15.76222 15.70718 15.64753 15.57666
0 0 0 0 0 0 0 0 0 0 18.44211 16.94464 15.57107 15.0419 14.84599 14.85951 14.81896 14.82492 14.84111 14.85661 14.89568 14.92003 14.95754 15.00303 15.07336 15.15827 15.25116 15.32176 0 0 0 15.57004 15.38123 15.38931 15.38727 15.39511 15.40971 15.41848 15.42012 15.41913 15.41818 15.42912 15.44232 15.4643 15.48581 15.51226 15.54603 15.92771 15.58184 15.60314 15.63463 15.66395 15.69624 15.72745 15.75228 15.77707 15.79968 15.81394 15.82003 15.81875 15.82117 15.8265 15.82121 15.81962 15.81893 15.81701 15.82107 15.81833 15.81565 15.81913 15.82676 15.84079 15.85828 15.88351 15.90674 15.93172 15.95414 15.97603 15.98944 16.00704 16.01295 16.01811 16.02503 16.03659 16.0521 16.07082 16.08284 16.09563 16.10102 16.10145 16.09556 16.08888 16.07759 16.06734 16.05617 16.04239 16.02616 16.01044 15.99482 15.98006 15.95871 15.93028 15.90483 15.87005 15.82394 15.7712 15.71432 15.64995 15.57158
0 0 0 0 0 0 0 0 0 0 0 18.28617 16.91424 15.55106 15.03255 14.8123 14.772 14.77597 14.7851 14.80242 14.8393 14.87291 14.93169 14.97861 15.05377 15.15253 15.56605 15.96611 0 0 0 16.14777 16.43407 15.3912 15.40024 15.40028 15.41765 15.43216 15.44079 15.44035 15.43817 15.44344 15.46165 15.49144 15.51817 15.54942 15.57782 15.60318 15.62261 15.64814 15.68564 15.7144 15.74249 15.76711 15.79001 15.81597 15.8314 15.83525 15.83717 15.83567 15.83882 15.84094 15.84235 15.83882 15.84238 15.84327 15.84584 15.8487 15.8486 15.85061 15.85528 15.86242 15.88116 15.90334 15.92601 15.94766 15.96819 15.98607 16.00375 16.01111 16.02005 16.02617 16.0383 16.05479 16.06803 16.08556 16.10008 16.11277 16.12117 16.12416 16.1208 16.11484 16.10127 16.08816 16.07647 16.06922 16.05045 16.03401 16.01506 15.99696 15.97756 15.94984 15.9152 15.87964 15.83361 15.78138 15.72368 15.65798 15.57921
0 0 0 0 0 0 0 0 0 0 0 0 18.46027 17.15758 15.4745 14.95607 14.71077 14.72493 14.7395 14.76127 14.77782 14.82602 14.89317 14.95405 15.02699 15.12885 15.86557 0 0 17.37063 17.51163 16.04517 15.36678 15.38419 15.38224 15.40862 15.42599 15.44434 15.45453 15.45262 15.45084 15.46426 15.48113 15.51492 15.54954 15.5855 15.61106 15.63305 15.65283 15.67806 15.70909 15.73977 15.77592 15.80175 15.82836 15.84478 15.8637 15.86867 15.86524 15.86308 15.86543 15.86904 15.8734 15.86909 15.86655 15.87017 15.876 15.87519 15.87525 15.87679 15.87911 15.88532 15.89904 15.91746 15.93499 15.9586 15.98379 16.00779 16.01931 16.02516 16.0359 16.04851 16.06462 16.07997 16.09002 16.1013 16.11696 16.13137 16.1387 16.13795 16.13409 16.13165 16.12286 16.11215 16.09864 16.0875 16.07002 16.05045 16.0294 16.01186 15.98915 15.95928 15.92725 15.89045 15.84416 15.79798 15.7385 15.67607 15.60692
0 0 0 0 0 0 0 0 0 0 0 0 0 0 0 15.37749 14.87875 14.66852 14.69463 14.70326 14.74062 14.783 14.85566 14.92584 14.99452 15.39545 15.48843 15.88897 16.2771 18.20076 17.49305 16.01773 15.35706 15.3728 15.37667 15.40699 15.4325 15.45438 15.46985 15.47308 15.47781 15.48445 15.50273 15.5335 15.56615 15.59906 15.62208 15.63974 15.66474 15.69819 15.73318 15.77134 15.80577 15.83463 15.86075 15.87792 15.89124 15.89081 15.89078 15.88774 15.89118 15.88725 15.88325 15.88132 15.88347 15.88987 15.89332 15.89876 15.90085 15.90698 15.90713 15.9132 15.92319 15.93794 15.95615 15.97405 15.99749 16.01633 16.03545 16.04881 16.05881 16.0737 16.08579 16.10188 16.113 16.12325 16.13598 16.14362 16.14748 16.14768 16.14186 16.1412 16.13453 16.12384 16.1166 16.10662 16.09016 16.06892 16.04602 16.02864 16.00576 15.97648 15.9421 15.91114 15.86979 15.82374 15.76431 15.70196 15.64242
0 0 0 0 0 0 0 0 0 0 0 0 0 0 0 15.88144 15.36536 14.6143 14.65313 14.65937 14.70946 14.75488 14.83397 14.91309 14.96379 15.04312 15.77163 15.86094 16.27363 0 17.52706 15.32538 15.35061 15.36646 15.39236 15.41168 15.43603 15.46305 15.48088 15.49084 15.49811 15.50712 15.53342 15.55839 15.58302 15.60862 15.62989 15.64691 15.68516 15.71966 15.76622 15.79532 15.82303 15.8579 15.88704 15.90649 15.91669 15.91307 15.91098 15.91317 15.91114 15.90791 15.90162 15.89995 15.90141 15.90551 15.91398 15.92166 15.9218 15.92462 15.92768 15.93728 15.94697 15.96039 15.98132 15.99798 16.01549 16.03637 16.05933 16.0743 16.08744 16.1054 16.11536 16.1236 16.13205 16.13933 16.14774 16.15072 16.15026 16.15002 16.14873 16.14292 16.14371 16.13679 16.12462 16.11617 16.10001 16.08226 16.06479 16.04947 16.02626 15.99634 15.96737 15.94132 15.90506 15.86017 15.81162 15.75666 15.70277
0 0 0 0 0 0 0 0 0 0 0 0 0 16.91155 16.61027 15.92306 15.35582 14.60382 14.64609 14.67014 14.70797 14.74955 14.82684 14.90288 14.96024 15.02323 16.06304 16.49421 16.955 16.94388 17.8855 15.63325 15.34026 15.36853 15.40011 15.42499 15.45817 15.48254 15.49293 15.50167 15.51259 15.52582 15.55175 15.58662 15.61568 15.62749 15.64334 15.66901 15.70682 15.74946 15.78472 15.81031 15.84216 15.86565 15.88079 15.90839 15.92138 15.92874 15.92668 15.93099 15.9308 15.93222 15.92766 15.92927 15.92889 15.92886 15.93594 15.93894 15.94193 15.94178 15.94782 15.95875 15.9679 15.98078 15.99968 16.02108 16.03975 16.06005 16.08049 16.09649 16.11375 16.12841 16.13307 16.13577 16.13795 16.14438 16.15042 16.15322 16.1539 16.152 16.15152 16.15139 16.15403 16.15013 16.13701 16.1277 16.11535 16.10043 16.08296 16.06468 16.04018 16.01435 15.98838 15.95573 15.92453 15.88622 15.84759 15.80435 15.76083
0 0 0 0 0 0 0 0 0 0 0 0 16.18373 15.89394 15.94568 15.67861 15.13062 14.63827 14.68705 14.72173 14.75601 14.80439 14.8695 14.93308 14.9949 15.06258 15.75078 15.82327 16.60565 17.40073 15.95959 15.30613 15.34982 15.39929 15.43433 15.45514 15.47979 15.50003 15.50882 15.51648 15.53406 15.55418 15.57408 15.5972 15.62462 15.6451 15.66886 15.68902 15.7204 15.75696 15.78881 15.81145 15.83425 15.86017 15.88795 15.90101 15.91682 15.92416 15.92389 15.92681 15.9305 15.93729 15.9387 15.93978 15.9381 15.94056 15.94256 15.94906 15.9563 15.96187 15.97157 15.9797 15.99658 16.01128 16.02713 16.04616 16.06423 16.08187 16.09682 16.11131 16.12701 16.13616 16.14126 16.14271 16.15162 16.15488 16.15376 16.15494 16.15181 16.14975 16.14949 16.1494 16.14867 16.14815 16.1428 16.13275 16.12759 16.1181 16.09603 16.07342 16.04964 16.02974 16.0016 15.97262 15.94077 15.91055 15.87449 15.83204 15.79479
0 0 0 0 0 0 0 0 17.44359 16.76802 15.97903 15.45229 15.54845 15.57285 15.37612 15.45755 15.22843 14.70795 14.75734 14.80437 14.84594 14.89316 14.94607 14.99316 15.04032 15.10446 15.15347 15.1887 15.2334 15.26917 15.29958 15.33536 15.3855 15.43698 15.4564 15.47936 15.49995 15.52025 15.53164 15.53692 15.55262 15.57866 15.59811 15.6167 15.64656 15.67381 15.69678 15.71295 15.73687 15.77126 15.79242 15.82132 15.84355 15.86421 15.88192 15.89791 15.90965 15.91522 15.92029 15.92888 15.93803 15.94107 15.94577 15.94412 15.94141 15.94542 15.95247 15.96166 15.96785 15.98196 15.99235 16.00907 16.02873 16.04414 16.05534 16.06646 16.08024 16.09913 16.11728 16.12853 16.14013 16.14652 16.15166 16.15814 16.15869 16.15963 16.15307 16.15141 16.1469 16.14716 16.14054 16.14189 16.13988 16.13608 16.13564 16.13903 16.13022 16.12449 16.1045 16.08194 16.06815 16.04446 16.02126 15.9954 15.96626 15.93769 15.90622 15.86448 15.83073
0 0 0 0 0 0 0 16.45292 16.39136 15.34007 15.14904 15.19036 15.25103 15.37321 15.48266 15.25932 14.73808 14.76947 14.81475 14.86413 14.92511 14.94285 14.98799 15.0475 15.09615 15.14482 15.18611 15.22709 15.27602 15.31863 15.35578 15.40165 15.4452 15.47684 15.49502 15.50596 15.51882 15.53915 15.55083 15.56044 15.57561 15.59901 15.6211 15.63184 15.6659 15.6966 15.71866 15.73104 15.74146 15.75525 15.77305 15.79481 15.8183 15.84202 15.86529 15.88393 15.89471 15.91021 15.92599 15.93183 15.94119 15.94705 15.94479 15.94455 15.94725 15.95398 15.96839 15.98217 15.98928 16.00608 16.01391 16.03566 16.04959 16.05917 16.07101 16.08307 16.09782 16.12028 16.12955 16.14292 16.156 16.1532 16.15504 16.15811 16.15593 16.14832 16.14474 16.14275 16.13843 16.13653 16.13339 16.13245 16.13304 16.13314 16.13264 16.14003 16.13656 16.12945 16.11908 16.10395 16.0823 16.06032 16.03482 16.00887 15.97887 15.95332 15.92602 15.89238 15.85619
0 0 0 0 0 0 16.90824 16.66145 15.31529 15.12441 15.13436 15.21415 15.34065 15.19279 15.0051 14.79034 14.80948 14.86025 14.90282 14.95371 14.97638 14.98555 15.04569 15.08713 15.13706 15.16692 15.20945 15.26903 15.32089 15.36204 15.39893 15.44804 15.48454 15.50889 15.52278 15.53247 15.55268 15.56729 15.58568 15.60003 15.60628 15.61456 15.62879 15.65124 15.67769 15.69032 15.70481 15.71117 15.72324 15.73819 15.75868 15.77264 15.79294 15.8173 15.83615 15.85461 15.87163 15.88454 15.90276 15.91955 15.93899 15.94859 15.95163 15.9523 15.95651 15.96869 15.98405 16.00108 16.00759 16.026 16.03776 16.05582 16.06557 16.07722 16.09042 16.10275 16.12084 16.13526 16.14906 16.15458 16.16146 16.16094 16.15943 16.15609 16.14854 16.13976 16.13076 16.12803 16.12958 16.12693 16.12767 16.12915 16.12468 16.13019 16.13609 16.14137 16.14404 16.1389 16.13528 16.12453 16.10881 16.08738 16.05957 16.03734 16.01207 15.98245 15.95518 15.92138 15.88774
0 0 0 0 0 0 18.02696 16.03631 15.34962 15.11333 14.91846 15.05362 14.87375 14.70394 14.76804 14.83507 14.88587 14.90983 14.95414 14.98739 15.01547 15.04477 15.08965 15.12387 15.17282 15.1946 15.24785 15.31214 15.3638 15.3924 15.432 15.47438 15.50406 15.52309 15.53193 15.54776 15.56414 15.57954 15.60062 15.61136 15.62162 15.62828 15.64547 15.66452 15.6808 15.68414 15.69099 15.69815 15.70647 15.72233 15.73484 15.74656 15.7656 15.78431 15.81028 15.82618 15.83324 15.85459 15.87795 15.90007 15.91719 15.92863 15.94076 15.95147 15.96452 15.97908 15.9974 16.02087 16.03375 16.04657 16.05502 16.06915 16.08105 16.08716 16.10777 16.12326 16.14324 16.15512 16.16546 16.16844 16.16627 16.16413 16.15741 16.14948 16.13947 16.12326 16.11547 16.11191 16.11564 16.1145 16.11511 16.11815 16.12181 16.13091 16.13708 16.14559 16.15063 16.14864 16.14221 16.13228 16.12171 16.11168 16.09125 16.06953 16.04601 16.01864 15.99027 15.95978 15.93035
0 0 0 0 0 17.99768 17.08445 15.99761 15.39253 15.18453 14.77922 14.5892 14.64085 14.72004 14.80449 14.86271 14.90453 14.95004 14.99544 15.02741 15.06177 15.08483 15.14472 15.18069 15.21676 15.24259 15.28448 15.34994 15.38688 15.42533 15.46606 15.49189 15.51594 15.53297 15.5405 15.55254 15.57552 15.59105 15.60837 15.61687 15.62056 15.63152 15.64661 15.65207 15.66544 15.67263 15.6716 15.68047 15.69253 15.70048 15.71286 15.72884 15.74227 15.75293 15.76234 15.77504 15.79476 15.83004 15.85724 15.8787 15.89614 15.91601 15.93474 15.9588 15.97845 15.99762 16.01543 16.03103 16.04896 16.06359 16.07324 16.08105 16.09321 16.09778 16.12079 16.13389 16.14963 16.16387 16.17281 16.17065 16.16233 16.15568 16.1425 16.12967 16.11933 16.10391 16.09298 16.09529 16.09304 16.099 16.1033 16.10626 16.11532 16.12949 16.14141 16.15198 16.155 16.1599 16.15578 16.15081 16.14027 16.12995 16.10985 16.0972 16.07766 16.05294 16.02216 15.99954 15.97005
0 0 0 0 16.79955 16.06955 15.14915 15.05744 14.90702 14.51242 14.57118 14.61827 14.69996 14.76899 14.84455 14.90952 14.95418 14.99378 15.0372 15.06706 15.08376 15.12859 15.18632 15.22374 15.26598 15.30593 15.34893 15.39013 15.42416 15.46477 15.48906 15.5135 15.53614 15.55363 15.56005 15.57256 15.58473 15.59751 15.61172 15.61618 15.61806 15.62676 15.63112 15.63007 15.63784 15.64477 15.64522 15.65068 15.66782 15.68118 15.69069 15.70824 15.71654 15.72756 15.74163 15.75279 15.76243 15.77979 15.81667 15.84212 15.86906 15.8941 15.91597 15.94893 15.97606 15.99547 16.01454 16.0384 16.05921 16.07577 16.08659 16.09599 16.10876 16.11499 16.12723 16.13904 16.15583 16.16643 16.16665 16.1675 16.16034 16.1481 16.13407 16.12104 16.10487 16.08982 16.08206 16.08098 16.08179 16.09288 16.09726 16.11386 16.12587 16.13761 16.14701 16.15455 16.1616 16.16857 16.16702 16.16957 16.16688 16.15407 16.14728 16.13466 16.11717 16.09669 16.07801 16.05032 16.03164
0 0 0 0 17.87517 15.25582 14.32467 14.39425 14.49295 14.54743 14.62705 14.72479 14.78018 14.84043 14.9241 14.99603 15.03925 15.04865 15.0869 15.1163 15.14371 15.18506 15.23915 15.28601 15.31451 15.34556 15.38824 15.42011 15.45776 15.49061 15.5157 15.53763 15.56477 15.57595 15.58176 15.59114 15.5996 15.60893 15.6085 15.61344 15.61862 15.60891 15.60015 15.6039 15.60925 15.61793 15.62399 15.62865 15.64193 15.64769 15.6543 15.67051 15.68614 15.69515 15.70461 15.72182 15.74204 15.76661 15.79115 15.8136 15.83781 15.86465 15.90214 15.93967 15.97018 15.994 16.02204 16.04363 16.06653 16.09016 16.10147 16.11068 16.11975 16.12541 16.13891 16.14762 16.15673 16.16389 16.16094 16.15445 16.15057 16.14477 16.12162 16.10438 16.09121 16.07956 16.08119 16.08403 16.09389 16.10218 16.10708 16.12368 16.13363 16.14798 16.15505 16.16589 16.16993 16.17026 16.17605 16.17762 16.17466 16.17415 16.17332 16.16611 16.15862 16.15061 16.13497 16.11424 16.09299
0 0 0 16.45055 15.91666 15.00046 14.31378 14.44212 14.52311 14.61657 14.71581 14.78217 14.85279 14.92204 14.99592 15.04983 15.07248 15.08418 15.11756 15.16467 15.2089 15.2558 15.2899 15.34126 15.36867 15.393 15.43139 15.46575 15.48924 15.51963 15.53992 15.56507 15.58649 15.5958 15.60189 15.60798 15.60395 15.60745 15.60591 15.61134 15.60004 15.58551 15.58153 15.58645 15.59195 15.59848 15.60429 15.6106 15.61455 15.61199 15.61796 15.6353 15.65128 15.65812 15.67356 15.69503 15.7207 15.74358 15.76864 15.79542 15.81653 15.84927 15.89247 15.9205 15.94878 15.98364 16.01382 16.04022 16.06963 16.09345 16.10696 16.11636 16.12822 16.13331 16.14099 16.1478 16.15481 16.1564 16.15396 16.14827 16.13522 16.12967 16.11671 16.10632 16.09385 16.08925 16.09775 16.10553 16.11386 16.1214 16.13706 16.15792 16.16155 16.16243 16.17183 16.18044 16.18349 16.18364 16.18839 16.19336 16.19484 16.19709 16.19632 16.19524 16.19931 16.19359 16.1752 16.16016 16.14306
0 0 0 16.20745 15.80291 14.916 14.68433 14.46121 14.61374 14.71164 14.77883 14.85478 14.92517 14.9781 15.04214 15.06937 15.10217 15.11164 15.13622 15.18587 15.23718 15.28787 15.3365 15.37612 15.41401 15.43867 15.46656 15.49838 15.52348 15.54404 15.56623 15.58423 15.60128 15.61286 15.61186 15.60782 15.59588 15.59603 15.59694 15.59282 15.58564 15.57657 15.56957 15.57065 15.57677 15.58273 15.58449 15.59069 15.59256 15.58997 15.59475 15.60334 15.62655 15.63978 15.65466 15.67652 15.69964 15.73044 15.75198 15.77206 15.80063 15.83602 15.86525 15.90951 15.9454 15.97953 16.0029 16.04502 16.07807 16.09808 16.1195 16.13642 16.14093 16.14228 16.14899 16.153 16.14811 16.14618 16.14588 16.13811 16.1327 16.12019 16.11679 16.10758 16.1061 16.10653 16.11549 16.11903 16.14052 16.15248 16.17072 16.18681 16.19193 16.19668 16.2025 16.21006 16.21206 16.21789 16.22532 16.2255 16.2303 16.22994 16.23596 16.2394 16.24432 16.24336 16.23087 16.21281 16.19889
0 0 0 17.43317 16.01856 14.94194 14.50023 14.41013 14.57345 14.72917 14.8737 14.9237 14.97356 15.02312 15.05917 15.09037 15.12253 15.14611 15.17704 15.22444 15.27822 15.30962 15.34136 15.36901 15.40623 15.43461 15.47159 15.51298 15.53697 15.55417 15.56833 15.58539 15.59914 15.6093 15.60682 15.59694 15.59323 15.58899 15.58453 15.58306 15.56823 15.55996 15.55681 15.55591 15.56229 15.56868 15.56614 15.57103 15.57424 15.5717 15.57374 15.59194 15.60819 15.62954 15.64436 15.66532 15.69263 15.72061 15.73826 15.77054 15.79884 15.83545 15.87427 15.91052 15.94253 15.97032 16.01209 16.05284 16.08018 16.10919 16.12738 16.14756 16.15453 16.15613 16.15301 16.1533 16.1418 16.13475 16.13435 16.13053 16.12987 16.12893 16.12238 16.12194 16.13154 16.13546 16.14719 16.16128 16.18014 16.19679 16.20963 16.21961 16.22679 16.23319 16.23738 16.2422 16.24754 16.25412 16.25838 16.26583 16.27213 16.27396 16.28108 16.28084 16.28446 16.28286 16.27607 16.26277 16.2498
0 0 0 17.55126 15.29353 14.6428 14.3312 14.4741 14.66369 14.79781 14.91072 14.95881 15.00756 15.02158 15.06721 15.10833 15.14064 15.17066 15.20425 15.23402 15.27288 15.30654 15.31802 15.34641 15.36725 15.39487 15.43288 15.47807 15.51163 15.53357 15.55239 15.56546 15.58806 15.60261 15.59331 15.57827 15.57346 15.57122 15.56684 15.56102 15.54934 15.54225 15.53766 15.53838 15.5407 15.54389 15.54962 15.56323 15.56853 15.5662 15.58326 15.60274 15.6179 15.64139 15.65326 15.67075 15.69791 15.72899 15.75545 15.77911 15.8081 15.85079 15.88532 15.92265 15.96124 15.98775 16.02284 16.06259 16.08898 16.11114 16.13554 16.15016 16.16566 16.16949 16.16332 16.15491 16.15003 16.14048 16.13939 16.13567 16.13782 16.14246 16.13954 16.14454 16.16348 16.17506 16.20019 16.21821 16.23422 16.25008 16.26464 16.27531 16.2814 16.28517 16.29171 16.29602 16.3054 16.31261 16.31792 16.32992 16.3385 16.3405 16.33574 16.33606 16.3347 16.33178 16.32906 16.3182 16.30721
14.57845 14.57289 15.33709 15.43293 14.39715 14.32541 14.44159 14.62886 14.76299 14.88692 14.94987 14.98708 15.0219 15.03831 15.06609 15.11249 15.13275 15.17363 15.20794 15.23425 15.26068 15.27422 15.306 15.32936 15.34586 15.36299 15.40076 15.438 15.47854 15.51461 15.5397 15.55655 15.57582 15.57822 15.57748 15.5731 15.5672 15.56254 15.56359 15.55824 15.55148 15.54703 15.54104 15.53954 15.53683 15.5422 15.54768 15.55465 15.56676 15.58483 15.60312 15.62027 15.63867 15.65262 15.67519 15.69475 15.71525 15.74989 15.77631 15.80157 15.82651 15.86094 15.90636 15.9431 15.97938 16.0067 16.03451 16.06751 16.10148 16.12124 16.14254 16.15917 16.17138 16.17747 16.17335 16.16505 16.15843 16.1515 16.14165 16.13679 16.1417 16.15386 16.16352 16.17597 16.19682 16.20917 16.23686 16.26091 16.27628 16.29624 16.31708 16.3306 16.3391 16.34643 16.35244 16.35384 16.36289 16.37386 16.38803 16.4043 16.41027 16.41105 16.40665 16.40642 16.39787 16.3932 16.38714 16.38428 16.37928
14.59151 14.5654 14.56177 14.57409 14.51024 14.59676 14.71507 14.83213 14.90249 14.96109 15.00183 15.02027 15.02351 15.03128 15.06336 15.1021 15.12325 15.1339 15.17053 15.21024 15.22183 15.2558 15.28002 15.28659 15.29801 15.32753 15.35793 15.40336 15.44185 15.4828 15.5168 15.54052 15.56146 15.57413 15.57916 15.57138 15.56393 15.56304 15.55945 15.5585 15.55186 15.54663 15.54704 15.54539 15.54352 15.55014 15.55414 15.5638 15.5785 15.60274 15.62789 15.64501 15.66121 15.68664 15.70927 15.72799 15.75494 15.78282 15.80901 15.83273 15.85418 15.89236 15.93484 15.96653 15.99342 16.02126 16.05002 16.08155 16.10265 16.12945 16.1475 16.16185 16.17982 16.18808 16.18761 16.18527 16.17154 16.16493 16.15668 16.14917 16.15512 16.17297 16.1953 16.21747 16.23241 16.25512 16.28444 16.30799 16.33302 16.35992 16.37874 16.39536 16.40307 16.40865 16.4089 16.41569 16.41894 16.4305 16.43998 16.45877 16.47298 16.47758 16.4786 16.47493 16.46761 16.46624 16.46338 16.45821 16.45362
14.77611 14.77784 14.80194 14.83111 14.78551 14.84471 14.8904 14.94217 14.96178 15.0187 15.03081 15.02373 15.02702 15.0638 15.08892 15.13252 15.1633 15.17201 15.16514 15.17364 15.18595 15.22809 15.23602 15.255 15.26905 15.28748 15.33679 15.38312 15.41195 15.45611 15.4951 15.52596 15.54788 15.57266 15.57213 15.57073 15.56801 15.57041 15.56772 15.5658 15.57062 15.56494 15.56258 15.56508 15.5664 15.57106 15.57969 15.58936 15.60761 15.6279 15.65785 15.68694 15.70599 15.73004 15.74736 15.77066 15.79554 15.82831 15.85504 15.87309 15.89888 15.92432 15.96097 15.99268 16.01759 16.04439 16.07229 16.10115 16.12687 16.1451 16.16087 16.17631 16.19254 16.20773 16.21604 16.1992 16.1924 16.18814 16.18227 16.17626 16.19176 16.20094 16.22445 16.24945 16.278 16.30781 16.33423 16.36671 16.40246 16.43208 16.45895 16.47348 16.48009 16.48434 16.48211 16.48962 16.50582 16.52021 16.52886 16.54559 16.55343 16.5572 16.55724 16.55293 16.54347 16.54153 16.53262 16.5262 16.52593
14.84118 14.86843 14.9125 14.93737 14.94577 14.94617 14.96635 14.97882 14.99021 15.01094 15.01831 15.02448 15.0251 15.05017 15.0907 15.11269 15.12249 15.10987 15.12351 15.15117 15.18363 15.18928 15.19923 15.21627 15.25342 15.29108 15.31149 15.35565 15.39062 15.44222 15.48301 15.51332 15.54946 15.58064 15.5895 15.59216 15.59038 15.59112 15.59035 15.58842 15.58864 15.59913 15.59894 15.59054 15.5929 15.60173 15.61046 15.62702 15.65071 15.67954 15.70975 15.73414 15.75529 15.78213 15.79532 15.8151 15.84179 15.86887 15.8903 15.92891 15.94863 15.9769 16.00142 16.02573 16.05298 16.07874 16.10541 16.13251 16.15597 16.177 16.19312 16.20875 16.22166 16.23386 16.23796 16.22771 16.222 16.21648 16.21054 16.20975 16.22096 16.23455 16.25758 16.27936 16.3064 16.34331 16.38212 16.42067 16.46407 16.4983 16.52489 16.54781 16.55901 16.5664 16.56647 16.58486 16.59978 16.61908 16.63333 16.65392 16.67218 16.67404 16.67015 16.66199 16.65523 16.64705 16.64476 16.64013 16.63485
14.9136 14.92869 14.92773 14.92969 14.93925 14.94324 14.96646 14.98438 14.98114 14.97164 14.9931 15.00313 15.00238 15.0244 15.05465 15.06479 15.07956 15.09574 15.1261 15.14222 15.16369 15.18292 15.19303 15.22564 15.25858 15.30609 15.32115 15.35509 15.39369 15.44799 15.49296 15.53052 15.5645 15.59469 15.60559 15.61937 15.62039 15.62796 15.62946 15.63143 15.63335 15.63305 15.63049 15.63679 15.64406 15.65322 15.66736 15.68498 15.70647 15.73107 15.75664 15.78311 15.81072 15.82824 15.83952 15.86039 15.88578 15.90422 15.93556 15.9635 15.99282 16.02127 16.04047 16.06849 16.09419 16.11985 16.14463 16.15897 16.17986 16.19781 16.20792 16.2289 16.24722 16.25994 16.26397 16.25989 16.25207 16.24513 16.24529 16.24599 16.25042 16.26255 16.28499 16.32259 16.36148 16.39552 16.42759 16.46181 16.51229 16.55819 16.58864 16.60319 16.60777 16.6108 16.62416 16.6437 16.66253 16.67321 16.68908 16.7139 16.74299 16.7608 16.76044 16.74867 16.73984 16.73314 16.72595 16.72383 16.7194
14.90419 14.89038 14.90131 14.91458 14.93853 14.95656 14.96923 14.97891 14.96088 14.95093 14.9676 14.97246 14.96097 14.98926 14.99622 15.01523 15.05183 15.08351 15.08589 15.13787 15.142 15.1941 15.2007 15.26496 15.2759 15.32099 15.36107 15.37837 15.42274 15.47567 15.5207 15.56411 15.59638 15.6248 15.64499 15.65104 15.65849 15.66398 15.67239 15.68099 15.67793 15.67761 15.67709 15.67979 15.70736 15.72322 15.74117 15.76738 15.78418 15.81019 15.83106 15.85273 15.8686 15.88862 15.90677 15.92368 15.95109 15.97966 15.9993 16.01797 16.05228 16.07346 16.10349 16.11387 16.13927 16.1591 16.17499 16.1952 16.21368 16.22554 16.24712 16.25559 16.27396 16.2851 16.28843 16.28981 16.28314 16.27983 16.2832 16.29291 16.30421 16.325 16.34575 16.37945 16.42372 16.45517 16.49196 16.53682 16.58266 16.6167 16.64531 16.66725 16.67905 16.683 16.69294 16.69995 16.70765 16.71643 16.73255 16.75494 16.78577 16.80538 16.81845 16.82006 16.81636 16.81297 16.81151 16.80032 16.79175
14.8977 14.90141 14.91401 14.92007 14.9353 14.95025 14.96972 14.9782 14.97832 14.96276 14.99057 14.96092 14.94129 14.94994 14.94957 14.97916 15.01849 15.03808 15.06791 15.10093 15.13557 15.18416 15.24896 15.29357 15.32316 15.36644 15.40204 15.43554 15.47666 15.52862 15.56744 15.5977 15.62876 15.66406 15.68204 15.69304 15.70117 15.71101 15.72244 15.72871 15.73627 15.73802 15.74453 15.76483 15.78271 15.79991 15.82083 15.84358 15.86961 15.87683 15.90013 15.9127 15.93208 15.96327 15.98554 16.00571 16.02558 16.05151 16.07172 16.086 16.11565 16.13489 16.16532 16.18415 16.20502 16.21074 16.23282 16.24724 16.26789 16.27926 16.29551 16.3154 16.32678 16.33369 16.34315 16.33548 16.33196 16.33437 16.34416 16.36125 16.37532 16.39001 16.41306 16.43757 16.46704 16.50097 16.5361 16.56962 0 0 16.65352 16.69698 16.71359 16.72427 16.73305 16.73498 16.74076 16.75057 16.75166 0 0 16.81572 16.8533 16.86093 16.86442 16.86667 16.87369 16.87027 16.86007
