ncols        109
nrows        82
xllcorner    -1.041666666667
yllcorner    37.041665395101
cellsize     0.083333333333
NODATA_value -9999
0.0 0 0 0 0 0 0 0 0 0 0 0 0 0 0 0 0 0 0 0 0 0 0 0 0 0 0 0 0 0 0 0 0 0 0 0 0 0 0 0 0 0 0 0 0 0 0 0 0 0 0 0 0 0 0 0 0 0 0 0 0 0 0 0 0 0 0 0 0 0 0 0 0 0 0 0 0 0 0 0 0 0 0 0 0 0 0 0 0 0 0 0 0 0 0 0 0 0 0 0 0 0 0 0 0 17.37692 16.13344 15.07836 15.08711
0 0 0 0 0 0 0 0 0 0 0 0 0 0 0 0 0 0 0 0 0 0 0 0 0 0 0 0 0 0 0 0 0 0 0 0 0 0 0 0 0 0 0 0 0 0 0 0 0 0 0 0 0 0 0 0 0 0 0 0 0 0 0 0 0 0 0 0 0 0 0 0 0 0 0 0 0 0 0 0 0 0 0 0 0 0 0 0 0 0 0 0 0 0 0 0 0 0 0 0 0 15.16761 15.18671 15.02084 15.04443 15.06287 15.06966 15.08254 15.08045
0 0 0 0 0 0 0 0 0 0 0 0 0 0 0 0 0 0 0 0 0 0 0 0 0 0 0 0 0 0 0 0 0 0 0 0 0 0 0 0 0 0 0 0 0 0 0 0 0 0 0 0 0 0 0 0 0 0 0 0 0 0 0 0 0 0 0 0 0 0 0 0 0 0 0 0 0 0 0 0 0 0 0 0 0 0 0 0 0 0 0 0 0 0 0 0 0 0 15.04552 15.03749 15.02685 15.01243 14.99765 15.00665 15.00879 15.00595 14.99995 14.98684 14.97063
0 0 0 0 0 0 0 0 0 0 0 0 0 0 0 0 0 0 0 0 0 0 0 0 0 0 0 0 0 0 0 0 0 0 0 0 0 0 0 0 0 0 0 0 0 0 0 0 0 0 0 0 0 0 0 0 0 0 0 0 0 0 0 0 0 0 0 0 0 0 0 0 0 0 0 0 0 0 0 0 0 0 0 0 0 0 0 0 0 0 0 0 0 0 0 0 0 16.40319 15.05959 15.04619 15.01209 14.97292 14.94166 14.93179 14.91102 14.89668 14.87836 14.86941 14.84239
0 0 0 0 0 0 0 0 0 0 0 0 0 0 0 0 0 0 0 0 0 0 0 0 0 0 0 0 0 0 0 0 0 0 0 0 0 0 0 0 0 0 0 0 0 0 0 0 0 0 0 0 0 0 0 0 0 0 16.73487 16.35371 16.04124 16.17115 0 0 0 0 0 0 0 0 0 0 0 0 0 0 0 0 0 0 0 0 0 0 0 0 0 0 0 0 0 0 0 0 0 15.47417 15.10707 15.09908 15.05802 15.01983 14.96081 14.90084 14.84405 14.80322 14.77219 14.74917 14.73715 14.72088 14.69577
0 0 0 0 0 0 0 0 0 0 0 0 0 0 0 0 0 0 0 0 0 0 0 0 0 0 0 0 0 0 0 0 0 0 0 0 0 0 0 0 0 0 0 0 0 0 0 0 0 0 0 0 0 0 0 0 16.22448 16.26174 15.99063 15.76984 15.68521 15.66961 15.75526 15.96182 16.17002 16.28558 16.28103 0 0 0 0 16.52601 0 0 0 0 0 0 0 0 0 0 0 0 0 0 0 0 0 0 0 0 0 15.95551 15.07338 15.10402 15.0947 15.05886 14.99503 14.93014 14.85724 14.79773 14.74051 14.68477 14.6721 14.66466 14.65981 14.63972 14.6212
0 0 0 0 0 0 0 0 0 0 0 0 0 0 0 0 0 0 0 0 0 0 0 0 0 0 0 0 0 0 0 0 0 0 0 0 0 0 0 0 0 0 0 0 0 0 0 0 0 0 0 0 0 0 0 16.39527 15.99601 15.68034 15.4734 15.22192 15.28765 15.31277 15.48756 15.62508 15.76056 15.85702 15.92908 16.11847 16.31301 16.26282 16.18897 15.91879 15.69845 15.74066 15.89032 15.64635 15.66704 0 0 0 0 0 0 0 0 0 0 0 0 0 0 0 15.40058 15.11055 15.1025 15.08327 15.05427 14.98658 14.92112 14.84715 14.78012 14.70927 14.65702 14.60958 14.60951 14.60716 14.60615 14.60746 14.60651
0 0 0 0 0 0 0 0 0 0 0 0 0 0 0 0 0 0 0 0 0 0 0 0 0 0 0 0 0 0 0 0 0 0 0 0 0 0 0 0 0 0 0 0 0 0 0 0 0 0 0 16.00839 16.16873 16.35608 16.13292 15.71429 15.48109 15.21921 15.10651 15.17547 15.23734 15.25903 15.25242 15.42986 15.41863 15.59658 15.57634 15.56627 15.58693 15.4807 15.36348 15.3739 15.21929 15.39774 15.42723 15.61243 0 0 0 0 0 0 0 0 0 0 0 0 0 0 0 0 15.15055 15.13567 15.08155 15.03062 14.95927 14.88316 14.81484 14.7452 14.6937 14.64437 14.61379 14.58667 14.58818 14.58961 14.59 14.58876 14.58688
0 0 0 0 0 0 0 0 0 0 0 0 0 0 0 0 0 0 0 0 0 0 0 0 0 0 0 0 0 0 0 0 0 0 0 0 0 0 0 0 0 0 0 0 0 0 0 0 0 0 16.19241 16.03848 15.81796 15.78412 15.69241 15.41251 15.08543 15.16044 15.02335 15.08302 15.12755 15.15314 15.15905 15.3371 15.3276 15.52175 15.52184 15.52549 15.36356 15.22109 15.249 15.27703 15.12639 15.30431 15.32098 15.53993 15.56686 15.40593 15.42939 15.80987 16.2698 16.98056 0 0 0 0 0 0 0 16.08697 15.56147 15.19477 15.18501 15.12674 15.05116 14.95492 14.8694 14.80436 14.73765 14.68892 14.64805 14.61716 14.60241 14.5966 14.60154 14.60273 14.60845 14.61097 14.61336
0 0 0 0 0 0 0 0 0 0 0 0 0 0 0 0 0 0 0 0 0 0 0 0 0 0 0 0 0 0 0 0 0 0 0 0 0 0 0 0 0 0 0 0 0 0 0 0 0 17.0452 15.88385 15.80212 15.75826 15.47269 15.31471 15.14886 15.20613 15.05489 15.10125 15.1475 15.18531 15.21034 15.22165 15.42215 15.4282 15.43839 15.45527 15.46211 15.45375 15.28061 15.29873 15.14773 15.00236 15.00202 15.02076 15.05148 15.07667 15.1089 15.15569 15.17698 15.54535 16.07733 0 15.90407 16.45525 16.94632 17.25755 16.99477 16.49031 15.24328 15.25534 15.24863 15.18578 15.0941 14.97933 14.88396 14.8012 14.75674 14.704 14.67106 14.64249 14.63465 14.63127 14.63054 14.62744 14.63543 14.64417 14.6446 14.64427
0 0 0 0 0 0 0 0 0 0 0 0 0 0 0 0 0 0 0 0 0 0 0 0 0 0 0 0 0 0 0 0 0 0 0 0 0 0 0 0 0 0 0 0 0 0 0 0 0 16.71102 15.84498 15.57167 15.27854 15.15714 15.2156 15.06422 15.11219 15.15842 15.19727 15.23292 15.26882 15.28926 15.3025 15.3107 15.31744 15.16496 15.0215 15.17351 15.16127 15.1544 15.15285 14.99894 14.99186 14.98585 15.01365 15.03087 15.06563 15.10501 15.14437 15.17212 15.19327 15.21986 15.23458 15.25299 15.28171 15.29296 16.25953 16.45441 16.06712 15.25382 15.22556 15.16811 15.11401 15.02583 14.93766 14.85569 14.78337 14.73624 14.69306 14.67534 14.67608 14.67901 14.68476 14.68479 14.68827 14.69074 14.69102 14.68905 14.69102
0 0 0 0 0 0 0 0 0 0 0 0 0 0 0 0 0 0 0 0 0 0 0 0 0 0 0 0 0 0 0 0 0 0 0 0 0 0 0 0 0 0 0 0 0 0 0 0 0 16.43667 15.76883 15.48038 15.15634 15.24286 15.09487 15.14793 15.21124 15.25831 15.29337 15.32083 15.16489 15.18689 15.19882 15.20494 15.20285 15.03986 15.04132 15.03706 15.01267 14.99706 14.99141 14.98534 14.9782 14.98038 15.00953 15.01786 15.03515 15.05705 15.08143 15.10633 15.12648 15.1562 15.17626 15.19082 15.21492 15.23738 15.25352 15.26308 15.23488 15.17999 15.1361 15.08425 15.02664 14.94375 14.88935 14.84004 14.80581 14.72094 14.716 14.72636 14.7308 14.73426 14.7419 14.74066 14.74533 14.74148 14.74249 14.74908 14.75571
0 0 0 0 0 0 0 0 0 0 0 0 0 0 0 0 0 0 0 0 0 0 0 0 0 0 0 0 0 0 0 0 0 0 0 0 0 0 0 0 0 0 0 0 0 0 0 0 0 16.34656 15.64617 15.33003 15.22031 15.09541 15.16625 15.24733 15.13009 15.16194 15.00709 15.02116 15.03761 15.05082 15.05941 15.05554 15.05062 15.04513 15.04961 15.04019 15.01493 14.98141 14.96865 14.94906 14.92241 14.91725 14.96097 14.95543 14.96293 14.97577 14.99364 15.01973 15.03855 15.0538 15.06055 15.07714 15.08766 15.10539 15.11661 15.11273 15.08769 15.05152 15.01315 14.98191 14.9343 14.89632 14.85802 14.81826 14.79218 14.7629 14.76451 14.77189 14.78834 14.79424 14.79898 14.80092 14.80474 14.80691 14.81107 14.81236 14.81622
0 0 0 0 0 0 0 0 0 0 0 0 0 0 0 0 0 0 0 0 0 0 0 0 0 0 0 0 0 0 0 0 0 0 0 0 0 0 0 0 0 0 0 0 0 0 0 0 0 16.21138 15.6878 15.36832 15.2616 15.14339 15.22246 15.11205 14.98815 15.01655 15.0336 15.04288 15.05275 15.05319 15.04891 15.04329 15.03473 15.02809 15.02673 15.02188 15.00186 14.97412 14.95647 14.93566 14.91891 14.90702 14.89049 14.86511 14.85506 14.86334 14.88974 14.90747 14.92157 14.92953 14.92655 14.9346 14.94474 14.96918 14.98157 14.99252 14.96978 14.93217 14.90267 14.87714 14.85816 14.84793 14.82438 14.81096 14.81111 14.80736 14.81181 14.8212 14.83508 14.85273 14.85214 14.85858 14.86302 14.86871 14.87304 14.87673 14.87451
0 0 0 0 0 0 0 0 0 0 0 0 0 0 0 0 0 0 0 0 0 0 0 0 0 0 0 0 0 0 0 0 0 0 0 0 0 0 0 0 0 0 0 0 0 0 0 0 0 16.25312 15.49249 15.18312 15.31625 15.19932 15.28923 15.14032 15.01272 15.02731 15.03596 15.03002 15.01988 15.01337 15.00795 15.00065 14.99573 14.98127 14.96063 14.9577 14.9312 14.9096 14.89004 14.86468 14.85087 14.84863 14.83162 14.82091 14.8129 14.81379 14.82579 14.83408 14.83473 14.839 14.83708 14.83664 14.84652 14.87067 14.87149 14.8683 14.86776 14.85251 14.84914 14.84843 14.84229 14.843 14.84758 14.8504 14.85937 14.8676 14.87753 14.88502 14.89604 14.91355 14.92483 14.92905 14.9259 14.92407 14.92618 14.93444 14.94148
0 0 0 0 0 0 0 0 0 0 0 0 0 0 0 0 0 0 0 0 0 0 0 0 0 0 0 0 0 0 0 0 0 0 0 0 0 0 0 0 0 0 0 0 0 0 0 0 0 15.76858 15.56012 15.23021 15.15668 15.08186 15.15362 15.00692 15.03217 15.02864 15.02354 15.00449 14.98661 14.97123 14.96371 14.9549 14.93442 14.91679 14.90562 14.90381 14.88892 14.86587 14.83549 14.80267 14.78678 14.77548 14.77042 14.76006 14.75018 14.74925 14.75934 14.77116 14.77769 14.78791 14.79983 14.81075 14.8178 14.82371 14.83158 14.83079 14.82389 14.81674 14.82016 14.83977 14.84868 14.86467 14.87674 14.89091 14.91088 14.92617 14.93907 14.94831 14.96045 14.97936 14.98732 14.99546 14.99281 14.98941 14.98872 14.99626 15.01477
0 0 0 0 0 0 0 0 0 0 0 0 0 0 0 0 0 0 0 0 0 0 0 0 0 0 0 0 0 0 0 0 0 0 0 0 0 0 0 0 0 0 0 0 0 0 0 0 0 0 15.3456 15.31014 15.23785 14.97299 15.02008 15.02189 15.04372 15.03301 15.00905 14.98762 14.95827 14.93713 14.92324 14.91059 14.89225 14.87857 14.8773 14.87376 14.85026 14.83034 14.79648 14.77478 14.76537 14.75758 14.74056 14.73208 14.7275 14.73139 14.73693 14.74791 14.75613 14.7606 14.76498 14.78035 14.78939 14.79559 14.79978 14.81018 14.81747 14.82627 14.83934 14.8619 14.87786 14.89763 14.92099 14.94475 14.9663 14.9843 14.9996 15.01079 15.02526 15.03793 15.04484 15.05191 15.05157 15.05024 15.0536 15.05933 15.07573
0 0 0 0 0 0 0 0 0 0 0 0 0 0 0 0 0 0 0 0 0 0 0 0 0 0 0 0 0 0 0 0 0 0 0 0 0 0 0 0 0 0 0 0 0 0 0 0 0 0 15.48785 15.13966 14.91865 14.99988 15.03643 15.05054 15.05571 15.03035 14.99788 14.96143 14.9306 14.90714 14.88842 14.88574 14.87268 14.86187 14.8588 14.85226 14.83321 14.81435 14.78917 14.76954 14.76248 14.75079 14.74195 14.73406 14.72831 14.72749 14.73507 14.74245 14.74929 14.76623 14.77683 14.78401 14.78993 14.79469 14.8071 14.82356 14.83927 14.84722 14.8686 14.89804 14.92024 14.94377 14.97784 15.00008 15.02075 15.03454 15.05007 15.0684 15.08201 15.09484 15.10431 15.10886 15.10952 15.10872 15.11693 15.12947 15.14664
0 0 0 0 0 0 0 0 0 0 0 0 0 0 0 0 0 0 0 0 0 0 0 0 0 0 0 0 0 0 0 0 0 0 0 0 0 0 0 0 0 0 0 0 0 0 0 0 0 0 0 0 14.94074 15.00183 15.03923 15.06609 15.07245 15.03228 14.98953 14.94812 14.90937 14.88217 14.86429 14.85563 14.84798 14.84434 14.84991 14.84377 14.82999 14.81739 14.79736 14.77934 14.76722 14.7604 14.75119 14.74691 14.73776 14.74007 14.74375 14.75405 14.76417 14.7752 14.78676 14.79515 14.80881 14.81999 14.83558 14.84969 14.86949 14.89044 14.91739 14.94219 14.96794 15.00017 15.02973 15.05571 15.08401 15.09598 15.10797 15.12603 15.13886 15.14949 15.15956 15.16414 15.16756 15.17267 15.17812 15.19037 15.20933
0 0 0 0 0 0 0 0 0 0 0 0 0 0 0 0 0 0 0 0 0 0 0 0 0 0 0 0 0 0 0 0 0 0 0 0 0 0 0 0 0 0 0 0 0 0 0 0 0 0 17.01862 15.53124 15.15419 15.0181 15.05017 15.06838 15.06264 15.01593 14.97207 14.92919 14.89619 14.87125 14.85166 14.84694 14.84489 14.84481 14.84984 14.83625 14.83039 14.82899 14.81279 14.79424 14.78589 14.7781 14.77487 14.76183 14.75314 14.7502 14.75187 14.76349 14.77444 14.78351 14.80334 14.815 14.83238 14.84925 14.86853 14.88618 14.9044 14.92906 14.95772 14.98726 15.02005 15.05318 15.08444 15.11621 15.13488 15.1512 15.17028 15.1835 15.19467 15.20641 15.21739 15.2228 15.22761 15.23176 15.24156 15.25481 15.2722
0 0 0 0 0 0 0 0 0 0 0 0 0 0 0 0 0 0 0 0 0 0 0 0 0 0 0 0 0 0 0 0 0 0 0 0 0 0 0 0 0 0 0 0 0 0 0 0 0 0 16.38268 15.54313 15.37281 15.01805 15.0331 15.03809 15.03189 14.98635 14.95007 14.91896 14.89636 14.8709 14.85957 14.8561 14.85394 14.86387 14.8664 14.85224 14.85307 14.83927 14.82198 14.80922 14.79985 14.79326 14.78471 14.77308 14.77344 14.7683 14.76707 14.77487 14.78628 14.8064 14.82177 14.83946 14.85753 14.87799 14.89814 14.91611 14.93786 14.96764 15.00275 15.04321 15.07777 15.11372 15.14383 15.17235 15.19353 15.21515 15.23178 15.24452 15.25167 15.26006 15.26935 15.27858 15.28282 15.28956 15.29872 15.3133 15.33274
0 0 0 0 0 0 0 0 0 0 0 0 0 0 0 0 0 0 0 0 0 0 0 0 0 0 0 0 0 0 0 0 0 0 0 0 0 0 0 0 0 0 0 0 0 0 0 0 0 0 0 15.56841 15.17666 15.01583 15.01329 15.00048 15.00797 14.97335 14.94293 14.92191 14.8989 14.87365 14.86648 14.86647 14.87524 14.889 14.89043 14.88924 14.87712 14.86263 14.84623 14.82979 14.82039 14.81223 14.79725 14.78677 14.78128 14.78197 14.78632 14.79483 14.80868 14.82466 14.8458 14.86357 14.8892 14.91316 14.93696 14.95888 14.99347 15.02941 15.06859 15.10853 15.14502 15.17931 15.20736 15.23108 15.25274 15.27135 15.28921 15.29605 15.30885 15.31801 15.33054 15.34031 15.343 15.34936 15.35894 15.37154 15.39178
0 0 0 0 0 0 0 0 0 0 0 0 0 0 0 0 0 0 0 0 0 0 0 0 0 0 0 0 0 0 0 0 0 0 0 0 0 0 0 0 0 0 0 0 0 0 0 0 0 0 0 15.35962 14.99888 15.01346 15.00405 14.98151 14.98914 14.95884 14.94068 14.92889 14.91072 14.90147 14.89654 14.90135 14.9073 14.91167 14.92716 14.9262 14.90992 14.88322 14.86844 14.85257 14.84206 14.83277 14.82723 14.80839 14.80149 14.80348 14.81406 14.82144 14.83634 14.85468 14.87499 14.9026 14.92836 14.95368 14.97816 15.01227 15.04805 15.08959 15.13452 15.16995 15.20644 15.24049 15.27223 15.29717 15.32032 15.34187 15.35225 15.35555 15.36394 15.37911 15.39018 15.39807 15.40071 15.40762 15.41609 15.42858 15.44827
0 0 0 0 0 0 0 0 0 0 0 0 0 0 0 0 0 0 0 0 0 0 0 0 0 0 0 0 0 0 0 0 0 0 0 0 0 0 0 0 0 0 0 0 0 0 0 0 0 0 0 15.01051 15.02008 15.03052 15.01184 14.97989 14.97099 14.94699 14.93568 14.92438 14.92021 14.92536 14.92724 14.92605 14.93447 14.95669 14.96319 14.95605 14.93912 14.92471 14.90829 14.88612 14.87392 14.86587 14.85471 14.83537 14.82533 14.83155 14.84002 14.85077 14.87333 14.89857 14.92647 14.95871 14.98694 15.01193 15.04308 15.07798 15.12147 15.16179 15.20123 15.24233 15.27658 15.30389 15.32997 15.36085 15.38463 15.40268 15.41705 15.42407 15.43323 15.44197 15.45373 15.45834 15.46188 15.46724 15.47464 15.48253 15.4981
0 0 0 0 0 0 0 0 0 0 0 0 0 0 0 0 0 0 0 0 0 0 0 0 0 0 0 0 0 0 0 0 0 0 0 0 0 0 0 0 0 0 0 0 0 0 0 0 0 16.88766 15.95967 15.05456 15.05143 15.03534 15.01001 14.986 14.96781 14.94004 14.93564 14.93131 14.94036 14.95791 14.96057 14.95897 14.96828 14.98119 14.99245 14.98702 14.97337 14.96263 14.95246 14.93827 14.93083 14.92003 14.89062 14.88822 14.88108 14.87906 14.88541 14.89834 14.91639 14.94182 14.96957 15.0055 15.03814 15.07035 15.10662 15.14859 15.1961 15.23583 15.28002 15.32441 15.35421 15.38054 15.40216 15.42883 15.45072 15.47176 15.48172 15.4924 15.49969 15.50309 15.50995 15.51369 15.51919 15.52642 15.53247 15.5385 15.54957
0 0 0 0 0 0 0 0 0 0 0 0 0 0 0 0 0 0 0 0 0 0 0 0 0 0 0 0 0 0 0 0 0 0 0 0 0 0 0 0 0 0 0 0 0 0 0 0 16.03875 15.54139 15.30448 15.09033 15.0712 15.03982 15.00731 14.98623 14.97201 14.94927 14.94641 14.95841 14.97711 14.9981 15.00437 15.00517 15.01342 15.03006 15.04489 15.04355 15.03278 15.01817 15.00246 14.98869 14.97409 14.96094 14.94319 14.93488 14.93139 14.92742 14.9339 14.9479 14.97128 15.00393 15.03162 15.0673 15.10975 15.14074 15.18022 15.22 15.25815 15.29633 15.33152 15.36686 15.40052 15.43211 15.45919 15.48158 15.50465 15.5321 15.54674 15.55947 15.56856 15.56619 15.56205 15.56297 15.56332 15.56509 15.57339 15.57765 15.58371
0 0 0 0 0 0 0 0 0 0 0 0 0 0 0 0 0 0 0 0 0 0 0 0 0 0 0 0 0 0 0 0 0 0 0 0 0 0 0 0 0 0 0 0 0 15.75113 15.61666 16.12929 15.62189 15.64068 15.38579 15.13246 15.09651 15.05186 15.02131 15.00081 14.98547 14.96737 14.9647 14.98434 15.012 15.02627 15.03813 15.04574 15.06068 15.07911 15.09028 15.09256 15.08355 15.08057 15.06167 15.05102 15.03505 15.0252 15.01084 14.99392 14.98416 14.9819 14.98614 14.99845 15.02135 15.0575 15.08967 15.12516 15.16876 15.20876 15.24774 15.28791 15.32758 15.36664 15.39705 15.43139 15.46306 15.49103 15.51517 15.53439 15.56198 15.58367 15.60402 15.61845 15.62633 15.61771 15.61195 15.61455 15.6135 15.61682 15.61705 15.61569 15.6209
0 0 0 0 0 0 0 0 0 0 0 0 0 0 0 0 0 0 0 0 0 0 0 0 0 0 0 0 0 0 0 0 0 0 0 0 0 0 0 0 0 0 17.769 17.46542 16.48891 15.69059 15.20837 15.2229 15.71213 15.44508 15.1963 15.15821 15.11465 15.0749 15.04686 15.02664 15.01034 14.99952 15.00843 15.02769 15.05869 15.07837 15.08973 15.10353 15.11957 15.13665 15.14553 15.14409 15.13452 15.12286 15.10388 15.09053 15.08326 15.07406 15.06134 15.04796 15.03894 15.0372 15.05004 15.07338 15.09453 15.12413 15.15863 15.19433 15.23407 15.27335 15.306 15.34472 15.38329 15.41966 15.45235 15.48571 15.51733 15.54846 15.5712 15.60035 15.62056 15.64022 15.6667 15.67684 15.68279 15.67508 15.66495 15.65842 15.6552 15.65488 15.65507 15.65573 15.6559
0 0 0 0 0 0 0 0 0 0 0 0 0 0 0 0 0 0 0 0 0 0 0 0 0 0 0 0 0 0 0 0 0 0 0 0 0 0 0 0 16.91219 17.26846 17.52939 16.58856 15.76353 15.26588 15.28424 15.29501 15.28169 15.24927 15.21944 15.17781 15.1359 15.09797 15.07562 15.05249 15.04486 15.04158 15.05182 15.07077 15.1014 15.12495 15.14169 15.15415 15.17697 15.19232 15.19805 15.19923 15.19557 15.1832 15.16173 15.15095 15.1475 15.13457 15.11703 15.10028 15.08623 15.08426 15.09968 15.12412 15.15122 15.18288 15.22319 15.26431 15.30314 15.34423 15.37768 15.41069 15.44796 15.48319 15.51423 15.54146 15.56974 15.6003 15.62278 15.65359 15.68058 15.69468 15.71503 15.72437 15.72264 15.72202 15.71459 15.70602 15.7005 15.69834 15.70163 15.70327 15.705
0 0 0 0 0 0 0 0 0 0 0 0 0 0 0 0 0 0 0 0 0 0 0 0 0 0 0 0 0 0 0 0 0 0 0 0 0 0 0 17.15661 16.89564 16.32804 16.07705 15.28478 15.30083 15.3168 15.33054 15.33142 15.31154 15.27828 15.23986 15.20205 15.16788 15.13885 15.12204 15.10551 15.10268 15.1074 15.11603 15.14077 15.16153 15.1828 15.20356 15.21041 15.22833 15.24575 15.2533 15.25617 15.25109 15.2421 15.22942 15.21385 15.21029 15.1989 15.18951 15.17239 15.15997 15.15637 15.16984 15.18833 15.21183 15.24303 15.27795 15.31685 15.35509 15.3968 15.4354 15.47211 15.50126 15.53424 15.56465 15.5938 15.62101 15.65282 15.6851 15.71004 15.73187 15.74774 15.7608 15.7701 15.76377 15.75551 15.75111 15.74257 15.7391 15.73977 15.74439 15.74717 15.749
0 0 0 0 0 0 0 0 0 0 0 0 0 0 0 0 0 0 0 0 0 0 0 0 0 0 0 0 0 0 0 0 0 0 0 0 0 0 16.42109 16.11525 15.8507 15.32995 15.34093 15.34993 15.35731 15.3602 15.36336 15.35923 15.33661 15.30976 15.27565 15.2454 15.21524 15.18938 15.1681 15.15784 15.15829 15.17222 15.18722 15.21296 15.22983 15.24805 15.26103 15.27257 15.29396 15.30984 15.31923 15.3272 15.32322 15.31468 15.30258 15.2812 15.26806 15.25908 15.2439 15.2332 15.22517 15.22718 15.24232 15.26018 15.28667 15.31851 15.35313 15.39532 15.43066 15.47025 15.50154 15.52942 15.55713 15.58675 15.6169 15.64262 15.67443 15.69958 15.73227 15.75282 15.77266 15.78521 15.79343 15.80042 15.79996 15.79517 15.789 15.7852 15.78303 15.78479 15.78821 15.7913 15.78906
0 0 0 0 0 0 0 0 0 0 0 0 0 0 0 0 0 0 0 0 0 0 0 0 0 0 0 0 0 0 0 0 0 0 18.16664 18.77423 17.88599 16.19837 15.36897 15.37909 15.38565 15.38552 15.38361 15.38741 15.39354 15.3874 15.38233 15.37253 15.36334 15.3448 15.31798 15.29919 15.27955 15.26084 15.25052 15.24405 15.24761 15.25293 15.26956 15.28225 15.29407 15.30319 15.31488 15.33286 15.34999 15.36488 15.37896 15.3897 15.39923 15.4019 15.38973 15.37197 15.35813 15.3402 15.32699 15.3203 15.31357 15.31542 15.32687 15.33913 15.36071 15.38798 15.42212 15.45939 15.49625 15.53206 15.56732 15.59472 15.61906 15.64898 15.68653 15.7163 15.74207 15.76772 15.78774 15.80329 15.81761 15.81951 15.82505 15.82541 15.82665 15.82353 15.81718 15.81603 15.81376 15.81848 15.82588 15.83203 15.82241
0 0 0 0 0 0 0 0 0 0 0 0 0 0 0 0 0 0 0 0 0 0 0 0 0 0 0 0 0 18.6894 18.27418 18.05047 18.03526 17.80545 17.50364 16.91253 15.43934 15.43605 15.44182 15.44626 15.4418 15.42926 15.42362 15.41969 15.41793 15.39882 15.39663 15.3881 15.37887 15.36175 15.35111 15.34604 15.33629 15.33043 15.32283 15.32018 15.3218 15.32653 15.34073 15.35553 15.362 15.3715 15.38272 15.394 15.4101 15.42813 15.4423 15.45059 15.45934 15.46011 15.45355 15.44099 15.42879 15.4212 15.40937 15.40573 15.40406 15.40829 15.42351 15.43753 15.45685 15.48215 15.51255 15.54208 15.57272 15.60579 15.62584 15.64715 15.67396 15.70627 15.74217 15.7685 15.79559 15.81593 15.83475 15.847 15.85475 15.85975 15.85989 15.85902 15.86181 15.85809 15.85948 15.85403 15.85052 15.85493 15.85889 15.85548 15.83503
0 0 0 0 0 0 0 0 0 0 0 0 0 0 0 0 0 0 0 0 0 0 0 0 0 18.4815 17.74819 17.74734 16.79858 16.13348 15.81259 15.52087 15.51588 15.50968 15.4992 15.48961 15.4827 15.48285 15.49182 15.49561 15.4854 15.46668 15.44561 15.43295 15.4273 15.40354 15.40735 15.40944 15.40883 15.40896 15.41211 15.41429 15.40699 15.39551 15.38314 15.38278 15.38246 15.38542 15.39369 15.40837 15.41609 15.42405 15.43692 15.45267 15.47166 15.49119 15.50608 15.51771 15.52645 15.5328 15.53393 15.52882 15.51827 15.5084 15.4981 15.49486 15.49237 15.49694 15.50535 15.51772 15.53811 15.56687 15.59766 15.62951 15.65392 15.68167 15.69893 15.72321 15.74311 15.76808 15.79876 15.82499 15.845 15.86378 15.87648 15.88783 15.89368 15.8892 15.89192 15.89001 15.89485 15.89366 15.89694 15.89439 15.8912 15.89521 15.89276 15.87402 15.82935
0 0 0 0 0 0 0 0 0 0 0 0 0 0 0 0 0 0 0 0 0 0 0 18.6572 17.78651 17.20574 16.88332 16.55009 15.59338 15.58343 15.5684 15.55749 15.5501 15.53843 15.52216 15.50881 15.50699 15.51717 15.53486 15.5371 15.5153 15.483 15.44883 15.42738 15.4245 15.42373 15.43298 15.43807 15.45019 15.4623 15.47694 15.47953 15.47091 15.45742 15.44257 15.43821 15.44256 15.44971 15.45733 15.46641 15.47829 15.48582 15.49442 15.51022 15.52966 15.54786 15.56276 15.57363 15.58189 15.59419 15.59938 15.59712 15.59821 15.59574 15.59501 15.59896 15.60083 15.60332 15.61227 15.62134 15.64452 15.66303 15.6849 15.70641 15.72954 15.75072 15.76425 15.78179 15.80067 15.82339 15.8508 15.88149 15.9019 15.91802 15.92912 15.92992 15.93411 15.93278 15.9258 15.92726 15.92705 15.92714 15.93038 15.92873 15.92646 15.9214 15.91053 15.87591 15.81637
0 0 0 0 0 0 0 0 0 0 0 0 0 0 0 0 0 0 0 0 0 0 18.06945 17.21955 16.89685 16.90624 16.57739 16.23966 15.60441 15.58938 15.57474 15.55921 15.54856 15.53524 15.52922 15.5219 15.52525 15.52737 15.53688 15.53456 15.51083 15.49081 15.46999 15.45391 15.43942 15.44808 15.46464 15.48197 15.49414 15.50558 15.51165 15.51258 15.5096 15.4969 15.48679 15.48352 15.48724 15.49408 15.50241 15.51336 15.529 15.54009 15.55236 15.56518 15.58475 15.60177 15.61892 15.63186 15.64827 15.65777 15.66464 15.66362 15.66422 15.66415 15.67024 15.67656 15.68414 15.69212 15.70275 15.71586 15.73507 15.75685 15.77477 15.7949 15.81639 15.8419 15.84826 15.8617 15.87312 15.89163 15.91804 15.93384 15.94424 15.95444 15.95646 15.95907 15.9595 15.95893 15.95854 15.95646 15.96146 15.966 15.97039 15.96745 15.96667 15.9535 15.92415 15.86978 15.80491
0 0 0 0 0 0 0 0 0 0 0 0 0 0 0 0 0 0 0 0 0 19.27882 18.27903 17.20291 16.57021 16.56854 16.23662 16.23668 15.59826 15.58034 15.56241 15.54495 15.52887 15.51792 15.5129 15.50712 15.50557 15.50973 15.5193 15.51916 15.5053 15.4902 15.47691 15.4718 15.46281 15.47521 15.49774 15.51504 15.53208 15.54219 15.54471 15.54599 15.54563 15.54304 15.54038 15.53862 15.53576 15.53899 15.54835 15.56092 15.57318 15.58698 15.59835 15.6115 15.62823 15.65103 15.66892 15.69035 15.70875 15.72322 15.73705 15.74485 15.74904 15.75471 15.7639 15.7764 15.78282 15.78991 15.79263 15.79913 15.81373 15.83142 15.84642 15.86933 15.89452 15.91136 15.92358 15.93653 15.95067 15.96115 15.97325 15.984 15.98813 15.99023 15.99325 15.99825 15.99664 15.9943 15.99053 15.98625 15.9862 15.98958 15.993 15.99376 15.98891 15.96803 15.93169 15.86878 15.79526
0 0 0 0 0 0 0 0 0 0 0 0 0 0 0 0 0 0 0 0 0 0 0 17.79722 16.90313 16.57079 16.22974 15.92071 15.58834 15.56834 15.54952 15.5329 15.51477 15.50291 15.49757 15.49463 15.49443 15.4985 15.50641 15.51046 15.50221 15.49806 15.49071 15.48651 15.48356 15.4959 15.51823 15.53863 15.55731 15.56844 15.57665 15.58136 15.58394 15.5872 15.58853 15.5888 15.59299 15.60076 15.60542 15.61313 15.62604 15.6376 15.65043 15.66461 15.67873 15.69695 15.71985 15.74332 15.76157 15.77952 15.79236 15.80878 15.82194 15.83309 15.84714 15.86537 15.87447 15.8836 15.8909 15.89693 15.91042 15.9234 15.94132 15.96061 15.97583 15.99108 15.9994 16.00902 16.01344 16.0172 16.02681 16.02661 16.02694 16.02428 16.03351 16.03492 16.03278 16.03019 16.02665 16.0255 16.02738 16.02619 16.02749 16.02904 16.01486 15.98634 15.94136 15.87454 15.78873
0 0 0 0 0 0 0 0 0 0 0 0 0 0 0 0 0 0 0 0 0 19.69676 19.40698 18.42118 16.94126 16.58991 16.24464 16.24404 15.88384 15.56016 15.53848 15.5199 15.50498 15.49606 15.48992 15.48457 15.48746 15.49397 15.50652 15.50852 15.50555 15.50314 15.50457 15.50332 15.50165 15.51939 15.53767 15.55957 15.57998 15.60329 15.61583 15.62639 15.63269 15.63642 15.64303 15.6498 15.65263 15.65657 15.65761 15.66214 15.66921 15.68412 15.69707 15.71314 15.73284 15.75296 15.77537 15.79635 15.81448 15.8335 15.85371 15.87244 15.89046 15.90708 15.92396 15.9397 15.95288 15.95917 15.96773 15.97498 15.98871 16.00249 16.02141 16.04146 16.05984 16.07226 16.08026 16.08341 16.0801 16.08406 16.08361 16.0831 16.07394 16.07388 16.07431 16.06976 16.06551 16.06356 16.05966 16.05797 16.05483 16.05166 16.05897 16.05248 16.03505 16.00312 15.95508 15.88446 15.78713
0 0 0 0 0 0 0 0 0 0 0 0 0 0 0 0 0 0 0 19.70736 19.65039 19.55914 18.73271 17.63209 16.97705 16.62774 16.26952 16.58991 15.59109 15.55284 15.52915 15.51157 15.49952 15.4903 15.48112 15.47954 15.4824 15.49073 15.50687 15.51291 15.5123 15.51232 15.51853 15.52407 15.52749 15.54421 15.56735 15.59046 15.61608 15.64223 15.6626 15.68093 15.69337 15.70098 15.70959 15.71611 15.72143 15.72053 15.72212 15.71886 15.72183 15.72777 15.74278 15.76094 15.78009 15.79643 15.81797 15.83943 15.85992 15.88388 15.90959 15.93008 15.95401 15.97635 15.99653 16.02043 16.03556 16.04833 16.0582 16.06759 16.07761 16.09156 16.10837 16.11654 16.12874 16.1356 16.13787 16.13677 16.13126 16.1274 16.13094 16.13011 16.12733 16.12353 16.12051 16.1147 16.11427 16.10773 16.10413 16.09804 16.09216 16.09138 16.08804 16.07496 16.05367 16.01621 15.9668 15.89175 15.79522
0 0 0 0 0 0 0 0 0 0 0 0 0 0 0 0 0 0 19.19453 19.09151 18.74976 18.28241 17.67198 17.01372 16.67704 16.65459 16.30222 15.94779 15.6007 15.55221 15.5238 15.50397 15.49238 15.48139 15.47758 15.47847 15.48469 15.49654 15.51385 15.52537 15.5336 15.54259 15.55327 15.55869 15.56319 15.57804 15.59946 15.6293 15.66064 15.68963 15.71539 15.73615 15.7518 15.76695 15.7747 15.78404 15.78851 15.78912 15.78838 15.79106 15.79381 15.79659 15.80362 15.81407 15.83195 15.8515 15.8707 15.88635 15.90289 15.92552 15.95478 15.97899 16.00491 16.03215 16.0583 16.08392 16.10249 16.12067 16.13878 16.15471 16.16989 16.18408 16.19266 16.20384 16.20946 16.2133 16.20475 16.19666 16.19106 16.18464 16.18091 16.17595 16.16943 16.16384 16.15568 16.15021 16.14905 16.14417 16.13971 16.13346 16.13057 16.12597 16.1211 16.10754 16.08046 16.04138 15.99013 15.91564 15.8235
0 0 0 0 0 0 0 0 0 0 0 0 0 0 0 0 0 19.61448 19.08422 18.4751 17.98203 17.36598 17.03751 17.04352 17.04243 16.66715 16.29794 15.63819 15.58999 15.54491 15.51415 15.49527 15.48005 15.4662 15.47043 15.47851 15.48906 15.50661 15.52501 15.54152 15.55324 15.56707 15.57733 15.59166 15.60061 15.62108 15.6436 15.67171 15.70182 15.73543 15.76372 15.78968 15.80959 15.82328 15.83414 15.84387 15.83247 15.83034 15.82862 15.83274 15.839 15.83951 15.84366 15.85131 15.86498 15.88724 15.90714 15.92071 15.9449 15.97056 16.00003 16.02991 16.06017 16.08888 16.11817 16.14496 16.16793 16.18805 16.2063 16.2248 16.24207 16.25344 16.25848 16.26537 16.26931 16.26913 16.25949 16.25014 16.245 16.23948 16.23344 16.22938 16.2241 16.21596 16.20601 16.19769 16.18856 16.17949 16.17442 16.16362 16.15635 16.15124 16.14514 16.13031 16.10806 16.07042 16.01802 15.94805 15.86876
0 0 0 0 0 0 0 0 0 0 0 0 0 0 0 0 19.10696 19.08737 18.24655 17.67988 17.37026 17.04072 17.03458 17.04235 17.0288 16.66023 16.28531 15.63249 15.57418 15.53253 15.50374 15.48439 15.4704 15.46522 15.47612 15.49065 15.50754 15.52555 15.54353 15.55803 15.57427 15.59305 15.60724 15.62181 15.63912 15.66279 15.68831 15.71772 15.74728 15.77934 15.81194 15.84202 15.8666 15.88202 15.89473 15.90437 15.88967 15.8939 15.89755 15.90199 15.90102 15.89454 15.89501 15.89549 15.91099 15.9248 15.93718 15.95122 15.98044 16.00621 16.03676 16.06992 16.10411 16.13428 16.16915 16.20142 16.22975 16.25634 16.27752 16.29853 16.31553 16.32967 16.33224 16.33277 16.33061 16.32333 16.30977 16.29529 16.28934 16.28303 16.28018 16.27652 16.26734 16.2513 16.24556 16.23266 16.22507 16.21568 16.20952 16.19535 16.18818 16.18332 16.18122 16.1724 16.14715 16.11004 16.05961 15.99102 15.91124
0 0 0 0 0 0 0 0 0 0 0 0 0 0 0 19.6664 18.931 18.23555 17.65311 17.34161 17.01451 17.01349 17.01572 16.67063 16.6618 16.30992 15.64035 15.61353 15.56123 15.52347 15.49284 15.47711 15.46655 15.46386 15.47836 15.49874 15.51859 15.54466 15.56789 15.58928 15.60832 15.62985 15.6535 15.67389 15.6976 15.7229 15.75256 15.78071 15.81093 15.84426 15.87116 15.89609 15.91716 15.93625 15.95274 15.96453 15.96967 15.97812 15.98529 15.99124 15.98806 15.984 15.98879 15.98172 15.97821 15.98117 15.99118 16.00353 16.02014 16.04 16.0682 16.10403 16.14288 16.17849 16.21495 16.25175 16.28073 16.30597 16.32868 16.34836 16.36928 16.38325 16.39065 16.39224 16.39095 16.38529 16.36969 16.35373 16.3439 16.33575 16.33104 16.32517 16.31169 16.29623 16.27974 16.26632 16.2524 16.2433 16.23639 16.22394 16.21331 16.21057 16.2046 16.19734 16.17999 16.14804 16.10066 16.03698 15.95979
0 0 0 0 0 0 0 0 0 0 0 0 0 0 18.9934 18.99292 18.27742 17.65943 17.32401 16.9797 16.97369 16.62238 16.61799 16.62299 16.28992 15.94026 15.61748 15.59355 15.54826 15.51573 15.48981 15.47529 15.46643 15.46467 15.49019 15.51145 15.53696 15.56296 15.59524 15.62352 15.64738 15.67593 15.71035 15.74129 15.7718 15.80002 15.83411 15.86589 15.89698 15.9211 15.9418 15.96438 15.98398 16.00217 16.01981 16.03421 16.04932 16.05654 16.06402 16.07006 16.08221 16.07924 16.07652 16.07291 16.04588 16.03808 16.04647 16.04991 16.04665 16.06655 16.09565 16.1319 16.17677 16.22137 16.26364 16.30022 16.33326 16.35886 16.38278 16.39874 16.41522 16.42486 16.43104 16.43239 16.43633 16.43124 16.41697 16.40291 16.38639 16.37726 16.37507 16.36641 16.35114 16.33191 16.3191 16.30314 16.28964 16.27719 16.26995 16.25897 16.24598 16.24041 16.23274 16.22059 16.20252 16.16962 16.12425 16.06117 15.98757
0 0 0 0 0 0 0 0 0 0 0 0 0 18.85893 19.0347 18.27959 17.65389 17.32766 16.97287 16.9529 16.59238 16.57152 16.57807 16.59449 16.25526 15.60824 15.58735 15.57147 15.53992 15.51523 15.4947 15.48729 15.48513 15.48951 15.51535 15.53886 15.56402 15.59746 15.63359 15.66577 15.70067 15.74137 15.77933 15.81415 15.84562 15.87858 15.91219 15.94397 15.97264 15.99539 16.01406 16.03111 16.05115 16.06647 16.08054 16.09204 16.10815 16.11788 0 0 0 16.07932 16.09789 16.16287 16.14609 16.11763 16.09595 16.08504 16.07603 16.08482 16.11493 16.15715 16.2049 16.25368 16.29707 16.33993 16.37715 16.40711 16.43179 16.44684 16.46599 16.47204 16.47923 16.48355 16.48476 16.48226 16.47039 16.4562 16.4411 16.42329 16.41921 16.40405 16.38461 16.36529 16.35116 16.33445 16.31968 16.30566 16.29609 16.28926 16.27793 16.27197 16.26087 16.25182 16.23396 16.19813 16.15229 16.09093 16.00988
0 0 0 0 0 0 0 0 0 0 0 0 0 19.23494 18.30714 17.65459 17.30734 16.94681 16.94355 16.58193 16.57156 16.55505 16.57302 15.59337 15.58915 15.58411 15.5712 15.562 15.53536 15.51508 15.50807 15.50612 15.50286 15.50569 15.53037 15.55884 15.59926 15.63618 15.68417 15.72428 15.77068 15.81761 15.85926 15.90077 15.93517 15.96373 15.99889 16.03027 16.05302 16.07154 16.08288 16.86387 16.10361 16.11046 16.12144 16.49967 17.28999 18.09125 0 0 0 0 0 16.59779 16.20818 16.17582 16.13938 16.11145 16.10632 16.11125 16.14112 16.18 16.22446 16.27731 16.32927 16.37209 16.41554 16.4453 16.4681 16.48349 16.49903 16.50996 16.51807 16.52561 16.52974 16.52653 16.52087 16.51039 16.49812 16.48523 16.47539 16.45864 16.43953 16.41649 16.39716 16.37686 16.35978 16.34411 16.3281 16.32226 16.30956 16.29689 16.28652 16.27315 16.2568 16.22618 16.17423 16.1108 16.02861
0 0 0 0 0 0 0 0 0 0 0 0 19.36587 18.57039 17.63494 17.28997 16.93616 16.59142 16.57922 16.57488 16.56362 16.55718 16.224 15.58163 15.5777 15.56873 15.56769 15.56196 15.54389 15.53452 15.53117 15.5308 15.5277 15.53474 15.56385 15.59538 15.62736 15.67406 15.72844 15.77381 15.82812 15.87858 15.92341 15.96148 16.00159 16.0339 16.05007 0 0 16.06915 0 17.77089 16.95141 16.53388 16.9345 16.91618 17.70356 18.14519 19.12887 16.91687 16.18681 0 0 0 17.87403 16.2016 16.16054 16.13737 16.1299 16.13703 16.16191 16.20041 16.2505 16.30287 16.35544 16.40397 16.44729 16.48387 16.50754 16.52587 16.5414 16.54916 16.55633 16.55919 16.56368 16.56208 16.55701 16.54927 16.53908 16.52755 16.5157 16.50245 16.47977 16.46054 16.44056 16.41824 16.40239 16.38726 16.37357 16.36277 16.34933 16.33552 16.32199 16.30959 16.28783 16.25276 16.20589 16.13455 16.04385
0 0 0 0 0 0 0 0 0 0 0 18.61158 18.56998 17.61962 17.27506 16.57549 16.59429 16.5877 16.57777 16.57302 16.57977 15.89134 15.5775 15.57174 15.5697 15.56129 15.56512 15.57189 15.56534 15.55823 15.55777 15.55701 15.55818 15.56399 15.5945 15.63316 15.67783 15.7385 15.80062 15.85153 15.90429 15.95007 15.98361 16.01471 16.81532 0 0 0 0 0 18.5694 19.36791 19.13468 18.55568 18.18405 17.74845 17.73179 16.53815 16.16741 16.18207 16.18912 16.18923 16.19364 18.26163 18.62844 16.21325 16.18462 16.16779 16.15918 16.16617 16.18811 16.22298 16.26975 16.32157 16.37645 16.42952 16.47345 16.50728 16.53196 16.55129 16.56643 16.5797 16.58676 16.5907 16.59642 16.59587 16.59491 16.59493 16.58601 16.57582 16.56551 16.54856 16.52303 16.50297 16.47787 16.45542 16.43664 16.42518 16.41381 16.40051 16.3849 16.37047 16.35523 16.34307 16.31898 16.28596 16.23741 16.16547 16.0678
0 0 0 0 0 0 0 0 0 0 19.32766 18.60373 17.61773 16.89718 16.56947 16.22734 16.26172 16.26834 16.26378 16.25543 16.24786 15.58733 15.57835 15.57585 15.57138 15.56622 15.56944 15.58915 15.58724 15.58312 15.58333 15.58211 15.58256 15.59257 15.6231 15.66893 15.73163 15.80104 15.86065 15.91213 15.96787 16.00739 16.40417 0 0 0 0 0 0 0 0 0 0 0 18.58933 18.21782 17.39581 16.18767 16.19936 16.2138 16.22146 16.22407 16.22621 16.22887 16.2301 16.22786 16.21324 16.2053 16.19689 16.20486 16.22956 16.25946 16.30076 16.34972 16.40011 16.44935 16.49223 16.52464 16.55217 16.57185 16.5868 16.59987 16.60516 16.61168 16.61625 16.62244 16.62236 16.62484 16.62329 16.61586 16.6065 16.58981 16.56471 16.54686 16.52296 16.50093 16.48702 16.47796 16.4635 16.44598 16.42991 16.41161 16.38986 16.37147 16.34479 16.30751 16.25997 16.18784 16.09094
0 0 0 0 0 0 0 0 0 0 18.86433 17.60764 16.89556 16.55957 15.90852 15.92514 15.63478 15.63551 15.63151 15.62186 15.61436 15.59363 15.58838 15.58739 15.58309 15.5796 15.59542 15.61505 15.61294 15.61655 15.61646 15.61283 15.61325 15.63042 15.66807 15.717 15.77804 15.83357 15.89507 15.95101 17.17159 0 0 0 0 0 0 0 0 0 0 0 0 0 19.25317 17.86513 16.22633 16.22951 16.24635 16.26357 16.27362 16.27568 16.2732 16.26536 16.25922 16.24983 16.23866 16.23383 16.22986 16.24282 16.26141 16.29157 16.32905 16.37906 16.42899 16.47707 16.51442 16.54535 16.57533 16.59987 16.61203 16.6224 16.62757 16.63489 16.6429 16.65034 16.65286 16.65501 16.65239 16.6458 16.63246 16.61407 16.59353 16.57933 16.5627 16.54711 16.53086 16.52187 16.50711 16.49345 16.47714 16.45509 16.43115 16.40814 16.37601 16.33257 16.27869 16.2075 16.11571
0 0 0 0 0 0 0 0 0 18.94926 18.3212 17.23875 16.52351 15.87578 15.6003 15.62621 15.62183 15.6218 15.62334 15.62077 15.60859 15.59287 15.59961 15.59889 15.59566 15.6005 15.61451 15.63094 15.63934 15.64109 15.64689 15.65092 15.654 15.67197 15.71233 15.76624 15.8128 15.87153 15.93827 16.74042 16.96764 0 0 0 0 0 0 0 0 0 0 0 0 18.52828 18.29891 17.05437 16.24138 16.25827 16.28191 16.30303 16.31753 16.32396 16.3173 16.30436 16.29425 16.28345 16.27269 16.26652 16.2722 16.28358 16.30459 16.33172 16.36669 16.40719 16.45037 16.49067 16.53151 16.56677 16.59662 16.61823 16.63313 16.64156 16.65005 16.65944 16.6665 16.67831 16.68432 16.68521 16.68458 16.67712 16.66499 16.65198 16.63169 16.61342 16.60203 16.58513 16.57072 16.55807 16.54246 16.5286 16.51144 16.48999 16.46333 16.43512 16.39875 16.35054 16.29099 16.21921 16.13279
0 0 0 0 0 0 0 0 19.81664 18.68072 17.24092 16.50093 16.15503 15.54725 15.56652 15.59079 15.59473 15.59195 15.59131 15.58958 15.59014 15.58879 15.59905 15.60324 15.60644 15.6267 15.6491 15.66839 15.67677 15.67875 15.6803 15.68117 15.68583 15.70214 15.74387 15.79719 15.84075 15.89398 16.30939 16.73829 17.1861 18.01846 0 18.87427 19.49224 0 0 0 0 0 0 0 19.30327 18.30072 17.48532 16.24908 16.26295 16.29284 16.31716 16.33829 16.34996 16.34877 16.34244 16.33363 16.32542 16.31838 16.30816 16.30371 16.30926 16.32071 16.3425 16.36832 16.4001 16.43383 16.47448 16.51587 16.55246 16.58978 16.61769 16.64185 16.65548 16.66723 16.67463 16.68096 16.68846 16.69629 16.70218 16.70392 16.703 16.69647 16.68923 16.67863 16.66492 16.64714 16.63265 16.61958 16.60838 16.59401 16.57738 16.56284 16.54471 16.52174 16.4919 16.4569 16.41321 16.36225 16.29966 16.22634 16.14373
0 0 0 0 0 0 0 0 19.8183 18.68085 17.23734 16.47836 15.50759 15.51921 15.53669 15.55853 15.56497 15.5657 15.56394 15.57196 15.57461 15.57565 15.59162 15.61165 15.63034 15.66054 15.68834 15.71377 15.72413 15.72703 15.73494 15.73852 15.74039 15.75215 15.78924 15.83453 15.8764 15.91372 15.95087 16.35617 16.76787 17.20701 17.65734 18.09445 18.89972 0 0 0 0 0 0 18.68298 17.8864 17.8889 16.24204 16.26397 16.29829 16.3271 16.35397 16.37096 16.37761 16.37328 16.36863 16.3616 16.35196 16.34778 16.33882 16.33742 16.34288 16.35616 16.37409 16.39739 16.42717 16.46093 16.49609 16.53774 16.57876 16.61809 16.64592 16.67125 16.68723 16.69857 16.70538 16.71008 16.71597 16.72176 16.72394 16.72448 16.72158 16.71669 16.71096 16.69983 16.68338 16.66893 16.65511 16.64118 16.63142 16.61721 16.59913 16.58544 16.5684 16.54187 16.50708 16.46836 16.42308 16.3684 16.30468 16.23336 16.15161
0 0 0 0 0 0 0 0 0 18.67466 17.2313 16.47148 15.48895 15.49235 15.50905 15.53305 15.53856 15.5386 15.54817 15.55828 15.5684 15.57106 15.58807 15.61791 15.64918 15.68843 15.72563 15.77175 15.79246 15.80738 15.81126 15.81184 15.81102 15.81664 15.84273 15.88132 15.91215 15.94013 15.97389 15.98969 16.00671 16.02789 16.0491 16.44349 17.29353 18.14098 18.95929 19.31529 0 0 18.98345 17.86112 17.02481 16.22829 16.25587 16.29075 16.33448 16.36295 16.38304 16.39498 16.40234 16.40119 16.39713 16.39103 16.38779 16.38066 16.37767 16.37426 16.37697 16.39116 16.41274 16.43301 16.45896 16.49163 16.52328 16.55926 16.60036 16.63456 16.66607 16.69344 16.70905 16.72176 16.72723 16.73362 16.73797 16.74182 16.74635 16.74977 16.74815 16.7462 16.73917 16.72912 16.71333 16.69726 16.68202 16.66445 16.65311 16.63946 16.622 16.60096 16.58278 16.54973 16.51105 16.47106 16.42301 16.37067 16.30562 16.23141 16.15265
0 0 0 0 0 0 0 0 0 19.66436 18.00622 16.85709 15.78642 15.48579 15.48688 15.50761 15.51026 15.51474 15.53405 15.54913 15.56572 15.57014 15.59288 15.63225 15.67297 15.72126 15.78583 15.84394 15.86699 15.88031 15.88163 15.87802 15.87412 15.87266 15.88725 15.91883 15.94624 15.96263 15.98313 15.99507 16.00887 16.02824 16.05448 16.07589 16.47317 16.89731 17.3313 17.75409 18.96806 17.82024 16.56796 16.19725 16.21901 16.25432 16.28868 16.3251 16.36248 16.3866 16.40402 16.41409 16.41789 16.42056 16.41632 16.41028 16.40489 16.4055 16.40644 16.40442 16.41081 16.42841 16.44785 16.47124 16.49307 16.52036 16.55631 16.59127 16.62368 16.65953 16.69075 16.71586 16.73229 16.7443 16.75032 16.7551 16.75794 16.76107 16.76447 16.76713 16.76772 16.76406 16.76234 16.75446 16.73566 16.7212 16.70467 16.68997 16.68058 16.66252 16.64053 16.62099 16.59561 16.56513 16.52117 16.47561 16.4278 16.37064 16.30131 16.22826 16.14806
0 0 0 0 0 0 0 0 0 19.80516 18.98414 17.24812 16.12127 15.48342 15.4844 15.49733 15.49214 15.50322 15.52229 15.5416 15.55348 15.56585 15.60128 15.64063 15.70143 15.7739 15.85521 15.91661 15.95103 15.95879 15.95346 15.94743 15.9385 15.93097 15.93587 15.95275 15.97834 15.99548 16.00425 16.00854 16.01663 16.03341 16.05638 16.08387 16.10065 16.11648 16.52203 0 17.81669 16.58322 16.20865 16.22844 16.25963 16.29568 16.33537 16.36731 16.39413 16.4133 16.42641 16.43207 16.43349 16.43648 16.43397 16.43512 16.43543 16.43588 16.43445 16.43294 16.43663 16.45377 16.46806 16.48909 16.51241 16.54343 16.57681 16.61005 16.64818 16.68687 16.71125 16.73212 16.74834 16.75858 16.76436 16.77009 16.77536 16.78373 16.78448 16.78634 16.788 16.78596 16.78247 16.77139 16.75568 16.73758 16.72317 16.70743 16.69445 16.67728 16.65352 16.63015 16.603 16.56599 16.52347 16.47976 16.42834 16.36738 16.29711 16.22171 16.13454
0 0 0 0 0 0 0 0 0 0 19.49969 18.03341 16.46543 15.77034 15.49204 15.4929 15.465 15.47311 15.49042 15.50353 15.52899 15.55162 15.59598 15.6493 15.71702 15.79401 15.8822 15.94969 0 0 0 16.18376 15.97191 15.97055 15.97257 15.98603 16.00133 16.02344 16.03315 16.03513 16.04022 16.0519 16.06848 16.09013 16.11479 16.13793 16.16973 16.58719 16.20431 16.22146 16.24845 16.27851 16.30888 16.34357 16.36992 16.39499 16.415 16.43019 16.43972 16.45029 16.45873 16.46207 16.46184 16.46392 16.46651 16.46355 16.46477 16.4633 16.46756 16.48001 16.49643 16.51601 16.53954 16.56627 16.59526 16.63104 16.6651 16.69916 16.72339 16.74257 16.75353 16.76173 16.77114 16.78021 16.78654 16.79184 16.79524 16.79828 16.8 16.79923 16.79632 16.78832 16.77148 16.75531 16.74068 16.72722 16.71461 16.69555 16.671 16.64402 16.61169 16.57215 16.52917 16.47802 16.42695 16.36214 16.28957 16.21159 16.11948
0 0 0 0 0 0 0 0 0 0 0 19.36623 17.99999 16.44399 15.75854 15.46699 15.41931 15.43035 15.44617 15.45953 15.49788 15.53593 15.59496 15.6465 15.71123 15.79792 16.23841 16.66257 0 0 0 16.81421 17.10749 15.97629 15.98998 15.99549 16.01752 16.03575 16.05094 16.05767 16.05966 16.0675 16.08331 16.10965 16.13542 16.1651 16.19115 16.21823 16.23824 16.25635 16.28759 16.31827 16.34911 16.37768 16.39888 16.41762 16.43631 16.44564 16.45692 16.46595 16.47457 16.47631 16.48058 16.48232 16.48395 16.48306 16.48548 16.48668 16.49298 16.50566 16.52088 16.5428 16.56514 16.58835 16.61758 16.64633 16.67782 16.70596 16.73199 16.74866 16.75978 16.77303 16.77997 16.78873 16.79529 16.79901 16.80114 16.80481 16.80901 16.80928 16.80341 16.79349 16.77931 16.76297 16.7527 16.74048 16.73053 16.71232 16.68343 16.65124 16.61768 16.58243 16.53471 16.48652 16.43037 16.36398 16.28815 16.20838 16.11852
0 0 0 0 0 0 0 0 0 0 0 0 19.49003 18.2784 16.3701 15.70602 15.37653 15.38704 15.40747 15.43631 15.46754 15.51362 15.58081 15.63784 15.6948 15.78443 16.57496 0 0 18.16952 18.30009 16.72224 15.96933 15.97542 15.9789 16.00531 16.0271 16.04582 16.06249 16.07465 16.07613 16.08581 16.1023 16.12507 16.1574 16.19168 16.21618 16.23744 16.25705 16.2843 16.31769 16.34773 16.37975 16.4079 16.42805 16.44532 16.46372 16.47406 16.4827 16.49038 16.4978 16.50042 16.50125 16.49994 16.49978 16.49938 16.50448 16.50808 16.51495 16.52719 16.54373 16.5638 16.58262 16.60473 16.63033 16.66293 16.69073 16.71711 16.73584 16.75087 16.7636 16.77553 16.78177 16.78943 16.79788 16.80523 16.81053 16.81414 16.81594 16.81423 16.80981 16.8019 16.79061 16.77891 16.76769 16.75335 16.73811 16.71968 16.69027 16.65532 16.62578 16.58354 16.53672 16.49149 16.43684 16.37196 16.29877 16.22255 16.13952
0 0 0 0 0 0 0 0 0 0 0 0 0 0 0 16.27152 15.61525 15.34229 15.37335 15.40044 15.44767 15.49406 15.56074 15.61821 15.66916 16.08867 16.17221 16.59059 16.99681 19.10277 18.27841 16.69194 15.96091 15.9664 15.977 16.00999 16.03637 16.05762 16.07587 16.08952 16.09825 16.1098 16.12421 16.14506 16.17085 16.20188 16.22548 16.24921 16.27551 16.30538 16.33815 16.3701 16.39883 16.42647 16.45026 16.46939 16.48037 16.49452 16.50245 16.50632 16.51047 16.51257 16.51262 16.51392 16.5192 16.52208 16.52743 16.53277 16.54029 16.5563 16.56973 16.58697 16.60329 16.62555 16.65473 16.68479 16.70799 16.72669 16.74177 16.75558 16.76802 16.77904 16.78519 16.79521 16.80537 16.81416 16.81788 16.81911 16.81846 16.81452 16.81399 16.81459 16.80159 16.7912 16.78245 16.76833 16.75141 16.72494 16.7018 16.66937 16.6335 16.594 16.54574 16.50021 16.45123 16.39102 16.32321 16.24792 16.17041
0 0 0 0 0 0 0 0 0 0 0 0 0 0 0 16.90893 16.2268 15.30087 15.34582 15.37697 15.43172 15.48689 15.54696 15.60283 15.64769 15.70486 16.49658 16.56536 16.99197 0 18.30425 15.94012 15.95342 15.95983 15.99532 16.01125 16.03993 16.06692 16.08825 16.10317 16.11528 16.12813 16.14859 16.16818 16.18645 16.21451 16.24068 16.26224 16.29295 16.32653 16.3642 16.39503 16.42454 16.45162 16.47317 16.4873 16.49773 16.50953 16.51603 16.51743 16.52227 16.5176 16.51982 16.52582 16.53127 16.53632 16.54385 16.5517 16.56353 16.57509 16.59193 16.60878 16.6273 16.65167 16.67871 16.70975 16.72854 16.74496 16.75754 16.76709 16.7793 16.7907 16.79875 16.80695 16.81496 16.82537 16.82794 16.82501 16.82255 16.82052 16.82015 16.81636 16.81026 16.79771 16.78534 16.77197 16.75534 16.73355 16.70958 16.68298 16.65198 16.61341 16.57003 16.52896 16.48243 16.42534 16.3647 16.29605 16.22632
0 0 0 0 0 0 0 0 0 0 0 0 0 18.0561 17.69572 16.90377 16.21637 15.28984 15.34222 15.38669 15.43559 15.49043 15.54482 15.6015 15.6394 15.68777 16.82893 17.27713 17.75118 17.70106 18.68661 16.27878 15.93804 15.96165 15.99218 16.02012 16.05382 16.07887 16.09836 16.10947 16.12167 16.13681 16.16077 16.18675 16.21076 16.23163 16.25352 16.27963 16.31072 16.34294 16.37627 16.40808 16.43639 16.46367 16.48023 16.49566 16.51062 16.52265 16.52925 16.53446 16.53526 16.53694 16.53904 16.54331 16.54798 16.55224 16.55887 16.56804 16.58035 16.59382 16.60886 16.62395 16.64271 16.66729 16.69707 16.72227 16.74342 16.76113 16.77212 16.77948 16.79174 16.79972 16.8084 16.81477 16.82602 16.8345 16.83202 16.82971 16.82646 16.82336 16.82135 16.81992 16.81157 16.80419 16.79167 16.7789 16.76388 16.74513 16.7231 16.69764 16.66584 16.63038 16.58763 16.54897 16.50612 16.45724 16.40107 16.34138 16.2765
0 0 0 0 0 0 0 0 0 0 0 0 17.28734 16.91888 16.94126 16.59519 15.92869 15.32181 15.37958 15.42819 15.47284 15.52689 15.57443 15.62309 15.66803 15.71648 16.48195 16.53819 17.35667 18.18827 16.62848 15.90302 15.93689 15.97761 16.01276 16.04053 16.06909 16.09142 16.10537 16.12038 16.13638 16.15378 16.17198 16.19315 16.2204 16.2446 16.27161 16.29537 16.3249 16.35398 16.37877 16.40916 16.43511 16.46183 16.47963 16.49613 16.51325 16.52985 16.53705 16.54372 16.54572 16.55346 16.55262 16.5589 16.56309 16.56726 16.57535 16.58519 16.59691 16.61194 16.63255 16.64961 16.67157 16.69653 16.72205 16.74305 16.75922 16.77084 16.77783 16.78618 16.79347 16.80185 16.80937 16.81548 16.82284 16.82853 16.82875 16.82085 16.81815 16.81472 16.81217 16.81116 16.80603 16.80065 16.79155 16.78134 16.77219 16.75569 16.73381 16.70838 16.67857 16.64801 16.60966 16.57516 16.5358 16.48821 16.43398 16.37658 16.31601
0 0 0 0 0 0 0 0 18.86736 18.21437 17.20097 16.4908 16.52884 16.54558 16.25454 16.31584 16.01192 15.39175 15.44488 15.49086 15.53751 15.58681 15.63276 15.67402 15.71219 15.75299 15.79198 15.8178 15.84789 15.87274 15.89192 15.92237 15.95617 16.00036 16.02925 16.05173 16.07918 16.10276 16.12082 16.13162 16.14911 16.16765 16.18591 16.20641 16.23466 16.26305 16.29046 16.3117 16.33338 16.36213 16.38528 16.40874 16.43108 16.45717 16.48078 16.49709 16.51367 16.52795 16.53674 16.54667 16.55593 16.55817 16.56375 16.56347 16.5698 16.57734 16.58711 16.59653 16.61081 16.62861 16.64887 16.6765 16.69888 16.72345 16.74828 16.76343 16.77289 16.78382 16.7908 16.79401 16.7986 16.80829 16.81756 16.82138 16.82411 16.8249 16.8219 16.81622 16.80721 16.80356 16.80105 16.80017 16.7953 16.79031 16.78501 16.78143 16.77298 16.76041 16.74194 16.71984 16.69389 16.66875 16.63672 16.6042 16.56602 16.52418 16.47412 16.42329 16.3682
0 0 0 0 0 0 0 17.85374 17.87414 16.44745 16.12824 16.14092 16.17084 16.23718 16.31961 16.05097 15.42025 15.45633 15.50231 15.54513 15.60339 15.63515 15.67717 15.71454 15.75112 15.78611 15.82184 15.85046 15.8843 15.91101 15.93605 15.96376 15.99981 16.02736 16.04705 16.06695 16.09098 16.11587 16.1315 16.14218 16.15405 16.17361 16.19417 16.2109 16.24144 16.271 16.29629 16.31781 16.33393 16.34931 16.37017 16.39184 16.41596 16.44112 16.46824 16.48964 16.50454 16.51669 16.53471 16.5471 16.55719 16.56579 16.56965 16.57289 16.57864 16.58427 16.59714 16.6135 16.62708 16.64498 16.6667 16.69551 16.71768 16.73902 16.7602 16.77271 16.77895 16.78777 16.79156 16.79338 16.8002 16.80756 16.81317 16.8201 16.81953 16.81606 16.81234 16.81054 16.80336 16.7987 16.79333 16.79381 16.7918 16.78893 16.7862 16.78127 16.77715 16.7693 16.75488 16.73325 16.70964 16.68625 16.65713 16.62814 16.59587 16.55315 16.50428 16.45381 16.40275
0 0 0 0 0 0 18.3528 18.23732 16.43614 16.08763 16.07689 16.12417 16.20932 15.97047 15.72696 15.46245 15.47945 15.53111 15.57377 15.61998 15.64988 15.67817 15.72472 15.7532 15.78007 15.80316 15.84074 15.88745 15.92311 15.9459 15.96502 16.00091 16.02662 16.04869 16.06285 16.07595 16.10073 16.12508 16.14398 16.15483 16.16394 16.17476 16.1928 16.2162 16.24138 16.25882 16.27781 16.29807 16.31843 16.3387 16.3547 16.37655 16.40054 16.42506 16.44611 16.46944 16.48518 16.50476 16.52317 16.53821 16.55388 16.56494 16.57149 16.57896 16.58859 16.59966 16.61426 16.63203 16.64699 16.67015 16.68848 16.71348 16.73907 16.75969 16.77401 16.7836 16.78902 16.79198 16.79647 16.79522 16.79804 16.80248 16.80591 16.80462 16.80375 16.80277 16.79955 16.79804 16.79135 16.78692 16.78503 16.78585 16.78441 16.78827 16.78768 16.78795 16.78628 16.78044 16.76681 16.74869 16.73037 16.70902 16.68169 16.65697 16.62815 16.59107 16.54707 16.49393 16.44386
0 0 0 0 0 0 19.32308 17.498 16.41104 16.04873 15.75646 15.84952 15.62449 15.3988 15.45917 15.50874 15.55099 15.58486 15.62181 15.65885 15.69279 15.72563 15.7616 15.78259 15.81538 15.83312 15.86851 15.91449 15.94745 15.96538 15.98489 16.01313 16.0325 16.04697 16.05906 16.07537 16.09635 16.11419 16.13138 16.14331 16.15731 16.16795 16.19226 16.21746 16.23885 16.25369 16.26904 16.28641 16.30527 16.32556 16.34137 16.36002 16.38215 16.39947 16.42588 16.4457 16.46642 16.48952 16.50975 16.526 16.5406 16.55308 16.56301 16.57866 16.59608 16.60813 16.62764 16.64707 16.66592 16.69078 16.71069 16.73116 16.75355 16.77249 16.78767 16.79363 16.79881 16.79957 16.79727 16.79297 16.79481 16.79539 16.79509 16.7923 16.79029 16.79026 16.78871 16.78533 16.78244 16.78071 16.77837 16.77733 16.78022 16.7847 16.79113 16.79215 16.79085 16.78517 16.77277 16.7589 16.74156 16.7256 16.70632 16.68195 16.65231 16.62149 16.58945 16.54349 16.49739
0 0 0 0 0 19.37411 18.73557 17.46812 16.41935 16.09023 15.53455 15.30017 15.36719 15.43968 15.50381 15.55177 15.58751 15.62783 15.6703 15.70303 15.73736 15.761 15.80155 15.83237 15.85498 15.87244 15.89874 15.93965 15.96105 15.97851 15.99621 16.01049 16.03129 16.03841 16.05076 16.06788 16.08917 16.10115 16.11719 16.1329 16.14192 16.15637 16.17545 16.19549 16.21983 16.2356 16.25118 16.26993 16.28572 16.29979 16.31317 16.33493 16.34978 16.37269 16.39525 16.41567 16.43988 16.46065 16.48479 16.508 16.52983 16.54786 16.56489 16.58765 16.6033 16.62478 16.64482 16.66358 16.68414 16.70284 16.72225 16.74438 16.76459 16.77967 16.79171 16.79833 16.80279 16.79626 16.79035 16.78496 16.78304 16.78375 16.78 16.7782 16.77476 16.7734 16.7677 16.76818 16.76833 16.77231 16.77078 16.76928 16.77203 16.77582 16.78176 16.78827 16.78906 16.78476 16.77381 16.76148 16.74863 16.7352 16.71636 16.6976 16.67212 16.64509 16.61273 16.57589 16.53512
0 0 0 0 18.30194 17.80039 16.36173 16.06434 15.77834 15.24288 15.30331 15.36078 15.43042 15.49497 15.5478 15.59302 15.62893 15.66515 15.70582 15.73634 15.7599 15.79831 15.83203 15.8561 15.8869 15.91126 15.93571 15.95891 15.97143 15.98994 15.99928 16.01204 16.02257 16.02741 16.03493 16.05535 16.0691 16.09401 16.10467 16.10751 16.12445 16.14054 16.15416 16.16869 16.19126 16.20973 16.22439 16.23624 16.25016 16.26741 16.27991 16.30494 16.32483 16.34655 16.37395 16.39815 16.41955 16.43846 16.46292 16.48901 16.51496 16.54249 16.56163 16.59039 16.61358 16.63658 16.6601 16.68227 16.70503 16.72587 16.74101 16.75859 16.77369 16.78617 16.79598 16.80198 16.80125 16.79208 16.78373 16.77694 16.77389 16.76898 16.76696 16.76374 16.75958 16.75542 16.75139 16.75179 16.75135 16.75319 16.75312 16.75768 16.75999 16.76335 16.76995 16.77572 16.77921 16.77865 16.77307 16.76418 16.75532 16.74495 16.73336 16.71905 16.69824 16.6746 16.64923 16.61829 16.58445
0 0 0 0 19.35903 16.67423 15.17522 15.19857 15.25461 15.30508 15.3791 15.45289 15.50245 15.55333 15.60811 15.65736 15.69116 15.70926 15.74111 15.7677 15.79518 15.82882 15.85965 15.89019 15.90583 15.92527 15.9488 15.96692 15.98047 15.99086 15.99635 16.00882 16.01684 16.01393 16.02495 16.0412 16.0642 16.08013 16.07911 16.09272 16.10678 16.11483 16.11818 16.13415 16.15786 16.17774 16.19355 16.2049 16.21879 16.22476 16.23855 16.2642 16.29678 16.32741 16.34761 16.37064 16.39754 16.41764 16.44273 16.47007 16.4974 16.52778 16.55794 16.58564 16.61075 16.63769 16.66484 16.68806 16.71132 16.73563 16.7523 16.76454 16.77455 16.78093 16.78761 16.79065 16.79087 16.78113 16.77386 16.76979 16.76401 16.75812 16.75489 16.75471 16.74993 16.7421 16.74084 16.74143 16.74243 16.7461 16.74692 16.74928 16.7493 16.75534 16.75918 16.7655 16.76866 16.76763 16.76556 16.76231 16.7584 16.75189 16.74768 16.73733 16.72633 16.71116 16.68693 16.66485 16.63656
0 0 0 18.24291 17.77518 16.30078 15.15816 15.22344 15.29207 15.37729 15.45437 15.51423 15.56543 15.61411 15.66089 15.69864 15.72182 15.74174 15.76926 15.80524 15.84008 15.86796 15.88411 15.90428 15.91785 15.93392 15.953 15.97148 15.98373 15.98805 15.99688 16.0076 16.00872 16.00621 16.01377 16.03135 16.0396 16.05213 16.05649 16.06891 16.07509 16.0856 16.1002 16.11449 16.1348 16.15187 16.16602 16.1765 16.18159 16.18867 16.20221 16.23078 16.26474 16.29204 16.31881 16.34504 16.37141 16.39668 16.42465 16.45383 16.48147 16.5142 16.54661 16.57292 16.6009 16.62576 16.65722 16.68637 16.71677 16.73652 16.75241 16.76173 16.77143 16.77501 16.78024 16.77762 16.77622 16.77352 16.7644 16.75808 16.75199 16.74753 16.74493 16.74407 16.74162 16.74081 16.73852 16.74123 16.74171 16.74265 16.74925 16.7545 16.75156 16.75499 16.75891 16.76469 16.76944 16.76781 16.76893 16.76791 16.76495 16.76174 16.75742 16.75052 16.74715 16.73626 16.71352 16.69347 16.67187
0 0 0 18.12664 17.71078 16.24628 15.68783 15.24227 15.36059 15.45179 15.51141 15.57008 15.62215 15.6578 15.69559 15.72029 15.75027 15.76554 15.78966 15.82392 15.85348 15.87983 15.90108 15.91316 15.93118 15.94304 15.95344 15.962 15.97312 15.9815 15.99066 15.99319 15.99529 15.99324 15.99909 16.00545 16.01205 16.02279 16.03327 16.04049 16.0522 16.06511 16.0742 16.08637 16.10951 16.12546 16.13512 16.14811 16.15644 16.16499 16.17466 16.2012 16.23474 16.26417 16.28917 16.31497 16.34398 16.37562 16.40381 16.43278 16.46686 16.50247 16.53302 16.56195 16.59027 16.61925 16.64721 16.68093 16.70716 16.73353 16.74732 16.76165 16.76729 16.76822 16.76866 16.7652 16.7612 16.75774 16.75452 16.74653 16.73981 16.73588 16.73599 16.73491 16.73127 16.73195 16.73542 16.73981 16.74155 16.74795 16.75474 16.75733 16.76105 16.76316 16.76753 16.77236 16.77968 16.7839 16.78797 16.78725 16.78846 16.78643 16.78376 16.7813 16.77693 16.76844 16.75188 16.72593 16.70505
0 0 0 19.10041 17.95699 16.24926 15.40751 15.22894 15.3605 15.47819 15.57437 15.61655 15.65873 15.692 15.71967 15.74249 15.76882 15.78841 15.81124 15.84203 15.86955 15.8877 15.89506 15.90115 15.91404 15.92172 15.93477 15.94497 15.95256 15.96304 15.96225 15.97089 15.98641 15.98656 15.98224 15.98214 15.98732 15.99556 16.00829 16.0205 16.02426 16.03099 16.04033 16.05665 16.07616 16.09431 16.1039 16.11588 16.1261 16.12931 16.1428 16.17163 16.20644 16.23931 16.26403 16.29198 16.32511 16.35532 16.38342 16.41405 16.45382 16.48825 16.5248 16.55309 16.57959 16.60942 16.63905 16.67102 16.70093 16.72578 16.74317 16.75184 16.7591 16.76064 16.75778 16.75221 16.74889 16.74644 16.74388 16.73648 16.7318 16.73077 16.7306 16.73223 16.73612 16.73863 16.7437 16.74733 16.75268 16.75667 16.76857 16.77571 16.77931 16.78313 16.78677 16.79224 16.79982 16.8049 16.81104 16.81445 16.81663 16.81576 16.81473 16.81254 16.80693 16.80041 16.79027 16.7725 16.74952
0 0 0 19.16468 16.87265 15.64739 15.1629 15.27735 15.4136 15.5203 15.59989 15.63882 15.67731 15.69759 15.73064 15.75818 15.77871 15.79843 15.81947 15.83841 15.85731 15.87292 15.87544 15.87797 15.88381 15.88803 15.8977 15.91743 15.93327 15.93433 15.94139 15.95079 15.96794 15.97805 15.97438 15.97132 15.9733 15.98197 15.99165 16.00215 16.00784 16.01195 16.02305 16.03128 16.04617 16.06526 16.08096 16.09645 16.09821 16.10317 16.13003 16.16176 16.19085 16.21878 16.24256 16.27186 16.3053 16.33852 16.36782 16.39452 16.43159 16.46846 16.50335 16.53681 16.5704 16.60058 16.6296 16.65787 16.68394 16.70919 16.73035 16.74241 16.74888 16.74683 16.74407 16.73969 16.73759 16.73251 16.73053 16.72391 16.72465 16.72808 16.73215 16.74362 16.75169 16.7618 16.76838 16.77924 16.78758 16.79636 16.81112 16.82157 16.8278 16.83304 16.83913 16.84297 16.84953 16.85782 16.86329 16.87155 16.87371 16.86959 16.8655 16.86415 16.85694 16.85054 16.84125 16.82575 16.80392
15.22727 15.22808 16.35639 16.9173 15.32064 15.13089 15.2294 15.36299 15.47548 15.56997 15.62481 15.66029 15.6909 15.70912 15.73103 15.75256 15.76737 15.79078 15.80602 15.81646 15.82983 15.8349 15.84873 15.85249 15.85636 15.86011 15.86842 15.88576 15.9083 15.92339 15.93457 15.94285 15.948 15.95474 15.96035 15.96316 15.96681 15.96894 15.98233 15.99088 15.99675 16.00303 16.00752 16.01537 16.02607 16.04584 16.05942 16.07262 16.08192 16.10072 16.12676 16.15484 16.18057 16.20986 16.2394 16.26856 16.29475 16.32689 16.35647 16.38564 16.41896 16.44829 16.48908 16.52469 16.55751 16.5881 16.61537 16.64704 16.67354 16.69414 16.71075 16.7229 16.7318 16.73409 16.73228 16.72879 16.72708 16.72502 16.72266 16.71535 16.71789 16.72453 16.73822 16.75085 16.76324 16.77626 16.79043 16.80582 16.81742 16.83218 16.84953 16.8641 16.87352 16.88106 16.8877 16.89495 16.90387 16.91252 16.92085 16.92943 16.93251 16.92916 16.92772 16.92385 16.9205 16.91148 16.89567 16.88115 16.86841
15.23251 15.22203 15.22969 15.24824 15.22521 15.29296 15.38691 15.4864 15.56108 15.61986 15.66168 15.68443 15.69657 15.70677 15.72354 15.73961 15.75388 15.76387 15.77502 15.7898 15.79425 15.80947 15.81884 15.81828 15.82146 15.82445 15.83421 15.85297 15.87507 15.89103 15.90779 15.92556 15.93535 15.94886 15.95663 15.96378 15.96684 15.96888 15.97284 15.98408 15.98821 15.99433 16.00358 16.01257 16.01975 16.03258 16.04504 16.05605 16.07299 16.09664 16.12309 16.14939 16.18036 16.20838 16.24051 16.26797 16.29414 16.33014 16.36175 16.38459 16.40618 16.44794 16.48338 16.51465 16.544 16.57752 16.60889 16.63876 16.65809 16.67857 16.6949 16.71071 16.72033 16.72947 16.72773 16.72863 16.7261 16.72498 16.71888 16.71348 16.72323 16.73481 16.75012 16.76645 16.78359 16.7977 16.81757 16.83481 16.85525 16.87574 16.89711 16.90899 16.91519 16.92266 16.93007 16.93754 16.94662 16.95412 16.96206 16.97266 16.97784 16.98091 16.98252 16.98256 16.97676 16.9698 16.95601 16.93873 16.9272
15.36 15.37417 15.39937 15.42824 15.41926 15.47045 15.52369 15.57989 15.61919 15.66524 15.68669 15.69083 15.6961 15.71601 15.72557 15.74068 15.76073 15.76851 15.76346 15.76068 15.76108 15.78051 15.7796 15.78195 15.78322 15.79068 15.80408 15.82561 15.84312 15.86226 15.88346 15.90404 15.92312 15.94237 15.94756 15.95941 15.96696 15.97264 15.97034 15.98127 15.99539 15.99998 16.00377 16.01397 16.01955 16.02845 16.03853 16.0525 16.07421 16.09734 16.12699 16.16483 16.19463 16.22704 16.24733 16.27568 16.30655 16.34613 16.37758 16.3919 16.41405 16.4402 16.47504 16.50891 16.54116 16.56843 16.60265 16.63537 16.65875 16.67748 16.68955 16.70286 16.71296 16.72124 16.72732 16.72003 16.71704 16.71872 16.71395 16.71134 16.72304 16.74056 16.76296 16.78634 16.80999 16.83434 16.85754 16.88122 16.90727 16.93224 16.95646 16.96919 16.97464 16.97887 16.98374 16.98997 17.00079 17.01276 17.0236 17.03259 17.03825 17.04072 17.03998 17.03978 17.03356 17.0274 17.01325 16.9995 16.98935
15.4337 15.46373 15.502 15.53245 15.54918 15.57027 15.59864 15.62512 15.64748 15.66977 15.67927 15.68476 15.68663 15.69918 15.71415 15.72014 15.72435 15.7223 15.72746 15.73398 15.74363 15.73907 15.7295 15.73368 15.74464 15.76373 15.76821 15.78904 15.811 15.84442 15.8703 15.89745 15.92104 15.94384 15.95963 15.97146 15.98059 15.98309 15.98523 15.98805 15.99703 16.01248 16.01537 16.01516 16.02495 16.03821 16.04651 16.06865 16.09443 16.12241 16.1555 16.19033 16.2221 16.25898 16.27298 16.29478 16.32813 16.35769 16.37801 16.41398 16.43168 16.45927 16.48541 16.51113 16.54787 16.57765 16.60944 16.64254 16.6637 16.67995 16.69021 16.70096 16.71069 16.7253 16.72933 16.72396 16.72233 16.72149 16.72072 16.72395 16.73524 16.75245 16.77602 16.8048 16.837 16.87077 16.89685 16.93147 16.96142 16.99213 17.01775 17.03335 17.04188 17.04434 17.0486 17.05959 17.07058 17.0898 17.10657 17.12508 17.1393 17.14126 17.13568 17.127 17.11618 17.10929 17.10105 17.0896 17.07862
15.51609 15.53632 15.549 15.55913 15.57067 15.58457 15.60699 15.62899 15.64134 15.65037 15.66157 15.66297 15.66502 15.67425 15.68536 15.68729 15.69384 15.70557 15.7162 15.71444 15.72013 15.72125 15.71671 15.73118 15.74199 15.77057 15.77053 15.77921 15.80128 15.83704 15.87373 15.90449 15.92981 15.95416 15.97282 15.98705 15.995 16.00812 16.01654 16.02234 16.02023 16.02521 16.03338 16.04052 16.05288 16.06688 16.08382 16.10599 16.13096 16.15721 16.18977 16.22458 16.26396 16.28748 16.30341 16.32357 16.36516 16.38729 16.42281 16.45072 16.47978 16.50584 16.52424 16.55586 16.59354 16.62817 16.6531 16.67124 16.68801 16.70369 16.70884 16.72208 16.73128 16.73758 16.73124 16.73529 16.73167 16.72924 16.73236 16.73643 16.75805 16.77512 16.80368 16.84577 16.88525 16.9157 16.94499 16.97516 17.01926 17.05986 17.08162 17.09272 17.09468 17.10003 17.10895 17.11761 17.13085 17.14474 17.16635 17.19321 17.21828 17.22633 17.22287 17.20694 17.19261 17.18166 17.17519 17.16916 17.16303
15.53355 15.53786 15.54875 15.55674 15.57088 15.58478 15.59833 15.612 15.61711 15.6284 15.63902 15.64242 15.63779 15.64613 15.64666 15.65178 15.66988 15.68542 15.68158 15.70134 15.6964 15.71877 15.71591 15.74293 15.7521 15.77715 15.78835 15.79431 15.82387 15.85882 15.89826 15.93035 15.95086 15.97181 15.99785 16.01018 16.02031 16.03108 16.0401 16.05131 16.05135 16.055 16.05785 16.06364 16.09718 16.11438 16.13749 16.17037 16.19398 16.22488 16.25043 16.27985 16.30476 16.32755 16.35083 16.37087 16.42303 16.45383 16.48096 16.50677 16.54456 16.56328 16.59187 16.6088 16.64209 16.66744 16.68635 16.70647 16.71836 16.7273 16.73923 16.74174 16.74966 16.75323 16.74365 16.74649 16.74441 16.74441 16.74906 16.75806 16.80025 16.82028 16.8449 16.88444 16.92961 16.96681 17.00516 17.04655 17.08794 17.1227 17.14533 17.1602 17.1658 17.17 17.18173 17.18429 17.1933 17.20489 17.22569 17.25224 17.27207 17.28122 17.27935 17.2765 17.26897 17.25704 17.2502 17.24253 17.23431
15.53326 15.5395 15.54705 15.54868 15.55706 15.56774 15.58375 15.59561 15.60513 15.61649 15.63249 15.62407 15.61993 15.62278 15.62186 15.62808 15.64363 15.6532 15.66237 15.67271 15.68387 15.70471 15.7327 15.75769 15.779 15.80123 15.81541 15.83412 15.86741 15.9058 15.93489 15.95267 15.97582 16.00341 16.02459 16.04126 16.05251 16.0631 16.07492 16.08284 16.09015 16.09508 16.10441 16.12851 16.1514 16.17452 16.20389 16.22983 16.26185 16.27908 16.31199 16.33442 16.36682 16.40276 16.42569 16.44755 16.48418 16.51404 16.55357 16.58159 16.60751 16.63009 16.66046 16.68398 16.71381 16.72595 16.73964 16.7505 16.76394 16.76473 16.77238 16.78141 16.78634 16.78614 16.77725 16.77463 16.77456 16.77687 16.78764 16.80407 16.84029 16.86106 16.89207 16.92697 16.96542 17.00689 17.04864 17.08368 0 0 17.17538 17.2137 17.22081 17.22804 17.24212 17.24311 17.2508 17.26135 17.26516 0 0 17.29005 17.32757 17.32487 17.32238 17.32224 17.32557 17.32031 17.30785
