ncols        109
nrows        82
xllcorner    -1.041666666667
yllcorner    37.041665395101
cellsize     0.083333333333
NODATA_value -9999
0.0 0 0 0 0 0 0 0 0 0 0 0 0 0 0 0 0 0 0 0 0 0 0 0 0 0 0 0 0 0 0 0 0 0 0 0 0 0 0 0 0 0 0 0 0 0 0 0 0 0 0 0 0 0 0 0 0 0 0 0 0 0 0 0 0 0 0 0 0 0 0 0 0 0 0 0 0 0 0 0 0 0 0 0 0 0 0 0 0 0 0 0 0 0 0 0 0 0 0 0 0 0 0 0 0 18.035 16.6866 15.22914 15.22128
0 0 0 0 0 0 0 0 0 0 0 0 0 0 0 0 0 0 0 0 0 0 0 0 0 0 0 0 0 0 0 0 0 0 0 0 0 0 0 0 0 0 0 0 0 0 0 0 0 0 0 0 0 0 0 0 0 0 0 0 0 0 0 0 0 0 0 0 0 0 0 0 0 0 0 0 0 0 0 0 0 0 0 0 0 0 0 0 0 0 0 0 0 0 0 0 0 0 0 0 0 15.37567 15.39451 15.16817 15.18096 15.18913 15.18918 15.17534 15.14005
0 0 0 0 0 0 0 0 0 0 0 0 0 0 0 0 0 0 0 0 0 0 0 0 0 0 0 0 0 0 0 0 0 0 0 0 0 0 0 0 0 0 0 0 0 0 0 0 0 0 0 0 0 0 0 0 0 0 0 0 0 0 0 0 0 0 0 0 0 0 0 0 0 0 0 0 0 0 0 0 0 0 0 0 0 0 0 0 0 0 0 0 0 0 0 0 0 0 15.16637 15.16313 15.1526 15.13518 15.10738 15.0907 15.08092 15.0617 15.03935 15.01559 14.99067
0 0 0 0 0 0 0 0 0 0 0 0 0 0 0 0 0 0 0 0 0 0 0 0 0 0 0 0 0 0 0 0 0 0 0 0 0 0 0 0 0 0 0 0 0 0 0 0 0 0 0 0 0 0 0 0 0 0 0 0 0 0 0 0 0 0 0 0 0 0 0 0 0 0 0 0 0 0 0 0 0 0 0 0 0 0 0 0 0 0 0 0 0 0 0 0 0 16.95857 15.13962 15.11257 15.0704 15.03074 14.99412 14.97228 14.94948 14.93111 14.9073 14.88787 14.86733
0 0 0 0 0 0 0 0 0 0 0 0 0 0 0 0 0 0 0 0 0 0 0 0 0 0 0 0 0 0 0 0 0 0 0 0 0 0 0 0 0 0 0 0 0 0 0 0 0 0 0 0 0 0 0 0 0 0 16.59208 16.21064 15.90412 16.03049 0 0 0 0 0 0 0 0 0 0 0 0 0 0 0 0 0 0 0 0 0 0 0 0 0 0 0 0 0 0 0 0 0 15.64297 15.15501 15.13579 15.08273 15.03588 14.98772 14.92846 14.87691 14.83074 14.80357 14.77972 14.76163 14.75317 14.73991
0 0 0 0 0 0 0 0 0 0 0 0 0 0 0 0 0 0 0 0 0 0 0 0 0 0 0 0 0 0 0 0 0 0 0 0 0 0 0 0 0 0 0 0 0 0 0 0 0 0 0 0 0 0 0 0 16.11421 16.1425 15.84029 15.60418 15.50051 15.48248 15.57357 15.78589 15.99174 16.08229 16.06429 0 0 0 0 16.36247 0 0 0 0 0 0 0 0 0 0 0 0 0 0 0 0 0 0 0 0 0 16.30805 15.11813 15.13962 15.10387 15.04329 14.98346 14.91716 14.85529 14.79833 14.75089 14.71246 14.69532 14.68325 14.6772 14.66757 14.66284
0 0 0 0 0 0 0 0 0 0 0 0 0 0 0 0 0 0 0 0 0 0 0 0 0 0 0 0 0 0 0 0 0 0 0 0 0 0 0 0 0 0 0 0 0 0 0 0 0 0 0 0 0 0 0 16.24871 15.84325 15.50582 15.28213 14.99122 15.04246 15.0616 15.24314 15.38309 15.52151 15.61533 15.68954 15.87363 16.07906 16.04696 15.99295 15.73898 15.50011 15.54325 15.7171 15.45974 15.49027 0 0 0 0 0 0 0 0 0 0 0 0 0 0 0 15.52052 15.13707 15.11551 15.07666 15.02029 14.95807 14.89194 14.82071 14.75478 14.69345 14.64589 14.6068 14.6037 14.60535 14.60681 14.61091 14.61869
0 0 0 0 0 0 0 0 0 0 0 0 0 0 0 0 0 0 0 0 0 0 0 0 0 0 0 0 0 0 0 0 0 0 0 0 0 0 0 0 0 0 0 0 0 0 0 0 0 0 0 15.9054 16.07221 16.21664 15.95758 15.52403 15.26958 14.98 14.84829 14.91487 14.95302 14.9662 14.96409 15.16245 15.1548 15.31733 15.27075 15.25056 15.27699 15.18012 15.06723 15.09151 14.91864 15.1134 15.1499 15.36838 0 0 0 0 0 0 0 0 0 0 0 0 0 0 0 0 15.11027 15.11643 15.05802 14.98579 14.91465 14.83563 14.76541 14.69987 14.64877 14.60606 14.57983 14.56674 14.56906 14.57257 14.57975 14.58771 14.59998
0 0 0 0 0 0 0 0 0 0 0 0 0 0 0 0 0 0 0 0 0 0 0 0 0 0 0 0 0 0 0 0 0 0 0 0 0 0 0 0 0 0 0 0 0 0 0 0 0 0 16.09764 15.95132 15.69266 15.61868 15.50346 15.18151 14.83392 14.89983 14.73668 14.7885 14.82406 14.84364 14.85101 15.03588 15.0162 15.20679 15.18806 15.18296 15.02063 14.87649 14.90555 14.9414 14.78268 14.98202 14.99755 15.25436 15.30375 15.14542 15.21161 15.65452 16.19117 17.07708 0 0 0 0 0 0 0 16.21081 15.56188 15.11651 15.11244 15.06889 14.97749 14.89894 14.81716 14.7468 14.67788 14.62033 14.58508 14.55815 14.5481 14.54844 14.55702 14.56993 14.57854 14.5875 14.60147
0 0 0 0 0 0 0 0 0 0 0 0 0 0 0 0 0 0 0 0 0 0 0 0 0 0 0 0 0 0 0 0 0 0 0 0 0 0 0 0 0 0 0 0 0 0 0 0 0 16.94737 15.80023 15.69164 15.61798 15.29349 15.10633 14.91634 14.96915 14.79553 14.83421 14.87554 14.90865 14.9319 14.94374 15.13987 15.13537 15.1224 15.1227 15.11398 15.11156 14.94026 14.964 14.81033 14.64662 14.65657 14.66916 14.70803 14.74772 14.81154 14.857 14.87999 15.32393 15.95804 0 15.81053 16.46511 17.01788 17.34457 17.07545 16.59108 15.08263 15.10928 15.10846 15.06181 14.97159 14.87435 14.79562 14.71615 14.66204 14.60662 14.57139 14.55169 14.54692 14.54422 14.55134 14.55975 14.57245 14.58496 14.60089 14.61635
0 0 0 0 0 0 0 0 0 0 0 0 0 0 0 0 0 0 0 0 0 0 0 0 0 0 0 0 0 0 0 0 0 0 0 0 0 0 0 0 0 0 0 0 0 0 0 0 0 16.63802 15.7529 15.45801 15.13966 14.98296 15.02571 14.8393 14.87784 14.91503 14.95043 14.98164 15.01207 15.02724 15.03137 15.0196 15.01985 14.83347 14.66664 14.81955 14.81456 14.81314 14.8181 14.64764 14.64718 14.65303 14.68936 14.71065 14.74805 14.77793 14.81535 14.85043 14.88323 14.91778 14.9564 14.99009 15.02477 15.04128 16.16935 16.40679 15.97951 15.04123 15.02439 14.98431 14.91887 14.84072 14.76871 14.711 14.65506 14.61268 14.57706 14.55887 14.5539 14.556 14.56281 14.57125 14.58463 14.59881 14.60769 14.62193 14.63807
0 0 0 0 0 0 0 0 0 0 0 0 0 0 0 0 0 0 0 0 0 0 0 0 0 0 0 0 0 0 0 0 0 0 0 0 0 0 0 0 0 0 0 0 0 0 0 0 0 16.36397 15.67666 15.35625 15.00067 15.07029 14.8996 14.95262 14.98772 15.02659 15.0588 15.08316 14.89549 14.90733 14.90763 14.89867 14.88542 14.69539 14.68656 14.67406 14.64698 14.63833 14.63752 14.63706 14.63509 14.64229 14.68236 14.68892 14.70025 14.71676 14.73541 14.76275 14.79308 14.83285 14.86577 14.89731 14.92637 14.95427 14.97242 14.98145 14.97696 14.95133 14.91475 14.8551 14.78377 14.7189 14.6649 14.62901 14.59734 14.57855 14.56799 14.56598 14.57117 14.57942 14.58529 14.59434 14.60783 14.61985 14.63198 14.64642 14.66421
0 0 0 0 0 0 0 0 0 0 0 0 0 0 0 0 0 0 0 0 0 0 0 0 0 0 0 0 0 0 0 0 0 0 0 0 0 0 0 0 0 0 0 0 0 0 0 0 0 16.2697 15.53003 15.19458 15.05181 14.90949 14.99032 15.0692 14.89147 14.92022 14.72955 14.73753 14.74259 14.74634 14.74322 14.7341 14.71752 14.70075 14.6851 14.66525 14.63759 14.61364 14.60843 14.59797 14.58623 14.58081 14.61066 14.60561 14.61299 14.62763 14.64595 14.6674 14.69373 14.7192 14.74929 14.77079 14.79 14.80936 14.81621 14.81024 14.80346 14.78592 14.75294 14.71472 14.66952 14.63717 14.60681 14.58385 14.5732 14.56855 14.56903 14.57699 14.58697 14.59947 14.6084 14.62047 14.63212 14.64453 14.66 14.66947 14.68401
0 0 0 0 0 0 0 0 0 0 0 0 0 0 0 0 0 0 0 0 0 0 0 0 0 0 0 0 0 0 0 0 0 0 0 0 0 0 0 0 0 0 0 0 0 0 0 0 0 16.12699 15.5636 15.21079 15.08673 14.95567 15.04163 14.89562 14.73655 14.75089 14.75434 14.755 14.75146 14.74388 14.73142 14.71708 14.69988 14.67963 14.66571 14.64795 14.62431 14.60211 14.586 14.56871 14.55277 14.53493 14.52302 14.50588 14.50338 14.51069 14.52529 14.53886 14.55821 14.57865 14.59705 14.62136 14.64538 14.66766 14.67888 14.67997 14.66989 14.65372 14.63405 14.6068 14.58528 14.56939 14.56157 14.55853 14.56834 14.57798 14.58716 14.593 14.60467 14.62058 14.6314 14.64528 14.65241 14.66828 14.68242 14.69567 14.70896
0 0 0 0 0 0 0 0 0 0 0 0 0 0 0 0 0 0 0 0 0 0 0 0 0 0 0 0 0 0 0 0 0 0 0 0 0 0 0 0 0 0 0 0 0 0 0 0 0 16.18604 15.36468 15.00413 15.13239 15.00842 15.08789 14.90947 14.74477 14.75341 14.75649 14.74556 14.73175 14.72363 14.71083 14.69204 14.67408 14.64797 14.62385 14.60187 14.57483 14.54673 14.52102 14.49443 14.47465 14.45988 14.44898 14.4455 14.44654 14.44917 14.45848 14.46434 14.47356 14.48058 14.49019 14.49569 14.51253 14.52482 14.53263 14.5372 14.54459 14.54308 14.53974 14.53774 14.53893 14.54381 14.54902 14.55885 14.57243 14.58571 14.60107 14.61362 14.62234 14.63757 14.65316 14.66504 14.67485 14.68263 14.69228 14.70806 14.72399
0 0 0 0 0 0 0 0 0 0 0 0 0 0 0 0 0 0 0 0 0 0 0 0 0 0 0 0 0 0 0 0 0 0 0 0 0 0 0 0 0 0 0 0 0 0 0 0 0 15.66737 15.45138 15.06046 14.96295 14.85712 14.91652 14.72567 14.75149 14.74993 14.73705 14.72094 14.70496 14.69089 14.67886 14.66217 14.63959 14.61872 14.59503 14.57182 14.54385 14.51277 14.479 14.44727 14.4221 14.40522 14.39623 14.39116 14.38808 14.38946 14.39038 14.39603 14.40464 14.4137 14.42603 14.4318 14.44261 14.45387 14.46131 14.46956 14.4765 14.4829 14.49505 14.50569 14.51651 14.5304 14.54483 14.56305 14.58077 14.59623 14.61133 14.6241 14.63578 14.65144 14.66497 14.68163 14.69343 14.70113 14.70891 14.72086 14.74118
0 0 0 0 0 0 0 0 0 0 0 0 0 0 0 0 0 0 0 0 0 0 0 0 0 0 0 0 0 0 0 0 0 0 0 0 0 0 0 0 0 0 0 0 0 0 0 0 0 0 15.21718 15.15813 15.048 14.72501 14.75359 14.75474 14.76171 14.74534 14.72633 14.71104 14.69267 14.6824 14.66575 14.64638 14.61957 14.59896 14.57914 14.55327 14.52873 14.5011 14.46665 14.43478 14.41036 14.39217 14.3799 14.37414 14.37038 14.36609 14.35976 14.36018 14.36672 14.36847 14.37149 14.37538 14.38629 14.39756 14.41251 14.42508 14.43838 14.45276 14.47071 14.4842 14.50126 14.52218 14.54698 14.56905 14.58563 14.60386 14.62495 14.64117 14.65542 14.66868 14.68131 14.69498 14.70365 14.713 14.72424 14.73628 14.75515
0 0 0 0 0 0 0 0 0 0 0 0 0 0 0 0 0 0 0 0 0 0 0 0 0 0 0 0 0 0 0 0 0 0 0 0 0 0 0 0 0 0 0 0 0 0 0 0 0 0 15.4221 14.99381 14.70681 14.76708 14.7804 14.77902 14.76021 14.73938 14.72078 14.70366 14.68845 14.67315 14.6624 14.64213 14.62215 14.60593 14.59153 14.56975 14.54255 14.51606 14.48269 14.4503 14.42576 14.40064 14.38486 14.37334 14.36438 14.35451 14.35232 14.35094 14.35049 14.35377 14.3592 14.36324 14.3699 14.3784 14.39168 14.40667 14.4166 14.43354 14.45106 14.47438 14.50044 14.52609 14.55401 14.57718 14.59546 14.61488 14.63361 14.64816 14.66722 14.68043 14.69454 14.7089 14.71936 14.73032 14.73989 14.75551 14.77299
0 0 0 0 0 0 0 0 0 0 0 0 0 0 0 0 0 0 0 0 0 0 0 0 0 0 0 0 0 0 0 0 0 0 0 0 0 0 0 0 0 0 0 0 0 0 0 0 0 0 0 0 14.74713 14.77722 14.78196 14.77894 14.76642 14.74179 14.72488 14.71232 14.69462 14.67877 14.6654 14.65264 14.64129 14.63594 14.62943 14.61638 14.58754 14.56497 14.5353 14.50134 14.46974 14.43783 14.40411 14.39494 14.381 14.36782 14.36363 14.3612 14.3592 14.35482 14.35837 14.36263 14.37287 14.38059 14.39163 14.40065 14.41406 14.42925 14.44873 14.47415 14.50422 14.53449 14.56558 14.59575 14.62206 14.63853 14.65711 14.6692 14.68312 14.69872 14.71133 14.7267 14.73583 14.74688 14.75512 14.76833 14.78493
0 0 0 0 0 0 0 0 0 0 0 0 0 0 0 0 0 0 0 0 0 0 0 0 0 0 0 0 0 0 0 0 0 0 0 0 0 0 0 0 0 0 0 0 0 0 0 0 0 0 17.16741 15.50585 15.02845 14.81224 14.79568 14.78049 14.76344 14.74547 14.72588 14.70317 14.68918 14.68977 14.68328 14.6716 14.66352 14.65957 14.64984 14.63148 14.6191 14.60466 14.57487 14.54234 14.50905 14.47708 14.45016 14.42126 14.39786 14.38757 14.3784 14.37162 14.36528 14.35921 14.36118 14.36576 14.37275 14.38515 14.39619 14.4077 14.42019 14.43752 14.46253 14.4922 14.5203 14.55699 14.58944 14.6177 14.64341 14.66136 14.67628 14.69017 14.7014 14.7141 14.7263 14.7406 14.75402 14.76141 14.76833 14.78524 14.80417
0 0 0 0 0 0 0 0 0 0 0 0 0 0 0 0 0 0 0 0 0 0 0 0 0 0 0 0 0 0 0 0 0 0 0 0 0 0 0 0 0 0 0 0 0 0 0 0 0 0 16.51721 15.54595 15.3039 14.83209 14.80183 14.77663 14.76694 14.73627 14.71725 14.70569 14.70649 14.70892 14.70728 14.7028 14.70013 14.68803 14.6796 14.67007 14.65328 14.63662 14.61708 14.58465 14.54257 14.50842 14.47401 14.44757 14.42615 14.41111 14.39787 14.39123 14.38628 14.38036 14.38089 14.3887 14.3945 14.40383 14.4166 14.42312 14.43339 14.45311 14.48361 14.51714 14.55312 14.58651 14.61954 14.64753 14.6685 14.68838 14.70197 14.71476 14.7192 14.72586 14.73697 14.75208 14.76261 14.77162 14.78393 14.79552 14.82175
0 0 0 0 0 0 0 0 0 0 0 0 0 0 0 0 0 0 0 0 0 0 0 0 0 0 0 0 0 0 0 0 0 0 0 0 0 0 0 0 0 0 0 0 0 0 0 0 0 0 0 15.60381 15.08796 14.84172 14.81603 14.78378 14.77393 14.7475 14.73209 14.73276 14.73122 14.73952 14.74268 14.74753 14.74552 14.74884 14.7417 14.73124 14.71966 14.70209 14.67412 14.63224 14.5886 14.543 14.50979 14.4799 14.45351 14.43318 14.41947 14.41077 14.40647 14.40311 14.40863 14.4125 14.42392 14.4336 14.44527 14.45252 14.47336 14.49605 14.52498 14.56083 14.59151 14.61957 14.6463 14.67215 14.6944 14.70936 14.72196 14.73133 14.74095 14.74499 14.75722 14.77446 14.77708 14.78831 14.80067 14.82323 14.84843
0 0 0 0 0 0 0 0 0 0 0 0 0 0 0 0 0 0 0 0 0 0 0 0 0 0 0 0 0 0 0 0 0 0 0 0 0 0 0 0 0 0 0 0 0 0 0 0 0 0 0 15.36418 14.8804 14.86192 14.83243 14.81179 14.79065 14.76515 14.75215 14.75289 14.76621 14.785 14.79507 14.79972 14.80146 14.80811 14.8056 14.7927 14.78438 14.76507 14.73036 14.68122 14.64121 14.5934 14.5516 14.52033 14.49338 14.47516 14.45436 14.44441 14.44193 14.44156 14.44235 14.45016 14.45433 14.46055 14.47376 14.49089 14.51308 14.54043 14.5713 14.60061 14.63001 14.65461 14.68171 14.70696 14.7248 14.74239 14.75292 14.75596 14.76029 14.76704 14.77287 14.78304 14.7928 14.80267 14.82123 14.84286 14.86312
0 0 0 0 0 0 0 0 0 0 0 0 0 0 0 0 0 0 0 0 0 0 0 0 0 0 0 0 0 0 0 0 0 0 0 0 0 0 0 0 0 0 0 0 0 0 0 0 0 0 0 14.93892 14.90377 14.87753 14.85087 14.83234 14.80473 14.78758 14.79211 14.7995 14.80537 14.82385 14.84323 14.84731 14.85174 14.86675 14.87637 14.85906 14.84158 14.82271 14.79368 14.74385 14.68996 14.63479 14.58852 14.5485 14.52187 14.49502 14.48321 14.47608 14.47651 14.49038 14.49593 14.50178 14.50663 14.51779 14.52863 14.54952 14.57371 14.60011 14.62782 14.65191 14.67341 14.69338 14.71425 14.73804 14.75718 14.77182 14.7807 14.78479 14.78913 14.7917 14.79768 14.80398 14.81179 14.82524 14.83972 14.8581 14.87708
0 0 0 0 0 0 0 0 0 0 0 0 0 0 0 0 0 0 0 0 0 0 0 0 0 0 0 0 0 0 0 0 0 0 0 0 0 0 0 0 0 0 0 0 0 0 0 0 0 17.08757 16.03626 14.96511 14.92378 14.88841 14.87203 14.84479 14.83176 14.81401 14.83183 14.84739 14.86377 14.87981 14.89692 14.90327 14.91291 14.93633 14.93915 14.9326 14.90032 14.8777 14.86342 14.82367 14.76876 14.69136 14.64631 14.59788 14.56492 14.534 14.5232 14.51833 14.52597 14.53616 14.54475 14.54883 14.56034 14.56921 14.58178 14.60756 14.63788 14.664 14.69521 14.72213 14.73435 14.74279 14.75567 14.77846 14.7919 14.80387 14.80788 14.81209 14.81422 14.81441 14.81933 14.82427 14.83145 14.84622 14.86176 14.8759 14.88937
0 0 0 0 0 0 0 0 0 0 0 0 0 0 0 0 0 0 0 0 0 0 0 0 0 0 0 0 0 0 0 0 0 0 0 0 0 0 0 0 0 0 0 0 0 0 0 0 16.12222 15.54315 15.26351 14.98883 14.94994 14.91902 14.88504 14.87569 14.86571 14.86142 14.86493 14.88814 14.90962 14.93357 14.95823 14.9723 14.99066 14.99976 15.00684 14.99909 14.97661 14.91875 14.90607 14.87318 14.82094 14.75095 14.69445 14.64289 14.6096 14.58265 14.57247 14.58178 14.5922 14.60191 14.61241 14.62297 14.62777 14.63456 14.64687 14.66554 14.68372 14.7081 14.72707 14.74365 14.75916 14.77491 14.79071 14.81036 14.82498 14.83616 14.8428 14.84456 14.84691 14.84354 14.84232 14.84466 14.8487 14.85722 14.87064 14.88102 14.89407
0 0 0 0 0 0 0 0 0 0 0 0 0 0 0 0 0 0 0 0 0 0 0 0 0 0 0 0 0 0 0 0 0 0 0 0 0 0 0 0 0 0 0 0 0 15.74801 15.63537 16.18403 15.60721 15.60676 15.31516 15.0339 15.00042 14.97128 14.94365 14.91991 14.90796 14.89989 14.91324 14.92768 14.95286 14.97697 15.00822 15.02265 15.03855 15.0405 15.06196 15.07596 15.04881 15.00053 14.96007 14.91448 14.86332 14.80551 14.74646 14.69434 14.66842 14.64779 14.63912 14.64514 14.65015 14.66098 14.66715 14.6725 14.68752 14.69818 14.70454 14.71719 14.73506 14.75723 14.77428 14.78935 14.80639 14.82037 14.8346 14.84432 14.86107 14.86653 14.86861 14.86916 14.8648 14.85538 14.85245 14.85891 14.86232 14.87106 14.87737 14.88865 14.90347
0 0 0 0 0 0 0 0 0 0 0 0 0 0 0 0 0 0 0 0 0 0 0 0 0 0 0 0 0 0 0 0 0 0 0 0 0 0 0 0 0 0 17.92045 17.59963 16.55974 15.67749 15.11945 15.12528 15.68307 15.38416 15.10564 15.07989 15.05817 15.03138 15.00054 14.98461 14.96418 14.95612 14.96088 14.9822 15.00577 15.02784 15.05152 15.06828 15.08402 15.10895 15.12814 15.12114 15.08601 15.0312 15.00406 14.96843 14.91749 14.87001 14.81386 14.76992 14.74419 14.72576 14.72047 14.72046 14.72489 14.7327 14.73163 14.73428 14.7399 14.75197 14.7565 14.76116 14.78063 14.79675 14.80706 14.82288 14.84299 14.86161 14.87125 14.89201 14.90121 14.90699 14.91302 14.90546 14.88956 14.88157 14.87505 14.87295 14.87367 14.88004 14.88105 14.89303 14.90764
0 0 0 0 0 0 0 0 0 0 0 0 0 0 0 0 0 0 0 0 0 0 0 0 0 0 0 0 0 0 0 0 0 0 0 0 0 0 0 0 16.96891 17.3962 17.64243 16.64124 15.70568 15.13991 15.16342 15.1848 15.18607 15.17618 15.16417 15.13942 15.10169 15.06748 15.03696 15.01821 15.00733 14.99537 15.00643 15.02681 15.04941 15.07335 15.09473 15.12608 15.13442 15.14731 15.15435 15.1472 15.11986 15.09166 15.05382 15.03333 15.00402 14.94023 14.87375 14.83609 14.80739 14.78255 14.77981 14.78311 14.78955 14.79257 14.79909 14.79904 14.80384 14.81293 14.81663 14.82123 14.82888 14.83874 14.84633 14.85155 14.87381 14.89027 14.89724 14.91335 14.9261 14.93561 14.93813 14.92557 14.91379 14.90651 14.89577 14.893 14.88867 14.89281 14.90037 14.91395 14.92975
0 0 0 0 0 0 0 0 0 0 0 0 0 0 0 0 0 0 0 0 0 0 0 0 0 0 0 0 0 0 0 0 0 0 0 0 0 0 0 17.20376 16.93555 16.34015 16.05019 15.15489 15.16189 15.17457 15.19954 15.22578 15.22763 15.22091 15.20791 15.18098 15.14067 15.10538 15.08518 15.0711 15.06514 15.06284 15.07088 15.08566 15.10435 15.11865 15.14727 15.1743 15.19207 15.20766 15.20969 15.19959 15.17854 15.16179 15.14402 15.11784 15.07168 15.01012 14.96757 14.9279 14.8976 14.87037 14.86285 14.85959 14.85868 14.85737 14.84958 14.84295 14.84865 14.8525 14.86067 14.871 14.86655 14.86796 14.87529 14.8855 14.90642 14.92392 14.93391 14.9426 14.95414 14.95962 14.95576 14.94916 14.93689 14.92249 14.90759 14.9037 14.90605 14.90729 14.91589 14.93493 14.95066
0 0 0 0 0 0 0 0 0 0 0 0 0 0 0 0 0 0 0 0 0 0 0 0 0 0 0 0 0 0 0 0 0 0 0 0 0 0 16.37061 16.0439 15.74955 15.17353 15.19252 15.20534 15.21902 15.22999 15.25081 15.26607 15.26531 15.25368 15.24018 15.21934 15.19981 15.15881 15.13739 15.1266 15.12355 15.12247 15.13657 15.15525 15.17238 15.18127 15.21143 15.23788 15.24097 15.25931 15.26874 15.2613 15.25436 15.23803 15.2186 15.19328 15.14781 15.09626 15.03113 14.9961 14.97572 14.95577 14.9423 14.92672 14.92674 14.92507 14.91289 14.90873 14.9107 14.91614 14.91782 14.91556 14.91389 14.91079 14.91585 14.9226 14.93909 14.95138 14.95639 14.96964 14.97519 14.9811 14.96814 14.96498 14.95562 14.94526 14.93476 14.9285 14.93319 14.94484 14.95363 14.96756 14.98036
0 0 0 0 0 0 0 0 0 0 0 0 0 0 0 0 0 0 0 0 0 0 0 0 0 0 0 0 0 0 0 0 0 0 18.07511 18.71343 17.82408 16.0747 15.1775 15.18086 15.19197 15.20206 15.22086 15.23924 15.26246 15.26594 15.28142 15.29721 15.29988 15.30539 15.29571 15.28805 15.27173 15.24148 15.21743 15.21013 15.19607 15.19107 15.20706 15.21814 15.23102 15.24398 15.26461 15.27743 15.29371 15.31686 15.32289 15.32118 15.31591 15.30401 15.29151 15.26186 15.21883 15.19206 15.14269 15.08843 15.06963 15.04266 15.01416 14.9894 14.98044 14.97559 14.96569 14.95744 14.96687 14.96902 14.97306 14.97369 14.96394 14.95625 14.97056 14.98569 14.99371 15.00607 15.01149 15.00693 15.0042 15.00146 14.99414 14.98034 14.96694 14.95565 14.94419 14.9459 14.96143 14.97132 14.98688 15.00766 15.018
0 0 0 0 0 0 0 0 0 0 0 0 0 0 0 0 0 0 0 0 0 0 0 0 0 0 0 0 0 18.59193 18.169 17.94698 17.92646 17.69161 17.39119 16.78024 15.20545 15.20456 15.20205 15.2128 15.22248 15.23746 15.2513 15.26509 15.28147 15.28304 15.30044 15.31197 15.32461 15.32971 15.3308 15.33527 15.33471 15.31337 15.28831 15.28332 15.28161 15.27572 15.30123 15.29319 15.2989 15.30817 15.32357 15.34525 15.36071 15.36649 15.3677 15.36127 15.35242 15.34723 15.3327 15.31015 15.28393 15.25477 15.22008 15.1868 15.14925 15.11551 15.09707 15.07231 15.05768 15.04897 15.03742 15.03097 15.03015 15.02618 15.01783 15.01623 15.00606 15.00826 15.01696 15.02781 15.03341 15.03834 15.04719 15.0401 15.02758 15.02341 15.01692 15.0027 14.98961 14.97774 14.97227 14.97639 14.9874 15.00696 15.02078 15.03751 15.03211
0 0 0 0 0 0 0 0 0 0 0 0 0 0 0 0 0 0 0 0 0 0 0 0 0 18.3735 17.63192 17.61833 16.62934 15.9395 15.59344 15.27337 15.26794 15.25568 15.24092 15.22925 15.22253 15.22078 15.22761 15.23704 15.25243 15.26008 15.27174 15.29102 15.30592 15.31115 15.33402 15.35352 15.37587 15.39007 15.39623 15.39613 15.40357 15.38506 15.35123 15.34881 15.34441 15.3475 15.34008 15.34173 15.35552 15.36769 15.38445 15.40223 15.41287 15.4208 15.42177 15.41275 15.41038 15.39839 15.38439 15.3633 15.341 15.31409 15.28433 15.25688 15.23193 15.19736 15.16747 15.14826 15.13561 15.12075 15.11513 15.10734 15.09931 15.0976 15.08705 15.07483 15.06834 15.06513 15.07097 15.07296 15.07355 15.07618 15.07991 15.07598 15.05772 15.03405 15.02799 15.02809 15.01998 15.01002 15.00843 15.0171 15.03741 15.04437 15.05502 15.06012 15.03548
0 0 0 0 0 0 0 0 0 0 0 0 0 0 0 0 0 0 0 0 0 0 0 18.57872 17.70076 17.08097 16.71663 16.35615 15.33686 15.31865 15.30118 15.28607 15.27032 15.25776 15.24563 15.23935 15.23488 15.24073 15.25135 15.25796 15.26544 15.27177 15.28478 15.29308 15.30603 15.32275 15.34863 15.37636 15.40442 15.42925 15.43967 15.45343 15.45684 15.44916 15.42504 15.40005 15.39987 15.38733 15.38033 15.38597 15.39884 15.40956 15.42018 15.43219 15.44006 15.4476 15.44964 15.4525 15.44783 15.4447 15.43999 15.42449 15.4107 15.39419 15.37152 15.34738 15.32639 15.2934 15.26897 15.24335 15.22668 15.20423 15.18482 15.17 15.16174 15.1483 15.13412 15.12734 15.11501 15.11 15.11302 15.11837 15.12123 15.12279 15.11924 15.10838 15.09151 15.07812 15.0701 15.07263 15.06614 15.05862 15.0539 15.06505 15.06476 15.06874 15.07427 15.06566 15.02904
0 0 0 0 0 0 0 0 0 0 0 0 0 0 0 0 0 0 0 0 0 0 18.00767 17.13139 16.77899 16.75033 16.39043 16.01805 15.3315 15.30688 15.29086 15.27618 15.26075 15.25621 15.25049 15.24415 15.24086 15.24786 15.25297 15.26152 15.25975 15.26522 15.28102 15.29909 15.31298 15.33628 15.36072 15.39204 15.42881 15.44976 15.45299 15.46125 15.4657 15.47135 15.46042 15.43795 15.42529 15.41787 15.4127 15.42101 15.42718 15.44106 15.45285 15.46047 15.47116 15.48141 15.49237 15.49619 15.49716 15.49201 15.48703 15.47297 15.4658 15.45674 15.43557 15.41264 15.3901 15.3681 15.34389 15.324 15.30736 15.29119 15.27181 15.25559 15.23831 15.22619 15.20542 15.19662 15.1808 15.16589 15.1632 15.15958 15.15975 15.15791 15.14838 15.12663 15.1129 15.10952 15.11191 15.11074 15.11233 15.10036 15.10311 15.09596 15.09674 15.11026 15.10336 15.07536 15.02796
0 0 0 0 0 0 0 0 0 0 0 0 0 0 0 0 0 0 0 0 0 19.24105 18.21733 17.12458 16.44708 16.41335 16.0303 16.00897 15.31565 15.29775 15.28251 15.2682 15.25994 15.25365 15.24814 15.24142 15.23719 15.24176 15.24588 15.25544 15.26253 15.27168 15.29222 15.30102 15.32306 15.35298 15.39495 15.43308 15.45312 15.46337 15.45896 15.46176 15.47188 15.47745 15.46296 15.4489 15.44531 15.44259 15.44134 15.44359 15.4477 15.45558 15.4636 15.47825 15.49544 15.50922 15.52033 15.52732 15.5345 15.53936 15.53084 15.52372 15.52299 15.5143 15.50405 15.49334 15.46791 15.44245 15.41359 15.39513 15.37145 15.35342 15.33414 15.31673 15.30285 15.29153 15.27791 15.26735 15.25525 15.2358 15.22775 15.22402 15.21231 15.19742 15.17307 15.15787 15.15447 15.15235 15.15366 15.14582 15.13793 15.13653 15.13336 15.13911 15.149 15.1446 15.13494 15.09279 15.02058
0 0 0 0 0 0 0 0 0 0 0 0 0 0 0 0 0 0 0 0 0 0 0 17.73408 16.78621 16.41859 16.03293 15.66941 15.30754 15.28792 15.2737 15.2627 15.2527 15.2433 15.23351 15.22812 15.23064 15.23486 15.23992 15.24623 15.25741 15.27795 15.28634 15.30631 15.33322 15.37447 15.41343 15.43377 15.44775 15.45393 15.45921 15.47782 15.48623 15.48399 15.47183 15.46739 15.47718 15.47704 15.47843 15.48313 15.48475 15.48733 15.49196 15.50709 15.5254 15.53383 15.54651 15.55445 15.55768 15.56375 15.56502 15.56181 15.55887 15.55747 15.55914 15.55249 15.5334 15.51759 15.49319 15.47011 15.45231 15.43376 15.41701 15.39864 15.37553 15.3667 15.35472 15.3341 15.31351 15.29381 15.28034 15.27359 15.25573 15.23249 15.21276 15.20922 15.20534 15.20368 15.19966 15.18377 15.17819 15.17729 15.18318 15.19227 15.18589 15.17763 15.14856 15.09108 15.01436
0 0 0 0 0 0 0 0 0 0 0 0 0 0 0 0 0 0 0 0 0 19.65367 19.33192 18.3291 16.81367 16.43608 16.04906 16.01835 15.63385 15.28353 15.26998 15.25468 15.24642 15.24105 15.22934 15.23005 15.23595 15.23971 15.24535 15.25078 15.26084 15.27778 15.28894 15.3158 15.32902 15.35013 15.38081 15.41008 15.42839 15.44228 15.45618 15.4714 15.48132 15.48805 15.47766 15.48497 15.49732 15.50283 15.50659 15.51518 15.5193 15.52151 15.53022 15.53898 15.55421 15.57194 15.58343 15.59367 15.59336 15.58963 15.59732 15.59393 15.59493 15.60035 15.60224 15.59643 15.58647 15.5669 15.54726 15.52572 15.51014 15.49717 15.48565 15.46687 15.45126 15.43464 15.42159 15.40673 15.38691 15.36877 15.34896 15.32965 15.30796 15.28869 15.26827 15.25822 15.2522 15.23903 15.23792 15.22626 15.2165 15.22379 15.22448 15.23118 15.23078 15.20327 15.16845 15.10868 15.02231
0 0 0 0 0 0 0 0 0 0 0 0 0 0 0 0 0 0 0 19.68286 19.60133 19.49001 18.62732 17.51627 16.84011 16.46573 16.07066 16.37687 15.31247 15.27793 15.26241 15.25013 15.24496 15.23858 15.23342 15.23191 15.2367 15.24225 15.24587 15.25406 15.26541 15.27301 15.28677 15.29914 15.30907 15.32347 15.34372 15.3737 15.4089 15.43444 15.45769 15.46919 15.48535 15.50404 15.508 15.51507 15.52784 15.53334 15.5428 15.5481 15.54908 15.55476 15.56234 15.56724 15.57651 15.59097 15.60156 15.61273 15.62026 15.623 15.62819 15.62357 15.63123 15.64776 15.64907 15.64529 15.639 15.62771 15.61398 15.59736 15.57805 15.56428 15.5532 15.53606 15.51575 15.49527 15.47658 15.45327 15.43518 15.41848 15.4055 15.39026 15.37078 15.35591 15.337 15.3277 15.31856 15.30977 15.29484 15.29126 15.27686 15.2722 15.26426 15.26595 15.25604 15.22936 15.18719 15.12081 15.03482
0 0 0 0 0 0 0 0 0 0 0 0 0 0 0 0 0 0 19.16368 19.03728 18.6614 18.18001 17.55349 16.88071 16.52357 16.48535 16.08985 15.69353 15.32152 15.281 15.26187 15.25159 15.24696 15.24026 15.23598 15.24076 15.24226 15.25387 15.2629 15.26756 15.27712 15.28455 15.2924 15.31731 15.31962 15.32933 15.35176 15.38007 15.41456 15.44254 15.4654 15.4857 15.50339 15.51876 15.53754 15.53808 15.55128 15.56726 15.57266 15.57378 15.57992 15.58606 15.59337 15.59714 15.60839 15.61679 15.62731 15.63635 15.64107 15.64259 15.64901 15.65227 15.66513 15.68204 15.68524 15.68788 15.68641 15.68248 15.67492 15.67304 15.65834 15.64704 15.63357 15.61711 15.58989 15.57117 15.54994 15.52447 15.49981 15.47692 15.46298 15.44613 15.42827 15.41322 15.39488 15.38159 15.37234 15.35729 15.3558 15.3318 15.31462 15.31118 15.307 15.30356 15.29259 15.2573 15.21541 15.15028 15.0704
0 0 0 0 0 0 0 0 0 0 0 0 0 0 0 0 0 19.61964 19.06187 18.41676 17.89014 17.25129 16.90138 16.89778 16.89348 16.49215 16.08978 15.36251 15.31459 15.27937 15.25881 15.24486 15.24081 15.23915 15.23689 15.24297 15.25244 15.26279 15.27177 15.2815 15.29636 15.31248 15.32119 15.34261 15.3525 15.36392 15.38446 15.41311 15.44228 15.47565 15.50591 15.52784 15.53613 15.55823 15.56155 15.57269 15.58527 15.59384 15.60138 15.61285 15.61535 15.62024 15.62087 15.62389 15.62729 15.6331 15.64818 15.65784 15.65746 15.66136 15.67014 15.68182 15.70369 15.71655 15.72402 15.72898 15.72766 15.7291 15.72781 15.72737 15.71767 15.7082 15.69066 15.67297 15.6475 15.62556 15.6019 15.579 15.55776 15.53645 15.51693 15.50343 15.49003 15.47348 15.45139 15.43492 15.41404 15.40372 15.3947 15.36555 15.35298 15.35745 15.34426 15.33107 15.31591 15.28293 15.2487 15.18593 15.11266
0 0 0 0 0 0 0 0 0 0 0 0 0 0 0 0 19.11707 19.09657 18.23 17.62944 17.29363 16.9376 16.90981 16.90742 16.88936 16.48612 16.07521 15.35877 15.3087 15.27697 15.25566 15.24347 15.23518 15.24017 15.2502 15.25751 15.26932 15.2782 15.28415 15.29247 15.30745 15.32272 15.34118 15.35771 15.38223 15.40256 15.42587 15.45152 15.47586 15.50291 15.53383 15.55979 15.57805 15.59397 15.60855 15.61881 15.636 15.64469 15.64927 15.65187 15.65641 15.65503 15.65691 15.65287 15.64452 15.64591 15.6543 15.6623 15.66446 15.66874 15.68146 15.70337 15.72477 15.74297 15.76055 15.77073 15.7767 15.77769 15.78245 15.78373 15.7817 15.77484 15.75827 15.7365 15.71019 15.68126 15.65284 15.62627 15.59907 15.57587 15.55629 15.54562 15.52698 15.51159 15.49636 15.47162 15.44765 15.44194 15.42762 15.41038 15.3977 15.38834 15.39052 15.37577 15.35191 15.32555 15.28682 15.22834 15.1521
0 0 0 0 0 0 0 0 0 0 0 0 0 0 0 19.67842 18.94429 18.24643 17.63175 17.30119 16.94103 16.92812 16.90994 16.54046 16.50635 16.11682 15.37696 15.33494 15.29176 15.27528 15.25702 15.24617 15.24607 15.25456 15.26208 15.27992 15.29075 15.30193 15.30836 15.32317 15.33891 15.35961 15.37837 15.39826 15.42186 15.44631 15.47036 15.49792 15.52327 15.54772 15.5743 15.60011 15.61748 15.6327 15.64381 15.65632 15.67528 15.68318 15.69567 15.70686 15.70819 15.70734 15.69622 15.6848 15.67183 15.6643 15.65931 15.66684 15.67495 15.6795 15.69194 15.71721 15.74279 15.76689 15.78448 15.79521 15.80304 15.81127 15.82042 15.82275 15.82241 15.81976 15.81078 15.79517 15.77233 15.74267 15.71375 15.68567 15.65804 15.63247 15.61359 15.59806 15.57862 15.55567 15.53187 15.51227 15.48907 15.47566 15.4645 15.44682 15.43949 15.43892 15.41965 15.40836 15.39255 15.3668 15.33063 15.27821 15.20444
0 0 0 0 0 0 0 0 0 0 0 0 0 0 19.00999 19.01177 18.29802 17.65289 17.30061 16.93322 16.91794 16.5384 16.50555 16.49228 16.12135 15.72789 15.35796 15.3236 15.29626 15.27761 15.26668 15.25799 15.25932 15.26658 15.28058 15.29237 15.30468 15.3205 15.3362 15.35464 15.38109 15.40937 15.43517 15.46331 15.48604 15.51046 15.53988 15.56785 15.5976 15.62389 15.64627 15.66442 15.68014 15.6905 15.69885 15.70872 15.71685 15.73151 15.74398 15.75551 15.75799 15.75731 15.75505 15.73483 15.71303 15.68802 15.67447 15.67219 15.68159 15.68411 15.6936 15.71934 15.75425 15.78692 15.81017 15.82748 15.84407 15.85763 15.86422 15.86512 15.86393 15.85704 15.84857 15.8331 15.81281 15.78761 15.76385 15.73642 15.70792 15.68254 15.66452 15.64667 15.62505 15.59684 15.57534 15.5526 15.53255 15.51471 15.51178 15.49555 15.48425 15.47921 15.46456 15.44783 15.42894 15.39991 15.35879 15.30681 15.23212
0 0 0 0 0 0 0 0 0 0 0 0 0 18.86811 19.0503 18.29948 17.64979 17.30437 16.92292 16.9131 16.53253 16.49819 16.48205 16.47389 16.08789 15.37254 15.34526 15.3228 15.29986 15.28777 15.27748 15.28059 15.28117 15.29369 15.30302 15.32383 15.33863 15.35243 15.37811 15.40278 15.43553 15.4662 15.49697 15.52586 15.54954 15.57321 15.60606 15.64278 15.6699 15.69472 15.71162 15.72041 15.73279 15.74591 15.7477 15.75292 15.76139 15.77532 0 0 0 15.75679 15.76395 15.8086 15.78465 15.73604 15.70203 15.68876 15.68608 15.68427 15.69498 15.72276 15.75984 15.79818 15.82887 15.85541 15.87756 15.89369 15.90302 15.9067 15.90885 15.90083 15.89336 15.88369 15.86485 15.8443 15.82004 15.79629 15.7686 15.73996 15.71878 15.69603 15.66738 15.63713 15.61379 15.58864 15.56722 15.54763 15.53861 15.52946 15.52231 15.51535 15.50128 15.48923 15.47381 15.44695 15.40071 15.34159 15.2604
0 0 0 0 0 0 0 0 0 0 0 0 0 19.24353 18.31052 17.66456 17.27734 16.88772 16.88853 16.50284 16.48855 16.47013 16.46735 15.38206 15.36775 15.35555 15.33502 15.32245 15.30475 15.29459 15.29437 15.29641 15.3038 15.3156 15.33348 15.35098 15.37016 15.39558 15.4191 15.45649 15.49849 15.53489 15.56871 15.60557 15.64401 15.67671 15.70763 15.73139 15.74789 15.76144 15.77093 16.5923 15.7881 15.78287 15.77953 16.16655 16.99546 17.8239 0 0 0 0 0 16.23811 15.82756 15.78382 15.74237 15.71439 15.69991 15.69679 15.70756 15.73437 15.76747 15.81213 15.8533 15.88144 15.90582 15.92826 15.93871 15.94103 15.94364 15.93564 15.92896 15.91949 15.90505 15.88818 15.87223 15.85104 15.82913 15.80541 15.78303 15.75979 15.72905 15.69429 15.66306 15.63429 15.6134 15.59166 15.57371 15.56608 15.55808 15.54774 15.53317 15.5214 15.50942 15.48185 15.43085 15.36508 15.28056
0 0 0 0 0 0 0 0 0 0 0 0 19.39174 18.59427 17.65077 17.26747 16.86132 16.48771 16.48624 16.47977 16.47028 16.46837 16.08705 15.37082 15.35751 15.34207 15.33091 15.32195 15.31182 15.30849 15.31243 15.31741 15.3284 15.34296 15.3631 15.38687 15.40219 15.4275 15.45823 15.50512 15.55207 15.59629 15.63644 15.68107 15.72372 15.74794 15.76009 0 0 15.76009 0 17.52185 16.66296 16.21877 16.62065 16.59952 17.41607 17.86236 18.88017 16.56893 15.802 0 0 0 17.53163 15.79851 15.75756 15.73244 15.71198 15.70943 15.72054 15.74729 15.78411 15.82786 15.8746 15.90599 15.93906 15.9633 15.9726 15.97988 15.98035 15.97409 15.96529 15.9504 15.93881 15.92032 15.90791 15.89063 15.8711 15.85001 15.82994 15.80371 15.77788 15.74785 15.7158 15.68809 15.66461 15.64329 15.62512 15.61723 15.60342 15.59048 15.57917 15.56291 15.54782 15.51836 15.46602 15.39263 15.29992
0 0 0 0 0 0 0 0 0 0 0 18.65208 18.61256 17.64777 17.25449 16.46106 16.4738 16.47471 16.46838 16.46941 16.48774 15.75251 15.3902 15.36843 15.35132 15.33768 15.33147 15.32771 15.32353 15.32839 15.33449 15.34798 15.35867 15.37685 15.39482 15.41564 15.44259 15.47971 15.52261 15.57402 15.62773 15.67484 15.71121 15.7409 16.57989 0 0 0 0 0 18.34405 19.16626 18.9134 18.30144 17.90505 17.44693 17.42212 16.17524 15.79233 15.8012 15.80203 15.80278 15.79339 17.88174 18.25591 15.79044 15.75976 15.74166 15.7291 15.72701 15.73967 15.76414 15.79867 15.84408 15.89181 15.92923 15.96027 15.98238 15.99476 16.00194 16.00471 16.0021 15.99261 15.98324 15.97106 15.95867 15.95009 15.93956 15.92328 15.90128 15.87934 15.85385 15.82166 15.79388 15.76601 15.74111 15.7143 15.69124 15.67261 15.65661 15.64049 15.6238 15.61172 15.59471 15.58138 15.55087 15.50577 15.43007 15.33414
0 0 0 0 0 0 0 0 0 0 19.35366 18.64066 17.6522 16.867 16.46226 16.08768 16.09507 16.10511 16.11111 16.12858 16.13683 15.41692 15.39976 15.37837 15.36014 15.34984 15.34402 15.34524 15.34743 15.35116 15.35806 15.36728 15.37857 15.39345 15.41808 15.4476 15.48056 15.52371 15.57812 15.63848 15.70309 15.7455 16.16768 0 0 0 0 0 0 0 0 0 0 0 18.29329 17.90247 17.02967 15.79425 15.80683 15.81531 15.81526 15.81075 15.80597 15.80296 15.79532 15.78855 15.76458 15.75288 15.75338 15.7532 15.76954 15.793 15.82714 15.87179 15.9103 15.94643 15.97713 15.99444 16.01474 16.02018 16.01993 16.01677 16.00862 16.00439 15.99714 15.98872 15.98241 15.97723 15.95936 15.94303 15.92447 15.90286 15.87497 15.84881 15.82088 15.79847 15.77263 15.74926 15.73035 15.70673 15.68677 15.66512 15.64253 15.62375 15.60388 15.57066 15.52489 15.44934 15.35878
0 0 0 0 0 0 0 0 0 0 18.91382 17.6564 16.88079 16.46808 15.73786 15.73445 15.39897 15.40642 15.4281 15.43417 15.43412 15.43068 15.42036 15.40379 15.39113 15.37863 15.37581 15.38087 15.38122 15.37855 15.38791 15.39933 15.40927 15.4246 15.44967 15.47752 15.51424 15.56203 15.62562 15.68938 16.97698 0 0 0 0 0 0 0 0 0 0 0 0 0 18.95073 17.51974 15.82783 15.82931 15.83721 15.84901 15.8489 15.84453 15.84043 15.83052 15.81456 15.79761 15.78827 15.77825 15.78069 15.78251 15.79711 15.82149 15.85456 15.89589 15.93291 15.96208 15.99013 16.01088 16.02858 16.0385 16.03655 16.0326 16.0298 16.03027 16.02892 16.02005 16.01262 16.00517 15.99328 15.97723 15.95947 15.93791 15.91237 15.88894 15.86548 15.84272 15.82157 15.80635 15.78433 15.76528 15.74342 15.71611 15.68526 15.66306 15.63322 15.59919 15.54728 15.47268 15.38749
0 0 0 0 0 0 0 0 0 19.00043 18.36678 17.27672 16.464 15.72012 15.39126 15.39303 15.39609 15.40493 15.42116 15.43256 15.44294 15.43739 15.43424 15.42561 15.41316 15.40258 15.40033 15.4067 15.41273 15.41814 15.42562 15.43467 15.44535 15.46161 15.4883 15.51646 15.5549 15.6116 15.67153 16.53699 16.77184 0 0 0 0 0 0 0 0 0 0 0 0 18.20742 17.97061 16.67168 15.84979 15.8563 15.87112 15.88109 15.88455 15.88844 15.88112 15.86925 15.84564 15.82699 15.81526 15.80659 15.81233 15.81881 15.83154 15.85272 15.88523 15.91767 15.9455 15.97343 15.99836 16.02195 16.04037 16.05435 16.0549 16.04984 16.05034 16.05196 16.05229 16.04846 16.04527 16.04056 16.03142 16.01703 15.99853 15.97643 15.94931 15.92723 15.90396 15.88782 15.86948 15.85212 15.83195 15.81008 15.78372 15.75739 15.72264 15.69346 15.65942 15.61586 15.56263 15.4911 15.41098
0 0 0 0 0 0 0 0 19.82006 18.72962 17.30779 16.46791 16.04532 15.35097 15.35204 15.36558 15.37773 15.39172 15.40068 15.41589 15.4331 15.44135 15.44112 15.43758 15.43273 15.42914 15.4327 15.44304 15.45057 15.45709 15.46169 15.46976 15.47791 15.49696 15.52096 15.54952 15.58718 15.63477 16.06604 16.53903 17.00948 17.8792 0 18.7428 19.3543 0 0 0 0 0 0 0 19.01533 17.97767 17.12273 15.85493 15.86947 15.88456 15.90348 15.91776 15.92062 15.9153 15.90405 15.8859 15.87013 15.85938 15.84976 15.83995 15.84145 15.85003 15.86535 15.88891 15.91865 15.94556 15.97136 15.99599 16.01965 16.04429 16.06532 16.07499 16.07315 16.07399 16.07183 16.07111 16.0679 16.06696 16.06512 16.06395 16.05362 16.04283 16.02706 16.00893 15.98978 15.97125 15.9494 15.93338 15.91774 15.90093 15.88236 15.8574 15.83394 15.79751 15.76193 15.73363 15.69105 15.6417 15.5781 15.50905 15.42994
0 0 0 0 0 0 0 0 19.83707 18.7455 17.30995 16.45244 15.34407 15.32625 15.33295 15.34151 15.35689 15.37253 15.3867 15.40749 15.4244 15.43896 15.44564 15.44532 15.45244 15.45821 15.47338 15.48889 15.50337 15.51566 15.52441 15.53101 15.5347 15.54184 15.56144 15.58906 15.61998 15.65152 15.68348 16.11776 16.56084 17.0182 17.47109 17.93196 18.73483 0 0 0 0 0 0 18.39461 17.55845 17.54927 15.85271 15.87598 15.90831 15.93382 15.95257 15.95918 15.9589 15.95199 15.9355 15.92097 15.90515 15.88829 15.87707 15.87076 15.87082 15.87732 15.89301 15.91425 15.93938 15.96855 15.99275 16.02195 16.04944 16.0719 16.08875 16.09836 16.10132 16.0996 16.09696 16.09668 16.097 16.09626 16.09549 16.09226 16.08546 16.07303 16.05563 16.04007 16.02092 16.0021 15.98496 15.96673 15.95264 15.93706 15.91691 15.89544 15.86653 15.83412 15.80148 15.76373 15.71758 15.66538 15.59755 15.52654 15.44852
0 0 0 0 0 0 0 0 0 18.77516 17.32115 16.47165 15.33463 15.30677 15.31147 15.32593 15.34359 15.35612 15.37609 15.39843 15.41999 15.43596 15.44413 15.45376 15.46649 15.48915 15.51182 15.5373 15.56147 15.58112 15.59519 15.59358 15.59349 15.59474 15.61096 15.63397 15.65385 15.67444 15.69786 15.71215 15.73047 15.74988 15.76985 16.17727 17.05397 17.92194 18.74576 19.08512 0 0 18.71232 17.54643 16.67083 15.84741 15.86968 15.90323 15.94698 15.97359 15.98483 15.99096 15.98857 15.98004 15.96716 15.95355 15.94098 15.92895 15.91552 15.90786 15.90217 15.9103 15.92861 15.94431 15.96649 15.99326 16.01805 16.04615 16.07167 16.09216 16.11049 16.11792 16.11857 16.11918 16.12008 16.11824 16.12069 16.12175 16.12116 16.12027 16.11436 16.10374 16.08777 16.07287 16.05396 16.03521 16.01993 16.00415 15.98756 15.97065 15.95197 15.92621 15.89982 15.86824 15.8308 15.79227 15.74482 15.67787 15.61313 15.54352 15.46954
0 0 0 0 0 0 0 0 0 19.70383 18.11113 16.91663 15.68699 15.30105 15.29493 15.30437 15.32458 15.34348 15.36519 15.39121 15.41005 15.43211 15.44401 15.46648 15.49536 15.52909 15.56563 15.60117 15.62619 15.64475 15.65251 15.64789 15.64144 15.64198 15.65779 15.67051 15.683 15.69893 15.715 15.72191 15.73657 15.74991 15.76321 15.77492 16.18584 16.62543 17.06221 17.4862 18.71449 17.53002 16.20587 15.81582 15.84034 15.87526 15.91288 15.94519 15.98437 16.00382 16.01081 16.01214 16.01043 16.00218 15.99055 15.98003 15.96346 15.95529 15.94872 15.94109 15.9428 15.95072 15.96376 15.98498 16.00206 16.0262 16.05045 16.07957 16.09997 16.12097 16.13199 16.13599 16.13968 16.14083 16.14128 16.14147 16.14397 16.14548 16.14496 16.14518 16.13931 16.1261 16.11413 16.10211 16.08308 16.06737 16.05187 16.03383 16.02122 15.99997 15.9805 15.96151 15.93395 15.89638 15.85795 15.81199 15.76064 15.69795 15.63214 15.55818 15.47671
0 0 0 0 0 0 0 0 0 19.84023 19.06614 17.35289 16.07759 15.31166 15.29385 15.29626 15.30626 15.32544 15.34877 15.37549 15.40381 15.42972 15.45688 15.48838 15.52771 15.57565 15.62842 15.67729 15.7142 15.71742 15.71785 15.71089 15.70149 15.69311 15.69565 15.70548 15.71255 15.72194 15.73154 15.73523 15.74518 15.75716 15.76828 15.78409 15.7917 15.79949 16.21417 0 17.53317 16.23016 15.83948 15.86195 15.89247 15.92415 15.96337 15.9986 16.02264 16.03185 16.03493 16.03643 16.0347 16.02585 16.01818 16.00813 15.99722 15.9925 15.98175 15.97372 15.97158 15.98073 15.99092 16.00689 16.02702 16.05219 16.07691 16.10379 16.12619 16.14018 16.14638 16.15483 16.15818 16.15817 16.1621 16.16158 16.16524 16.16826 16.17034 16.17192 16.16451 16.15448 16.1443 16.12881 16.11446 16.09489 16.0769 16.05815 16.04728 16.03059 16.00806 15.98523 15.95712 15.91741 15.87352 15.83298 15.77947 15.71759 15.64409 15.56684 15.48032
0 0 0 0 0 0 0 0 0 0 19.5501 18.16033 16.52035 15.69127 15.31119 15.29838 15.29033 15.3025 15.32303 15.35363 15.38843 15.42558 15.46591 15.50232 15.55122 15.60497 15.66694 15.72026 0 0 0 15.95698 15.7306 15.72821 15.72897 15.73365 15.7391 15.7461 15.74816 15.75438 15.75771 15.76557 15.77806 15.79089 15.80618 15.82223 15.83936 16.26279 15.8555 15.86541 15.88508 15.91367 15.94603 15.97667 16.00332 16.03024 16.04798 16.05141 16.04975 16.04988 16.04961 16.04983 16.04439 16.0402 16.03611 16.0254 16.01876 16.01204 16.00791 16.01321 16.0254 16.03742 16.06197 16.08379 16.10382 16.12672 16.14092 16.1539 16.1615 16.16816 16.1714 16.17156 16.17406 16.17616 16.18073 16.18327 16.1856 16.18887 16.18332 16.17675 16.16625 16.15487 16.13828 16.12183 16.10469 16.08533 16.06921 16.05358 16.03345 16.00741 15.97231 15.92925 15.88659 15.84781 15.79356 15.72423 15.64755 15.57066 15.47918
0 0 0 0 0 0 0 0 0 0 0 19.44347 18.14726 16.50282 15.68213 15.31257 15.27864 15.28397 15.30039 15.33414 15.37625 15.42416 15.46358 15.51078 15.55896 15.61938 16.0522 16.47873 0 0 0 16.63096 16.92406 15.73702 15.74063 15.74713 15.75574 15.76079 15.76414 15.76852 15.76551 15.77183 15.78277 15.8012 15.82415 15.84337 15.85913 15.87921 15.89345 15.90584 15.93544 15.96405 15.99157 16.01513 16.03435 16.05367 16.06319 16.06213 16.05867 16.05785 16.06073 16.06448 16.06271 16.05905 16.05661 16.05072 16.04252 16.03994 16.03849 16.04272 16.05611 16.07872 16.09588 16.1163 16.13808 16.14901 16.16206 16.17033 16.18162 16.18679 16.18366 16.18514 16.19125 16.19356 16.19728 16.19768 16.19447 16.19955 16.19626 16.18688 16.17969 16.16929 16.15407 16.13911 16.12478 16.10829 16.09231 16.07413 16.05132 16.02139 15.98635 15.94479 15.90164 15.86383 15.8103 15.73982 15.66153 15.57565 15.48246
0 0 0 0 0 0 0 0 0 0 0 0 19.5866 18.47879 16.44313 15.66282 15.27095 15.26446 15.2869 15.32459 15.37294 15.43258 15.47326 15.51501 15.55714 15.62129 16.42792 0 0 18.0965 18.20167 16.54916 15.7493 15.7407 15.73864 15.74816 15.76066 15.76811 15.77799 15.78721 15.78502 15.78734 15.80029 15.81844 15.84164 15.86453 15.88241 15.89798 15.91715 15.94435 15.97307 16.00072 16.0306 16.05314 16.06905 16.08105 16.08776 16.08563 16.08325 16.07939 16.08226 16.08696 16.08559 16.08207 16.0779 16.07314 16.06907 16.06977 16.06834 16.07272 16.08761 16.10448 16.12131 16.14403 16.15972 16.17073 16.1799 16.19132 16.19615 16.20031 16.20085 16.20517 16.20827 16.21298 16.20888 16.20773 16.20594 16.2041 16.20411 16.20102 16.19302 16.18695 16.17202 16.15663 16.14274 16.12837 16.11132 16.09073 16.06559 16.03579 15.99774 15.95835 15.91794 15.8768 15.82166 15.75655 15.68233 15.59918 15.51218
0 0 0 0 0 0 0 0 0 0 0 0 0 0 0 16.37275 15.58876 15.25207 15.27877 15.3186 15.37835 15.43702 15.47645 15.51182 15.54365 15.96448 16.02598 16.45559 16.87015 19.12713 18.18706 16.52929 15.74273 15.74179 15.73889 15.75241 15.7698 15.78354 15.79563 15.80282 15.80784 15.81418 15.82383 15.8399 15.85864 15.87783 15.8963 15.91751 15.94041 15.96897 15.99922 16.02643 16.05623 16.07718 16.09479 16.10217 16.10704 16.11095 16.10705 16.10314 16.10364 16.1037 16.10216 16.09717 16.09654 16.0947 16.0939 16.09868 16.10412 16.11233 16.12502 16.13841 16.15437 16.17259 16.18789 16.19641 16.20595 16.21355 16.21495 16.21841 16.22141 16.22275 16.22419 16.22612 16.22446 16.22409 16.22026 16.22096 16.2197 16.21582 16.20909 16.1976 16.18319 16.17315 16.16257 16.14914 16.12854 16.10828 16.08406 16.05834 16.02394 15.98542 15.94815 15.90617 15.85571 15.7878 15.71567 15.63549 15.56069
0 0 0 0 0 0 0 0 0 0 0 0 0 0 0 17.13872 16.32931 15.24618 15.27804 15.32379 15.38446 15.44698 15.48278 15.51133 15.54356 15.59044 16.39732 16.44879 16.87755 0 18.22171 15.74467 15.74279 15.73814 15.75841 15.75924 15.78004 15.79544 15.80827 15.8205 15.83166 15.83903 15.84691 15.86084 15.87629 15.89789 15.91773 15.93793 15.96561 15.99995 16.03218 16.05978 16.08523 16.1005 16.11386 16.12403 16.12869 16.13033 16.12759 16.12123 16.11916 16.11503 16.11228 16.11026 16.10967 16.10815 16.11168 16.11854 16.12875 16.13761 16.15235 16.16808 16.18384 16.19874 16.21032 16.22679 16.23439 16.24164 16.245 16.24535 16.2448 16.2434 16.24468 16.24482 16.24654 16.24659 16.24026 16.24044 16.23402 16.22532 16.21986 16.20755 16.19703 16.18462 16.17547 16.16151 16.14184 16.12683 16.10432 16.08125 16.05383 16.02226 15.98505 15.94428 15.90287 15.84702 15.76595 15.6966 15.62678
0 0 0 0 0 0 0 0 0 0 0 0 0 18.37073 17.97255 17.13251 16.3582 15.25814 15.27507 15.33003 15.39912 15.45791 15.50068 15.52812 15.55699 15.5951 16.7969 17.25028 17.71367 17.62498 18.63035 16.1183 15.73332 15.74555 15.7566 15.77788 15.79688 15.81546 15.82856 15.84166 15.84745 15.85567 15.86583 15.8778 15.89335 15.9135 15.93449 15.96095 15.99214 16.02558 16.05802 16.08113 16.09704 16.11422 16.13003 16.14023 16.14552 16.14783 16.14183 16.13808 16.13168 16.13046 16.13085 16.13173 16.1283 16.13053 16.13286 16.14282 16.14935 16.15925 16.17319 16.18741 16.20554 16.22104 16.23592 16.25056 16.26222 16.26871 16.27168 16.27125 16.27055 16.26552 16.26273 16.26517 16.26802 16.26968 16.26619 16.26121 16.24543 16.23349 16.22735 16.21718 16.20779 16.19803 16.18552 16.17251 16.15586 16.14504 16.12591 16.10762 16.07933 16.04663 16.01617 15.97872 15.9379 15.88592 15.82414 15.75908 15.70099
0 0 0 0 0 0 0 0 0 0 0 0 17.58773 17.16248 17.17695 16.77281 16.00248 15.29583 15.31155 15.36307 15.41803 15.48149 15.51995 15.55297 15.57913 15.61551 16.43475 16.47184 17.29316 18.14369 16.4947 15.70614 15.73074 15.75672 15.78215 15.80768 15.82861 15.83981 15.8513 15.85916 15.86359 15.8726 15.88465 15.89878 15.91815 15.93287 15.95751 15.98139 16.00624 16.03243 16.05868 16.07912 16.09603 16.11683 16.13292 16.14534 16.15136 16.1525 16.14908 16.14734 16.14759 16.14813 16.14783 16.14996 16.15128 16.15235 16.15535 16.16281 16.17164 16.18454 16.19991 16.21943 16.23579 16.25556 16.26993 16.28281 16.29049 16.29526 16.29406 16.29431 16.28982 16.28376 16.28272 16.28296 16.28374 16.28276 16.27802 16.27172 16.25819 16.24261 16.2345 16.23101 16.21665 16.20391 16.19483 16.18166 16.16743 16.1574 16.14868 16.12882 16.10449 16.08163 16.05251 16.02029 15.97621 15.92755 15.87149 15.8165 15.76291
0 0 0 0 0 0 0 0 19.31389 18.73515 17.57825 16.73844 16.7385 16.74134 16.37278 16.40234 16.03573 15.34329 15.36484 15.4132 15.47083 15.52121 15.56189 15.59346 15.62249 15.65225 15.67893 15.69101 15.69862 15.70955 15.70714 15.72722 15.75332 15.78143 15.80539 15.82842 15.84497 15.85528 15.865 15.869 15.87505 15.88602 15.90127 15.91859 15.93513 15.95444 15.97532 15.99307 16.01512 16.03636 16.05984 16.07902 16.09725 16.11344 16.13029 16.14436 16.15417 16.15735 16.15939 16.15883 16.16055 16.16142 16.16254 16.16338 16.16222 16.16378 16.17189 16.18213 16.1949 16.21014 16.23254 16.25158 16.27427 16.29071 16.3054 16.3132 16.31788 16.31895 16.31764 16.31355 16.3068 16.30374 16.30508 16.3053 16.3004 16.30002 16.29366 16.28021 16.26992 16.2547 16.24475 16.23948 16.22493 16.21108 16.20183 16.19287 16.1822 16.17199 16.16391 16.15067 16.13116 16.11449 16.08926 16.05829 16.02859 15.98781 15.93421 15.88774 15.82927
0 0 0 0 0 0 0 18.31557 18.40416 16.74657 16.3282 16.3231 16.32306 16.34239 16.38306 16.06279 15.36963 15.39289 15.43029 15.47596 15.53198 15.5772 15.61494 15.64428 15.66878 15.69352 15.7156 15.73328 15.73991 15.75105 15.7612 15.77556 15.79629 15.81388 15.83056 15.84691 15.85943 15.86465 15.87039 15.87343 15.88299 15.89889 15.91031 15.92742 15.94607 15.96306 15.97679 15.99916 16.02117 16.03953 16.05445 16.07071 16.08818 16.10848 16.12779 16.14383 16.15625 16.16225 16.16462 16.16746 16.16813 16.17126 16.17523 16.17588 16.17477 16.18442 16.19456 16.20877 16.22339 16.24174 16.26056 16.28188 16.30094 16.31289 16.32825 16.33502 16.33751 16.33726 16.33505 16.33253 16.33033 16.32726 16.32408 16.32093 16.31276 16.30477 16.29905 16.29235 16.27713 16.26341 16.25251 16.24247 16.23349 16.2248 16.21524 16.21058 16.20558 16.19426 16.18894 16.17716 16.16084 16.14627 16.12618 16.10392 16.07594 16.03377 15.99342 15.94251 15.88703
0 0 0 0 0 0 18.80449 18.79074 16.7535 16.28458 16.25573 16.26694 16.30928 15.98953 15.69758 15.40026 15.41137 15.45524 15.49036 15.52993 15.57978 15.61933 15.65384 15.67664 15.69894 15.72128 15.74702 15.76666 15.78208 15.7936 15.80795 15.82071 15.83193 15.84009 15.8513 15.85952 15.86925 15.87557 15.88059 15.89071 15.89894 15.91335 15.92709 15.9418 15.95376 15.96597 15.98112 16.00272 16.01864 16.03757 16.04883 16.06788 16.08205 16.0984 16.12041 16.13976 16.15359 16.15785 16.16342 16.16869 16.17377 16.17545 16.18116 16.1883 16.19751 16.21192 16.22682 16.24577 16.25849 16.27548 16.29183 16.31112 16.32749 16.3443 16.35433 16.35803 16.35962 16.36071 16.35413 16.34669 16.34389 16.33956 16.33307 16.32732 16.32242 16.31433 16.30189 16.2908 16.27847 16.26571 16.25931 16.254 16.24325 16.23653 16.22579 16.22781 16.22034 16.21789 16.21601 16.20402 16.19592 16.18274 16.16673 16.14755 16.12277 16.08625 16.04643 16.00504 15.95495
0 0 0 0 0 0 19.62684 17.9959 16.69265 16.23439 15.84661 15.89064 15.59584 15.33891 15.40598 15.45817 15.49431 15.52907 15.56004 15.59572 15.63628 15.66293 15.69023 15.71274 15.72966 15.74736 15.76946 15.79367 15.80918 15.81981 15.83301 15.84454 15.84959 15.85715 15.86231 15.8695 15.87785 15.88153 15.89495 15.90103 15.9166 15.93051 15.9438 15.95562 15.96782 15.97894 15.98318 15.99609 16.00912 16.02384 16.04241 16.06088 16.07896 16.09568 16.11437 16.13163 16.14487 16.15048 16.15794 16.16749 16.1776 16.18647 16.19347 16.20071 16.2179 16.23274 16.25188 16.27306 16.28764 16.30306 16.31709 16.33514 16.35439 16.37141 16.38031 16.38131 16.38359 16.38405 16.37358 16.36339 16.35582 16.34548 16.33916 16.33029 16.32363 16.31959 16.30702 16.29292 16.28226 16.27129 16.26888 16.26464 16.25695 16.25047 16.24467 16.24251 16.23789 16.23926 16.23609 16.22719 16.22257 16.21142 16.19891 16.18865 16.16739 16.14305 16.10983 16.07256 16.02487
0 0 0 0 0 19.7041 19.27768 17.96308 16.6742 16.24333 15.53419 15.25147 15.3194 15.39418 15.45954 15.52007 15.56343 15.59671 15.62439 15.65407 15.68165 15.70652 15.72683 15.74927 15.76854 15.78671 15.80516 15.82568 15.84028 15.85216 15.86009 15.86616 15.87429 15.87657 15.87866 15.88036 15.88077 15.88307 15.89587 15.90745 15.92286 15.93376 15.94807 15.95623 15.96679 15.97366 15.97918 15.98822 15.99954 16.01449 16.02951 16.04756 16.0658 16.0878 16.10711 16.1235 16.13979 16.14581 16.15253 16.16291 16.17148 16.18243 16.19473 16.214 16.23348 16.25341 16.2734 16.29687 16.32002 16.33317 16.34903 16.36655 16.38235 16.3956 16.40436 16.40811 16.40739 16.40174 16.39281 16.38198 16.37116 16.35954 16.3503 16.34077 16.32841 16.32289 16.31065 16.29973 16.29391 16.28988 16.28417 16.27807 16.27538 16.26824 16.26407 16.26414 16.25977 16.25554 16.25529 16.25623 16.2482 16.23861 16.22422 16.21637 16.19778 16.17461 16.1505 16.11751 16.07593
0 0 0 0 18.76375 18.43348 16.69645 16.24983 15.86221 15.20806 15.25235 15.31365 15.3878 15.44897 15.51081 15.56471 15.60276 15.63375 15.6634 15.69061 15.7171 15.73639 15.76102 15.7815 15.79756 15.81565 15.83237 15.84727 15.86045 15.87415 15.87854 15.88167 15.88704 15.88683 15.89087 15.88955 15.88693 15.89059 15.9011 15.9125 15.92065 15.93841 15.94929 15.95639 15.96575 15.97301 15.97805 15.98265 15.99041 16.00385 16.0199 16.02989 16.05081 16.07111 16.09408 16.11073 16.12694 16.1381 16.14787 16.15825 16.16808 16.18159 16.1983 16.22308 16.2511 16.27529 16.29244 16.31502 16.33696 16.35523 16.37745 16.39104 16.4025 16.41182 16.42018 16.42753 16.42533 16.41326 16.40289 16.39409 16.37988 16.37163 16.36221 16.35268 16.34113 16.32984 16.31577 16.30484 16.30225 16.30267 16.29606 16.29195 16.29057 16.28503 16.2854 16.28732 16.28177 16.28238 16.2845 16.28692 16.28227 16.2728 16.26261 16.25255 16.23826 16.22387 16.2011 16.17071 16.13771
0 0 0 0 19.78574 17.13168 15.23129 15.22103 15.21995 15.26213 15.32604 15.39968 15.45847 15.51452 15.56247 15.60643 15.63436 15.66472 15.69627 15.72218 15.74113 15.76667 15.7861 15.80077 15.81949 15.83166 15.84044 15.85666 15.87172 15.8782 15.88471 15.89227 15.89835 15.90062 15.899 15.89169 15.88999 15.89519 15.90176 15.91047 15.92287 15.93581 15.94699 15.95518 15.96501 15.96572 15.97052 15.9757 15.97852 15.99321 16.00848 16.02142 16.03616 16.05341 16.07195 16.09389 16.11395 16.12921 16.14205 16.15619 16.16974 16.18081 16.20175 16.22613 16.25719 16.2841 16.3063 16.33417 16.35292 16.3733 16.39285 16.40313 16.41692 16.42835 16.42941 16.4322 16.43109 16.42015 16.41217 16.40709 16.40006 16.38713 16.37692 16.36687 16.35678 16.3442 16.33202 16.32265 16.32427 16.32294 16.31714 16.31479 16.3102 16.3055 16.3107 16.31336 16.30653 16.30941 16.31354 16.31373 16.31283 16.30947 16.30239 16.29176 16.28511 16.27369 16.25319 16.22991 16.20055
0 0 0 18.90983 18.50613 16.67717 15.19973 15.21797 15.26623 15.3377 15.40712 15.46808 15.52104 15.5673 15.6045 15.64044 15.67053 15.69207 15.71836 15.74337 15.76895 15.78938 15.80162 15.81215 15.82402 15.83437 15.84513 15.85585 15.86999 15.87934 15.88565 15.89941 15.90686 15.90949 15.90553 15.90153 15.8952 15.89684 15.90048 15.90633 15.91563 15.92695 15.93733 15.94921 15.96172 15.96189 15.96543 15.96967 15.96886 15.98392 16.00092 16.01214 16.02753 16.04323 16.06489 16.08617 16.10414 16.11873 16.1366 16.15417 16.17127 16.18714 16.20482 16.23448 16.26359 16.28891 16.31441 16.33803 16.36242 16.3836 16.40348 16.41686 16.42751 16.43253 16.43404 16.43524 16.42984 16.4244 16.42093 16.41798 16.40923 16.40171 16.38974 16.38199 16.3713 16.36678 16.35779 16.35135 16.35333 16.35077 16.35282 16.35013 16.34299 16.34174 16.34751 16.34209 16.33634 16.33933 16.34699 16.35023 16.35029 16.34664 16.3379 16.33266 16.32978 16.31961 16.30095 16.28372 16.24734
0 0 0 18.87666 18.47079 16.63643 15.85375 15.23206 15.31776 15.40895 15.46411 15.52242 15.5609 15.59957 15.63368 15.66118 15.69369 15.71474 15.74043 15.76291 15.7814 15.79864 15.81014 15.81348 15.81943 15.83261 15.83866 15.84993 15.8628 15.86803 15.88455 15.89884 15.90885 15.9094 15.90751 15.90026 15.89816 15.89737 15.90253 15.90721 15.91029 15.91613 15.92056 15.93291 15.94618 15.95449 15.95653 15.95804 15.96378 15.97699 15.98724 16.0064 16.02257 16.04121 16.06337 16.07738 16.09366 16.11202 16.13313 16.15277 16.17352 16.19262 16.21426 16.23985 16.2627 16.29006 16.31397 16.34403 16.37218 16.3915 16.41116 16.42719 16.43254 16.43835 16.43774 16.43621 16.43054 16.42935 16.42292 16.41982 16.4141 16.4049 16.39937 16.39034 16.38563 16.38061 16.37952 16.38081 16.38011 16.38037 16.38282 16.38109 16.3745 16.37781 16.37951 16.37978 16.38051 16.38635 16.39724 16.40095 16.40092 16.39666 16.39323 16.38741 16.38236 16.37505 16.35543 16.33508 16.30856
0 0 0 19.67762 18.74235 16.63717 15.50519 15.24263 15.33167 15.43625 15.51225 15.56046 15.59069 15.6282 15.66171 15.68347 15.70305 15.72969 15.74986 15.77104 15.78445 15.79448 15.80052 15.80515 15.81455 15.817 15.82756 15.84584 15.8532 15.86392 15.87774 15.88987 15.90207 15.90878 15.90394 15.89673 15.89792 15.90039 15.90082 15.90633 15.90603 15.90755 15.91187 15.91784 15.92659 15.9321 15.94039 15.94752 15.95294 15.966 15.9775 16.00481 16.02413 16.03876 16.05549 16.07349 16.09201 16.11455 16.12828 16.15239 16.17475 16.1989 16.22286 16.24479 16.26834 16.29375 16.31679 16.34721 16.37551 16.39846 16.41496 16.42601 16.43266 16.43499 16.43761 16.43563 16.43349 16.43123 16.42972 16.42453 16.42112 16.41521 16.41134 16.41015 16.40916 16.40792 16.40823 16.40967 16.40838 16.40685 16.41218 16.41394 16.41453 16.42144 16.42058 16.42081 16.42457 16.43016 16.44212 16.44836 16.45002 16.4453 16.442 16.43785 16.4314 16.41894 16.40768 16.3937 16.37331
0 0 0 19.73228 17.45746 15.83658 15.20095 15.28495 15.38147 15.47692 15.54072 15.57961 15.61435 15.64565 15.67514 15.69601 15.71275 15.72948 15.74302 15.75137 15.75795 15.769 15.77143 15.77547 15.78495 15.79588 15.80561 15.82907 15.84459 15.85595 15.86591 15.88078 15.89498 15.90184 15.89746 15.89264 15.89104 15.89671 15.90279 15.89823 15.90368 15.90554 15.91005 15.91134 15.92059 15.92763 15.93199 15.94507 15.95708 15.97421 15.99042 16.01288 16.03263 16.04819 16.06032 16.07828 16.09712 16.12156 16.14011 16.16352 16.19141 16.21846 16.24285 16.26319 16.2893 16.31176 16.33038 16.35537 16.38299 16.40035 16.41619 16.42945 16.437 16.44058 16.43705 16.43561 16.43685 16.43513 16.43457 16.42954 16.42757 16.42544 16.42203 16.42709 16.43299 16.44114 16.44467 16.4464 16.44668 16.44809 16.45468 16.45649 16.46507 16.47046 16.47211 16.47166 16.47655 16.4853 16.49677 16.50616 16.50941 16.50408 16.49862 16.49384 16.48416 16.47542 16.46436 16.45448 16.43577
15.2518 15.24822 16.58848 17.4681 15.46748 15.16753 15.23633 15.32846 15.42868 15.51267 15.56476 15.6006 15.63291 15.6589 15.68161 15.70397 15.71477 15.72423 15.73333 15.73246 15.73559 15.73696 15.73907 15.73888 15.75609 15.76753 15.79256 15.80837 15.83023 15.85254 15.86152 15.8681 15.88531 15.89257 15.88824 15.88502 15.87973 15.88598 15.89456 15.90288 15.90486 15.91417 15.91377 15.91252 15.91786 15.92495 15.9365 15.94534 15.96592 15.98066 15.99836 16.02149 16.04765 16.066 16.08066 16.09592 16.11426 16.13739 16.16593 16.18847 16.21607 16.24362 16.26732 16.28977 16.30823 16.32591 16.34864 16.37175 16.39183 16.40799 16.42224 16.43437 16.43688 16.44117 16.4433 16.44388 16.44249 16.44398 16.44244 16.43996 16.44067 16.43717 16.44108 16.44712 16.45309 16.46205 16.46966 16.47654 16.48264 16.48639 16.49316 16.50377 16.5092 16.51738 16.52347 16.52459 16.53164 16.53885 16.54966 16.562 16.56395 16.56248 16.56555 16.5632 16.55617 16.54573 16.53162 16.51907 16.50764
15.26002 15.24359 15.24105 15.25738 15.21534 15.25427 15.32637 15.41298 15.48833 15.5549 15.59837 15.62454 15.65171 15.66973 15.68798 15.7016 15.70883 15.71375 15.71357 15.70889 15.71131 15.71436 15.71614 15.72172 15.73341 15.75823 15.77448 15.80148 15.81664 15.8308 15.84439 15.85679 15.87264 15.8775 15.87933 15.88612 15.88459 15.88621 15.8976 15.9091 15.91503 15.92386 15.93049 15.92969 15.93388 15.93372 15.9428 15.95382 15.97078 15.99374 16.01258 16.04084 16.06302 16.08505 16.10233 16.11657 16.14345 16.17046 16.19176 16.21438 16.24263 16.26874 16.29128 16.31209 16.33031 16.34603 16.36894 16.38681 16.40691 16.41917 16.4284 16.43843 16.44075 16.44451 16.44612 16.44574 16.44879 16.44868 16.44753 16.44624 16.44997 16.45451 16.46507 16.47599 16.48296 16.49404 16.50265 16.50678 16.51528 16.52414 16.53845 16.5462 16.55704 16.55977 16.56598 16.57324 16.58204 16.5937 16.59926 16.60879 16.618 16.62519 16.63169 16.62867 16.62613 16.61977 16.61335 16.59563 16.57779
15.32525 15.33047 15.34428 15.36129 15.35411 15.39482 15.45099 15.50898 15.55723 15.60283 15.63174 15.6491 15.66499 15.67841 15.68545 15.69616 15.70279 15.71241 15.70186 15.69552 15.69216 15.69329 15.70176 15.70107 15.71675 15.74144 15.76373 15.78487 15.80562 15.81896 15.83529 15.84645 15.85978 15.87153 15.8777 15.87832 15.88059 15.89457 15.90451 15.91766 15.92278 15.93096 15.93515 15.94032 15.95339 15.95825 15.95408 15.96561 15.9827 16.00469 16.02681 16.05692 16.08616 16.10871 16.13129 16.15382 16.17892 16.20957 16.23292 16.25152 16.27671 16.29944 16.3226 16.342 16.35683 16.37223 16.38653 16.40651 16.42248 16.43303 16.43971 16.45133 16.45612 16.46181 16.46438 16.46565 16.4615 16.45744 16.46002 16.45713 16.46576 16.47044 16.48661 16.49675 16.50579 16.52586 16.54055 16.55167 16.56483 16.58197 16.59619 16.60658 16.61667 16.62217 16.62825 16.63461 16.64061 16.64964 16.66317 16.68102 16.69193 16.7004 16.70116 16.69798 16.69097 16.68512 16.67281 16.65908 16.64504
15.4036 15.4169 15.43461 15.45775 15.47765 15.5028 15.53593 15.56813 15.59759 15.62184 15.64088 15.65815 15.67086 15.67784 15.68914 15.69442 15.6942 15.69699 15.6907 15.68386 15.67755 15.67485 15.68069 15.69116 15.70232 15.72728 15.74848 15.77432 15.78766 15.80345 15.82012 15.8418 15.86088 15.87767 15.88479 15.88518 15.88829 15.90549 15.92205 15.92193 15.92745 15.9355 15.94407 15.95147 15.96453 15.97036 15.97351 15.98542 15.99964 16.02237 16.04679 16.07381 16.10522 16.13133 16.16049 16.18451 16.21173 16.24332 16.26973 16.29688 16.32214 16.33872 16.35683 16.37438 16.3885 16.39967 16.41686 16.43459 16.44594 16.45603 16.45941 16.46691 16.47438 16.48138 16.48677 16.48512 16.48179 16.47805 16.47389 16.47411 16.48124 16.48689 16.50064 16.51544 16.53311 16.55792 16.58028 16.60362 16.62004 16.64184 16.66193 16.66699 16.67899 16.69175 16.69747 16.70861 16.72206 16.73911 16.75823 16.7772 16.78992 16.79596 16.79417 16.78208 16.77734 16.76905 16.75492 16.74273 16.73017
15.49214 15.50167 15.51186 15.52159 15.52891 15.54431 15.56349 15.58128 15.60078 15.61352 15.6327 15.64505 15.6546 15.66315 15.67188 15.68061 15.67948 15.68498 15.67745 15.67433 15.66507 15.66051 15.67232 15.6852 15.70079 15.7327 15.76229 15.77989 15.79244 15.80254 15.82177 15.85131 15.86855 15.89256 15.90971 15.91522 15.9201 15.92998 15.9436 15.94862 15.94636 15.95352 15.96237 15.97572 15.99057 15.99731 16.00442 16.01553 16.03224 16.05689 16.08039 16.1042 16.12882 16.1658 16.19267 16.2207 16.2448 16.27331 16.29488 16.32047 16.34613 16.36829 16.38827 16.40083 16.40912 16.42439 16.44037 16.45332 16.46301 16.46815 16.47095 16.47966 16.48177 16.49164 16.49834 16.49772 16.49251 16.48471 16.48467 16.48614 16.49802 16.50731 16.52392 16.54154 16.56721 16.59799 16.62915 16.65304 16.67813 16.70192 16.71875 16.7294 16.73565 16.74173 16.74877 16.7619 16.77895 16.79125 16.80798 16.83184 16.86009 16.87273 16.86832 16.8567 16.84126 16.83106 16.83084 16.82885 16.82891
15.54356 15.54735 15.54704 15.53696 15.53723 15.54835 15.56241 15.57652 15.58765 15.60735 15.62345 15.63314 15.64048 15.64922 15.65971 15.66864 15.66718 15.66987 15.66754 15.66795 15.66351 15.65839 15.67283 15.68765 15.70923 15.73516 15.76426 15.79542 15.81073 15.82409 15.84439 15.87473 15.89469 15.91475 15.92562 15.94156 15.95447 15.96612 15.97669 15.97901 15.98713 15.99536 16.00782 16.01411 16.02785 16.03893 16.05653 16.07711 16.09406 16.11983 16.1354 16.16077 16.19419 16.22513 16.25606 16.28029 16.30866 16.33559 16.35696 16.37589 16.39699 16.41314 16.42773 16.43413 16.4438 16.45201 16.4644 16.47669 16.48298 16.48998 16.4982 16.50055 16.50797 16.51301 16.51613 16.51266 16.50631 16.50385 16.50768 16.51517 16.53188 16.54715 16.56937 16.5934 16.62807 16.66191 16.70097 16.73304 16.76205 16.78835 16.80046 16.81255 16.81652 16.81779 16.82333 16.8252 16.83444 16.84442 16.8685 16.90196 16.92141 16.9235 16.92124 16.91859 16.91402 16.90893 16.90811 16.90328 16.89552
15.55255 15.55147 15.54829 15.54463 15.53726 15.54115 15.55401 15.5629 15.57725 15.59205 15.60713 15.61404 15.62428 15.63301 15.64796 15.65873 15.66331 15.66822 15.67137 15.67403 15.67165 15.67324 15.68832 15.71695 15.74117 15.76424 15.80005 15.82113 15.84142 15.85785 15.88235 15.90724 15.93057 15.94424 15.96133 15.97756 15.99188 16.00046 16.00917 16.02075 16.03094 16.03876 16.05578 16.06858 16.07833 16.10037 16.12377 16.14735 16.16894 16.19079 16.21619 16.2471 16.27456 16.30154 16.32851 16.35189 16.37459 16.39895 16.42721 16.4463 16.46807 16.48357 16.49867 16.50698 16.50944 16.51296 16.5196 16.52665 16.53378 16.5429 16.54853 16.55343 16.5535 16.55019 16.55239 16.54645 16.54003 16.54064 16.54799 16.56127 16.5787 16.59781 16.62242 16.65101 16.68513 16.72004 16.75845 16.78945 0 0 16.85808 16.88924 16.88532 16.8878 16.89327 16.89373 16.90434 16.9195 16.9264 0 0 16.93838 16.98738 16.9866 16.98151 16.98172 16.98964 16.99066 16.97878
