ncols        109
nrows        82
xllcorner    -1.041666666667
yllcorner    37.041665395101
cellsize     0.083333333333
NODATA_value -9999
0.0 0 0 0 0 0 0 0 0 0 0 0 0 0 0 0 0 0 0 0 0 0 0 0 0 0 0 0 0 0 0 0 0 0 0 0 0 0 0 0 0 0 0 0 0 0 0 0 0 0 0 0 0 0 0 0 0 0 0 0 0 0 0 0 0 0 0 0 0 0 0 0 0 0 0 0 0 0 0 0 0 0 0 0 0 0 0 0 0 0 0 0 0 0 0 0 0 0 0 0 0 0 0 0 0 21.10714 19.59123 17.81539 17.77973
0 0 0 0 0 0 0 0 0 0 0 0 0 0 0 0 0 0 0 0 0 0 0 0 0 0 0 0 0 0 0 0 0 0 0 0 0 0 0 0 0 0 0 0 0 0 0 0 0 0 0 0 0 0 0 0 0 0 0 0 0 0 0 0 0 0 0 0 0 0 0 0 0 0 0 0 0 0 0 0 0 0 0 0 0 0 0 0 0 0 0 0 0 0 0 0 0 0 0 0 0 18.09279 18.10311 17.81958 17.80957 17.79605 17.76909 17.72489 17.6604
0 0 0 0 0 0 0 0 0 0 0 0 0 0 0 0 0 0 0 0 0 0 0 0 0 0 0 0 0 0 0 0 0 0 0 0 0 0 0 0 0 0 0 0 0 0 0 0 0 0 0 0 0 0 0 0 0 0 0 0 0 0 0 0 0 0 0 0 0 0 0 0 0 0 0 0 0 0 0 0 0 0 0 0 0 0 0 0 0 0 0 0 0 0 0 0 0 0 17.86287 17.83942 17.81591 17.79292 17.75632 17.72452 17.69792 17.6516 17.58978 17.53369 17.49429
0 0 0 0 0 0 0 0 0 0 0 0 0 0 0 0 0 0 0 0 0 0 0 0 0 0 0 0 0 0 0 0 0 0 0 0 0 0 0 0 0 0 0 0 0 0 0 0 0 0 0 0 0 0 0 0 0 0 0 0 0 0 0 0 0 0 0 0 0 0 0 0 0 0 0 0 0 0 0 0 0 0 0 0 0 0 0 0 0 0 0 0 0 0 0 0 0 20.0259 17.82482 17.78191 17.71866 17.66433 17.62034 17.59051 17.5512 17.52003 17.47161 17.43041 17.38983
0 0 0 0 0 0 0 0 0 0 0 0 0 0 0 0 0 0 0 0 0 0 0 0 0 0 0 0 0 0 0 0 0 0 0 0 0 0 0 0 0 0 0 0 0 0 0 0 0 0 0 0 0 0 0 0 0 0 20.19465 19.80089 19.51074 19.65748 0 0 0 0 0 0 0 0 0 0 0 0 0 0 0 0 0 0 0 0 0 0 0 0 0 0 0 0 0 0 0 0 0 18.48865 17.88138 17.83114 17.7614 17.7062 17.63586 17.57739 17.52685 17.47629 17.43081 17.38558 17.34443 17.3241 17.29112
0 0 0 0 0 0 0 0 0 0 0 0 0 0 0 0 0 0 0 0 0 0 0 0 0 0 0 0 0 0 0 0 0 0 0 0 0 0 0 0 0 0 0 0 0 0 0 0 0 0 0 0 0 0 0 0 19.71904 19.72995 19.35361 19.07616 18.95652 18.95277 19.09068 19.3383 19.59312 19.71257 19.69018 0 0 0 0 20.09236 0 0 0 0 0 0 0 0 0 0 0 0 0 0 0 0 0 0 0 0 0 19.33744 17.86885 17.86942 17.80856 17.73691 17.65938 17.58508 17.52871 17.47367 17.43161 17.38088 17.33924 17.30443 17.27833 17.24859 17.22612
0 0 0 0 0 0 0 0 0 0 0 0 0 0 0 0 0 0 0 0 0 0 0 0 0 0 0 0 0 0 0 0 0 0 0 0 0 0 0 0 0 0 0 0 0 0 0 0 0 0 0 0 0 0 0 19.80757 19.33032 18.9207 18.67131 18.33694 18.37877 18.40687 18.62536 18.79863 18.99178 19.13607 19.25328 19.49162 19.73548 19.71184 19.65494 19.37443 19.06099 19.10897 19.33263 19.01523 19.04841 0 0 0 0 0 0 0 0 0 0 0 0 0 0 0 18.37384 17.90535 17.84285 17.78457 17.71688 17.63385 17.56477 17.51514 17.45452 17.38829 17.34645 17.28711 17.25978 17.23693 17.21624 17.20194 17.18729
0 0 0 0 0 0 0 0 0 0 0 0 0 0 0 0 0 0 0 0 0 0 0 0 0 0 0 0 0 0 0 0 0 0 0 0 0 0 0 0 0 0 0 0 0 0 0 0 0 0 0 19.39462 19.65987 19.74781 19.40351 18.91258 18.63106 18.28766 18.11405 18.17196 18.20622 18.22775 18.22797 18.48346 18.48882 18.7193 18.69692 18.6979 18.73686 18.6006 18.41317 18.4313 18.1953 18.45715 18.50889 18.80453 0 0 0 0 0 0 0 0 0 0 0 0 0 0 0 0 17.893 17.87874 17.77168 17.67623 17.58384 17.51501 17.4561 17.39893 17.35266 17.30395 17.26765 17.24178 17.22049 17.20612 17.19329 17.18627 17.18355
0 0 0 0 0 0 0 0 0 0 0 0 0 0 0 0 0 0 0 0 0 0 0 0 0 0 0 0 0 0 0 0 0 0 0 0 0 0 0 0 0 0 0 0 0 0 0 0 0 0 19.48179 19.4206 19.10341 18.9915 18.85325 18.50704 18.08925 18.1422 17.93387 17.98112 18.01234 18.03185 18.0465 18.2707 18.26092 18.52056 18.5209 18.53192 18.33432 18.12001 18.1337 18.16271 17.93739 18.19274 18.20751 18.53787 18.58733 18.33457 18.39295 19.00723 19.69219 20.80547 0 0 0 0 0 0 0 19.39187 18.52445 17.94668 17.9156 17.81862 17.6739 17.57312 17.4876 17.42864 17.36929 17.30679 17.26845 17.24909 17.22758 17.21624 17.21222 17.20288 17.19406 17.19518 17.20089
0 0 0 0 0 0 0 0 0 0 0 0 0 0 0 0 0 0 0 0 0 0 0 0 0 0 0 0 0 0 0 0 0 0 0 0 0 0 0 0 0 0 0 0 0 0 0 0 0 20.31019 19.17887 19.0175 18.93005 18.55903 18.3812 18.15569 18.18919 17.97164 18.00354 18.04128 18.07363 18.08775 18.09566 18.34295 18.36173 18.34379 18.34025 18.33189 18.33887 18.12682 18.13856 17.92923 17.68832 17.69557 17.69727 17.73555 17.77657 17.82217 17.87135 17.89588 18.45942 19.28643 0 19.07166 19.87125 20.5026 20.87541 20.4709 19.87063 17.97431 17.98003 17.95976 17.85477 17.71225 17.57961 17.49598 17.39449 17.36074 17.30641 17.26572 17.24524 17.24042 17.2293 17.2376 17.23058 17.22655 17.22589 17.23647 17.24241
0 0 0 0 0 0 0 0 0 0 0 0 0 0 0 0 0 0 0 0 0 0 0 0 0 0 0 0 0 0 0 0 0 0 0 0 0 0 0 0 0 0 0 0 0 0 0 0 0 20.01568 19.0717 18.73323 18.37542 18.18747 18.22362 17.99718 18.02384 18.05278 18.09479 18.11628 18.14426 18.14597 18.14645 18.14347 18.14773 17.90376 17.68074 17.87645 17.88459 17.8847 17.89154 17.6561 17.65142 17.65317 17.67912 17.69543 17.7223 17.75261 17.78081 17.81507 17.8485 17.89048 17.92495 17.9512 17.98256 17.99506 19.39128 19.64991 19.08304 17.91883 17.87992 17.80161 17.70817 17.59062 17.51847 17.44511 17.38338 17.33332 17.28579 17.26524 17.26432 17.26278 17.27008 17.26691 17.27388 17.27026 17.27096 17.2812 17.2856
0 0 0 0 0 0 0 0 0 0 0 0 0 0 0 0 0 0 0 0 0 0 0 0 0 0 0 0 0 0 0 0 0 0 0 0 0 0 0 0 0 0 0 0 0 0 0 0 0 19.71787 18.95055 18.5859 18.18741 18.24886 18.03144 18.07122 18.08819 18.11761 18.14434 18.16961 17.93099 17.93703 17.92909 17.91877 17.89853 17.65501 17.64362 17.64229 17.61815 17.60555 17.5991 17.59262 17.59432 17.60361 17.63444 17.63757 17.63465 17.63872 17.65368 17.68505 17.72066 17.76291 17.79432 17.82127 17.85315 17.88162 17.8889 17.8871 17.85843 17.80063 17.74236 17.66254 17.57216 17.49785 17.43853 17.39553 17.35357 17.30532 17.29196 17.29781 17.30366 17.31582 17.32152 17.32273 17.32191 17.33134 17.32484 17.32891 17.33553
0 0 0 0 0 0 0 0 0 0 0 0 0 0 0 0 0 0 0 0 0 0 0 0 0 0 0 0 0 0 0 0 0 0 0 0 0 0 0 0 0 0 0 0 0 0 0 0 0 19.60092 18.76353 18.40534 18.19191 18.01003 18.07406 18.12374 17.90628 17.91614 17.6687 17.66214 17.65639 17.65259 17.65064 17.6448 17.62649 17.61263 17.60272 17.58064 17.54665 17.52682 17.52567 17.51696 17.5146 17.5032 17.51584 17.51063 17.51355 17.53262 17.55576 17.58235 17.61157 17.6374 17.66599 17.67835 17.68542 17.70174 17.69888 17.67565 17.63555 17.58692 17.54079 17.49589 17.44096 17.41044 17.37704 17.35373 17.34135 17.3026 17.31189 17.32379 17.32921 17.34403 17.3548 17.37052 17.37514 17.37892 17.38935 17.38409 17.38973
0 0 0 0 0 0 0 0 0 0 0 0 0 0 0 0 0 0 0 0 0 0 0 0 0 0 0 0 0 0 0 0 0 0 0 0 0 0 0 0 0 0 0 0 0 0 0 0 0 19.4352 18.79762 18.41 18.20356 18.00714 18.07153 17.8656 17.65847 17.66481 17.65255 17.63349 17.60958 17.59303 17.57902 17.56141 17.54536 17.52547 17.51417 17.49366 17.47867 17.4647 17.45192 17.43826 17.43047 17.41063 17.39619 17.37321 17.37667 17.38436 17.41356 17.42613 17.45078 17.46895 17.48035 17.50087 17.51842 17.53144 17.52932 17.50956 17.4722 17.42308 17.39193 17.36254 17.34819 17.33042 17.31382 17.30911 17.31629 17.32592 17.33944 17.35527 17.3669 17.37896 17.39204 17.41078 17.41825 17.43556 17.4449 17.44507 17.44713
0 0 0 0 0 0 0 0 0 0 0 0 0 0 0 0 0 0 0 0 0 0 0 0 0 0 0 0 0 0 0 0 0 0 0 0 0 0 0 0 0 0 0 0 0 0 0 0 0 19.49683 18.59368 18.13777 18.21492 18.03338 18.08331 17.83919 17.6033 17.60974 17.61394 17.58376 17.5498 17.5291 17.51287 17.50136 17.48185 17.45986 17.43411 17.41925 17.4 17.37178 17.35115 17.31901 17.30769 17.30252 17.29297 17.28913 17.29284 17.30282 17.31781 17.32966 17.33709 17.33601 17.34196 17.34139 17.35719 17.36055 17.35043 17.34599 17.34338 17.32539 17.3137 17.30962 17.30741 17.30898 17.30901 17.31765 17.33523 17.34753 17.36468 17.37759 17.38864 17.40425 17.42312 17.44181 17.45957 17.47234 17.47852 17.47916 17.4811
0 0 0 0 0 0 0 0 0 0 0 0 0 0 0 0 0 0 0 0 0 0 0 0 0 0 0 0 0 0 0 0 0 0 0 0 0 0 0 0 0 0 0 0 0 0 0 0 0 18.91678 18.65984 18.16515 17.98041 17.82802 17.84446 17.57956 17.57835 17.57212 17.53505 17.51108 17.48415 17.45362 17.42825 17.42658 17.41985 17.40531 17.3877 17.36794 17.35834 17.34014 17.29333 17.25233 17.2216 17.21456 17.21477 17.22027 17.22215 17.23132 17.2308 17.23416 17.24223 17.24131 17.24661 17.25146 17.26282 17.27144 17.26959 17.26774 17.26959 17.28006 17.29662 17.30115 17.30248 17.31673 17.32802 17.34436 17.3638 17.37776 17.38632 17.39757 17.41309 17.43287 17.45807 17.47618 17.49161 17.50395 17.5103 17.51432 17.5235
0 0 0 0 0 0 0 0 0 0 0 0 0 0 0 0 0 0 0 0 0 0 0 0 0 0 0 0 0 0 0 0 0 0 0 0 0 0 0 0 0 0 0 0 0 0 0 0 0 0 18.32222 18.23578 18.041 17.61383 17.5958 17.56657 17.5618 17.52224 17.49095 17.47293 17.45037 17.4332 17.40774 17.37408 17.36727 17.36011 17.34558 17.33485 17.32079 17.29796 17.26367 17.22922 17.19978 17.17846 17.17081 17.18157 17.19147 17.19189 17.17933 17.17528 17.17703 17.171 17.16662 17.17613 17.19189 17.20432 17.21627 17.23006 17.24873 17.26483 17.28786 17.29987 17.3137 17.33786 17.3615 17.38249 17.39444 17.4007 17.41653 17.43511 17.45445 17.47261 17.49202 17.5158 17.52345 17.52838 17.53665 17.54477 17.56301
0 0 0 0 0 0 0 0 0 0 0 0 0 0 0 0 0 0 0 0 0 0 0 0 0 0 0 0 0 0 0 0 0 0 0 0 0 0 0 0 0 0 0 0 0 0 0 0 0 0 18.54636 18.00395 17.59029 17.61445 17.58092 17.55571 17.52268 17.48958 17.4673 17.44643 17.43278 17.39343 17.38193 17.37267 17.35451 17.34136 17.33765 17.32331 17.31496 17.3025 17.27478 17.23907 17.20813 17.17977 17.16746 17.16772 17.16641 17.15556 17.15014 17.14881 17.14026 17.14102 17.1472 17.15406 17.16552 17.18264 17.20527 17.22644 17.24893 17.27188 17.29294 17.31829 17.34052 17.36524 17.3931 17.41477 17.4278 17.43511 17.44398 17.46531 17.4939 17.51073 17.52197 17.54136 17.55484 17.56158 17.56149 17.57539 17.59032
0 0 0 0 0 0 0 0 0 0 0 0 0 0 0 0 0 0 0 0 0 0 0 0 0 0 0 0 0 0 0 0 0 0 0 0 0 0 0 0 0 0 0 0 0 0 0 0 0 0 0 0 17.61315 17.59882 17.56506 17.52526 17.50257 17.46574 17.45129 17.44664 17.41365 17.39262 17.38193 17.37795 17.37595 17.35766 17.37655 17.38159 17.3489 17.34604 17.33356 17.30257 17.27449 17.23531 17.1806 17.188 17.17629 17.15827 17.15453 17.15396 17.1456 17.13888 17.1442 17.15041 17.16942 17.18405 17.21229 17.23435 17.26113 17.28628 17.3124 17.34295 17.37316 17.40526 17.43733 17.46515 17.48521 17.488 17.50426 17.51273 17.52707 17.55177 17.56593 17.57743 17.58404 17.59274 17.59394 17.60045 17.61826
0 0 0 0 0 0 0 0 0 0 0 0 0 0 0 0 0 0 0 0 0 0 0 0 0 0 0 0 0 0 0 0 0 0 0 0 0 0 0 0 0 0 0 0 0 0 0 0 0 0 20.28114 18.45414 17.89486 17.59953 17.55264 17.52123 17.4746 17.46389 17.44496 17.41293 17.38757 17.39216 17.38632 17.38814 17.39508 17.40679 17.41107 17.39274 17.40424 17.41163 17.38682 17.35923 17.32576 17.2886 17.25691 17.2134 17.18105 17.17225 17.16718 17.16363 17.15553 17.1511 17.15695 17.16667 17.18197 17.20673 17.23616 17.26319 17.28498 17.31923 17.35464 17.39092 17.42099 17.45344 17.48194 17.50822 17.52639 17.53651 17.54866 17.55762 17.56687 17.58694 17.60356 17.61762 17.63104 17.62518 17.62127 17.63155 17.64814
0 0 0 0 0 0 0 0 0 0 0 0 0 0 0 0 0 0 0 0 0 0 0 0 0 0 0 0 0 0 0 0 0 0 0 0 0 0 0 0 0 0 0 0 0 0 0 0 0 0 19.53868 18.47513 18.1761 17.60184 17.54262 17.5044 17.47575 17.43997 17.42517 17.40645 17.41058 17.41634 17.41295 17.42296 17.43488 17.43495 17.43158 17.43221 17.43994 17.45261 17.4532 17.42533 17.37145 17.33671 17.28937 17.25496 17.22704 17.20796 17.19444 17.19727 17.19168 17.19781 17.20378 17.21674 17.23442 17.25342 17.27756 17.28856 17.31749 17.35974 17.40558 17.44565 17.48355 17.51087 17.5361 17.56579 17.58288 17.59589 17.60123 17.6071 17.60529 17.61319 17.62612 17.64488 17.65827 17.64898 17.64477 17.65291 17.67367
0 0 0 0 0 0 0 0 0 0 0 0 0 0 0 0 0 0 0 0 0 0 0 0 0 0 0 0 0 0 0 0 0 0 0 0 0 0 0 0 0 0 0 0 0 0 0 0 0 0 0 18.51151 17.88651 17.57639 17.53545 17.4927 17.47635 17.449 17.44086 17.45011 17.44354 17.46032 17.47619 17.49458 17.4987 17.50298 17.49545 17.50419 17.5253 17.54339 17.52656 17.49541 17.43888 17.38333 17.33944 17.29974 17.25756 17.23417 17.22844 17.22906 17.22895 17.2345 17.24504 17.25784 17.27635 17.30267 17.32789 17.34678 17.38296 17.42738 17.47344 17.51586 17.54172 17.56411 17.58192 17.60155 17.62027 17.62896 17.63556 17.63755 17.64353 17.64504 17.65318 17.676 17.6708 17.67367 17.66971 17.68538 17.70758
0 0 0 0 0 0 0 0 0 0 0 0 0 0 0 0 0 0 0 0 0 0 0 0 0 0 0 0 0 0 0 0 0 0 0 0 0 0 0 0 0 0 0 0 0 0 0 0 0 0 0 18.22142 17.62535 17.57203 17.53364 17.50363 17.48678 17.45829 17.45431 17.45943 17.49089 17.54581 17.56209 17.57029 17.58008 17.60154 17.59393 17.58251 17.60407 17.61496 17.59791 17.55582 17.51305 17.43685 17.38853 17.3519 17.31401 17.29897 17.27309 17.27265 17.27725 17.27888 17.28873 17.30146 17.31223 17.32854 17.35851 17.39609 17.44146 17.49534 17.53755 17.56663 17.58817 17.60168 17.62837 17.64592 17.65731 17.66904 17.66901 17.66666 17.67049 17.67997 17.68074 17.68828 17.69753 17.69472 17.70117 17.71639 17.73066
0 0 0 0 0 0 0 0 0 0 0 0 0 0 0 0 0 0 0 0 0 0 0 0 0 0 0 0 0 0 0 0 0 0 0 0 0 0 0 0 0 0 0 0 0 0 0 0 0 0 0 17.71703 17.62581 17.56361 17.52129 17.51679 17.48941 17.49059 17.5241 17.54386 17.56563 17.59443 17.63017 17.64102 17.6504 17.68663 17.71359 17.67729 17.673 17.66492 17.65741 17.61408 17.55567 17.48621 17.4278 17.37841 17.34393 17.31567 17.3034 17.30648 17.31813 17.3388 17.35189 17.36807 17.37653 17.39918 17.42805 17.47103 17.51791 17.55949 17.5894 17.61788 17.63021 17.6443 17.66451 17.68548 17.70081 17.706 17.70244 17.70399 17.70924 17.7039 17.71092 17.71489 17.72083 17.72516 17.73008 17.74099 17.75593
0 0 0 0 0 0 0 0 0 0 0 0 0 0 0 0 0 0 0 0 0 0 0 0 0 0 0 0 0 0 0 0 0 0 0 0 0 0 0 0 0 0 0 0 0 0 0 0 0 20.07531 18.93406 17.72002 17.62448 17.56562 17.5659 17.52465 17.52567 17.52208 17.58251 17.63344 17.67152 17.68718 17.72249 17.73211 17.75388 17.81415 17.81497 17.80259 17.75636 17.74453 17.74387 17.70855 17.66031 17.54928 17.49715 17.43226 17.39151 17.35674 17.35105 17.35863 17.37415 17.39596 17.41293 17.42358 17.44167 17.45969 17.4913 17.54056 17.59057 17.61883 17.65643 17.67503 17.68525 17.69843 17.71846 17.74163 17.75307 17.75902 17.74639 17.74711 17.74229 17.73754 17.74282 17.74736 17.75053 17.76416 17.76345 17.77374 17.78119
0 0 0 0 0 0 0 0 0 0 0 0 0 0 0 0 0 0 0 0 0 0 0 0 0 0 0 0 0 0 0 0 0 0 0 0 0 0 0 0 0 0 0 0 0 0 0 0 18.98893 18.35436 18.03626 17.69644 17.63301 17.60891 17.57826 17.58192 17.58726 17.60779 17.62551 17.68034 17.71 17.74076 17.79187 17.82276 17.87086 17.8925 17.89368 17.87301 17.85279 17.76758 17.78006 17.7476 17.6967 17.61379 17.5428 17.47849 17.43929 17.40867 17.40532 17.43162 17.45853 17.47237 17.49845 17.51474 17.52221 17.53935 17.5747 17.60949 17.63337 17.66821 17.6888 17.70458 17.72045 17.74083 17.77018 17.79777 17.80915 17.80673 17.79827 17.78693 17.79041 17.794 17.79279 17.79388 17.79514 17.79344 17.79959 17.79994 17.8048
0 0 0 0 0 0 0 0 0 0 0 0 0 0 0 0 0 0 0 0 0 0 0 0 0 0 0 0 0 0 0 0 0 0 0 0 0 0 0 0 0 0 0 0 0 18.48597 18.40384 18.98968 18.37096 18.36096 18.03008 17.73005 17.69778 17.6905 17.67855 17.65888 17.64826 17.66148 17.69504 17.72844 17.74461 17.77732 17.8407 17.86608 17.90846 17.90354 17.93934 17.96073 17.92715 17.86709 17.8213 17.76987 17.72071 17.65979 17.58289 17.51376 17.49865 17.48866 17.49268 17.51398 17.53053 17.54934 17.56255 17.57099 17.60534 17.61956 17.64436 17.67752 17.70156 17.72533 17.74483 17.75658 17.76822 17.79877 17.82572 17.8417 17.85211 17.8438 17.83641 17.83206 17.83439 17.84736 17.84445 17.8472 17.84433 17.84167 17.83225 17.82643 17.83412
0 0 0 0 0 0 0 0 0 0 0 0 0 0 0 0 0 0 0 0 0 0 0 0 0 0 0 0 0 0 0 0 0 0 0 0 0 0 0 0 0 0 20.77472 20.45199 19.33647 18.40543 17.79817 17.80319 18.40235 18.07679 17.77593 17.78267 17.78952 17.7793 17.75644 17.74544 17.71828 17.7224 17.73863 17.76798 17.78571 17.82278 17.85955 17.88045 17.90763 17.96381 18.00665 17.99686 17.94809 17.87516 17.85341 17.82662 17.76906 17.71625 17.65704 17.61098 17.59388 17.5837 17.59264 17.6124 17.61913 17.63402 17.63907 17.64889 17.66825 17.69256 17.7142 17.73002 17.75722 17.77797 17.78661 17.79325 17.8091 17.84356 17.86422 17.88517 17.89413 17.89881 17.90193 17.89656 17.89515 17.89962 17.889 17.88342 17.88021 17.87723 17.86897 17.86196 17.86287
0 0 0 0 0 0 0 0 0 0 0 0 0 0 0 0 0 0 0 0 0 0 0 0 0 0 0 0 0 0 0 0 0 0 0 0 0 0 0 0 19.78798 20.25411 20.48523 19.42922 18.41037 17.78827 17.81227 17.83438 17.84009 17.83813 17.85188 17.86211 17.84073 17.8114 17.78163 17.77391 17.77149 17.75241 17.76825 17.79652 17.81982 17.85321 17.87474 17.90911 17.92446 17.95332 17.97205 17.98173 17.95418 17.93045 17.89244 17.89387 17.87016 17.78776 17.71813 17.68732 17.67535 17.65283 17.67035 17.68142 17.70282 17.70967 17.72251 17.73238 17.74207 17.75734 17.78525 17.80633 17.8168 17.82133 17.83032 17.8348 17.85742 17.86928 17.8927 17.904 17.91914 17.92911 17.93608 17.93952 17.94538 17.94116 17.93375 17.9297 17.92538 17.92257 17.91916 17.91363 17.914
0 0 0 0 0 0 0 0 0 0 0 0 0 0 0 0 0 0 0 0 0 0 0 0 0 0 0 0 0 0 0 0 0 0 0 0 0 0 0 20.02501 19.75687 19.11594 18.77949 17.80033 17.80035 17.81764 17.84746 17.87338 17.88799 17.90465 17.92445 17.91278 17.87317 17.83769 17.82261 17.81479 17.80768 17.80614 17.80949 17.82594 17.84807 17.86121 17.90088 17.93269 17.98309 18.02137 18.03997 18.03578 18.01758 18.00107 17.98623 17.98263 17.94253 17.87323 17.82742 17.79976 17.78064 17.76458 17.76615 17.77208 17.78232 17.78343 17.78521 17.77744 17.79152 17.80191 17.83283 17.85889 17.85874 17.86652 17.87877 17.88325 17.89234 17.90848 17.91767 17.93202 17.94615 17.94852 17.9572 17.9627 17.96291 17.96523 17.96737 17.96682 17.97037 17.97131 17.97049 17.96387 17.95562
0 0 0 0 0 0 0 0 0 0 0 0 0 0 0 0 0 0 0 0 0 0 0 0 0 0 0 0 0 0 0 0 0 0 0 0 0 0 19.10298 18.76191 18.44365 17.81381 17.82705 17.85532 17.87891 17.89487 17.90769 17.9274 17.94578 17.9424 17.9403 17.93535 17.93797 17.8827 17.85914 17.85327 17.85172 17.84713 17.85363 17.87798 17.9035 17.91058 17.95839 18.00773 18.02069 18.06223 18.09183 18.09173 18.09388 18.08556 18.07758 18.06437 18.01957 17.97442 17.90252 17.87919 17.86806 17.8544 17.84969 17.83865 17.84871 17.85103 17.83714 17.83646 17.8455 17.87153 17.88861 17.89279 17.89533 17.90005 17.90623 17.90976 17.92239 17.93052 17.94635 17.95689 17.96904 17.97333 17.97873 17.99091 17.99218 17.99513 18.00148 18.01118 18.01954 18.02704 18.02447 18.02078 17.99751
0 0 0 0 0 0 0 0 0 0 0 0 0 0 0 0 0 0 0 0 0 0 0 0 0 0 0 0 0 0 0 0 0 0 20.81153 21.46815 20.59188 18.76906 17.79215 17.7858 17.81045 17.83815 17.86692 17.89279 17.92681 17.93194 17.94824 17.98042 18.00164 18.01924 18.00359 18.00405 18.00054 17.96519 17.93509 17.92695 17.91317 17.90431 17.92231 17.93067 17.9563 17.97744 18.00694 18.03354 18.06426 18.11456 18.13214 18.14076 18.14554 18.14695 18.14322 18.11973 18.0828 18.07584 18.0277 17.97423 17.96906 17.94868 17.91739 17.90023 17.89407 17.89339 17.88523 17.87419 17.89564 17.91075 17.93189 17.93494 17.94354 17.94016 17.95285 17.96311 17.9683 17.97883 17.98262 17.98514 17.99464 17.99935 18.00007 18.00802 18.0173 18.01988 18.02252 18.03619 18.05422 18.06547 18.07313 18.07099 18.04156
0 0 0 0 0 0 0 0 0 0 0 0 0 0 0 0 0 0 0 0 0 0 0 0 0 0 0 0 0 21.30835 20.88684 20.65692 20.63934 20.40874 20.10999 19.47738 17.79275 17.79736 17.79596 17.80682 17.82632 17.85863 17.88847 17.91751 17.95041 17.96939 18.00835 18.03645 18.0598 18.06919 18.06075 18.07125 18.07708 18.04523 17.99971 17.99531 17.9884 17.98152 18.02075 18.00315 18.01582 18.0364 18.0578 18.09336 18.12394 18.14264 18.15582 18.15732 18.15299 18.16329 18.16446 18.15328 18.13811 18.12343 18.09921 18.07915 18.04866 18.0209 18.00722 17.97863 17.96539 17.95874 17.94973 17.94857 17.95341 17.9506 17.96117 17.97283 17.97718 17.97936 17.98605 17.99373 18.00844 18.01202 18.01444 18.01463 18.01252 18.02441 18.03473 18.0415 18.05621 18.05937 18.0588 18.0704 18.0832 18.10126 18.10283 18.08896 18.05461
0 0 0 0 0 0 0 0 0 0 0 0 0 0 0 0 0 0 0 0 0 0 0 0 0 21.07329 20.31719 20.29918 19.29864 18.57356 18.1927 17.83874 17.82788 17.80681 17.78994 17.78891 17.79526 17.80262 17.82125 17.83539 17.85403 17.88371 17.92672 17.98487 18.02997 18.06294 18.10559 18.12352 18.14418 18.15814 18.15183 18.13951 18.14599 18.12312 18.07132 18.06547 18.04654 18.05555 18.03833 18.04204 18.07356 18.09548 18.11909 18.14557 18.16385 18.18274 18.19089 18.18417 18.19245 18.19598 18.20189 18.19143 18.18639 18.16636 18.14716 18.1338 18.12418 18.09857 18.06946 18.05367 18.04391 18.02934 18.02766 18.01959 18.01571 18.0131 18.01009 18.00643 18.01516 18.01856 18.02971 18.03773 18.04239 18.04616 18.03852 18.03958 18.04995 18.05903 18.06753 18.07071 18.08217 18.08508 18.08736 18.09958 18.1191 18.13131 18.13258 18.1082 18.05436
0 0 0 0 0 0 0 0 0 0 0 0 0 0 0 0 0 0 0 0 0 0 0 21.30337 20.42181 19.78216 19.38351 18.99975 17.88552 17.86538 17.83487 17.81073 17.79251 17.77852 17.77727 17.7981 17.81181 17.82371 17.83674 17.8528 17.87811 17.90701 17.96549 18.0156 18.05787 18.09367 18.1275 18.15813 18.17451 18.18989 18.18895 18.18757 18.18683 18.17398 18.14166 18.09876 18.09906 18.0828 18.06812 18.07804 18.11333 18.12189 18.13754 18.15898 18.17145 18.18728 18.19778 18.20289 18.20448 18.21794 18.23729 18.24703 18.2467 18.24069 18.22699 18.21012 18.204 18.1799 18.16342 18.13849 18.13143 18.108 18.0931 18.08192 18.06616 18.05036 18.04542 18.04831 18.04544 18.05031 18.05635 18.06285 18.07059 18.07386 18.08086 18.08867 18.09132 18.10469 18.09772 18.102 18.10605 18.10949 18.11559 18.13068 18.14599 18.15798 18.14485 18.11514 18.04577
0 0 0 0 0 0 0 0 0 0 0 0 0 0 0 0 0 0 0 0 0 0 20.76183 19.87744 19.48348 19.43236 19.03629 18.6215 17.85833 17.82005 17.79536 17.78806 17.77857 17.781 17.79281 17.80314 17.8134 17.83168 17.85359 17.87364 17.87888 17.90356 17.95814 18.01549 18.06129 18.09988 18.13244 18.1629 18.19534 18.19848 18.18827 18.18222 18.187 18.19233 18.17934 18.14854 18.12374 18.1065 18.09351 18.10551 18.12185 18.13802 18.15234 18.16776 18.18377 18.20305 18.2234 18.23033 18.24256 18.24848 18.26437 18.27431 18.28838 18.29019 18.27408 18.25954 18.24811 18.23574 18.21875 18.20366 18.20198 18.19561 18.17522 18.15437 18.13595 18.1299 18.10981 18.10711 18.10213 18.09746 18.09764 18.09186 18.09707 18.10762 18.11408 18.12564 18.12114 18.12307 18.12823 18.1282 18.13141 18.13672 18.14837 18.16892 18.18834 18.19066 18.16534 18.11245 18.04255
0 0 0 0 0 0 0 0 0 0 0 0 0 0 0 0 0 0 0 0 0 22.03098 20.9733 19.8738 19.14303 19.08354 18.65168 18.601 17.83522 17.81362 17.80226 17.79827 17.79381 17.79528 17.8021 17.81537 17.82829 17.84852 17.86627 17.89527 17.906 17.9342 17.98104 18.00555 18.05142 18.1035 18.16542 18.20039 18.20198 18.20037 18.17874 18.17147 18.18553 18.19895 18.18986 18.16289 18.1602 18.14252 18.13409 18.14143 18.14608 18.1542 18.16404 18.18874 18.21843 18.23494 18.25256 18.25697 18.27286 18.29352 18.29246 18.30169 18.31593 18.31729 18.32236 18.32466 18.30713 18.28915 18.27144 18.27046 18.25202 18.24461 18.23283 18.21279 18.20121 18.19216 18.18871 18.1821 18.16906 18.16195 18.15491 18.15055 18.15034 18.1524 18.15896 18.16259 18.16191 18.16357 18.16725 18.16115 18.15981 18.16768 18.18431 18.20262 18.2127 18.21027 18.17434 18.10968 18.03035
0 0 0 0 0 0 0 0 0 0 0 0 0 0 0 0 0 0 0 0 0 0 0 20.48369 19.50244 19.09069 18.65446 18.22824 17.82606 17.80658 17.80302 17.80393 17.7987 17.80663 17.8077 17.81927 17.83861 17.86514 17.88327 17.90577 17.91587 17.94587 17.96064 17.9959 18.06196 18.12757 18.17753 18.18664 18.18508 18.18093 18.17236 18.19582 18.21391 18.21776 18.19318 18.20017 18.21873 18.20943 18.19881 18.20194 18.20336 18.2053 18.20231 18.22362 18.25523 18.26433 18.27773 18.27684 18.28364 18.30624 18.31506 18.32528 18.32951 18.33481 18.36006 18.36812 18.35937 18.36234 18.35166 18.34064 18.33676 18.32714 18.31238 18.29233 18.26614 18.26405 18.26073 18.23534 18.21645 18.21222 18.20225 18.19486 18.19282 18.1952 18.20102 18.2032 18.20604 18.19847 18.19832 18.19486 18.2062 18.2167 18.22729 18.24273 18.24952 18.23298 18.18582 18.11506 18.02239
0 0 0 0 0 0 0 0 0 0 0 0 0 0 0 0 0 0 0 0 0 22.44069 22.08064 21.05533 19.52459 19.10888 18.67484 18.61123 18.1948 17.80549 17.80494 17.80198 17.80574 17.81168 17.8189 17.83446 17.86185 17.88153 17.90509 17.91562 17.92671 17.95276 17.96045 18.01118 18.04725 18.07533 18.11172 18.13829 18.14595 18.15952 18.17385 18.1965 18.21544 18.23134 18.21471 18.23033 18.25105 18.25442 18.25286 18.25337 18.25543 18.25578 18.26385 18.27312 18.2937 18.31098 18.31591 18.3204 18.3171 18.32249 18.34024 18.3387 18.35052 18.37232 18.38124 18.39154 18.40248 18.39872 18.3958 18.39242 18.38405 18.38344 18.37335 18.3536 18.34131 18.32725 18.32064 18.31522 18.29791 18.28065 18.25802 18.25003 18.25077 18.25011 18.24973 18.25002 18.25163 18.23756 18.2319 18.23924 18.24816 18.25353 18.26243 18.27845 18.27844 18.2551 18.2055 18.13033 18.02424
0 0 0 0 0 0 0 0 0 0 0 0 0 0 0 0 0 0 0 22.48877 22.37251 22.24154 21.35364 20.23361 19.53888 19.12617 18.68488 18.99021 17.84043 17.80802 17.80344 17.80173 17.80634 17.80682 17.82367 17.84197 17.86833 17.89588 17.90974 17.92439 17.94005 17.94832 17.96627 17.97853 17.99118 18.01252 18.03491 18.06938 18.1041 18.12649 18.15437 18.18351 18.21166 18.24769 18.25201 18.27231 18.28603 18.29117 18.30076 18.31068 18.31103 18.312 18.31961 18.32083 18.32725 18.33454 18.32788 18.33558 18.34473 18.35637 18.36433 18.36115 18.37524 18.40294 18.41519 18.42455 18.4324 18.44262 18.44803 18.44447 18.4338 18.43236 18.42903 18.41437 18.39829 18.38412 18.36717 18.35343 18.34258 18.33279 18.32301 18.31259 18.31183 18.30924 18.3107 18.31615 18.31046 18.29899 18.29368 18.29815 18.30263 18.30477 18.30867 18.31809 18.31158 18.27614 18.22045 18.14169 18.03625
0 0 0 0 0 0 0 0 0 0 0 0 0 0 0 0 0 0 21.95268 21.80006 21.39415 20.91209 20.26159 19.57978 19.1984 19.1332 18.69234 18.25413 17.84614 17.81343 17.80224 17.80046 17.80211 17.80474 17.82709 17.85584 17.87465 17.90494 17.93306 17.94125 17.95365 17.96173 17.97249 18.00625 18.00908 18.02163 18.04835 18.07535 18.11143 18.13787 18.16843 18.19945 18.2285 18.26154 18.30162 18.30158 18.32274 18.34059 18.33981 18.3423 18.34808 18.35326 18.36293 18.36822 18.37017 18.3681 18.35789 18.35518 18.36031 18.36395 18.37294 18.38182 18.40237 18.42076 18.44127 18.46304 18.48455 18.48717 18.49265 18.49723 18.50021 18.49705 18.49373 18.48596 18.47186 18.45348 18.43516 18.41636 18.40276 18.38487 18.37443 18.3633 18.3573 18.35353 18.35338 18.3526 18.35229 18.35028 18.34645 18.34021 18.34649 18.35517 18.35945 18.3598 18.34871 18.31209 18.25485 18.17375 18.07779
0 0 0 0 0 0 0 0 0 0 0 0 0 0 0 0 0 22.43984 21.851 21.18372 20.63758 19.95821 19.59441 19.56564 19.55305 19.13101 18.70355 17.89427 17.84032 17.81451 17.80625 17.79834 17.81032 17.81923 17.84396 17.86949 17.89517 17.92404 17.94596 17.96891 17.97875 17.99502 18.00738 18.03693 18.06094 18.07536 18.091 18.11721 18.1476 18.18549 18.2232 18.25664 18.26765 18.30811 18.31776 18.33824 18.34986 18.35985 18.37044 18.3882 18.38716 18.39666 18.40043 18.40158 18.39405 18.39096 18.39012 18.38254 18.38365 18.38715 18.39632 18.40692 18.43537 18.45153 18.47246 18.49441 18.50804 18.5303 18.53811 18.54549 18.55085 18.55136 18.55167 18.53814 18.52312 18.50438 18.48817 18.4744 18.46041 18.44055 18.42467 18.41118 18.40663 18.39424 18.3883 18.38946 18.39228 18.38981 18.38934 18.38242 18.38257 18.39012 18.39227 18.39613 18.38599 18.34756 18.28756 18.2148 18.13262
0 0 0 0 0 0 0 0 0 0 0 0 0 0 0 0 21.96383 21.93224 21.04608 20.41058 20.02432 19.6385 19.587 19.57585 19.55788 19.13836 18.68485 17.88404 17.83597 17.82158 17.81393 17.80875 17.8175 17.83848 17.87238 17.89756 17.92537 17.94489 17.96651 17.98183 18.00024 18.01802 18.03858 18.06911 18.11297 18.1358 18.15453 18.17887 18.19635 18.22586 18.26729 18.30007 18.32588 18.34684 18.36554 18.37621 18.39054 18.40095 18.41048 18.41248 18.42951 18.42993 18.43658 18.42602 18.41174 18.41006 18.40741 18.40362 18.39877 18.40116 18.41127 18.4315 18.45416 18.47601 18.50701 18.53222 18.554 18.56885 18.59449 18.6134 18.62282 18.63038 18.62354 18.61183 18.58937 18.5622 18.53879 18.51816 18.4921 18.46885 18.44682 18.43151 18.42682 18.42838 18.42493 18.42344 18.42532 18.42957 18.43295 18.43231 18.43054 18.43996 18.44361 18.44309 18.42795 18.39491 18.34032 18.26744 18.1842
0 0 0 0 0 0 0 0 0 0 0 0 0 0 0 22.55029 21.80579 21.09102 20.44033 20.06096 19.67659 19.64603 19.59049 19.20693 19.16785 18.73904 17.91183 17.86302 17.8311 17.8284 17.82229 17.82481 17.84034 17.86298 17.88864 17.91873 17.95145 17.97343 17.98854 18.00718 18.03753 18.06534 18.09107 18.12774 18.17226 18.20391 18.22128 18.24716 18.26816 18.28901 18.31898 18.3553 18.37483 18.39877 18.40903 18.41984 18.43501 18.44222 18.45626 18.47418 18.47298 18.47629 18.46862 18.45559 18.44416 18.43547 18.4188 18.4162 18.41308 18.41224 18.42238 18.4441 18.46793 18.49867 18.52933 18.55696 18.58563 18.61221 18.63985 18.65883 18.66549 18.67139 18.67067 18.65859 18.63529 18.61234 18.58664 18.56589 18.54342 18.51204 18.4837 18.46776 18.46217 18.46619 18.45956 18.46327 18.46039 18.46009 18.461 18.46305 18.46723 18.47395 18.47841 18.47993 18.47099 18.44631 18.38703 18.32094 18.24879
0 0 0 0 0 0 0 0 0 0 0 0 0 0 21.89647 21.8895 21.1867 20.48985 20.08847 19.6913 19.65009 19.2458 19.18905 19.16006 18.75773 18.30157 17.89114 17.85324 17.84399 17.84248 17.84747 17.85163 17.87255 17.89385 17.91507 17.94108 17.97229 18.00342 18.03354 18.06192 18.10293 18.12854 18.16974 18.22189 18.25844 18.29053 18.31462 18.33425 18.36085 18.39133 18.41342 18.43741 18.4491 18.45728 18.46782 18.47135 18.47503 18.48477 18.49724 18.51444 18.52348 18.52699 18.52314 18.51251 18.48719 18.4645 18.44852 18.43149 18.42326 18.41842 18.42209 18.44213 18.47962 18.51961 18.55688 18.5856 18.62762 18.6596 18.6816 18.69358 18.69644 18.70124 18.69317 18.67782 18.66486 18.65037 18.62773 18.60544 18.57159 18.54485 18.52366 18.50566 18.49896 18.49364 18.49263 18.48882 18.49266 18.49378 18.49774 18.50508 18.50768 18.51487 18.51881 18.51411 18.50102 18.47264 18.41794 18.35139 18.27754
0 0 0 0 0 0 0 0 0 0 0 0 0 21.75188 21.93731 21.20877 20.52094 20.13006 19.71192 19.65195 19.24702 19.19961 19.16727 19.14755 18.71616 17.90149 17.88009 17.86182 17.86446 17.86436 17.87415 17.90164 17.91534 17.93746 17.95809 17.98993 18.01407 18.0403 18.08491 18.11815 18.17157 18.20931 18.2535 18.2977 18.33714 18.3617 18.39296 18.42756 18.44585 18.47435 18.48784 18.49428 18.5025 18.50961 18.50688 18.50257 18.50177 18.52233 0 0 0 18.52454 18.53654 18.58353 18.55723 18.51398 18.47784 18.45616 18.43753 18.42391 18.42674 18.44753 18.49006 18.5289 18.57032 18.61705 18.65624 18.68444 18.70298 18.71779 18.72585 18.7249 18.72365 18.71849 18.7041 18.69369 18.67238 18.64829 18.62084 18.58427 18.56267 18.54616 18.52667 18.51992 18.52115 18.5183 18.51766 18.52431 18.5266 18.5326 18.54683 18.56384 18.56505 18.55933 18.5422 18.51483 18.46145 18.38924 18.30115
0 0 0 0 0 0 0 0 0 0 0 0 0 22.11408 21.20425 20.54474 20.10516 19.68995 19.64716 19.2156 19.18674 19.16436 19.14725 17.94742 17.91919 17.89906 17.87947 17.87102 17.87426 17.87712 17.90649 17.93248 17.95756 17.9903 18.01158 18.03765 18.07302 18.11168 18.15537 18.18779 18.23176 18.27801 18.32365 18.37926 18.43105 18.4577 18.47554 18.49905 18.51658 18.53796 18.55186 19.42532 18.55201 18.53685 18.52624 18.93262 19.83342 20.73792 0 0 0 0 0 19.05948 18.60742 18.55727 18.51475 18.47651 18.46493 18.44914 18.45359 18.46742 18.49414 18.54057 18.59986 18.64495 18.68247 18.71652 18.73488 18.74851 18.75534 18.74867 18.75079 18.74259 18.73423 18.72353 18.71051 18.68501 18.66339 18.63602 18.61302 18.59353 18.58129 18.56928 18.56441 18.56229 18.56045 18.5619 18.56353 18.57202 18.58087 18.59835 18.60518 18.59362 18.57316 18.54737 18.4904 18.41702 18.3248
0 0 0 0 0 0 0 0 0 0 0 0 22.25039 21.46257 20.51321 20.09997 19.64128 19.21522 19.18672 19.17031 19.14819 19.13515 18.73419 17.93393 17.90921 17.89641 17.88578 17.87715 17.88656 17.91736 17.94619 17.97317 17.99577 18.02867 18.04928 18.08016 18.11499 18.16346 18.22074 18.24726 18.29695 18.33867 18.38807 18.43805 18.483 18.50845 18.5189 0 0 18.53546 0 20.41224 19.48015 19.00874 19.42449 19.39205 20.27187 20.76332 21.86059 19.38393 18.56185 0 0 0 20.48975 18.57541 18.5258 18.5003 18.4872 18.48388 18.48709 18.49571 18.51806 18.56485 18.62247 18.66527 18.7204 18.76128 18.77307 18.78216 18.7863 18.78892 18.78475 18.77706 18.76989 18.75669 18.73873 18.7209 18.70041 18.67079 18.65383 18.63669 18.62896 18.61945 18.61461 18.60796 18.60588 18.6104 18.61895 18.62035 18.63187 18.64401 18.64597 18.63618 18.61114 18.57837 18.52651 18.4465 18.34144
0 0 0 0 0 0 0 0 0 0 0 21.55648 21.47842 20.48389 20.04076 19.19622 19.17851 19.15621 19.13902 19.13083 19.14469 18.35076 17.95556 17.93717 17.90827 17.90468 17.89582 17.88963 17.91188 17.94724 17.98407 18.01982 18.03996 18.07832 18.103 18.1374 18.18317 18.23538 18.29483 18.31917 18.37277 18.42321 18.45729 18.48261 19.4095 0 0 0 0 0 21.29466 22.17708 21.88396 21.2175 20.79835 20.30027 20.28508 18.95306 18.54892 18.56258 18.56363 18.55932 18.55204 20.79354 21.19919 18.56598 18.53881 18.51897 18.51966 18.51403 18.51605 18.52955 18.55226 18.59321 18.64674 18.69583 18.74313 18.77935 18.78532 18.78734 18.79407 18.80347 18.80596 18.80367 18.80226 18.78662 18.77648 18.76081 18.74381 18.71916 18.69938 18.68434 18.67588 18.66856 18.66104 18.65546 18.65203 18.65955 18.66211 18.66865 18.67921 18.6821 18.68186 18.66679 18.64204 18.61078 18.55903 18.48447 18.37155
0 0 0 0 0 0 0 0 0 0 22.26273 21.53888 20.50881 19.65165 19.165 18.73425 18.72704 18.72633 18.73213 18.74168 18.75741 17.96859 17.96394 17.94719 17.91833 17.91755 17.91678 17.91934 17.94079 17.96926 18.00519 18.03916 18.07325 18.10624 18.1507 18.19475 18.24127 18.30857 18.35973 18.40371 18.46274 18.49489 18.94089 0 0 0 0 0 0 0 0 0 0 0 21.20096 20.79076 19.87234 18.55148 18.56103 18.57195 18.57716 18.57237 18.56278 18.56232 18.55926 18.56294 18.55027 18.54659 18.55041 18.55331 18.55961 18.57377 18.59859 18.63708 18.67188 18.70986 18.75413 18.77952 18.79107 18.79609 18.80283 18.81194 18.81223 18.81765 18.81664 18.8169 18.80592 18.80036 18.78898 18.77622 18.76074 18.74724 18.73739 18.72898 18.71877 18.71474 18.71608 18.72646 18.72655 18.72807 18.73489 18.72551 18.72147 18.69838 18.67356 18.63686 18.58703 18.50511 18.39495
0 0 0 0 0 0 0 0 0 0 21.86642 20.58637 19.72268 19.19211 18.33933 18.29997 17.92447 17.92939 17.96035 17.97075 17.97419 17.97972 17.9734 17.9677 17.95703 17.95665 17.95974 17.97214 17.99507 18.00955 18.03595 18.07451 18.10815 18.15319 18.19791 18.24335 18.29458 18.34912 18.41983 18.4723 19.86876 0 0 0 0 0 0 0 0 0 0 0 0 0 21.87566 20.38315 18.59275 18.58853 18.60471 18.62054 18.61576 18.61216 18.61009 18.59944 18.58865 18.57908 18.58225 18.58341 18.59062 18.5926 18.60097 18.61843 18.63312 18.66577 18.69783 18.73464 18.76565 18.78614 18.80177 18.81592 18.82055 18.82229 18.8278 18.84067 18.8462 18.84345 18.83957 18.82958 18.82218 18.8148 18.80187 18.79232 18.78892 18.77521 18.76654 18.76685 18.76837 18.77614 18.7818 18.78784 18.79059 18.77682 18.759 18.73836 18.71076 18.66427 18.61073 18.5286 18.42043
0 0 0 0 0 0 0 0 0 21.98581 21.3534 20.19503 19.24439 18.34765 17.92214 17.89728 17.90198 17.9178 17.93844 17.95237 17.97369 17.98324 17.98163 17.98605 17.99233 17.98798 17.99278 18.01108 18.04056 18.0604 18.08664 18.11863 18.15893 18.20218 18.24859 18.30116 18.34914 18.41023 18.47249 19.39536 19.63843 0 0 0 0 0 0 0 0 0 0 0 0 21.10899 20.85938 19.514 18.61376 18.61921 18.6392 18.64486 18.64222 18.64436 18.64093 18.63937 18.62906 18.623 18.61943 18.6188 18.63537 18.63772 18.64491 18.65551 18.67165 18.68611 18.70608 18.73316 18.76721 18.79581 18.81796 18.82584 18.83474 18.84068 18.85003 18.85841 18.86059 18.86276 18.86647 18.86648 18.85677 18.85212 18.84172 18.83724 18.83424 18.8302 18.82464 18.81691 18.81775 18.82421 18.83522 18.83547 18.82937 18.81894 18.7977 18.76961 18.73677 18.68567 18.62177 18.53778 18.43845
0 0 0 0 0 0 0 0 22.71868 21.69991 20.26176 19.29208 18.7543 17.92542 17.88353 17.86368 17.87755 17.90695 17.92835 17.94389 17.96663 17.97206 17.97993 17.98579 17.9977 18.00814 18.02761 18.04561 18.076 18.10566 18.13184 18.16281 18.19816 18.24295 18.28897 18.32522 18.37333 18.42704 18.88262 19.37592 19.88562 20.8326 0 21.75375 22.42158 0 0 0 0 0 0 0 21.95128 20.87923 19.97938 18.61945 18.62132 18.63876 18.65935 18.67946 18.68359 18.67579 18.66985 18.66374 18.66405 18.66842 18.6638 18.66567 18.6661 18.6814 18.6915 18.69718 18.71264 18.72085 18.7427 18.76736 18.79719 18.8263 18.84776 18.86736 18.87733 18.88691 18.89023 18.89704 18.89555 18.89782 18.89498 18.89474 18.88749 18.88678 18.88104 18.87327 18.87297 18.87998 18.87599 18.86512 18.86875 18.88462 18.89255 18.8854 18.87567 18.85845 18.83991 18.80966 18.76234 18.70773 18.636 18.55086 18.45698
0 0 0 0 0 0 0 0 22.71307 21.67751 20.23912 19.25113 17.95977 17.88531 17.84217 17.82939 17.85299 17.88443 17.91294 17.94159 17.96129 17.97242 17.98276 17.99291 18.01737 18.03965 18.06385 18.09078 18.12782 18.16654 18.20678 18.24344 18.27469 18.31101 18.33071 18.36521 18.40103 18.42858 18.46135 18.92671 19.40485 19.88585 20.37944 20.86689 21.73312 0 0 0 0 0 0 21.33615 20.46607 20.43335 18.61994 18.63603 18.65173 18.67348 18.69988 18.7195 18.72309 18.71492 18.70509 18.69906 18.69745 18.69763 18.69257 18.69396 18.69694 18.70816 18.71695 18.72166 18.72958 18.75257 18.77619 18.80439 18.83303 18.86437 18.88588 18.90112 18.91814 18.93155 18.93429 18.93935 18.94652 18.94253 18.93774 18.93253 18.93394 18.93458 18.92169 18.92438 18.92046 18.92613 18.92257 18.91633 18.91698 18.92611 18.92988 18.92374 18.91399 18.90067 18.87231 18.82641 18.77691 18.71659 18.64721 18.56296 18.47158
0 0 0 0 0 0 0 0 0 21.70176 20.2449 19.27307 17.94253 17.85389 17.80934 17.80417 17.82456 17.85765 17.89373 17.92709 17.94988 17.96805 17.98184 18.00533 18.02925 18.06942 18.10307 18.14123 18.18259 18.23274 18.28025 18.30981 18.34189 18.36028 18.39076 18.40883 18.4278 18.45083 18.47436 18.47727 18.50414 18.53093 18.55074 18.98673 19.93312 20.85308 21.73619 22.1111 0 0 21.66017 20.45851 19.53249 18.62157 18.6311 18.65855 18.68916 18.71502 18.73894 18.76087 18.76372 18.75671 18.74716 18.7433 18.73839 18.73162 18.72455 18.723 18.72151 18.7284 18.74207 18.74871 18.75962 18.78264 18.81094 18.84111 18.86962 18.89416 18.91531 18.93631 18.95188 18.96391 18.96848 18.97467 18.97722 18.96851 18.97376 18.97754 18.97785 18.9813 18.97831 18.9757 18.97624 18.97879 18.97847 18.96936 18.96523 18.96179 18.96119 18.9508 18.9412 18.9198 18.88431 18.84065 18.7879 18.72321 18.65066 18.56515 18.47828
0 0 0 0 0 0 0 0 0 22.55254 21.04947 19.77473 18.34766 17.84679 17.78638 17.7641 17.79044 17.82857 17.86787 17.90966 17.93642 17.96093 17.98629 18.01742 18.0582 18.10561 18.15764 18.21721 18.2615 18.31111 18.33985 18.36206 18.37618 18.39386 18.41769 18.42914 18.44285 18.46344 18.48629 18.49444 18.5184 18.53961 18.56558 18.56743 19.00707 19.48084 19.94145 20.39168 21.69248 20.44495 19.04279 18.6055 18.6155 18.64395 18.67093 18.68774 18.72139 18.75004 18.76292 18.77463 18.78723 18.78472 18.77587 18.77723 18.76769 18.75859 18.75854 18.75666 18.75556 18.76768 18.77679 18.79244 18.80233 18.8184 18.84838 18.88439 18.90297 18.93128 18.94926 18.96551 18.98006 18.99204 19.0005 19.00545 19.00849 19.01183 19.00959 19.01185 19.01371 19.01041 19.00728 19.00816 19.00902 19.01595 19.01042 19.00773 19.00013 18.99321 18.99092 18.98352 18.9665 18.94512 18.90398 18.85455 18.80181 18.73621 18.65641 18.565 18.47518
0 0 0 0 0 0 0 0 0 22.70186 21.96794 20.24003 18.79125 17.87459 17.77825 17.7398 17.75559 17.79523 17.83329 17.87329 17.91146 17.94696 17.99807 18.03875 18.09415 18.16107 18.22931 18.29048 18.34733 18.36876 18.39709 18.41057 18.42688 18.43049 18.43433 18.44688 18.45383 18.4774 18.50028 18.51425 18.53769 18.5626 18.57631 18.5981 18.59447 18.59616 19.04254 0 20.43286 19.0518 18.61767 18.62705 18.65164 18.69021 18.72622 18.7395 18.76169 18.77884 18.79019 18.79946 18.80113 18.80098 18.79898 18.79959 18.79826 18.79222 18.78336 18.78037 18.77809 18.78839 18.79914 18.80982 18.82834 18.84321 18.87644 18.91281 18.94246 18.96191 18.97704 18.99308 19.0076 19.01706 19.03131 19.03619 19.04086 19.04673 19.04615 19.0495 19.04867 19.0417 19.03509 19.0308 19.03237 19.03368 19.03448 19.02819 19.02654 19.02849 19.02098 19.01328 18.98458 18.95323 18.91434 18.8707 18.80654 18.73357 18.65432 18.56466 18.46029
0 0 0 0 0 0 0 0 0 0 22.41726 21.07074 19.31138 18.31492 17.81197 17.73368 17.72228 17.75307 17.79625 17.84116 17.8949 17.94943 18.00557 18.06706 18.13774 18.20514 18.27266 18.34249 0 0 0 18.67963 18.45205 18.45735 18.45577 18.46661 18.47109 18.49017 18.51766 18.55095 18.56664 18.58044 18.60336 18.61296 18.62835 18.63348 18.65121 19.10369 18.6486 18.64732 18.65371 18.67771 18.70546 18.74219 18.76181 18.78543 18.80299 18.82102 18.82328 18.82466 18.82168 18.8291 18.8302 18.83643 18.83694 18.82171 18.81355 18.81212 18.81274 18.81598 18.83674 18.84891 18.86461 18.88182 18.91115 18.95092 18.96862 18.99078 19.01428 19.02657 19.03533 19.04098 19.04896 19.0627 19.06048 19.06715 19.07115 19.07297 19.06687 19.06652 19.06267 19.0571 19.06025 19.06058 19.05835 19.05153 19.04978 19.05145 19.05099 19.03506 19.00684 18.97105 18.93056 18.86916 18.80549 18.73637 18.65585 18.56452 18.45228
0 0 0 0 0 0 0 0 0 0 0 22.29676 21.00141 19.25983 18.28432 17.82293 17.70983 17.72134 17.76675 17.83016 17.88728 17.95932 18.02579 18.09961 18.1624 18.22478 18.70139 19.15629 0 0 0 19.394 19.71156 18.46868 18.47166 18.47975 18.49072 18.50631 18.53775 18.56849 18.588 18.61588 18.62111 18.63673 18.65558 18.67511 18.68752 18.69598 18.70301 18.69832 18.71355 18.73705 18.76336 18.79474 18.8097 18.82951 18.84462 18.85539 18.85656 18.85796 18.85898 18.85858 18.86603 18.86821 18.86418 18.84834 18.84127 18.83931 18.84286 18.85724 18.8807 18.90492 18.91838 18.9273 18.96087 18.98402 19.00629 19.02835 19.04991 19.0614 19.06236 19.06557 19.07663 19.07796 19.08357 19.0775 19.07805 19.08268 19.07799 19.07265 19.07027 19.07643 19.08004 19.0776 19.07861 19.07649 19.0748 19.06682 19.05607 19.04076 19.01775 18.98334 18.93936 18.88524 18.81635 18.74878 18.66638 18.57681 18.46856
0 0 0 0 0 0 0 0 0 0 0 0 22.35746 21.34273 19.16503 18.25949 17.72148 17.70981 17.7499 17.8174 17.89163 17.98919 18.05908 18.12103 18.17808 18.25316 19.10768 0 0 20.92087 21.00628 19.32568 18.47443 18.47237 18.46553 18.47697 18.49396 18.51766 18.55455 18.59815 18.62031 18.64161 18.66296 18.67704 18.69495 18.71911 18.7271 18.73016 18.72914 18.74408 18.76202 18.78481 18.82196 18.84006 18.85394 18.86944 18.88609 18.89326 18.8993 18.89753 18.90073 18.90401 18.89803 18.89847 18.89331 18.88077 18.87472 18.8749 18.8806 18.89348 18.91681 18.93716 18.94843 18.96913 18.99298 19.01399 19.03941 19.0658 19.07997 19.0854 19.08264 19.09311 19.09902 19.10022 19.09319 19.08757 19.08769 19.0851 19.08468 19.08699 19.09472 19.10196 19.10523 19.10026 19.09768 19.09271 19.08462 19.07801 19.06442 19.04429 19.02207 18.98738 18.94596 18.8908 18.83132 18.76765 18.69156 18.60828 18.50754
0 0 0 0 0 0 0 0 0 0 0 0 0 0 0 19.04056 18.09623 17.71831 17.74929 17.8192 17.91476 18.01393 18.08451 18.13825 18.177 18.6405 18.72753 19.18309 19.63938 22.03283 21.00498 19.3096 18.46587 18.46287 18.46603 18.48711 18.51726 18.53638 18.5799 18.61893 18.64128 18.67516 18.69641 18.71604 18.73267 18.74042 18.74095 18.74759 18.76524 18.76968 18.79727 18.82247 18.86355 18.87445 18.88294 18.89448 18.90431 18.92016 18.9334 18.93382 18.93628 18.9334 18.92815 18.92605 18.93028 18.92394 18.91764 18.92033 18.92841 18.93967 18.96075 18.98495 19.00014 19.01836 19.03887 19.05372 19.08045 19.09977 19.10963 19.1123 19.12186 19.12275 19.11881 19.11611 19.1092 19.11057 19.1113 19.1144 19.11166 19.11002 19.11108 19.1101 19.11067 19.11162 19.10904 19.10715 19.10185 19.09224 19.08195 19.06434 19.04183 19.01334 18.96347 18.91288 18.85552 18.79251 18.72596 18.64451 18.55255
0 0 0 0 0 0 0 0 0 0 0 0 0 0 0 19.8813 18.92883 17.71699 17.75473 17.83641 17.93987 18.04725 18.11382 18.15965 18.21082 18.27266 19.13061 19.20646 19.66362 0 21.04018 18.464 18.46375 18.45491 18.49836 18.50058 18.53107 18.55219 18.5995 18.62668 18.64968 18.68336 18.70277 18.72668 18.74221 18.76039 18.76541 18.77656 18.80089 18.82223 18.84021 18.85523 18.879 18.88913 18.90192 18.91859 18.92658 18.94663 18.95892 18.95925 18.9578 18.95236 18.94555 18.94527 18.94227 18.93744 18.93927 18.94851 18.96128 18.9768 19.00339 19.02777 19.04789 19.06238 19.07387 19.10669 19.11759 19.13716 19.14776 19.15024 19.15185 19.15129 19.15083 19.14238 19.13818 19.13695 19.13625 19.13817 19.12914 19.11456 19.11904 19.11527 19.11821 19.11782 19.1207 19.11919 19.11762 19.11086 19.10151 19.08741 19.06506 19.04458 19.00476 18.96371 18.91304 18.8486 18.7801 18.70769 18.6231
0 0 0 0 0 0 0 0 0 0 0 0 0 21.2269 20.77317 19.83851 18.95883 17.73949 17.75698 17.84573 17.96704 18.08431 18.15393 18.20521 18.25626 18.31429 19.61806 20.10247 20.56709 20.45894 21.49068 18.88966 18.45611 18.46917 18.4898 18.52014 18.54586 18.5776 18.60518 18.62671 18.65043 18.69055 18.71602 18.72374 18.74626 18.76919 18.78937 18.808 18.82421 18.84767 18.88024 18.87814 18.88614 18.90685 18.91955 18.93408 18.95421 18.97035 18.97612 18.98049 18.97776 18.97388 18.96945 18.9668 18.96239 18.96774 18.96811 18.98352 18.99649 19.01595 19.03782 19.06236 19.08733 19.09749 19.11816 19.13659 19.15235 19.16862 19.18452 19.18639 19.19197 19.18743 19.17586 19.18034 19.16933 19.17232 19.1729 19.16734 19.14203 19.13146 19.12635 19.12544 19.12157 19.12878 19.13015 19.12927 19.12439 19.12806 19.12528 19.10584 19.08596 19.06625 19.03178 18.99861 18.95663 18.90378 18.8351 18.76755 18.70036
0 0 0 0 0 0 0 0 0 0 0 0 20.42562 19.94947 19.92897 19.44333 18.5596 17.7826 17.79732 17.87986 17.98042 18.09691 18.16431 18.22922 18.27897 18.34321 19.29293 19.30864 20.13608 21.02209 19.29282 18.43606 18.45637 18.48689 18.51788 18.55743 18.5784 18.58259 18.61102 18.64811 18.66207 18.68399 18.70672 18.73228 18.76187 18.79019 18.81216 18.8203 18.83443 18.84366 18.86234 18.8726 18.88799 18.8982 18.91819 18.93722 18.94918 18.97052 18.97946 18.98372 18.98972 18.98759 18.98965 18.99192 18.99866 18.99957 19.00768 19.01586 19.03018 19.05158 19.08142 19.10877 19.11984 19.13361 19.14606 19.17298 19.18891 19.2007 19.19956 19.20947 19.21017 19.20244 19.19526 19.18907 19.1878 19.18608 19.18818 19.17956 19.16074 19.14303 19.14079 19.14259 19.13383 19.13558 19.13592 19.13727 19.14115 19.14453 19.14662 19.13972 19.12171 19.10723 19.07728 19.04422 19.00097 18.9423 18.87462 18.81832 18.75649
0 0 0 0 0 0 0 0 22.12192 21.61944 20.45507 19.51272 19.49489 19.47153 19.02852 19.02602 18.58261 17.81734 17.85141 17.94146 18.03762 18.13076 18.20687 18.26307 18.31163 18.37212 18.40933 18.42544 18.41496 18.41818 18.41736 18.45171 18.48411 18.51459 18.54269 18.56998 18.59238 18.59852 18.62444 18.6423 18.65949 18.68341 18.705 18.72969 18.75397 18.78264 18.80551 18.81806 18.82565 18.83696 18.8442 18.86531 18.87406 18.89125 18.89869 18.91489 18.93949 18.9582 18.97301 18.97965 18.98534 18.99829 19.0074 19.01311 19.01461 19.02119 19.03343 19.04336 19.05457 19.08003 19.11974 19.14697 19.16278 19.1705 19.18751 19.20639 19.21798 19.22725 19.23458 19.23759 19.23139 19.22297 19.2204 19.21887 19.20429 19.20295 19.19861 19.19015 19.18032 19.16299 19.15442 19.14563 19.14324 19.14027 19.14431 19.14861 19.15361 19.1641 19.17058 19.16655 19.15685 19.14064 19.12263 19.08264 19.04665 18.98991 18.9257 18.87003 18.81582
0 0 0 0 0 0 0 21.14768 21.28847 19.52857 19.04844 19.02923 18.99885 18.99342 19.01053 18.62297 17.83164 17.87064 17.93346 18.00777 18.0953 18.17332 18.24414 18.28916 18.3322 18.38335 18.41401 18.43369 18.43403 18.44217 18.4579 18.47851 18.51645 18.53503 18.56007 18.58443 18.60164 18.61118 18.62711 18.6381 18.65491 18.691 18.69699 18.72376 18.75034 18.76809 18.78565 18.80825 18.83599 18.84372 18.85158 18.86241 18.87647 18.8952 18.90332 18.91627 18.92348 18.93736 18.95685 18.97758 18.99081 19.00658 19.02069 19.02982 19.03304 19.03953 19.0421 19.06279 19.07964 19.11051 19.14078 19.17359 19.17919 19.1928 19.22158 19.23428 19.2523 19.25352 19.2657 19.25908 19.26591 19.26203 19.26138 19.25388 19.23081 19.21776 19.21788 19.21035 19.19703 19.19104 19.18494 19.16749 19.15845 19.15834 19.15978 19.17463 19.1823 19.1879 19.19753 19.19512 19.18897 19.1801 19.15687 19.12795 19.0952 19.04734 18.99093 18.92236 18.86847
0 0 0 0 0 0 21.61511 21.66015 19.52019 18.96856 18.90649 18.8995 18.93383 18.54536 18.21504 17.87294 17.87776 17.94138 17.99876 18.05496 18.1343 18.19041 18.24443 18.29111 18.34226 18.39156 18.42052 18.44071 18.46319 18.47827 18.49288 18.52156 18.54326 18.54823 18.57581 18.5912 18.61087 18.63043 18.64123 18.64991 18.66524 18.68873 18.70665 18.7249 18.7379 18.75627 18.77971 18.79623 18.81687 18.8417 18.84864 18.87048 18.88153 18.89852 18.91104 18.91979 18.926 18.93353 18.94792 18.96965 18.98863 19.00115 19.02136 19.03906 19.05288 19.06138 19.07043 19.0945 19.10591 19.13067 19.159 19.18839 19.21514 19.23292 19.25954 19.27998 19.28516 19.28719 19.2834 19.27795 19.27532 19.27491 19.27614 19.26203 19.2522 19.23727 19.2244 19.21873 19.20947 19.20473 19.2001 19.19187 19.18346 19.18818 19.18097 19.20175 19.20147 19.21601 19.22791 19.22919 19.22762 19.21301 19.19915 19.17713 19.15137 19.11123 19.05674 18.99155 18.93257
0 0 0 0 0 0 22.33768 20.84749 19.42271 18.86364 18.38567 18.4118 18.07087 17.78291 17.87251 17.93281 17.98208 18.02505 18.07017 18.12111 18.17099 18.20275 18.24798 18.30006 18.34981 18.38781 18.41822 18.44928 18.47031 18.4858 18.50752 18.53535 18.54813 18.56978 18.58888 18.59934 18.62005 18.63136 18.64138 18.64737 18.68743 18.70904 18.72197 18.73981 18.75519 18.76961 18.77859 18.79487 18.81327 18.83441 18.84492 18.86239 18.88431 18.90137 18.91067 18.92551 18.9379 18.93916 18.9544 18.97049 18.98974 19.00911 19.02543 19.03479 19.05594 19.07588 19.09063 19.11789 19.12829 19.15323 19.18283 19.21525 19.25649 19.28523 19.31292 19.32293 19.32654 19.32282 19.31294 19.29554 19.29356 19.28406 19.28038 19.2697 19.25469 19.24698 19.23997 19.22716 19.22483 19.22462 19.2297 19.22399 19.22254 19.21363 19.22347 19.23528 19.23172 19.24588 19.25757 19.2556 19.25341 19.24015 19.23505 19.21957 19.20418 19.16651 19.11895 19.06554 19.00237
0 0 0 0 0 22.39845 22.05807 20.80518 19.37439 18.84221 17.9844 17.64593 17.72877 17.82445 17.91496 17.9971 18.05739 18.09521 18.12876 18.16284 18.19842 18.22769 18.26438 18.31893 18.36993 18.40503 18.43449 18.45945 18.4775 18.50174 18.52678 18.544 18.5658 18.58914 18.59524 18.60536 18.61797 18.62704 18.64292 18.66276 18.6976 18.71779 18.73952 18.74214 18.74698 18.76363 18.78034 18.79141 18.80877 18.84203 18.85447 18.86747 18.88252 18.8995 18.91501 18.92606 18.94519 18.95603 18.96413 18.97424 18.9871 18.99874 19.01548 19.03643 19.05469 19.08528 19.10992 19.13501 19.16331 19.19559 19.23458 19.26981 19.30641 19.33182 19.34927 19.35546 19.36212 19.35485 19.34862 19.33567 19.32098 19.30868 19.30002 19.29477 19.27736 19.26732 19.26233 19.25381 19.2552 19.26057 19.26482 19.26007 19.26337 19.25072 19.26407 19.27738 19.27234 19.27562 19.2911 19.29304 19.28909 19.2836 19.25896 19.25231 19.24254 19.21468 19.16759 19.1182 19.05856
0 0 0 0 21.51473 21.32898 19.4169 18.89738 18.40416 17.61294 17.62359 17.69257 17.79158 17.87374 17.95777 18.02784 18.07742 18.11081 18.14662 18.18571 18.22007 18.24936 18.29228 18.33603 18.37783 18.40844 18.43224 18.45546 18.47709 18.51056 18.52956 18.54438 18.56242 18.56824 18.59402 18.60357 18.62164 18.63755 18.65844 18.68383 18.69735 18.71983 18.74312 18.74758 18.76331 18.77156 18.79072 18.80986 18.81333 18.83945 18.85833 18.86577 18.88644 18.90176 18.92292 18.93521 18.9333 18.95039 18.97189 18.98412 18.99451 19.01111 19.02864 19.04664 19.07243 19.10762 19.13668 19.16863 19.19233 19.22084 19.26845 19.30073 19.32424 19.34279 19.35978 19.37567 19.38289 19.37242 19.36703 19.35713 19.34829 19.33335 19.3212 19.30687 19.28934 19.28198 19.28319 19.28045 19.28459 19.28735 19.28038 19.28257 19.28504 19.28271 19.29832 19.30976 19.30353 19.30446 19.31864 19.33224 19.33472 19.32837 19.31186 19.29784 19.27984 19.26086 19.2257 19.17446 19.12103
0 0 0 0 22.43649 19.89502 17.69183 17.64674 17.60677 17.62077 17.67625 17.77313 17.8559 17.93003 17.99118 18.04587 18.07338 18.11946 18.16208 18.19609 18.22946 18.26505 18.30608 18.34107 18.37576 18.3988 18.41601 18.43998 18.46982 18.49485 18.51064 18.52682 18.54021 18.55993 18.58565 18.59303 18.61314 18.64257 18.65908 18.67854 18.70311 18.71402 18.73797 18.75734 18.78726 18.77951 18.79599 18.81509 18.82521 18.84811 18.87232 18.88468 18.89112 18.90659 18.92118 18.93298 18.94532 18.95672 18.97271 18.99155 19.01144 19.03723 19.061 19.0779 19.09926 19.12874 19.15458 19.194 19.22054 19.2508 19.28427 19.30197 19.33011 19.36126 19.36806 19.37598 19.38341 19.36673 19.36589 19.36874 19.36214 19.34632 19.3277 19.31759 19.30213 19.2959 19.30202 19.29953 19.30328 19.30807 19.30784 19.3056 19.30383 19.3031 19.327 19.33359 19.32885 19.33976 19.35503 19.35887 19.36152 19.35866 19.34836 19.34328 19.32046 19.29963 19.27617 19.2341 19.1872
0 0 0 21.72957 21.38129 19.36216 17.62538 17.59933 17.6046 17.66779 17.75298 17.83358 17.90783 17.9691 18.01696 18.05909 18.09479 18.12521 18.16295 18.19276 18.23395 18.25891 18.29158 18.32336 18.35137 18.36628 18.38966 18.41514 18.44807 18.47201 18.47801 18.49886 18.52247 18.55337 18.57193 18.58907 18.60033 18.62127 18.64306 18.66014 18.67624 18.68908 18.71482 18.74191 18.76002 18.76814 18.79686 18.82275 18.8335 18.85871 18.87627 18.88699 18.90506 18.90726 18.93114 18.953 18.96289 18.96522 18.98417 19.01068 19.03955 19.08064 19.09161 19.10733 19.13653 19.15321 19.17914 19.20314 19.22622 19.25622 19.28771 19.31848 19.33945 19.3542 19.36717 19.37494 19.37479 19.36916 19.36998 19.36819 19.3609 19.35421 19.33822 19.32652 19.31153 19.30996 19.31692 19.31675 19.33016 19.32704 19.33442 19.33983 19.33201 19.33423 19.34478 19.34551 19.34334 19.35542 19.36769 19.37881 19.38086 19.37909 19.37468 19.36669 19.35397 19.33384 19.31357 19.28358 19.23255
0 0 0 21.73152 21.36897 19.30699 18.3486 17.58042 17.63077 17.73038 17.79422 17.87904 17.93017 17.98349 18.02287 18.05619 18.09998 18.12894 18.16597 18.18901 18.21072 18.23914 18.26938 18.29706 18.31699 18.34171 18.36064 18.38919 18.42322 18.42913 18.45637 18.48314 18.51281 18.52649 18.56253 18.58058 18.5943 18.60106 18.62107 18.63581 18.64655 18.65897 18.66772 18.68331 18.71562 18.7522 18.78203 18.80488 18.82177 18.85007 18.86326 18.89981 18.91303 18.92458 18.94374 18.94251 18.94663 18.97279 19.00199 19.02937 19.07914 19.09668 19.13114 19.14034 19.15325 19.17854 19.19929 19.22578 19.23543 19.25071 19.28602 19.31288 19.32133 19.34496 19.36023 19.36982 19.3672 19.37057 19.36173 19.36084 19.36011 19.34649 19.34379 19.32451 19.32195 19.30676 19.31102 19.32827 19.33288 19.34497 19.35091 19.35718 19.34599 19.35091 19.35331 19.35506 19.35218 19.36718 19.38069 19.39207 19.40052 19.40327 19.39959 19.39688 19.39238 19.37763 19.35261 19.3249 19.2832
0 0 0 22.3634 21.60248 19.30805 17.93571 17.58241 17.64328 17.74957 17.82749 17.89947 17.93749 17.98453 18.02817 18.06147 18.08564 18.11922 18.14412 18.16701 18.17979 18.20168 18.2311 18.25765 18.28983 18.30352 18.3341 18.37733 18.38614 18.39933 18.41984 18.45218 18.4818 18.51178 18.55051 18.56501 18.58295 18.59884 18.59681 18.61132 18.62915 18.63059 18.63386 18.6457 18.65457 18.70151 18.73897 18.77553 18.79659 18.81463 18.84856 18.89181 18.90865 18.90637 18.91449 18.92463 18.94656 18.98824 19.00462 19.04251 19.08335 19.11907 19.13484 19.16292 19.16655 19.18746 19.20348 19.22234 19.22871 19.2467 19.27384 19.28768 19.30305 19.31676 19.33271 19.3398 19.34594 19.34967 19.35719 19.35621 19.36306 19.34977 19.3483 19.34219 19.33609 19.33015 19.3322 19.33581 19.33639 19.33739 19.35404 19.35934 19.35653 19.36849 19.36235 19.36179 19.36216 19.37612 19.39269 19.40648 19.41002 19.41307 19.41399 19.419 19.41558 19.40337 19.38759 19.36904 19.34518
0 0 0 22.38756 20.21812 18.31889 17.53254 17.57769 17.66047 17.75997 17.8274 17.88622 17.93682 17.97817 18.0176 18.05061 18.07701 18.09827 18.11587 18.11308 18.12087 18.14047 18.15966 18.18271 18.21859 18.25851 18.28168 18.32317 18.3468 18.36248 18.38443 18.41532 18.46123 18.49488 18.52599 18.53896 18.55162 18.5644 18.58476 18.59375 18.60665 18.61201 18.61752 18.62404 18.6399 18.65827 18.7077 18.73641 18.76558 18.80238 18.86252 18.89324 18.9039 18.90284 18.90476 18.92215 18.94334 18.98001 19.00078 19.04612 19.09001 19.12413 19.14863 19.16657 19.17906 19.18162 19.19009 19.20003 19.21751 19.23239 19.24542 19.26726 19.28803 19.29583 19.30416 19.31529 19.33435 19.33543 19.35341 19.35723 19.35588 19.34505 19.32672 19.3341 19.33798 19.34687 19.35251 19.3482 19.34119 19.33853 19.35778 19.35549 19.3745 19.37769 19.37528 19.37804 19.3745 19.39185 19.40992 19.42382 19.42923 19.43589 19.43643 19.43592 19.42895 19.425 19.41619 19.41254 19.38835
17.4515 17.45566 18.98071 20.12965 17.86398 17.46712 17.49885 17.56369 17.67166 17.76039 17.82575 17.87888 17.92842 17.96307 17.99593 18.03262 18.0538 18.07093 18.07827 18.07696 18.0828 18.08226 18.10171 18.11985 18.1554 18.19698 18.24293 18.26499 18.30792 18.34245 18.35622 18.38017 18.43025 18.45967 18.48141 18.50138 18.50814 18.52661 18.55631 18.58537 18.59648 18.60618 18.59912 18.59556 18.60279 18.62852 18.6654 18.70017 18.74096 18.79799 18.84897 18.87616 18.88548 18.90055 18.90436 18.91607 18.92877 18.95605 18.99748 19.03499 19.07273 19.11106 19.12951 19.15346 19.15584 19.15698 19.17797 19.19072 19.19964 19.21244 19.23279 19.2443 19.25855 19.27071 19.28202 19.29722 19.31157 19.32131 19.33154 19.339 19.34317 19.33384 19.32732 19.32907 19.33465 19.3327 19.34355 19.34418 19.34659 19.34428 19.35007 19.36342 19.37118 19.37529 19.38276 19.38383 19.38894 19.39844 19.41508 19.4312 19.44274 19.45001 19.46125 19.46528 19.46235 19.45558 19.44931 19.44077 19.42891
17.45503 17.44797 17.46398 17.47441 17.4572 17.46316 17.51796 17.60573 17.69178 17.7707 17.82682 17.86801 17.91934 17.94717 17.97857 18.00685 18.01834 18.02943 18.03134 18.02969 18.03775 18.03944 18.0551 18.08367 18.1016 18.14777 18.18949 18.24527 18.26807 18.30553 18.3234 18.35261 18.39281 18.41253 18.44038 18.47471 18.49459 18.50375 18.53241 18.56245 18.58082 18.59183 18.59424 18.5785 18.59118 18.61822 18.64082 18.66894 18.72795 18.76417 18.79288 18.84503 18.86629 18.8861 18.89308 18.89626 18.92298 18.95289 18.97096 18.99612 19.04395 19.07901 19.10359 19.11648 19.13354 19.14359 19.16126 19.16721 19.17758 19.19341 19.20747 19.22465 19.2275 19.24661 19.25315 19.26229 19.27793 19.28715 19.30552 19.31059 19.31598 19.31219 19.32254 19.32981 19.32397 19.3276 19.33696 19.32923 19.3314 19.33893 19.34927 19.35951 19.3763 19.37952 19.38834 19.39433 19.40149 19.41128 19.41684 19.43772 19.45588 19.46227 19.48182 19.48656 19.49302 19.49067 19.49024 19.47489 19.45528
17.45587 17.4696 17.48854 17.502 17.52316 17.54643 17.60114 17.67113 17.73212 17.7862 17.83151 17.86731 17.89561 17.92368 17.94039 17.96271 17.98008 17.99848 17.99774 17.99804 17.99543 17.99085 18.01199 18.032 18.06622 18.1137 18.15257 18.20549 18.23708 18.2627 18.29276 18.32255 18.34826 18.37964 18.4086 18.44518 18.46662 18.49345 18.50457 18.53042 18.55536 18.57394 18.56718 18.56132 18.57925 18.59986 18.61373 18.64619 18.69615 18.73468 18.77513 18.80851 18.83304 18.84835 18.87844 18.90545 18.92768 18.96076 18.97641 18.99466 19.02075 19.05085 19.07254 19.09273 19.10254 19.11642 19.13104 19.15285 19.15598 19.16751 19.1826 19.2051 19.20607 19.22007 19.23238 19.24197 19.25183 19.25542 19.27372 19.27444 19.29159 19.28249 19.29647 19.29105 19.28655 19.30041 19.32141 19.32682 19.33299 19.33987 19.3536 19.37006 19.38837 19.40316 19.41268 19.4147 19.41199 19.41624 19.43371 19.46082 19.4789 19.49789 19.50766 19.50991 19.51455 19.5152 19.50276 19.49016 19.47527
17.51611 17.53286 17.55623 17.58603 17.60888 17.63496 17.67158 17.71217 17.75298 17.78572 17.8157 17.8528 17.87522 17.89607 17.91492 17.93137 17.9445 17.95811 17.96751 17.96808 17.95969 17.95223 17.96464 17.99628 18.03342 18.07702 18.10696 18.15085 18.18278 18.21543 18.25302 18.29902 18.33856 18.36625 18.39139 18.42565 18.44216 18.46409 18.4788 18.49328 18.51442 18.52826 18.5366 18.53773 18.55701 18.57257 18.58789 18.61036 18.65564 18.70472 18.73236 18.76653 18.80545 18.82283 18.84593 18.86391 18.88517 18.91804 18.94448 18.9756 19.00528 19.02592 19.05096 19.06928 19.07884 19.08873 19.1078 19.12457 19.1382 19.15358 19.15337 19.17134 19.18218 19.19555 19.2122 19.22089 19.22746 19.23467 19.2365 19.23994 19.24723 19.24484 19.24571 19.25419 19.26811 19.28722 19.31101 19.33079 19.33832 19.35947 19.37986 19.39353 19.41613 19.43886 19.44422 19.44566 19.45166 19.46681 19.48371 19.51034 19.52524 19.5373 19.54405 19.53691 19.54157 19.53754 19.52284 19.51321 19.50187
17.59251 17.60435 17.62129 17.63483 17.6447 17.66316 17.68173 17.70216 17.73679 17.7544 17.78939 17.81098 17.83221 17.84956 17.87027 17.8946 17.90239 17.92445 17.92192 17.93066 17.92615 17.91601 17.93675 17.9632 18.01374 18.06844 18.1109 18.14099 18.17684 18.20506 18.24939 18.30143 18.33773 18.37644 18.41512 18.43943 18.45258 18.46363 18.48426 18.49589 18.50082 18.50552 18.51015 18.52843 18.54323 18.56079 18.57442 18.60003 18.64192 18.67467 18.70672 18.73808 18.7591 18.80096 18.82164 18.85546 18.89557 18.92368 18.95867 18.99438 19.02324 19.04165 19.07035 19.08632 19.09197 19.10844 19.12299 19.13008 19.14831 19.16311 19.17426 19.17981 19.16845 19.18348 19.18526 19.19788 19.21221 19.21165 19.2158 19.21983 19.24729 19.26496 19.28125 19.2875 19.29352 19.32291 19.36579 19.39793 19.42292 19.4322 19.44329 19.45542 19.47408 19.50403 19.51356 19.50291 19.50353 19.51298 19.54103 19.57703 19.60729 19.61382 19.60461 19.6031 19.60569 19.60381 19.60811 19.59529 19.58988
17.63433 17.64599 17.6437 17.63018 17.63221 17.64579 17.66205 17.68053 17.7011 17.73088 17.76079 17.78273 17.7985 17.81388 17.84011 17.86045 17.86258 17.87937 17.8804 17.89172 17.8889 17.88324 17.9121 17.9432 17.99378 18.04836 18.08323 18.13734 18.17527 18.21482 18.26339 18.31124 18.34649 18.38013 18.40431 18.43701 18.46732 18.48888 18.51621 18.50609 18.51844 18.51766 18.52797 18.52127 18.54027 18.55463 18.57833 18.61591 18.64793 18.67536 18.70763 18.74076 18.78935 18.81046 18.84634 18.87832 18.9363 18.97104 19.01182 19.03748 19.07025 19.08732 19.10226 19.10385 19.11328 19.11797 19.1256 19.14729 19.16743 19.18073 19.19444 19.19189 19.19386 19.19901 19.18041 19.19088 19.20088 19.2071 19.21061 19.21999 19.25538 19.27246 19.30084 19.33291 19.36339 19.40767 19.45466 19.5082 19.54498 19.56934 19.57247 19.5743 19.57674 19.58458 19.59592 19.58524 19.57845 19.59404 19.62871 19.67858 19.70588 19.69414 19.68298 19.68003 19.67727 19.67876 19.68199 19.67467 19.66858
17.6163 17.61534 17.61863 17.61911 17.6085 17.61962 17.63377 17.64396 17.66753 17.6882 17.70935 17.7303 17.74915 17.76827 17.79981 17.82748 17.83724 17.85348 17.85992 17.8635 17.86735 17.86923 17.9039 17.95015 17.99668 18.04879 18.10042 18.13073 18.17441 18.21649 18.27618 18.32373 18.36006 18.38863 18.41468 18.44797 18.48376 18.50536 18.5214 18.52275 18.53145 18.54108 18.54519 18.55173 18.54965 18.57326 18.60408 18.63676 18.66632 18.69235 18.74268 18.79179 18.83353 18.86581 18.89746 18.92245 18.97023 19.00808 19.05985 19.10328 19.1427 19.15732 19.17706 19.18359 19.19157 19.19513 19.19563 19.20149 19.20764 19.22316 19.24208 19.24177 19.23005 19.22396 19.20712 19.21317 19.21341 19.21548 19.2244 19.23414 19.26055 19.28842 19.32937 19.36761 19.41817 19.47757 19.53703 19.60203 0 0 19.67985 19.70692 19.68977 19.68084 19.68929 19.68772 19.69852 19.72634 19.73749 0 0 19.72299 19.80896 19.80042 19.78322 19.77732 19.78874 19.78998 19.77989
