ncols        109
nrows        82
xllcorner    -1.041666666667
yllcorner    37.041665395101
cellsize     0.083333333333
NODATA_value -9999
0.0 0 0 0 0 0 0 0 0 0 0 0 0 0 0 0 0 0 0 0 0 0 0 0 0 0 0 0 0 0 0 0 0 0 0 0 0 0 0 0 0 0 0 0 0 0 0 0 0 0 0 0 0 0 0 0 0 0 0 0 0 0 0 0 0 0 0 0 0 0 0 0 0 0 0 0 0 0 0 0 0 0 0 0 0 0 0 0 0 0 0 0 0 0 0 0 0 0 0 0 0 0 0 0 0 0.13505 0.13472 0.13471 0.13472
0 0 0 0 0 0 0 0 0 0 0 0 0 0 0 0 0 0 0 0 0 0 0 0 0 0 0 0 0 0 0 0 0 0 0 0 0 0 0 0 0 0 0 0 0 0 0 0 0 0 0 0 0 0 0 0 0 0 0 0 0 0 0 0 0 0 0 0 0 0 0 0 0 0 0 0 0 0 0 0 0 0 0 0 0 0 0 0 0 0 0 0 0 0 0 0 0 0 0 0 0 0.13507 0.13524 0.13542 0.13557 0.13579 0.13541 0.13521 0.13521
0 0 0 0 0 0 0 0 0 0 0 0 0 0 0 0 0 0 0 0 0 0 0 0 0 0 0 0 0 0 0 0 0 0 0 0 0 0 0 0 0 0 0 0 0 0 0 0 0 0 0 0 0 0 0 0 0 0 0 0 0 0 0 0 0 0 0 0 0 0 0 0 0 0 0 0 0 0 0 0 0 0 0 0 0 0 0 0 0 0 0 0 0 0 0 0 0 0 0.13457 0.13485 0.1351 0.13524 0.13547 0.13546 0.13528 0.13492 0.13452 0.13441 0.13433
0 0 0 0 0 0 0 0 0 0 0 0 0 0 0 0 0 0 0 0 0 0 0 0 0 0 0 0 0 0 0 0 0 0 0 0 0 0 0 0 0 0 0 0 0 0 0 0 0 0 0 0 0 0 0 0 0 0 0 0 0 0 0 0 0 0 0 0 0 0 0 0 0 0 0 0 0 0 0 0 0 0 0 0 0 0 0 0 0 0 0 0 0 0 0 0 0 0.13411 0.13476 0.13516 0.13526 0.13543 0.13569 0.1352 0.13445 0.13448 0.13404 0.13356 0.13331
0 0 0 0 0 0 0 0 0 0 0 0 0 0 0 0 0 0 0 0 0 0 0 0 0 0 0 0 0 0 0 0 0 0 0 0 0 0 0 0 0 0 0 0 0 0 0 0 0 0 0 0 0 0 0 0 0 0 0.13951 0.14135 0.14275 0.14389 0 0 0 0 0 0 0 0 0 0 0 0 0 0 0 0 0 0 0 0 0 0 0 0 0 0 0 0 0 0 0 0 0 0.13403 0.13408 0.13463 0.13535 0.13582 0.13609 0.1363 0.13655 0.13572 0.13474 0.1339 0.13341 0.13281 0.1324
0 0 0 0 0 0 0 0 0 0 0 0 0 0 0 0 0 0 0 0 0 0 0 0 0 0 0 0 0 0 0 0 0 0 0 0 0 0 0 0 0 0 0 0 0 0 0 0 0 0 0 0 0 0 0 0 0.13865 0.13852 0.13932 0.13999 0.14216 0.14269 0.14338 0.14416 0.13431 0.12481 0.11552 0 0 0 0 0.1231 0 0 0 0 0 0 0 0 0 0 0 0 0 0 0 0 0 0 0 0 0 0.13403 0.13394 0.13382 0.13399 0.13433 0.13454 0.13505 0.13476 0.1349 0.13494 0.13438 0.13369 0.13291 0.1324 0.13195 0.13134
0 0 0 0 0 0 0 0 0 0 0 0 0 0 0 0 0 0 0 0 0 0 0 0 0 0 0 0 0 0 0 0 0 0 0 0 0 0 0 0 0 0 0 0 0 0 0 0 0 0 0 0 0 0 0 0.13787 0.14043 0.14179 0.14095 0.14061 0.14274 0.14225 0.14196 0.14239 0.13645 0.13079 0.12606 0.13075 0.12808 0.12715 0.12653 0.12465 0.12336 0.12043 0.115 0.11179 0.11244 0 0 0 0 0 0 0 0 0 0 0 0 0 0 0 0.13376 0.13308 0.13378 0.13385 0.13411 0.13402 0.13419 0.13421 0.13389 0.13349 0.13336 0.13296 0.1325 0.13194 0.13154 0.13116 0.13071
0 0 0 0 0 0 0 0 0 0 0 0 0 0 0 0 0 0 0 0 0 0 0 0 0 0 0 0 0 0 0 0 0 0 0 0 0 0 0 0 0 0 0 0 0 0 0 0 0 0 0 0.12934 0.13042 0.13169 0.13346 0.13703 0.14217 0.1462 0.14519 0.14386 0.14298 0.14197 0.14131 0.14142 0.13963 0.13801 0.13717 0.13291 0.12938 0.12647 0.12541 0.12457 0.12409 0.11734 0.11049 0.10367 0 0 0 0 0 0 0 0 0 0 0 0 0 0 0 0 0.13248 0.13417 0.13415 0.13422 0.1342 0.13393 0.13375 0.13349 0.13298 0.13238 0.13198 0.1316 0.13149 0.13137 0.13098 0.13064 0.13021
0 0 0 0 0 0 0 0 0 0 0 0 0 0 0 0 0 0 0 0 0 0 0 0 0 0 0 0 0 0 0 0 0 0 0 0 0 0 0 0 0 0 0 0 0 0 0 0 0 0 0.12808 0.12865 0.12893 0.12952 0.13045 0.13249 0.13569 0.13775 0.13645 0.13555 0.13494 0.13582 0.1371 0.13868 0.14013 0.14198 0.14412 0.14046 0.1375 0.13503 0.13316 0.13166 0.13049 0.12512 0.11975 0.11422 0.11528 0.11613 0.11665 0.11984 0.12388 0.12727 0 0 0 0 0 0 0 0.12334 0.12718 0.12965 0.13152 0.134 0.13385 0.1337 0.13344 0.13298 0.13253 0.13213 0.13158 0.13103 0.13069 0.13026 0.13009 0.12986 0.12953 0.12936 0.12905
0 0 0 0 0 0 0 0 0 0 0 0 0 0 0 0 0 0 0 0 0 0 0 0 0 0 0 0 0 0 0 0 0 0 0 0 0 0 0 0 0 0 0 0 0 0 0 0 0 0.12849 0.1278 0.12738 0.1276 0.12799 0.12794 0.12858 0.1289 0.13127 0.12961 0.12835 0.12729 0.13024 0.13354 0.13703 0.14131 0.14628 0.15135 0.14834 0.14603 0.14408 0.1416 0.13947 0.13728 0.13329 0.12948 0.12548 0.12633 0.12632 0.12694 0.13181 0.13229 0.13399 0 0.1345 0.13422 0.12608 0.11185 0.10349 0.11017 0.12212 0.12864 0.13008 0.13071 0.13358 0.13322 0.13287 0.13261 0.13206 0.13156 0.13111 0.13061 0.13019 0.12965 0.12909 0.12858 0.12835 0.12838 0.12832 0.12826
0 0 0 0 0 0 0 0 0 0 0 0 0 0 0 0 0 0 0 0 0 0 0 0 0 0 0 0 0 0 0 0 0 0 0 0 0 0 0 0 0 0 0 0 0 0 0 0 0 0.12828 0.12708 0.12632 0.12616 0.12656 0.12762 0.12633 0.12536 0.12506 0.12371 0.1221 0.12049 0.12523 0.13047 0.13568 0.14317 0.15086 0.15928 0.15695 0.15506 0.15371 0.1506 0.14769 0.1448 0.14192 0.1391 0.13664 0.13733 0.13745 0.13817 0.1384 0.13865 0.13864 0.14 0.14168 0.14353 0.12243 0.10179 0.08188 0.0983 0.11585 0.13381 0.13354 0.13333 0.13292 0.13247 0.13211 0.13219 0.13162 0.13119 0.13073 0.13003 0.12927 0.12877 0.12838 0.12793 0.12765 0.12744 0.12725 0.12713
0 0 0 0 0 0 0 0 0 0 0 0 0 0 0 0 0 0 0 0 0 0 0 0 0 0 0 0 0 0 0 0 0 0 0 0 0 0 0 0 0 0 0 0 0 0 0 0 0 0.12911 0.12846 0.1283 0.12847 0.12915 0.13019 0.13009 0.12993 0.13014 0.12866 0.12707 0.12593 0.12934 0.13284 0.13663 0.14169 0.14727 0.15308 0.15156 0.15024 0.14929 0.14711 0.14473 0.14236 0.14035 0.13828 0.13633 0.13653 0.13691 0.13768 0.13779 0.13798 0.13782 0.13841 0.13929 0.1403 0.12643 0.1126 0.09903 0.10972 0.12089 0.13261 0.13209 0.1317 0.13151 0.13111 0.13077 0.13061 0.13042 0.12999 0.12921 0.12873 0.12827 0.12779 0.12737 0.12704 0.12677 0.12678 0.12669 0.12657
0 0 0 0 0 0 0 0 0 0 0 0 0 0 0 0 0 0 0 0 0 0 0 0 0 0 0 0 0 0 0 0 0 0 0 0 0 0 0 0 0 0 0 0 0 0 0 0 0 0.13238 0.13278 0.13118 0.13161 0.13234 0.13305 0.13363 0.13451 0.13536 0.13406 0.1327 0.13183 0.13383 0.13569 0.13784 0.14097 0.14396 0.14711 0.14646 0.14568 0.14516 0.14363 0.1419 0.14024 0.13905 0.13762 0.13636 0.13662 0.137 0.13733 0.13742 0.13742 0.1371 0.13696 0.13687 0.13726 0.13035 0.12347 0.11657 0.12119 0.12611 0.13135 0.13084 0.13061 0.13043 0.13003 0.12979 0.12949 0.12899 0.12856 0.12812 0.12764 0.12723 0.12671 0.12639 0.12616 0.12596 0.12602 0.12622 0.12633
0 0 0 0 0 0 0 0 0 0 0 0 0 0 0 0 0 0 0 0 0 0 0 0 0 0 0 0 0 0 0 0 0 0 0 0 0 0 0 0 0 0 0 0 0 0 0 0 0 0.13399 0.13482 0.13537 0.13471 0.13494 0.13631 0.1379 0.1397 0.14134 0.14029 0.13948 0.13876 0.13922 0.13949 0.13983 0.14031 0.14109 0.14191 0.14143 0.14147 0.14161 0.14049 0.13942 0.13848 0.13795 0.13759 0.13715 0.137 0.13692 0.13713 0.13738 0.13734 0.13662 0.13591 0.13529 0.13492 0.13477 0.13483 0.1346 0.13327 0.1319 0.13058 0.12993 0.12976 0.12986 0.12956 0.12919 0.12826 0.12782 0.1272 0.12678 0.12642 0.1261 0.12578 0.12559 0.12546 0.12554 0.12568 0.12581 0.12592
0 0 0 0 0 0 0 0 0 0 0 0 0 0 0 0 0 0 0 0 0 0 0 0 0 0 0 0 0 0 0 0 0 0 0 0 0 0 0 0 0 0 0 0 0 0 0 0 0 0.13459 0.13493 0.1351 0.13524 0.13605 0.13942 0.13966 0.14003 0.14072 0.13983 0.13906 0.13833 0.13857 0.13902 0.13941 0.13965 0.13974 0.1404 0.14012 0.1398 0.13987 0.13889 0.13803 0.13718 0.13664 0.1361 0.13576 0.13569 0.13559 0.13537 0.13532 0.13467 0.13412 0.13373 0.13333 0.13287 0.13216 0.13198 0.13163 0.13069 0.12971 0.12888 0.12832 0.12813 0.12802 0.12765 0.12707 0.12676 0.12635 0.12604 0.12568 0.1255 0.12536 0.12513 0.12517 0.12522 0.12548 0.12563 0.12583 0.12595
0 0 0 0 0 0 0 0 0 0 0 0 0 0 0 0 0 0 0 0 0 0 0 0 0 0 0 0 0 0 0 0 0 0 0 0 0 0 0 0 0 0 0 0 0 0 0 0 0 0.13532 0.13646 0.13695 0.13813 0.14013 0.14298 0.14157 0.14083 0.13964 0.13875 0.13833 0.13778 0.1381 0.1384 0.1386 0.13868 0.13863 0.13891 0.13878 0.13837 0.13847 0.13752 0.13645 0.13583 0.13521 0.1348 0.13428 0.13394 0.13355 0.13324 0.13295 0.13248 0.132 0.13158 0.13111 0.1306 0.13006 0.12994 0.12963 0.12885 0.1281 0.12738 0.12694 0.12672 0.12648 0.12607 0.12572 0.12538 0.1251 0.12483 0.1247 0.12478 0.12485 0.12486 0.12511 0.12529 0.12554 0.12566 0.12591 0.12607
0 0 0 0 0 0 0 0 0 0 0 0 0 0 0 0 0 0 0 0 0 0 0 0 0 0 0 0 0 0 0 0 0 0 0 0 0 0 0 0 0 0 0 0 0 0 0 0 0 0 0.13903 0.13957 0.14079 0.14402 0.14649 0.1433 0.14107 0.13844 0.13805 0.13767 0.13736 0.13752 0.13762 0.13797 0.1379 0.13784 0.1381 0.13752 0.13721 0.13677 0.13611 0.13514 0.13457 0.13398 0.13345 0.13275 0.13238 0.13189 0.13153 0.13112 0.13068 0.13028 0.12977 0.12919 0.12863 0.12809 0.12779 0.12757 0.12712 0.12653 0.12601 0.1256 0.1253 0.12509 0.12482 0.12458 0.12441 0.1243 0.1241 0.124 0.12423 0.12436 0.12466 0.12499 0.12522 0.12555 0.12572 0.12593 0.12621
0 0 0 0 0 0 0 0 0 0 0 0 0 0 0 0 0 0 0 0 0 0 0 0 0 0 0 0 0 0 0 0 0 0 0 0 0 0 0 0 0 0 0 0 0 0 0 0 0 0 0.14086 0.14131 0.14157 0.14237 0.14465 0.14237 0.14024 0.13839 0.13752 0.13721 0.13672 0.13672 0.13691 0.13721 0.13707 0.13701 0.13687 0.13635 0.13579 0.13543 0.13455 0.1339 0.13322 0.1326 0.13215 0.13147 0.13104 0.13059 0.13016 0.12984 0.12946 0.129 0.12851 0.12803 0.1276 0.12705 0.12697 0.12679 0.12645 0.12616 0.12579 0.1253 0.12507 0.1249 0.12466 0.12442 0.1242 0.12419 0.12416 0.1241 0.12435 0.12439 0.12457 0.12499 0.12522 0.12546 0.12571 0.12596 0.12612
0 0 0 0 0 0 0 0 0 0 0 0 0 0 0 0 0 0 0 0 0 0 0 0 0 0 0 0 0 0 0 0 0 0 0 0 0 0 0 0 0 0 0 0 0 0 0 0 0 0 0 0 0.14188 0.1416 0.1437 0.14143 0.1397 0.13805 0.13725 0.13656 0.1359 0.13583 0.13612 0.13643 0.13609 0.13587 0.13574 0.13514 0.13464 0.13428 0.13346 0.13264 0.13193 0.1314 0.13084 0.13013 0.12976 0.1294 0.12911 0.12878 0.1283 0.12798 0.12753 0.12717 0.12682 0.12647 0.12639 0.12627 0.12603 0.12583 0.1256 0.1253 0.12503 0.12486 0.12454 0.1243 0.1242 0.12411 0.12408 0.12415 0.12422 0.1242 0.12439 0.1247 0.12503 0.1253 0.12559 0.12586 0.12603
0 0 0 0 0 0 0 0 0 0 0 0 0 0 0 0 0 0 0 0 0 0 0 0 0 0 0 0 0 0 0 0 0 0 0 0 0 0 0 0 0 0 0 0 0 0 0 0 0 0 0.14346 0.144 0.14339 0.14235 0.1421 0.14046 0.13915 0.13757 0.137 0.13624 0.1355 0.13537 0.13554 0.13593 0.13531 0.13511 0.13518 0.13443 0.13386 0.13348 0.13263 0.13179 0.13105 0.13043 0.12981 0.12926 0.1288 0.12859 0.12805 0.12768 0.12741 0.12717 0.12691 0.12666 0.12645 0.12621 0.12623 0.12612 0.1259 0.12582 0.12571 0.12545 0.12517 0.12486 0.12458 0.12443 0.12429 0.12428 0.12435 0.12433 0.12427 0.12423 0.12434 0.12471 0.12504 0.12536 0.12559 0.12581 0.12605
0 0 0 0 0 0 0 0 0 0 0 0 0 0 0 0 0 0 0 0 0 0 0 0 0 0 0 0 0 0 0 0 0 0 0 0 0 0 0 0 0 0 0 0 0 0 0 0 0 0 0.14212 0.14395 0.14321 0.14246 0.14176 0.14004 0.13927 0.13756 0.13693 0.13614 0.13531 0.13506 0.1351 0.13527 0.13513 0.13486 0.13478 0.13405 0.13357 0.13319 0.13244 0.13174 0.13096 0.1304 0.12985 0.12929 0.12894 0.12854 0.12824 0.1279 0.12756 0.12734 0.12701 0.12679 0.12654 0.1264 0.12653 0.12658 0.12643 0.12619 0.12596 0.12559 0.12532 0.12513 0.12496 0.12475 0.12451 0.12446 0.12446 0.12446 0.12439 0.12439 0.12452 0.12488 0.12511 0.12538 0.1256 0.12587 0.12611
0 0 0 0 0 0 0 0 0 0 0 0 0 0 0 0 0 0 0 0 0 0 0 0 0 0 0 0 0 0 0 0 0 0 0 0 0 0 0 0 0 0 0 0 0 0 0 0 0 0 0 0.14251 0.14227 0.14181 0.14096 0.13985 0.13919 0.1373 0.13624 0.13555 0.13491 0.13477 0.13486 0.1351 0.13477 0.1346 0.13447 0.13367 0.13313 0.13277 0.13229 0.13162 0.13089 0.13033 0.12975 0.12939 0.12896 0.12855 0.12825 0.12792 0.12764 0.1274 0.12718 0.1269 0.12685 0.1268 0.12698 0.12703 0.12691 0.12659 0.12634 0.12605 0.12574 0.12552 0.1253 0.12499 0.1248 0.1246 0.12447 0.12448 0.12457 0.12456 0.12469 0.12495 0.12512 0.1254 0.12564 0.12598 0.12624
0 0 0 0 0 0 0 0 0 0 0 0 0 0 0 0 0 0 0 0 0 0 0 0 0 0 0 0 0 0 0 0 0 0 0 0 0 0 0 0 0 0 0 0 0 0 0 0 0 0 0 0.14198 0.14166 0.14104 0.14005 0.1391 0.1386 0.13656 0.13555 0.135 0.13455 0.13436 0.13448 0.1345 0.13434 0.13414 0.13411 0.13346 0.1329 0.13254 0.13208 0.13153 0.13102 0.13052 0.1302 0.12958 0.12926 0.12895 0.1286 0.12817 0.12801 0.12778 0.12756 0.12747 0.12741 0.12727 0.12734 0.12745 0.12736 0.12714 0.12696 0.12654 0.12612 0.12597 0.12571 0.12544 0.12519 0.12504 0.12489 0.12479 0.12471 0.12469 0.12472 0.1249 0.12504 0.12524 0.12556 0.12591 0.12623
0 0 0 0 0 0 0 0 0 0 0 0 0 0 0 0 0 0 0 0 0 0 0 0 0 0 0 0 0 0 0 0 0 0 0 0 0 0 0 0 0 0 0 0 0 0 0 0 0 0 0 0.14172 0.141 0.14034 0.1394 0.13836 0.13767 0.13584 0.13504 0.1346 0.13425 0.13431 0.13461 0.13443 0.13413 0.13401 0.1337 0.13322 0.13268 0.13252 0.13206 0.13156 0.13124 0.13077 0.13026 0.12981 0.12955 0.12916 0.12873 0.12827 0.12799 0.12805 0.12779 0.12761 0.1275 0.12746 0.12757 0.12754 0.12733 0.12716 0.12723 0.12704 0.12656 0.12624 0.12596 0.12584 0.1257 0.12549 0.12501 0.12486 0.12474 0.12454 0.12442 0.12466 0.12485 0.12509 0.12538 0.12577 0.12609
0 0 0 0 0 0 0 0 0 0 0 0 0 0 0 0 0 0 0 0 0 0 0 0 0 0 0 0 0 0 0 0 0 0 0 0 0 0 0 0 0 0 0 0 0 0 0 0 0 0.1372 0.13882 0.14166 0.14079 0.14034 0.13929 0.13805 0.13698 0.13524 0.13457 0.13442 0.13391 0.13414 0.13414 0.13421 0.13378 0.13364 0.1336 0.13315 0.13279 0.13255 0.13221 0.13181 0.13129 0.13091 0.1304 0.13 0.12972 0.12935 0.12903 0.12853 0.12823 0.12825 0.12805 0.12791 0.12772 0.12767 0.12771 0.12775 0.12752 0.12737 0.12733 0.12706 0.12693 0.12668 0.12649 0.12627 0.12607 0.1257 0.12521 0.1249 0.12466 0.12453 0.12445 0.12451 0.12478 0.12505 0.12532 0.12552 0.12597
0 0 0 0 0 0 0 0 0 0 0 0 0 0 0 0 0 0 0 0 0 0 0 0 0 0 0 0 0 0 0 0 0 0 0 0 0 0 0 0 0 0 0 0 0 0 0 0 0.13282 0.13577 0.13891 0.14182 0.14062 0.13965 0.13904 0.13779 0.13659 0.13474 0.1345 0.13421 0.13385 0.1338 0.13385 0.13362 0.13325 0.13342 0.13335 0.13317 0.13291 0.13264 0.1324 0.13207 0.13171 0.13121 0.13075 0.13035 0.13005 0.12971 0.12935 0.12901 0.12863 0.1287 0.1286 0.12845 0.12829 0.1281 0.12814 0.12813 0.12808 0.12786 0.12775 0.12748 0.12724 0.1272 0.12687 0.12651 0.12639 0.12592 0.1254 0.12519 0.12492 0.12473 0.12451 0.12468 0.12489 0.12505 0.12531 0.12557 0.12595
0 0 0 0 0 0 0 0 0 0 0 0 0 0 0 0 0 0 0 0 0 0 0 0 0 0 0 0 0 0 0 0 0 0 0 0 0 0 0 0 0 0 0 0 0 0.13754 0.1365 0.13564 0.13508 0.13671 0.13859 0.14009 0.139 0.13833 0.13768 0.13707 0.13591 0.13465 0.13449 0.13414 0.13386 0.13355 0.13339 0.13336 0.13292 0.13303 0.13311 0.13292 0.13278 0.13281 0.13254 0.13208 0.13191 0.13149 0.13103 0.13069 0.1303 0.13004 0.12966 0.12925 0.12907 0.12882 0.12877 0.12865 0.12854 0.1284 0.12838 0.12838 0.12829 0.12801 0.12789 0.12757 0.12737 0.12712 0.12684 0.1266 0.12646 0.1261 0.12572 0.12552 0.1252 0.12502 0.12473 0.12487 0.12504 0.12525 0.12545 0.12583 0.12613
0 0 0 0 0 0 0 0 0 0 0 0 0 0 0 0 0 0 0 0 0 0 0 0 0 0 0 0 0 0 0 0 0 0 0 0 0 0 0 0 0 0 0.13547 0.13656 0.13765 0.13815 0.13784 0.13793 0.13722 0.13737 0.1376 0.13847 0.13768 0.13692 0.13664 0.13603 0.13502 0.13442 0.13423 0.13389 0.13372 0.13327 0.1333 0.13311 0.13297 0.13288 0.13294 0.13269 0.1326 0.13265 0.13246 0.13219 0.13204 0.13162 0.13128 0.13118 0.13059 0.13031 0.13005 0.12965 0.12933 0.1292 0.12903 0.129 0.12896 0.1287 0.12867 0.12862 0.12842 0.12808 0.12797 0.12791 0.12752 0.12725 0.12702 0.12674 0.12662 0.12636 0.12599 0.12585 0.12553 0.12529 0.12512 0.12512 0.12521 0.12541 0.12569 0.12604 0.12633
0 0 0 0 0 0 0 0 0 0 0 0 0 0 0 0 0 0 0 0 0 0 0 0 0 0 0 0 0 0 0 0 0 0 0 0 0 0 0 0 0.13405 0.13428 0.13505 0.13611 0.13772 0.13891 0.13904 0.13939 0.13942 0.13829 0.13714 0.13696 0.1361 0.13552 0.13528 0.13467 0.13429 0.13424 0.13394 0.13377 0.13341 0.13301 0.13286 0.1326 0.13277 0.1328 0.13276 0.13263 0.13261 0.13265 0.13244 0.13217 0.13209 0.13195 0.13185 0.13171 0.13113 0.13058 0.13043 0.13013 0.1298 0.12962 0.12947 0.12916 0.12911 0.12891 0.129 0.12905 0.12882 0.1284 0.12822 0.12803 0.1277 0.12748 0.12729 0.12705 0.12694 0.12651 0.1263 0.12615 0.12587 0.12552 0.12539 0.12536 0.12541 0.12555 0.12594 0.12617 0.12652
0 0 0 0 0 0 0 0 0 0 0 0 0 0 0 0 0 0 0 0 0 0 0 0 0 0 0 0 0 0 0 0 0 0 0 0 0 0 0 0.13329 0.13437 0.13424 0.1349 0.13502 0.1359 0.13657 0.13698 0.13726 0.13703 0.13618 0.13523 0.135 0.1344 0.13395 0.13368 0.13337 0.13318 0.13311 0.1329 0.13285 0.13283 0.13277 0.13234 0.13242 0.13249 0.13243 0.13248 0.1325 0.13244 0.13237 0.13227 0.13203 0.13211 0.13201 0.13191 0.13174 0.1313 0.13097 0.13068 0.13031 0.12994 0.12974 0.12951 0.1293 0.1292 0.129 0.12912 0.12907 0.12877 0.1285 0.12835 0.12813 0.128 0.12784 0.12766 0.12743 0.12706 0.12673 0.12645 0.12615 0.12586 0.12562 0.12546 0.1256 0.12587 0.12608 0.12632 0.12644 0.12674
0 0 0 0 0 0 0 0 0 0 0 0 0 0 0 0 0 0 0 0 0 0 0 0 0 0 0 0 0 0 0 0 0 0 0 0 0 0 0.13202 0.13484 0.13495 0.13483 0.13501 0.13486 0.13456 0.13505 0.13499 0.13476 0.13443 0.1344 0.13406 0.1339 0.13352 0.13334 0.13326 0.133 0.13265 0.13267 0.13253 0.13265 0.13236 0.13245 0.1324 0.13235 0.13241 0.13229 0.13232 0.13228 0.13224 0.13227 0.13203 0.13202 0.13202 0.13187 0.13194 0.13193 0.13152 0.13109 0.13082 0.13044 0.13011 0.13002 0.12982 0.12959 0.12942 0.12933 0.12915 0.12907 0.12883 0.12867 0.12865 0.12839 0.12823 0.12809 0.12788 0.12775 0.12739 0.12693 0.12657 0.12627 0.12596 0.12576 0.12575 0.12596 0.12618 0.1264 0.12668 0.12683 0.12712
0 0 0 0 0 0 0 0 0 0 0 0 0 0 0 0 0 0 0 0 0 0 0 0 0 0 0 0 0 0 0 0 0 0 0.12608 0.1185 0.11236 0.12074 0.1294 0.13776 0.13719 0.13613 0.13585 0.13506 0.13443 0.13373 0.13342 0.1332 0.13274 0.13309 0.13315 0.13334 0.13325 0.13323 0.13309 0.13302 0.1327 0.13255 0.13251 0.13252 0.13261 0.13258 0.13241 0.13229 0.13245 0.13237 0.13234 0.13236 0.13231 0.13232 0.13216 0.13203 0.13205 0.132 0.13192 0.13194 0.13178 0.13128 0.13084 0.13047 0.1303 0.13011 0.13004 0.12985 0.12956 0.12938 0.12917 0.12907 0.12895 0.12895 0.12901 0.12875 0.12878 0.12866 0.1282 0.12791 0.12755 0.12709 0.12677 0.12655 0.12638 0.12612 0.12604 0.12625 0.12653 0.12674 0.12699 0.12713 0.12735
0 0 0 0 0 0 0 0 0 0 0 0 0 0 0 0 0 0 0 0 0 0 0 0 0 0 0 0 0 0.13988 0.13894 0.13821 0.13654 0.13453 0.13087 0.12642 0.12067 0.12601 0.13125 0.13649 0.13579 0.13496 0.13439 0.13411 0.1335 0.13255 0.13267 0.13283 0.13245 0.13271 0.13286 0.13304 0.13304 0.13306 0.13294 0.13286 0.13248 0.13224 0.13221 0.13247 0.13264 0.13273 0.13263 0.13257 0.13246 0.13243 0.1323 0.13235 0.13227 0.13223 0.13205 0.13191 0.13169 0.13172 0.13178 0.13172 0.1314 0.13107 0.1306 0.13034 0.13021 0.13007 0.12993 0.12982 0.12977 0.12943 0.12936 0.12929 0.12929 0.12926 0.12928 0.12907 0.12895 0.12866 0.12827 0.128 0.12768 0.12714 0.12696 0.12674 0.1265 0.12639 0.12632 0.1265 0.12677 0.12703 0.12724 0.12736 0.12762
0 0 0 0 0 0 0 0 0 0 0 0 0 0 0 0 0 0 0 0 0 0 0 0 0 0.1386 0.13951 0.13892 0.14072 0.1429 0.14229 0.14004 0.1382 0.13762 0.13616 0.13437 0.12883 0.13104 0.13321 0.13542 0.13486 0.1337 0.13313 0.13272 0.1325 0.13193 0.132 0.13214 0.13258 0.13267 0.13281 0.13297 0.13299 0.13305 0.13311 0.13293 0.13263 0.13275 0.13269 0.13269 0.13277 0.13271 0.13287 0.13289 0.13279 0.13271 0.1326 0.13239 0.1322 0.13221 0.13206 0.13182 0.13169 0.13176 0.13156 0.13143 0.13125 0.13092 0.13046 0.13026 0.13022 0.13005 0.12986 0.1298 0.12976 0.12965 0.12963 0.12959 0.12956 0.12952 0.12947 0.12923 0.1289 0.12871 0.12855 0.12822 0.12793 0.12747 0.12717 0.12693 0.12674 0.12664 0.12654 0.12675 0.12711 0.12737 0.12756 0.12774 0.12807
0 0 0 0 0 0 0 0 0 0 0 0 0 0 0 0 0 0 0 0 0 0 0 0.13645 0.13791 0.13926 0.13971 0.13777 0.14249 0.14479 0.14607 0.14235 0.14028 0.13974 0.13882 0.13785 0.13653 0.13595 0.13532 0.13436 0.13363 0.13264 0.13183 0.13135 0.13123 0.13126 0.13142 0.13196 0.13233 0.13247 0.13267 0.13306 0.13286 0.13318 0.13321 0.1331 0.13293 0.13311 0.133 0.13298 0.13295 0.13289 0.133 0.13311 0.13289 0.13283 0.13277 0.13261 0.13252 0.13235 0.13206 0.13182 0.13174 0.13156 0.13132 0.13106 0.13081 0.13055 0.13042 0.13029 0.13033 0.13015 0.13005 0.1301 0.13002 0.12998 0.12988 0.12989 0.12991 0.12993 0.12962 0.12929 0.12899 0.12891 0.12876 0.12842 0.12816 0.12785 0.12735 0.12703 0.12697 0.12694 0.12695 0.12706 0.12738 0.12763 0.12789 0.12816 0.12857
0 0 0 0 0 0 0 0 0 0 0 0 0 0 0 0 0 0 0 0 0 0 0.13293 0.13479 0.13652 0.13927 0.14256 0.14154 0.14331 0.14497 0.14656 0.14319 0.13985 0.13739 0.137 0.13626 0.13541 0.13475 0.13413 0.13326 0.13245 0.13174 0.13122 0.13067 0.13028 0.13071 0.13116 0.13132 0.13177 0.13215 0.13233 0.13265 0.13265 0.1328 0.1331 0.13311 0.13293 0.13294 0.13285 0.13295 0.13306 0.133 0.13285 0.13308 0.13293 0.13276 0.13271 0.13253 0.13244 0.13226 0.13204 0.13183 0.13163 0.1313 0.13091 0.13072 0.13039 0.13013 0.12992 0.12981 0.12989 0.12994 0.12994 0.12992 0.13 0.12993 0.12989 0.12998 0.12982 0.12978 0.12966 0.12927 0.12919 0.12903 0.12885 0.12863 0.12829 0.12785 0.12744 0.12717 0.12716 0.12712 0.12714 0.12731 0.1276 0.12795 0.12824 0.12842 0.12877
0 0 0 0 0 0 0 0 0 0 0 0 0 0 0 0 0 0 0 0 0 0.13142 0.1317 0.13207 0.13249 0.13575 0.14082 0.14384 0.14374 0.1438 0.14398 0.14079 0.13747 0.13513 0.13445 0.13385 0.1328 0.13226 0.13187 0.13125 0.13072 0.13044 0.13016 0.12965 0.12981 0.13003 0.13058 0.13086 0.13135 0.13184 0.13205 0.13249 0.13282 0.13295 0.13312 0.13314 0.13321 0.13324 0.13318 0.13326 0.13331 0.13314 0.1331 0.13326 0.13318 0.13299 0.13277 0.13253 0.13239 0.13227 0.13205 0.13163 0.13141 0.13105 0.13074 0.13034 0.13005 0.12977 0.12956 0.12958 0.12959 0.12969 0.12988 0.12991 0.13 0.12993 0.12986 0.12992 0.12991 0.12977 0.12966 0.1294 0.12916 0.12916 0.12897 0.12872 0.12832 0.12789 0.12741 0.12716 0.12723 0.12713 0.12725 0.12748 0.1278 0.12818 0.12842 0.12865 0.12894
0 0 0 0 0 0 0 0 0 0 0 0 0 0 0 0 0 0 0 0 0 0 0 0.13109 0.12846 0.1328 0.13739 0.14494 0.14379 0.14265 0.14149 0.13828 0.13516 0.13262 0.13195 0.13139 0.13053 0.1303 0.12985 0.12934 0.12935 0.12934 0.12917 0.12894 0.129 0.12949 0.13046 0.13074 0.13114 0.13143 0.13181 0.13225 0.13247 0.13295 0.13338 0.13325 0.13339 0.1336 0.1336 0.1335 0.13371 0.13347 0.13334 0.13337 0.13342 0.13301 0.13285 0.1326 0.13252 0.13253 0.13218 0.13166 0.13144 0.13097 0.13065 0.13023 0.12989 0.12955 0.12947 0.12935 0.12944 0.12954 0.12968 0.12975 0.12995 0.13002 0.12997 0.12998 0.12997 0.12987 0.12971 0.12946 0.12923 0.12919 0.12893 0.12869 0.12833 0.12788 0.12747 0.12736 0.12732 0.12735 0.12748 0.12766 0.12803 0.12844 0.12855 0.12877 0.129
0 0 0 0 0 0 0 0 0 0 0 0 0 0 0 0 0 0 0 0 0 0.12779 0.13022 0.13249 0.12971 0.13372 0.13795 0.14633 0.14407 0.14188 0.13956 0.1367 0.13363 0.13135 0.13067 0.13002 0.12937 0.12927 0.12902 0.12894 0.12885 0.12869 0.12851 0.12841 0.12853 0.12905 0.12966 0.13019 0.13028 0.13059 0.13098 0.13125 0.13156 0.132 0.13245 0.13259 0.13275 0.133 0.13295 0.13306 0.13313 0.13311 0.13308 0.13323 0.13285 0.13271 0.13261 0.13248 0.13231 0.13226 0.13191 0.13154 0.13133 0.13094 0.13053 0.13012 0.12978 0.12967 0.12939 0.12935 0.12947 0.12959 0.12975 0.12967 0.12984 0.12996 0.13012 0.13014 0.12998 0.12988 0.12976 0.12948 0.12937 0.1293 0.12891 0.1285 0.12827 0.12776 0.12755 0.12728 0.12731 0.12731 0.12731 0.12751 0.1279 0.12823 0.12848 0.12883 0.12914
0 0 0 0 0 0 0 0 0 0 0 0 0 0 0 0 0 0 0 0.1227 0.12275 0.12291 0.12813 0.13267 0.13185 0.13498 0.13962 0.14739 0.14418 0.14101 0.13765 0.13492 0.13207 0.13004 0.12956 0.1289 0.12835 0.1283 0.12831 0.12808 0.12803 0.12801 0.12789 0.12782 0.12787 0.12809 0.12846 0.12917 0.12947 0.12985 0.13007 0.13044 0.13085 0.13117 0.13144 0.13177 0.13208 0.13245 0.13261 0.1327 0.13278 0.13277 0.1329 0.13317 0.13316 0.13286 0.13253 0.13235 0.13213 0.13192 0.1317 0.13143 0.13131 0.13087 0.13048 0.13015 0.12982 0.12969 0.12939 0.12936 0.12945 0.1296 0.12972 0.12975 0.12989 0.12998 0.13011 0.13019 0.13 0.12991 0.1299 0.12964 0.12947 0.12943 0.12895 0.12837 0.12805 0.12779 0.12748 0.12723 0.12715 0.12718 0.12718 0.12739 0.12776 0.12804 0.12856 0.12891 0.12937
0 0 0 0 0 0 0 0 0 0 0 0 0 0 0 0 0 0 0.11825 0.12094 0.12019 0.11556 0.12408 0.12825 0.1324 0.13614 0.14171 0.14842 0.14426 0.14026 0.13577 0.13301 0.13035 0.12843 0.12815 0.12779 0.1274 0.12748 0.12746 0.12739 0.12736 0.12724 0.12718 0.12729 0.12728 0.12756 0.12794 0.12835 0.12886 0.12909 0.12927 0.12964 0.12998 0.13033 0.13066 0.13109 0.13163 0.13209 0.13207 0.1321 0.13225 0.13247 0.13274 0.13306 0.13293 0.13278 0.1325 0.13218 0.13199 0.13176 0.13161 0.13132 0.13114 0.13077 0.13038 0.13005 0.12991 0.12979 0.12954 0.12947 0.12952 0.12967 0.12985 0.12993 0.13002 0.13006 0.13022 0.13014 0.13002 0.12991 0.12989 0.12968 0.12961 0.12963 0.12906 0.1287 0.12835 0.12798 0.12747 0.12732 0.12723 0.12717 0.12716 0.12727 0.12749 0.12781 0.12847 0.12903 0.12967
0 0 0 0 0 0 0 0 0 0 0 0 0 0 0 0 0 0.11237 0.11536 0.11988 0.12404 0.12014 0.12634 0.13301 0.1394 0.14181 0.1436 0.14521 0.14174 0.13825 0.13443 0.13201 0.12937 0.12769 0.12763 0.12729 0.12709 0.12716 0.12721 0.12712 0.12718 0.12712 0.1271 0.12715 0.12732 0.12735 0.12777 0.12806 0.12853 0.12871 0.12897 0.12932 0.12956 0.12971 0.13 0.13056 0.13091 0.13134 0.13143 0.13173 0.13195 0.13205 0.13221 0.13248 0.13271 0.13278 0.1327 0.13239 0.13214 0.13183 0.13157 0.13134 0.13117 0.13077 0.1305 0.13024 0.1301 0.12993 0.1298 0.12974 0.12977 0.12984 0.12996 0.12994 0.13007 0.13018 0.13037 0.13027 0.13021 0.13001 0.12986 0.12972 0.12953 0.12941 0.12908 0.1286 0.12822 0.12772 0.12726 0.12724 0.12705 0.12698 0.12696 0.12709 0.12734 0.12773 0.12833 0.12889 0.12956
0 0 0 0 0 0 0 0 0 0 0 0 0 0 0 0 0.10457 0.1048 0.10545 0.11291 0.12099 0.11825 0.12832 0.13454 0.14073 0.14142 0.14169 0.14137 0.13883 0.13604 0.13294 0.13099 0.12875 0.12719 0.12711 0.12698 0.12675 0.12684 0.12697 0.12692 0.12696 0.12706 0.1271 0.12709 0.12718 0.12726 0.12763 0.12794 0.12824 0.12849 0.12859 0.12883 0.12904 0.12929 0.12946 0.13006 0.13046 0.13089 0.13104 0.13127 0.13162 0.13176 0.13212 0.1324 0.13266 0.13289 0.13304 0.13284 0.13252 0.13244 0.13209 0.1318 0.13158 0.13114 0.13088 0.1306 0.13052 0.13043 0.1303 0.13011 0.13006 0.1301 0.13009 0.13019 0.13057 0.13063 0.13056 0.13057 0.13045 0.13021 0.13008 0.12978 0.1297 0.12956 0.129 0.12853 0.12801 0.12751 0.12719 0.12695 0.12677 0.12673 0.12675 0.12692 0.12718 0.12764 0.12813 0.12872 0.12924
0 0 0 0 0 0 0 0 0 0 0 0 0 0 0 0.10564 0.10281 0.09725 0.09215 0.10085 0.10907 0.11622 0.12954 0.1357 0.14162 0.14067 0.13928 0.13759 0.136 0.1339 0.13152 0.12995 0.12811 0.12671 0.12658 0.12655 0.12628 0.12645 0.12668 0.12658 0.1267 0.12685 0.12693 0.127 0.12689 0.12709 0.12751 0.1278 0.12814 0.12823 0.12829 0.12855 0.12863 0.1287 0.12885 0.12934 0.12972 0.13011 0.13006 0.13051 0.13138 0.13077 0.13131 0.13207 0.13239 0.13277 0.1332 0.13299 0.1328 0.13274 0.13253 0.13226 0.13199 0.13157 0.13127 0.13092 0.13087 0.13079 0.1307 0.1306 0.13052 0.13042 0.13053 0.13074 0.1307 0.13075 0.13089 0.1308 0.13065 0.13038 0.1303 0.12993 0.12978 0.12944 0.12895 0.12832 0.12774 0.12726 0.12695 0.12676 0.12659 0.12648 0.12657 0.1267 0.12708 0.12758 0.12792 0.12846 0.12882
0 0 0 0 0 0 0 0 0 0 0 0 0 0 0.10319 0.10454 0.10415 0.10338 0.09804 0.10601 0.11336 0.12048 0.13101 0.13473 0.13834 0.13768 0.13688 0.13555 0.13423 0.13246 0.13043 0.12907 0.12751 0.12628 0.12626 0.12615 0.12622 0.12631 0.12644 0.12642 0.12646 0.1265 0.12654 0.1266 0.12662 0.12667 0.12711 0.12748 0.12791 0.12832 0.12858 0.12888 0.12891 0.12882 0.12876 0.12809 0.12742 0.12682 0.1285 0.12904 0.12963 0.12941 0.12928 0.12662 0.12889 0.13135 0.13359 0.1332 0.13282 0.13251 0.13223 0.13196 0.13175 0.13133 0.13107 0.13078 0.13079 0.13069 0.13072 0.13061 0.13049 0.13031 0.13052 0.13063 0.13068 0.13066 0.13075 0.13072 0.13051 0.1303 0.13011 0.12988 0.12964 0.12925 0.12865 0.12813 0.12747 0.12709 0.12693 0.12663 0.12652 0.12638 0.1262 0.12666 0.12702 0.12759 0.12803 0.1286 0.1291
0 0 0 0 0 0 0 0 0 0 0 0 0 0.10242 0.1025 0.10008 0.10481 0.11022 0.10582 0.11349 0.1209 0.12789 0.13246 0.13383 0.13508 0.13485 0.13436 0.13367 0.13254 0.13109 0.12931 0.1283 0.12702 0.12609 0.12605 0.12601 0.12612 0.12618 0.12628 0.12629 0.12625 0.1262 0.12613 0.1262 0.12615 0.1262 0.12677 0.12724 0.12771 0.12828 0.12887 0.12943 0.12922 0.12895 0.12873 0.12708 0.12529 0.1236 0 0 0 0.12944 0.12668 0.1214 0.12554 0.12985 0.13397 0.13337 0.13281 0.13232 0.13194 0.1317 0.13143 0.1311 0.13096 0.1308 0.13073 0.13065 0.13062 0.13053 0.13045 0.13041 0.13053 0.13061 0.13066 0.13067 0.13067 0.13063 0.13053 0.13033 0.13037 0.12996 0.12952 0.12926 0.12863 0.12797 0.12727 0.127 0.12682 0.12658 0.12643 0.12626 0.1261 0.12664 0.1271 0.12756 0.12831 0.12894 0.12947
0 0 0 0 0 0 0 0 0 0 0 0 0 0.10626 0.09851 0.09182 0.09857 0.10636 0.11366 0.12098 0.12807 0.13534 0.13466 0.13371 0.13247 0.13244 0.13232 0.1318 0.13099 0.12981 0.12861 0.12769 0.12663 0.12587 0.12609 0.12612 0.12623 0.1263 0.12633 0.12617 0.12613 0.12617 0.12593 0.12534 0.12543 0.12576 0.12604 0.12699 0.12756 0.12738 0.12807 0.12978 0.12787 0.12701 0.12872 0.12584 0.12316 0.12053 0 0 0 0 0 0.12351 0.12235 0.1285 0.13446 0.13356 0.1329 0.13227 0.1319 0.13171 0.13148 0.13115 0.13097 0.13077 0.13073 0.13072 0.13067 0.13043 0.1306 0.13056 0.13051 0.13056 0.13064 0.1307 0.13059 0.13069 0.13046 0.13038 0.13029 0.12995 0.1295 0.12915 0.12851 0.12774 0.12719 0.12688 0.12677 0.12661 0.12643 0.12622 0.12599 0.1266 0.12718 0.12768 0.12843 0.12914 0.12991
0 0 0 0 0 0 0 0 0 0 0 0 0.11271 0.11182 0.10884 0.10634 0.1105 0.11583 0.12079 0.12519 0.12959 0.13416 0.13357 0.13272 0.13159 0.13159 0.13138 0.13099 0.1302 0.12926 0.12835 0.12763 0.12681 0.12608 0.12628 0.12623 0.12628 0.1263 0.12612 0.1261 0.1242 0.12239 0.12044 0.12374 0.12433 0.12514 0.12562 0 0 0.12767 0 0.12648 0.12465 0.12314 0.11622 0.11843 0.12079 0.12311 0.12251 0.12397 0.12504 0 0 0 0.12477 0.1294 0.13384 0.133 0.13214 0.1314 0.13098 0.13077 0.13051 0.13032 0.13013 0.12993 0.12994 0.13002 0.13008 0.13024 0.1302 0.13017 0.13021 0.13022 0.1304 0.13045 0.13043 0.13048 0.13033 0.13011 0.13009 0.12974 0.12919 0.12876 0.12826 0.12763 0.12714 0.12694 0.12683 0.12676 0.12648 0.12631 0.12602 0.12651 0.12705 0.12747 0.12818 0.12904 0.12984
0 0 0 0 0 0 0 0 0 0 0 0.11112 0.11028 0.11448 0.12183 0.12013 0.12242 0.12506 0.12752 0.12939 0.13119 0.13297 0.13238 0.13157 0.13061 0.13058 0.13037 0.13002 0.12947 0.12876 0.12796 0.12746 0.12689 0.12625 0.12641 0.12644 0.12633 0.1262 0.12599 0.12588 0.12215 0.11843 0.11459 0.11835 0.12123 0 0 0 0 0 0.12398 0.12147 0.1175 0.11149 0.10388 0.11105 0.11836 0.12582 0.12412 0.1243 0.12494 0.12589 0.12632 0.12421 0.12721 0.13004 0.13308 0.13217 0.1313 0.1305 0.13012 0.12989 0.12989 0.12963 0.12943 0.12924 0.1293 0.12955 0.12969 0.12974 0.13 0.13002 0.12985 0.12982 0.13011 0.13025 0.13024 0.1303 0.1302 0.13004 0.13006 0.12961 0.12924 0.12887 0.12822 0.12763 0.12727 0.12715 0.12704 0.12684 0.12657 0.12637 0.12611 0.1265 0.12686 0.12721 0.12797 0.12885 0.12964
0 0 0 0 0 0 0 0 0 0 0.11468 0.10819 0.10227 0.11278 0.12297 0.13237 0.13396 0.1342 0.13429 0.13355 0.13263 0.13167 0.13112 0.13042 0.12958 0.12957 0.12942 0.12916 0.12873 0.12819 0.12773 0.12735 0.1269 0.12639 0.12653 0.12648 0.12639 0.12616 0.12586 0.1254 0.12307 0.11493 0.10881 0 0 0 0 0 0 0 0 0 0 0 0.09135 0.10372 0.11606 0.12856 0.12785 0.12713 0.12652 0.12701 0.12766 0.12845 0.12969 0.13093 0.13223 0.13143 0.13059 0.12988 0.12962 0.12938 0.12921 0.12888 0.12871 0.12861 0.12884 0.12905 0.12914 0.12925 0.12946 0.12953 0.1295 0.12939 0.12974 0.12997 0.13013 0.13035 0.13006 0.12999 0.12992 0.12976 0.12918 0.12874 0.12815 0.12775 0.12731 0.12718 0.12709 0.12696 0.12664 0.12643 0.12616 0.12648 0.12673 0.12693 0.12776 0.1287 0.12949
0 0 0 0 0 0 0 0 0 0 0.11975 0.11608 0.11398 0.11962 0.12546 0.13135 0.13257 0.13255 0.13245 0.13163 0.13073 0.12979 0.12941 0.12898 0.12854 0.12863 0.12864 0.12854 0.12825 0.12795 0.12756 0.12741 0.12701 0.1267 0.12675 0.12662 0.12653 0.1261 0.12558 0.12502 0.12242 0 0 0 0 0 0 0 0 0 0 0 0 0 0.10372 0.11161 0.11939 0.12739 0.12694 0.12641 0.12609 0.1265 0.1271 0.1278 0.12886 0.13 0.13105 0.13043 0.12989 0.12934 0.12902 0.12879 0.12853 0.12836 0.12814 0.12809 0.1282 0.12837 0.12859 0.12874 0.12885 0.12905 0.12881 0.12903 0.12927 0.12937 0.12942 0.12943 0.12928 0.12918 0.12925 0.1289 0.12862 0.12834 0.12798 0.12772 0.12735 0.12723 0.12713 0.12697 0.12676 0.12648 0.12625 0.1265 0.1267 0.12694 0.12757 0.12824 0.12894
0 0 0 0 0 0 0 0 0 0.12502 0.12632 0.129 0.12492 0.12697 0.12882 0.13111 0.13107 0.13075 0.13044 0.12962 0.12876 0.12789 0.12773 0.12767 0.12766 0.12778 0.12797 0.12796 0.12788 0.12776 0.12745 0.12732 0.12716 0.12681 0.12678 0.12667 0.12658 0.12595 0.12533 0.1245 0.12397 0 0 0 0 0 0 0 0 0 0 0 0 0.11948 0.11626 0.11963 0.12293 0.12641 0.12622 0.12603 0.1258 0.12625 0.12663 0.12726 0.12823 0.12933 0.1302 0.12974 0.12925 0.12885 0.12837 0.12821 0.12788 0.12782 0.12771 0.12779 0.12787 0.1281 0.12834 0.12833 0.12831 0.12853 0.12855 0.1287 0.12885 0.12885 0.12886 0.12886 0.12868 0.12854 0.12851 0.12844 0.12815 0.12795 0.12773 0.12747 0.12729 0.12726 0.12713 0.12704 0.1268 0.1266 0.12631 0.12649 0.12683 0.12696 0.12739 0.12783 0.1284
0 0 0 0 0 0 0 0 0.12522 0.12722 0.13056 0.13387 0.13629 0.13457 0.13273 0.13083 0.13056 0.13021 0.12976 0.12919 0.12857 0.12792 0.128 0.12805 0.12814 0.12821 0.12829 0.12831 0.12811 0.12792 0.12762 0.12745 0.12712 0.12671 0.12681 0.12675 0.12647 0.12574 0.12502 0.12401 0.12412 0.12376 0 0.12171 0.12128 0 0 0 0 0 0 0 0.12275 0.12596 0.12869 0.12764 0.12655 0.12553 0.12553 0.1256 0.12562 0.12596 0.12637 0.12692 0.12767 0.12847 0.1292 0.12886 0.1286 0.12848 0.12803 0.12768 0.12747 0.1273 0.1275 0.12752 0.12768 0.12786 0.12811 0.12814 0.12831 0.12854 0.12858 0.12876 0.12891 0.1287 0.12861 0.12839 0.12821 0.12807 0.12802 0.12801 0.12786 0.12778 0.12772 0.12746 0.12734 0.12724 0.12711 0.12706 0.12693 0.12673 0.12651 0.12668 0.12687 0.12699 0.12721 0.12745 0.12785
0 0 0 0 0 0 0 0 0.1266 0.12803 0.12985 0.1314 0.13523 0.13363 0.13181 0.12994 0.12974 0.12944 0.129 0.12871 0.12837 0.1279 0.12792 0.12794 0.12798 0.12812 0.12811 0.12802 0.12796 0.12792 0.12761 0.12746 0.12726 0.127 0.12698 0.12688 0.12658 0.12608 0.12552 0.12482 0.1248 0.12494 0.12393 0.12346 0.12284 0 0 0 0 0 0 0.1216 0.12311 0.12468 0.12766 0.12693 0.12613 0.12546 0.12545 0.12538 0.12541 0.12568 0.12605 0.12646 0.12708 0.12765 0.12836 0.12815 0.12802 0.12796 0.12758 0.1273 0.1271 0.12706 0.12717 0.12729 0.12735 0.12757 0.12783 0.12784 0.12803 0.12814 0.12815 0.12841 0.12851 0.12834 0.12819 0.12802 0.12794 0.12782 0.12785 0.12785 0.1277 0.12771 0.12761 0.1275 0.12728 0.12724 0.1272 0.12717 0.127 0.12687 0.12668 0.12676 0.1269 0.12697 0.12717 0.12742 0.12786
0 0 0 0 0 0 0 0 0 0.12639 0.12854 0.13003 0.1343 0.13272 0.13094 0.12918 0.12899 0.12859 0.12835 0.12823 0.12807 0.12776 0.12782 0.12784 0.12793 0.12796 0.12795 0.12785 0.12776 0.12772 0.12745 0.12733 0.1273 0.12722 0.12715 0.12698 0.12682 0.12637 0.12601 0.1256 0.12618 0.1259 0.1255 0.12501 0.12456 0.12413 0.12119 0.11486 0 0 0.12084 0.1239 0.12372 0.12426 0.12667 0.1262 0.12573 0.12539 0.12533 0.12527 0.12523 0.12548 0.12578 0.12614 0.12657 0.12699 0.12744 0.12749 0.12745 0.12744 0.12717 0.12699 0.12692 0.127 0.12701 0.12712 0.12725 0.12752 0.12767 0.12766 0.1277 0.12777 0.12796 0.12802 0.12809 0.12797 0.12782 0.12776 0.12766 0.1276 0.12762 0.12759 0.12762 0.12758 0.12757 0.12745 0.12731 0.12734 0.12725 0.12716 0.12706 0.12694 0.12679 0.12688 0.12687 0.12693 0.12716 0.12741 0.12784
0 0 0 0 0 0 0 0 0 0.12375 0.12662 0.13036 0.1334 0.13173 0.13002 0.12828 0.12813 0.12798 0.12771 0.1277 0.1277 0.12764 0.12765 0.12772 0.12778 0.12786 0.12791 0.12791 0.12767 0.12759 0.12735 0.1273 0.12726 0.12722 0.12713 0.12698 0.12688 0.1267 0.12656 0.1264 0.12654 0.12667 0.12676 0.12693 0.12714 0.12738 0.11886 0.11026 0.10165 0.10979 0.11789 0.12592 0.12586 0.12574 0.12557 0.12546 0.12536 0.12531 0.12521 0.12514 0.12507 0.12527 0.12548 0.12576 0.12602 0.12636 0.12674 0.12694 0.12696 0.12689 0.12672 0.12669 0.12666 0.12685 0.12692 0.12719 0.12732 0.12742 0.12764 0.12748 0.12743 0.12751 0.12769 0.12769 0.12778 0.12762 0.12754 0.12753 0.1274 0.12735 0.12736 0.12739 0.12746 0.12762 0.12757 0.12742 0.12742 0.12741 0.12722 0.12719 0.12715 0.12699 0.12696 0.12697 0.12698 0.12691 0.12713 0.12744 0.12773
0 0 0 0 0 0 0 0 0 0.11942 0.12025 0.12221 0.11468 0.11921 0.12368 0.1281 0.12805 0.12794 0.12772 0.12778 0.12788 0.12784 0.12793 0.12809 0.12821 0.12837 0.12851 0.12858 0.12853 0.12848 0.12848 0.12865 0.12866 0.12876 0.12825 0.12767 0.12701 0.12686 0.12659 0.12638 0.12641 0.1264 0.12634 0.12644 0.12652 0.12664 0.12095 0 0.10947 0.11493 0.12039 0.12579 0.12565 0.12552 0.12542 0.12529 0.12527 0.12522 0.12522 0.1252 0.12514 0.12537 0.12568 0.12595 0.12611 0.12634 0.12655 0.12655 0.12652 0.12655 0.12655 0.12643 0.12649 0.1266 0.1267 0.12686 0.12694 0.12701 0.12707 0.12703 0.12709 0.12711 0.12723 0.1273 0.12736 0.12733 0.12733 0.12753 0.12747 0.12747 0.12756 0.12755 0.12761 0.12777 0.12764 0.12756 0.1276 0.12754 0.12746 0.12734 0.12713 0.12699 0.12692 0.12684 0.12679 0.12683 0.12709 0.12737 0.12777
0 0 0 0 0 0 0 0 0 0 0.10915 0.10299 0.09624 0.10679 0.11746 0.12808 0.12802 0.12789 0.12763 0.1277 0.12781 0.12784 0.1281 0.12831 0.12849 0.1287 0.1289 0.12898 0 0 0 0.12939 0.12998 0.13015 0.12917 0.12814 0.12709 0.12687 0.12655 0.12631 0.12616 0.12605 0.12593 0.12594 0.1259 0.12588 0.12306 0.1202 0.11733 0.12011 0.12284 0.12561 0.12548 0.12537 0.12522 0.12522 0.12517 0.12512 0.12525 0.12526 0.12532 0.12559 0.12584 0.12611 0.1262 0.1264 0.12653 0.12646 0.12643 0.12649 0.1264 0.12645 0.12645 0.12644 0.12649 0.12658 0.1266 0.12665 0.1268 0.12672 0.12672 0.1268 0.12682 0.12693 0.12702 0.12715 0.1273 0.12746 0.12756 0.12771 0.12785 0.12789 0.12786 0.1279 0.1278 0.12776 0.12774 0.12761 0.12753 0.12744 0.12729 0.12715 0.12702 0.12686 0.12669 0.12668 0.12699 0.12741 0.12781
0 0 0 0 0 0 0 0 0 0 0 0.08829 0.07748 0.09466 0.1201 0.12818 0.1262 0.12668 0.12752 0.1276 0.1277 0.12775 0.12805 0.12836 0.12864 0.12896 0.1291 0.12922 0 0 0 0.12983 0.1312 0.13169 0.13015 0.12866 0.12712 0.12684 0.12647 0.12613 0.12589 0.12569 0.12545 0.12533 0.12518 0.12508 0.12509 0.12509 0.12513 0.12528 0.12537 0.12545 0.1253 0.12524 0.1251 0.1251 0.12505 0.12497 0.12512 0.1253 0.12541 0.12565 0.12583 0.12604 0.12617 0.12643 0.12657 0.12654 0.12642 0.12648 0.12637 0.12634 0.1264 0.1264 0.12641 0.12644 0.12643 0.12647 0.12648 0.12634 0.12641 0.12639 0.12654 0.12664 0.12674 0.12696 0.12721 0.12745 0.1276 0.12787 0.12821 0.12806 0.12811 0.12811 0.12795 0.12794 0.12781 0.12774 0.12759 0.12748 0.12738 0.12734 0.12714 0.12694 0.12674 0.12664 0.12695 0.12732 0.12775
0 0 0 0 0 0 0 0 0 0 0 0 0.09293 0.10255 0.11617 0.1232 0.12445 0.12569 0.12729 0.12747 0.12761 0.12771 0.12811 0.12859 0.12892 0.12572 0.12238 0 0 0.12318 0.12891 0.12933 0.12976 0.1302 0.12919 0.12803 0.12696 0.12668 0.1263 0.12599 0.1258 0.12553 0.12524 0.1252 0.1251 0.12498 0.12504 0.12511 0.12516 0.1253 0.12539 0.12544 0.12538 0.1253 0.12525 0.1252 0.12516 0.12506 0.12516 0.12529 0.1254 0.12557 0.12576 0.12599 0.1261 0.12623 0.1264 0.12638 0.12638 0.1263 0.12623 0.12617 0.1262 0.12612 0.12611 0.12622 0.12613 0.12618 0.12624 0.12616 0.12627 0.12633 0.12648 0.12655 0.12667 0.12688 0.12714 0.12725 0.1274 0.12755 0.12783 0.12784 0.12793 0.12802 0.12798 0.128 0.12794 0.12784 0.12774 0.12762 0.1275 0.12737 0.12714 0.12686 0.12668 0.12658 0.12685 0.1271 0.12735
0 0 0 0 0 0 0 0 0 0 0 0 0 0 0 0.11938 0.12232 0.12494 0.127 0.12729 0.12744 0.12763 0.12817 0.12873 0.12911 0.1224 0.11562 0.1087 0.11506 0.12136 0.12738 0.12786 0.12826 0.1287 0.12808 0.12751 0.12685 0.12648 0.12612 0.12585 0.12559 0.12533 0.12501 0.12502 0.12495 0.12488 0.125 0.12507 0.12517 0.12528 0.12535 0.12538 0.12537 0.12533 0.12527 0.12525 0.12519 0.12512 0.12518 0.1253 0.12544 0.12561 0.12574 0.12593 0.12599 0.12608 0.12617 0.12621 0.12622 0.12622 0.12616 0.12613 0.12612 0.12595 0.12601 0.12606 0.12603 0.12599 0.12599 0.126 0.12615 0.12631 0.12642 0.12662 0.12677 0.12697 0.1271 0.12719 0.12725 0.12752 0.12768 0.12779 0.12782 0.12801 0.12806 0.12808 0.12801 0.12789 0.12787 0.12776 0.12754 0.12743 0.12723 0.12696 0.12669 0.12659 0.12673 0.12693 0.12715
0 0 0 0 0 0 0 0 0 0 0 0 0 0 0 0.11861 0.12193 0.12512 0.12663 0.12699 0.12735 0.12757 0.12815 0.12877 0.12936 0.11917 0.10886 0.09848 0.10773 0 0.12602 0.12634 0.1267 0.12716 0.127 0.12684 0.12658 0.12623 0.12594 0.12564 0.12539 0.1251 0.12476 0.12482 0.12479 0.12478 0.12493 0.12504 0.12512 0.12524 0.1253 0.12538 0.12537 0.12533 0.12531 0.12528 0.12521 0.12521 0.1253 0.12536 0.12552 0.12564 0.1257 0.12578 0.12589 0.12593 0.12592 0.12595 0.12593 0.12599 0.12597 0.12591 0.12585 0.12577 0.12582 0.12588 0.12584 0.1258 0.12586 0.12592 0.1261 0.12617 0.12635 0.12667 0.12694 0.12694 0.12702 0.12713 0.12729 0.12748 0.1276 0.12773 0.12788 0.12807 0.1281 0.12813 0.12811 0.12801 0.12795 0.12794 0.12772 0.12753 0.12739 0.12708 0.1268 0.1266 0.12667 0.12674 0.12688
0 0 0 0 0 0 0 0 0 0 0 0 0 0.1118 0.11431 0.11682 0.11999 0.12424 0.12661 0.1271 0.12752 0.12787 0.1283 0.12883 0.12921 0.12243 0.11558 0.10863 0.11478 0.12146 0.12702 0.12706 0.12708 0.1271 0.12693 0.12677 0.12657 0.12628 0.12599 0.12566 0.12548 0.12531 0.1251 0.12509 0.12504 0.12507 0.12519 0.12522 0.12528 0.12537 0.12542 0.12546 0.12544 0.1254 0.12536 0.12533 0.12533 0.12526 0.12529 0.12537 0.12549 0.12547 0.12555 0.12568 0.12576 0.12573 0.12583 0.12586 0.12585 0.12584 0.1259 0.1258 0.12591 0.12577 0.12587 0.12596 0.1259 0.12582 0.12584 0.12587 0.12597 0.12613 0.12627 0.12646 0.12671 0.12687 0.12692 0.12714 0.12732 0.12742 0.1276 0.12786 0.12804 0.12812 0.12829 0.12827 0.12825 0.12812 0.12809 0.12808 0.12788 0.12777 0.12758 0.1273 0.12709 0.12692 0.12693 0.12691 0.12693
0 0 0 0 0 0 0 0 0 0 0 0 0.10696 0.10931 0.11189 0.11387 0.1177 0.12263 0.12649 0.12717 0.12771 0.12822 0.12851 0.12882 0.12906 0.12571 0.12229 0.11875 0.12178 0.12491 0.12796 0.12768 0.12739 0.12703 0.12686 0.12668 0.12655 0.12628 0.12592 0.12563 0.12554 0.1254 0.12524 0.12526 0.12529 0.1253 0.12539 0.12545 0.12548 0.12551 0.12557 0.12557 0.12556 0.12554 0.12549 0.12543 0.12536 0.12527 0.12529 0.12534 0.1254 0.12542 0.1255 0.12553 0.12559 0.12571 0.12572 0.12569 0.12574 0.12581 0.12585 0.12591 0.126 0.12596 0.12594 0.12596 0.12591 0.1259 0.12584 0.12597 0.12605 0.12619 0.12631 0.1265 0.12661 0.12672 0.12698 0.12713 0.12736 0.1276 0.1279 0.12801 0.12814 0.12827 0.12834 0.12843 0.12843 0.12831 0.12831 0.12823 0.12807 0.1279 0.12778 0.12748 0.12729 0.12713 0.12707 0.12698 0.12689
0 0 0 0 0 0 0 0 0.11408 0.11283 0.11033 0.10576 0.1019 0.10381 0.10575 0.10765 0.114 0.12021 0.12636 0.12719 0.12786 0.12849 0.1287 0.1288 0.12887 0.12892 0.12886 0.12877 0.12884 0.12884 0.12884 0.1282 0.12759 0.12691 0.12676 0.12659 0.12647 0.12623 0.1259 0.12553 0.12552 0.1255 0.12547 0.1255 0.12551 0.12552 0.12557 0.1256 0.1256 0.12564 0.12565 0.12565 0.12566 0.12561 0.12556 0.12552 0.12545 0.12535 0.12535 0.12537 0.12541 0.12538 0.12535 0.12539 0.12549 0.12551 0.12556 0.12559 0.1257 0.12584 0.1259 0.12597 0.12608 0.12612 0.12612 0.12609 0.12603 0.12589 0.12582 0.12589 0.12609 0.12625 0.12637 0.1264 0.12658 0.1269 0.12703 0.1272 0.12748 0.1277 0.12806 0.12816 0.12827 0.12839 0.12852 0.1286 0.12866 0.12857 0.12844 0.12847 0.12825 0.12811 0.1279 0.12776 0.12763 0.12759 0.12738 0.1271 0.12696
0 0 0 0 0 0 0 0.11641 0.11595 0.11667 0.11528 0.11304 0.1107 0.11181 0.11299 0.11408 0.11859 0.12291 0.12708 0.1276 0.12814 0.12848 0.12845 0.12853 0.12845 0.12845 0.12839 0.12834 0.12835 0.12836 0.12829 0.1279 0.12745 0.127 0.12687 0.12674 0.12656 0.12637 0.12612 0.12587 0.12588 0.12587 0.1258 0.12575 0.12572 0.1257 0.12571 0.1257 0.12572 0.12572 0.12576 0.12577 0.12575 0.12573 0.12568 0.12563 0.12556 0.12549 0.12543 0.12543 0.12541 0.12537 0.12535 0.12544 0.12549 0.1255 0.12553 0.12558 0.12565 0.12579 0.12589 0.12592 0.12598 0.12599 0.12597 0.12598 0.12595 0.12594 0.12584 0.12589 0.12595 0.12605 0.12616 0.12623 0.12636 0.1266 0.12696 0.12712 0.12734 0.12767 0.12792 0.12807 0.1282 0.12835 0.12844 0.12858 0.1287 0.12869 0.12856 0.12847 0.12831 0.12826 0.12818 0.12803 0.12795 0.12781 0.12757 0.12741 0.12724
0 0 0 0 0 0 0.11793 0.11815 0.11744 0.11709 0.11843 0.12081 0.11936 0.11977 0.1202 0.12059 0.12311 0.12549 0.1278 0.12804 0.12824 0.1284 0.1283 0.12818 0.12799 0.128 0.12794 0.12795 0.12792 0.12786 0.12786 0.12757 0.12732 0.1271 0.127 0.12682 0.12663 0.12648 0.12629 0.12612 0.12613 0.1261 0.12605 0.12601 0.12595 0.1259 0.12588 0.12588 0.12582 0.12581 0.12585 0.12579 0.12579 0.12577 0.1257 0.12563 0.1256 0.12552 0.12546 0.12541 0.12535 0.12539 0.12537 0.12541 0.12549 0.1255 0.1255 0.12553 0.12563 0.12572 0.12587 0.12601 0.12609 0.12599 0.12603 0.12598 0.12593 0.12589 0.1258 0.12584 0.12589 0.12588 0.12599 0.12608 0.12612 0.12634 0.12668 0.12698 0.12728 0.12757 0.12791 0.128 0.12825 0.12842 0.12851 0.12857 0.12866 0.12864 0.12863 0.12864 0.12847 0.12835 0.12832 0.12828 0.12822 0.12811 0.12789 0.12771 0.12756
0 0 0 0 0 0 0.11786 0.11778 0.11679 0.11494 0.1194 0.12364 0.12791 0.12765 0.12735 0.12709 0.12749 0.12795 0.1283 0.12838 0.12833 0.12833 0.12811 0.12781 0.12754 0.12758 0.12756 0.1275 0.12743 0.12737 0.12732 0.12724 0.1272 0.12711 0.12695 0.12681 0.12667 0.12659 0.12643 0.12627 0.12627 0.12628 0.12623 0.12614 0.12607 0.12596 0.12596 0.12595 0.12587 0.12591 0.12591 0.12587 0.12579 0.12574 0.12567 0.12563 0.12555 0.12544 0.12539 0.12535 0.1253 0.12531 0.12535 0.12533 0.12538 0.12538 0.12544 0.12548 0.12556 0.1257 0.12584 0.12598 0.12618 0.12614 0.12612 0.12598 0.12593 0.12589 0.12581 0.1258 0.12587 0.1259 0.12596 0.12598 0.12599 0.12631 0.12652 0.1268 0.12708 0.12745 0.12779 0.12798 0.12815 0.12835 0.1285 0.12867 0.12879 0.12883 0.12889 0.1288 0.12865 0.12852 0.12856 0.12855 0.12855 0.12848 0.12816 0.12802 0.12788
0 0 0 0 0 0.11692 0.11761 0.11854 0.11981 0.1198 0.12283 0.12574 0.12858 0.12838 0.12816 0.12799 0.12815 0.12831 0.12845 0.12835 0.12822 0.1281 0.12792 0.12777 0.12762 0.12761 0.12756 0.12754 0.12753 0.12748 0.12743 0.12739 0.12729 0.12718 0.12709 0.12699 0.12687 0.12679 0.12664 0.12654 0.12655 0.1265 0.12641 0.12637 0.12631 0.12623 0.12622 0.12619 0.12614 0.1261 0.12611 0.12607 0.12606 0.12596 0.12589 0.12581 0.12574 0.12566 0.12559 0.12554 0.12551 0.12554 0.12555 0.1256 0.12558 0.1256 0.12565 0.12568 0.12583 0.12599 0.12608 0.1262 0.12633 0.12635 0.1263 0.12633 0.12622 0.12612 0.12608 0.12607 0.12606 0.12605 0.12604 0.12608 0.12602 0.12628 0.12662 0.12689 0.12711 0.12734 0.12767 0.12786 0.12811 0.12827 0.12842 0.12846 0.12857 0.12856 0.12867 0.12878 0.12863 0.12848 0.1285 0.12856 0.12863 0.12862 0.12837 0.12818 0.12815
0 0 0 0 0.11549 0.1158 0.11551 0.11821 0.1229 0.12451 0.12613 0.12765 0.12913 0.12904 0.12896 0.12883 0.12874 0.12859 0.12844 0.12822 0.12804 0.12784 0.12775 0.12773 0.12766 0.12767 0.12763 0.12763 0.12763 0.12755 0.12749 0.12747 0.12738 0.12727 0.12719 0.12713 0.12702 0.12695 0.12685 0.12679 0.12675 0.12673 0.12664 0.12661 0.12658 0.12651 0.12643 0.12639 0.12634 0.12633 0.12633 0.12632 0.12629 0.12623 0.12614 0.12604 0.12596 0.12594 0.12585 0.1258 0.12571 0.12574 0.12574 0.12577 0.12583 0.12591 0.126 0.12604 0.1261 0.12623 0.1264 0.12647 0.12664 0.12662 0.12666 0.12669 0.12659 0.12656 0.12661 0.12658 0.12647 0.12628 0.12623 0.1263 0.12633 0.12652 0.12674 0.12685 0.12717 0.12737 0.1276 0.12772 0.12789 0.12811 0.12822 0.12833 0.12851 0.12866 0.1286 0.12862 0.1286 0.1286 0.12861 0.12856 0.12866 0.12871 0.12862 0.12851 0.12845
0 0 0 0 0.11494 0.11429 0.11231 0.11812 0.12355 0.12917 0.12935 0.12955 0.1296 0.12962 0.12959 0.12955 0.12917 0.12878 0.1284 0.12807 0.12777 0.12752 0.1276 0.12764 0.12758 0.12757 0.12761 0.12762 0.12762 0.12751 0.12745 0.12742 0.12734 0.12725 0.12725 0.12721 0.12716 0.12711 0.12701 0.12695 0.12691 0.12686 0.12681 0.12679 0.12676 0.12668 0.12666 0.12663 0.12656 0.12653 0.12654 0.1265 0.12645 0.12639 0.12634 0.12628 0.12619 0.12613 0.12607 0.12602 0.12591 0.12595 0.12597 0.126 0.12611 0.1262 0.12628 0.12634 0.12641 0.12658 0.12665 0.12668 0.12685 0.1269 0.12704 0.12708 0.12691 0.12696 0.12692 0.12682 0.12664 0.12649 0.12656 0.12662 0.12653 0.12672 0.12684 0.12691 0.12708 0.12729 0.12753 0.12769 0.12769 0.12783 0.12809 0.12821 0.12853 0.12856 0.12855 0.12861 0.12857 0.1286 0.12875 0.12879 0.12876 0.12885 0.1288 0.12881 0.12886
0 0 0 0.10831 0.11316 0.11565 0.11706 0.12092 0.12477 0.12864 0.12894 0.12915 0.12931 0.12923 0.12917 0.12904 0.12876 0.12851 0.1282 0.128 0.12783 0.12765 0.12764 0.12764 0.12764 0.12762 0.12758 0.12761 0.12756 0.12752 0.12746 0.12742 0.12743 0.12736 0.12735 0.12735 0.12736 0.1273 0.1272 0.12717 0.12717 0.12713 0.1271 0.12708 0.12706 0.12703 0.12703 0.12698 0.12697 0.12698 0.12693 0.12689 0.12684 0.12676 0.12673 0.12669 0.12663 0.12662 0.12656 0.12657 0.12649 0.12648 0.12649 0.12652 0.12665 0.12674 0.12682 0.12684 0.12691 0.12706 0.12711 0.12715 0.1273 0.12741 0.12737 0.12736 0.12728 0.12721 0.12711 0.127 0.12696 0.12677 0.12677 0.12681 0.12681 0.12699 0.12709 0.12715 0.12727 0.12742 0.12759 0.12766 0.12772 0.12773 0.12794 0.12805 0.12828 0.12834 0.12833 0.1285 0.12844 0.12845 0.12861 0.12859 0.12871 0.12874 0.12875 0.12877 0.12884
0 0 0 0.09835 0.10679 0.11766 0.12178 0.12384 0.12593 0.12808 0.12846 0.12877 0.12886 0.12878 0.1287 0.1285 0.12835 0.12817 0.12801 0.12791 0.12776 0.12764 0.1276 0.1276 0.12762 0.12761 0.12759 0.12755 0.12753 0.12746 0.12739 0.12736 0.12736 0.12734 0.12737 0.12739 0.12739 0.12736 0.12734 0.12728 0.12731 0.12729 0.12725 0.12726 0.12732 0.12733 0.12734 0.12733 0.12735 0.12732 0.12728 0.12731 0.12723 0.12716 0.12712 0.12713 0.12709 0.12706 0.12707 0.12703 0.12699 0.12697 0.12698 0.12699 0.12715 0.12724 0.12734 0.12741 0.12745 0.12759 0.12766 0.12768 0.12773 0.12778 0.1277 0.12765 0.12758 0.12755 0.12743 0.12731 0.12723 0.12721 0.12715 0.12724 0.12721 0.12734 0.1275 0.12751 0.12744 0.1275 0.12748 0.12752 0.12753 0.12768 0.12785 0.12795 0.12797 0.12808 0.1283 0.12827 0.12825 0.12832 0.1284 0.12844 0.12852 0.12861 0.12873 0.1287 0.12872
0 0 0 0.08268 0.09788 0.11234 0.12626 0.12682 0.12727 0.1276 0.12799 0.12825 0.12838 0.12831 0.12815 0.12794 0.12792 0.12789 0.12782 0.12777 0.1277 0.12768 0.12764 0.1276 0.12759 0.12753 0.12751 0.12747 0.12739 0.12731 0.12724 0.12728 0.12732 0.12732 0.12736 0.12737 0.12738 0.12739 0.1274 0.12736 0.12739 0.1274 0.12741 0.12746 0.12749 0.12753 0.12762 0.12762 0.12765 0.12769 0.12771 0.1277 0.12762 0.12759 0.1276 0.1276 0.1276 0.12759 0.12759 0.12753 0.12749 0.12751 0.12753 0.1276 0.12771 0.1278 0.12781 0.12789 0.12793 0.12806 0.12813 0.12808 0.12816 0.12823 0.12821 0.12815 0.12805 0.12798 0.12782 0.12771 0.12768 0.12758 0.12759 0.12753 0.12751 0.12761 0.12762 0.12766 0.12763 0.12759 0.12755 0.12752 0.12759 0.12761 0.12771 0.12768 0.12781 0.128 0.12811 0.12818 0.12818 0.12824 0.12818 0.12835 0.12837 0.12858 0.12858 0.1287 0.12872
0 0 0 0.09977 0.1099 0.11951 0.12888 0.12891 0.12892 0.12871 0.12877 0.12876 0.1286 0.12844 0.12823 0.12805 0.12803 0.12803 0.12792 0.12786 0.12776 0.12766 0.12761 0.12757 0.12749 0.12748 0.12743 0.12736 0.12728 0.12723 0.12719 0.12717 0.12719 0.12717 0.12726 0.12733 0.1274 0.12742 0.12742 0.12747 0.12753 0.12751 0.12753 0.12765 0.12774 0.1278 0.12796 0.12804 0.12817 0.12822 0.12827 0.1283 0.12832 0.12833 0.12837 0.12836 0.12837 0.12839 0.1284 0.12836 0.12842 0.12848 0.12842 0.12846 0.12852 0.12858 0.12865 0.1287 0.12879 0.12884 0.12882 0.12891 0.12902 0.12901 0.12883 0.12884 0.1287 0.1285 0.12838 0.12816 0.12809 0.12806 0.12806 0.12808 0.12794 0.12793 0.12798 0.12803 0.12806 0.128 0.12796 0.12798 0.12794 0.12789 0.12786 0.12793 0.12794 0.12812 0.12822 0.12827 0.12828 0.12836 0.12843 0.12843 0.12858 0.12867 0.12867 0.12871 0.12884
0.12838 0.12937 0.12203 0.11657 0.12154 0.12639 0.13103 0.13075 0.13034 0.12981 0.12956 0.12922 0.12875 0.12856 0.12835 0.12811 0.12812 0.12807 0.12804 0.12791 0.12782 0.12767 0.12761 0.12751 0.12744 0.12736 0.12733 0.12725 0.12718 0.12712 0.12707 0.12707 0.12709 0.12711 0.12719 0.12733 0.12736 0.1274 0.12742 0.12748 0.12756 0.12759 0.12764 0.12778 0.12794 0.12811 0.1283 0.12851 0.1286 0.12868 0.12877 0.12885 0.1289 0.12898 0.1291 0.1291 0.1291 0.12916 0.12915 0.12913 0.12926 0.12928 0.12928 0.12918 0.12927 0.12927 0.12931 0.12943 0.12954 0.1297 0.12964 0.12958 0.12964 0.12966 0.12956 0.12942 0.1292 0.12904 0.12881 0.12863 0.12859 0.12839 0.12836 0.12828 0.12833 0.12848 0.12862 0.12857 0.12848 0.12849 0.12844 0.12831 0.1283 0.12815 0.12805 0.12809 0.12809 0.1282 0.12834 0.12837 0.1283 0.1284 0.12848 0.12849 0.12854 0.12862 0.12865 0.12874 0.12889
0.12732 0.12944 0.13136 0.133 0.13316 0.13319 0.13289 0.13232 0.13159 0.13077 0.13024 0.12958 0.12884 0.12868 0.12844 0.12818 0.12813 0.12813 0.1281 0.12799 0.12787 0.12775 0.12761 0.12742 0.12731 0.12722 0.12715 0.12704 0.12702 0.12696 0.12693 0.12698 0.12702 0.12707 0.12719 0.12733 0.12736 0.12739 0.1274 0.12745 0.12757 0.12769 0.12782 0.12799 0.12824 0.12846 0.12864 0.12884 0.12908 0.12917 0.12933 0.12941 0.12948 0.12962 0.12967 0.12972 0.12982 0.12998 0.13005 0.13015 0.13024 0.13014 0.13011 0.13004 0.13008 0.13002 0.13008 0.13016 0.13023 0.13041 0.13041 0.13034 0.1303 0.13016 0.13006 0.12996 0.12974 0.12951 0.12929 0.12908 0.12896 0.12891 0.12886 0.12885 0.12885 0.12898 0.12901 0.12907 0.12902 0.12899 0.12899 0.1287 0.12858 0.12845 0.12843 0.12838 0.12841 0.12843 0.12836 0.12832 0.12843 0.12851 0.12869 0.12868 0.12879 0.12878 0.12883 0.12884 0.12901
0.12806 0.12974 0.1313 0.13283 0.1332 0.13333 0.13328 0.13276 0.13224 0.13154 0.13096 0.1302 0.12941 0.12911 0.12881 0.12842 0.12832 0.12825 0.12812 0.12797 0.12783 0.12769 0.12754 0.12737 0.12722 0.12715 0.12713 0.12705 0.1271 0.12711 0.12712 0.12723 0.12731 0.12736 0.12745 0.12752 0.12762 0.12765 0.12764 0.12773 0.12787 0.12801 0.12816 0.12838 0.12863 0.12889 0.12917 0.12937 0.12964 0.1298 0.12999 0.13012 0.13026 0.13037 0.13046 0.1305 0.1306 0.13071 0.13083 0.13103 0.13112 0.13105 0.13096 0.13094 0.13081 0.13065 0.13079 0.13088 0.13097 0.13118 0.13117 0.13105 0.13091 0.13081 0.13071 0.13059 0.13033 0.13011 0.1299 0.12967 0.12958 0.12951 0.12953 0.12958 0.12966 0.12984 0.13001 0.13022 0.13021 0.13014 0.13004 0.12965 0.12941 0.12915 0.12907 0.12895 0.12875 0.12887 0.12887 0.12892 0.1291 0.12932 0.12952 0.12948 0.12941 0.12946 0.12951 0.1295 0.12945
0.12853 0.12981 0.13105 0.13222 0.13285 0.13322 0.13355 0.13319 0.13271 0.1322 0.13156 0.13076 0.12996 0.12953 0.12908 0.12859 0.12845 0.12826 0.12807 0.12792 0.12773 0.12758 0.12743 0.12725 0.12712 0.1271 0.1271 0.12705 0.12716 0.12719 0.12725 0.12741 0.1275 0.1276 0.12772 0.12777 0.12778 0.12786 0.12787 0.12797 0.12813 0.12833 0.12853 0.12879 0.12908 0.12942 0.12975 0.12998 0.13022 0.13042 0.13058 0.13074 0.13088 0.13099 0.13116 0.13129 0.13149 0.13175 0.13174 0.13176 0.13184 0.13185 0.13185 0.13178 0.13168 0.13159 0.1315 0.1315 0.13165 0.13167 0.13163 0.13161 0.13167 0.13151 0.1314 0.13122 0.13096 0.13073 0.13051 0.13032 0.13014 0.13008 0.1303 0.13045 0.13055 0.13093 0.13119 0.13151 0.13157 0.13163 0.13152 0.13088 0.13027 0.12982 0.12954 0.12943 0.12932 0.12947 0.12959 0.12965 0.12986 0.13013 0.13043 0.13031 0.13024 0.1302 0.13005 0.12991 0.12985
0.12872 0.12967 0.13066 0.13153 0.13231 0.13302 0.13349 0.13338 0.13305 0.1327 0.13202 0.13132 0.13046 0.12994 0.12939 0.12873 0.1285 0.12828 0.128 0.12785 0.12763 0.12743 0.12731 0.12718 0.12703 0.12713 0.12713 0.12708 0.12729 0.12739 0.12749 0.12768 0.12776 0.1279 0.128 0.12809 0.12821 0.12821 0.12829 0.12842 0.12863 0.12883 0.12896 0.12927 0.12962 0.13003 0.13026 0.13046 0.13073 0.13098 0.13123 0.13146 0.13162 0.13179 0.13206 0.13221 0.13205 0.13213 0.13209 0.13219 0.13236 0.1324 0.13232 0.13217 0.132 0.13187 0.13201 0.13198 0.13191 0.13182 0.13184 0.13183 0.132 0.13191 0.13195 0.13182 0.13151 0.13126 0.13101 0.13093 0.13089 0.13087 0.13098 0.13116 0.13144 0.13152 0.13221 0.13291 0.13227 0.13209 0.13268 0.13189 0.1312 0.13037 0.13021 0.13006 0.12989 0.13005 0.1302 0.13046 0.1285 0.12926 0.13142 0.13043 0.13045 0.13099 0.1309 0.13052 0.13027
0.12976 0.13046 0.1311 0.13177 0.13234 0.13282 0.13322 0.13305 0.1328 0.13246 0.13186 0.13128 0.13058 0.13007 0.12955 0.12905 0.12879 0.1285 0.12823 0.12809 0.12795 0.12779 0.1277 0.12764 0.12755 0.12767 0.12771 0.12778 0.12799 0.12818 0.12835 0.12848 0.12861 0.12873 0.12888 0.12901 0.12906 0.12915 0.12915 0.12924 0.12937 0.12953 0.12962 0.13007 0.13043 0.13076 0.13104 0.13134 0.1317 0.1319 0.13199 0.13223 0.1324 0.13255 0.13275 0.13298 0.13283 0.13293 0.13305 0.13313 0.13332 0.13325 0.13332 0.13328 0.13305 0.13291 0.13287 0.13269 0.13249 0.13219 0.1321 0.13196 0.13203 0.13188 0.13191 0.13186 0.13164 0.13144 0.13123 0.13119 0.13127 0.13134 0.13159 0.13202 0.13242 0.13184 0.13207 0.13218 0.13196 0.13174 0.13179 0.13119 0.13061 0.13011 0.12671 0.12328 0.11993 0.12011 0.12032 0.12055 0.1247 0.12627 0.1283 0.12949 0.13005 0.13055 0.13149 0.13156 0.13314
0.13072 0.13117 0.13154 0.13191 0.13225 0.13258 0.13277 0.13261 0.1324 0.13215 0.13166 0.13118 0.13066 0.13017 0.12968 0.12916 0.12894 0.12872 0.1285 0.12837 0.12823 0.12806 0.12807 0.12807 0.12808 0.12817 0.12828 0.12839 0.12872 0.12896 0.12916 0.12929 0.1294 0.12949 0.12958 0.12975 0.12976 0.12985 0.12998 0.13007 0.13022 0.13024 0.13039 0.13078 0.13111 0.13162 0.13194 0.13231 0.13265 0.13277 0.13292 0.13315 0.13332 0.13344 0.13361 0.13385 0.13378 0.13392 0.13401 0.13414 0.13437 0.13438 0.13438 0.1345 0.1342 0.13401 0.13396 0.13358 0.13324 0.13277 0.13251 0.1323 0.13213 0.13203 0.13209 0.13196 0.13183 0.1317 0.1315 0.1316 0.13173 0.13185 0.13247 0.13291 0.13334 0.13095 0.13031 0.13196 0 0 0.13098 0.13068 0.13029 0.12999 0.12338 0.11675 0.11015 0.11042 0.11064 0 0 0.12589 0.12428 0.12666 0.12944 0.13074 0.13208 0.13398 0.13602
