ncols        109
nrows        82
xllcorner    -1.041666666667
yllcorner    37.041665395101
cellsize     0.083333333333
NODATA_value -9999
0.0 0 0 0 0 0 0 0 0 0 0 0 0 0 0 0 0 0 0 0 0 0 0 0 0 0 0 0 0 0 0 0 0 0 0 0 0 0 0 0 0 0 0 0 0 0 0 0 0 0 0 0 0 0 0 0 0 0 0 0 0 0 0 0 0 0 0 0 0 0 0 0 0 0 0 0 0 0 0 0 0 0 0 0 0 0 0 0 0 0 0 0 0 0 0 0 0 0 0 0 0 0 0 0 0 0.13421 0.13414 0.13442 0.13457
0 0 0 0 0 0 0 0 0 0 0 0 0 0 0 0 0 0 0 0 0 0 0 0 0 0 0 0 0 0 0 0 0 0 0 0 0 0 0 0 0 0 0 0 0 0 0 0 0 0 0 0 0 0 0 0 0 0 0 0 0 0 0 0 0 0 0 0 0 0 0 0 0 0 0 0 0 0 0 0 0 0 0 0 0 0 0 0 0 0 0 0 0 0 0 0 0 0 0 0 0 0.13344 0.13359 0.13386 0.13429 0.13474 0.13449 0.13453 0.13475
0 0 0 0 0 0 0 0 0 0 0 0 0 0 0 0 0 0 0 0 0 0 0 0 0 0 0 0 0 0 0 0 0 0 0 0 0 0 0 0 0 0 0 0 0 0 0 0 0 0 0 0 0 0 0 0 0 0 0 0 0 0 0 0 0 0 0 0 0 0 0 0 0 0 0 0 0 0 0 0 0 0 0 0 0 0 0 0 0 0 0 0 0 0 0 0 0 0 0.13271 0.13313 0.1334 0.13352 0.13365 0.13371 0.13378 0.13383 0.1338 0.13383 0.13371
0 0 0 0 0 0 0 0 0 0 0 0 0 0 0 0 0 0 0 0 0 0 0 0 0 0 0 0 0 0 0 0 0 0 0 0 0 0 0 0 0 0 0 0 0 0 0 0 0 0 0 0 0 0 0 0 0 0 0 0 0 0 0 0 0 0 0 0 0 0 0 0 0 0 0 0 0 0 0 0 0 0 0 0 0 0 0 0 0 0 0 0 0 0 0 0 0 0.13218 0.13282 0.13323 0.13343 0.13375 0.134 0.13363 0.13304 0.1333 0.13305 0.13279 0.1326
0 0 0 0 0 0 0 0 0 0 0 0 0 0 0 0 0 0 0 0 0 0 0 0 0 0 0 0 0 0 0 0 0 0 0 0 0 0 0 0 0 0 0 0 0 0 0 0 0 0 0 0 0 0 0 0 0 0 0.12657 0.12675 0.12667 0.12798 0 0 0 0 0 0 0 0 0 0 0 0 0 0 0 0 0 0 0 0 0 0 0 0 0 0 0 0 0 0 0 0 0 0.13132 0.13133 0.13234 0.13309 0.13384 0.1341 0.13453 0.13477 0.13407 0.13328 0.1326 0.13232 0.13197 0.1318
0 0 0 0 0 0 0 0 0 0 0 0 0 0 0 0 0 0 0 0 0 0 0 0 0 0 0 0 0 0 0 0 0 0 0 0 0 0 0 0 0 0 0 0 0 0 0 0 0 0 0 0 0 0 0 0 0.12763 0.12695 0.12722 0.12733 0.12824 0.12898 0.12968 0.13042 0.12288 0.11539 0.10799 0 0 0 0 0.11965 0 0 0 0 0 0 0 0 0 0 0 0 0 0 0 0 0 0 0 0 0 0.13125 0.1314 0.13138 0.13127 0.13182 0.13252 0.13311 0.13308 0.13321 0.13324 0.13275 0.13221 0.13165 0.13129 0.13099 0.13061
0 0 0 0 0 0 0 0 0 0 0 0 0 0 0 0 0 0 0 0 0 0 0 0 0 0 0 0 0 0 0 0 0 0 0 0 0 0 0 0 0 0 0 0 0 0 0 0 0 0 0 0 0 0 0 0.12776 0.12953 0.13026 0.12967 0.12901 0.12914 0.12966 0.13024 0.13088 0.12672 0.1228 0.11923 0.12524 0.12372 0.12302 0.12294 0.1216 0.12048 0.11777 0.11228 0.10869 0.1092 0 0 0 0 0 0 0 0 0 0 0 0 0 0 0 0.13077 0.13021 0.13122 0.1314 0.13155 0.13176 0.132 0.13226 0.13209 0.13198 0.13207 0.13163 0.13121 0.13068 0.13038 0.13001 0.12963
0 0 0 0 0 0 0 0 0 0 0 0 0 0 0 0 0 0 0 0 0 0 0 0 0 0 0 0 0 0 0 0 0 0 0 0 0 0 0 0 0 0 0 0 0 0 0 0 0 0 0 0.11994 0.12161 0.1231 0.12501 0.12787 0.13077 0.13296 0.13196 0.13121 0.13055 0.13075 0.13074 0.1299 0.12962 0.12979 0.13055 0.12756 0.12465 0.12186 0.12147 0.12135 0.12124 0.11456 0.10771 0.10028 0 0 0 0 0 0 0 0 0 0 0 0 0 0 0 0 0.12931 0.13087 0.13131 0.1316 0.1317 0.13175 0.13165 0.13161 0.13123 0.13086 0.13076 0.13048 0.13015 0.12963 0.12925 0.12896 0.12861
0 0 0 0 0 0 0 0 0 0 0 0 0 0 0 0 0 0 0 0 0 0 0 0 0 0 0 0 0 0 0 0 0 0 0 0 0 0 0 0 0 0 0 0 0 0 0 0 0 0 0.11701 0.11862 0.11959 0.12124 0.12273 0.12477 0.1271 0.12801 0.12722 0.12621 0.12545 0.12701 0.12848 0.12973 0.13252 0.13544 0.13857 0.13606 0.13334 0.13119 0.13 0.12901 0.12784 0.1228 0.1176 0.11131 0.11177 0.11233 0.11287 0.11577 0.11948 0.12261 0 0 0 0 0 0 0 0.12009 0.12394 0.12646 0.12819 0.13082 0.13098 0.13112 0.13126 0.13087 0.1305 0.13038 0.13004 0.12966 0.12923 0.12881 0.1285 0.12818 0.12783 0.12754 0.1272
0 0 0 0 0 0 0 0 0 0 0 0 0 0 0 0 0 0 0 0 0 0 0 0 0 0 0 0 0 0 0 0 0 0 0 0 0 0 0 0 0 0 0 0 0 0 0 0 0 0.11734 0.11624 0.11586 0.11717 0.11872 0.11956 0.12063 0.12127 0.12211 0.12107 0.12015 0.11916 0.12249 0.12568 0.12905 0.13456 0.14037 0.14612 0.14377 0.14149 0.13957 0.1376 0.13562 0.13361 0.12987 0.12569 0.12133 0.12193 0.1221 0.12237 0.12692 0.12687 0.12821 0 0.12865 0.12822 0.12081 0.10763 0.09983 0.107 0.1189 0.12521 0.12673 0.1278 0.13031 0.13053 0.1305 0.13039 0.12987 0.12954 0.12913 0.12859 0.12821 0.12761 0.12732 0.12706 0.12679 0.1267 0.12652 0.12637
0 0 0 0 0 0 0 0 0 0 0 0 0 0 0 0 0 0 0 0 0 0 0 0 0 0 0 0 0 0 0 0 0 0 0 0 0 0 0 0 0 0 0 0 0 0 0 0 0 0.11664 0.11436 0.1125 0.11382 0.11514 0.11668 0.11678 0.11664 0.11625 0.11516 0.11425 0.11308 0.11819 0.12333 0.12851 0.13695 0.14504 0.15338 0.15142 0.14966 0.14837 0.14515 0.14204 0.13894 0.13675 0.13368 0.13142 0.13181 0.13178 0.13196 0.13193 0.13212 0.13232 0.13359 0.13504 0.13662 0.11701 0.09772 0.07862 0.0952 0.1127 0.12997 0.12998 0.12989 0.13003 0.12995 0.12979 0.1297 0.12911 0.12861 0.12794 0.12745 0.12697 0.12648 0.12618 0.12578 0.1255 0.12548 0.12531 0.12521
0 0 0 0 0 0 0 0 0 0 0 0 0 0 0 0 0 0 0 0 0 0 0 0 0 0 0 0 0 0 0 0 0 0 0 0 0 0 0 0 0 0 0 0 0 0 0 0 0 0.11772 0.1165 0.1145 0.11631 0.11801 0.11954 0.12006 0.12153 0.12196 0.12098 0.12017 0.11943 0.12286 0.12622 0.12983 0.13559 0.14128 0.14672 0.14527 0.14417 0.14326 0.14093 0.13856 0.13622 0.13461 0.13194 0.13044 0.13082 0.13108 0.13132 0.13153 0.13179 0.13167 0.13242 0.13344 0.13443 0.12133 0.10844 0.09552 0.10672 0.11806 0.12928 0.12908 0.12881 0.12875 0.12846 0.12826 0.12782 0.12769 0.12728 0.12662 0.12621 0.12579 0.12529 0.1251 0.12501 0.12484 0.12476 0.1247 0.12465
0 0 0 0 0 0 0 0 0 0 0 0 0 0 0 0 0 0 0 0 0 0 0 0 0 0 0 0 0 0 0 0 0 0 0 0 0 0 0 0 0 0 0 0 0 0 0 0 0 0.12037 0.12004 0.11686 0.11907 0.12081 0.12241 0.12379 0.12596 0.12711 0.12638 0.12544 0.12475 0.12688 0.12895 0.13083 0.1339 0.13704 0.1401 0.13933 0.13882 0.13845 0.13681 0.13512 0.13362 0.13293 0.13124 0.13028 0.13058 0.1309 0.13115 0.13137 0.13144 0.13117 0.1315 0.13186 0.13246 0.12599 0.1195 0.11299 0.11833 0.12335 0.12846 0.12815 0.12809 0.12789 0.12739 0.12687 0.12638 0.1261 0.12575 0.12514 0.12487 0.1245 0.12403 0.12406 0.12414 0.12403 0.1241 0.12416 0.12431
0 0 0 0 0 0 0 0 0 0 0 0 0 0 0 0 0 0 0 0 0 0 0 0 0 0 0 0 0 0 0 0 0 0 0 0 0 0 0 0 0 0 0 0 0 0 0 0 0 0.12151 0.12047 0.11944 0.12142 0.12446 0.12573 0.12797 0.12989 0.13177 0.13145 0.13088 0.13045 0.13118 0.1316 0.13197 0.13263 0.13297 0.13346 0.13333 0.13358 0.1335 0.13279 0.13205 0.1313 0.13109 0.13074 0.13041 0.13049 0.13065 0.1309 0.13119 0.13116 0.1306 0.13045 0.13036 0.13056 0.13062 0.13066 0.13057 0.1299 0.12887 0.12798 0.12745 0.12718 0.12704 0.12646 0.12588 0.12509 0.12464 0.12416 0.1236 0.12332 0.12305 0.1229 0.12295 0.12304 0.12312 0.12336 0.12356 0.12376
0 0 0 0 0 0 0 0 0 0 0 0 0 0 0 0 0 0 0 0 0 0 0 0 0 0 0 0 0 0 0 0 0 0 0 0 0 0 0 0 0 0 0 0 0 0 0 0 0 0.12298 0.12238 0.12226 0.12379 0.12557 0.12903 0.1299 0.13026 0.13099 0.13044 0.13008 0.12976 0.13027 0.13087 0.13127 0.13163 0.13195 0.13237 0.13252 0.13239 0.13231 0.13164 0.13109 0.13037 0.1301 0.12974 0.12944 0.1295 0.12948 0.12956 0.12956 0.12919 0.12893 0.12882 0.12879 0.12855 0.12822 0.12813 0.12802 0.12737 0.1267 0.12609 0.12559 0.12528 0.12501 0.12468 0.12405 0.12363 0.12331 0.12308 0.12275 0.12263 0.1226 0.1226 0.12282 0.12289 0.12294 0.12307 0.12334 0.12344
0 0 0 0 0 0 0 0 0 0 0 0 0 0 0 0 0 0 0 0 0 0 0 0 0 0 0 0 0 0 0 0 0 0 0 0 0 0 0 0 0 0 0 0 0 0 0 0 0 0.1237 0.12575 0.12633 0.12774 0.12992 0.13226 0.13167 0.13082 0.13005 0.12953 0.12941 0.12913 0.12969 0.13027 0.13061 0.13076 0.13105 0.13155 0.1315 0.13132 0.13104 0.13049 0.12985 0.12936 0.12912 0.12868 0.12829 0.1282 0.1281 0.12783 0.12766 0.12727 0.12705 0.12681 0.12666 0.12635 0.12599 0.12593 0.12565 0.12514 0.12468 0.12412 0.12375 0.12346 0.12325 0.12295 0.12268 0.12233 0.12223 0.12206 0.12188 0.12192 0.12199 0.12207 0.12231 0.12243 0.12263 0.12286 0.12313 0.12329
0 0 0 0 0 0 0 0 0 0 0 0 0 0 0 0 0 0 0 0 0 0 0 0 0 0 0 0 0 0 0 0 0 0 0 0 0 0 0 0 0 0 0 0 0 0 0 0 0 0 0.1286 0.12941 0.13078 0.13347 0.13515 0.13317 0.13138 0.1293 0.12879 0.12869 0.12828 0.12895 0.12952 0.13002 0.13003 0.13051 0.1308 0.13057 0.13031 0.13 0.12949 0.12877 0.12825 0.12797 0.12757 0.12698 0.12668 0.12638 0.12602 0.12563 0.12526 0.12481 0.1245 0.12425 0.1239 0.12354 0.1235 0.12325 0.12295 0.1226 0.12226 0.1219 0.12169 0.12153 0.12138 0.12119 0.121 0.12106 0.12096 0.12093 0.12117 0.12133 0.12154 0.12177 0.12206 0.1224 0.1226 0.12281 0.12326
0 0 0 0 0 0 0 0 0 0 0 0 0 0 0 0 0 0 0 0 0 0 0 0 0 0 0 0 0 0 0 0 0 0 0 0 0 0 0 0 0 0 0 0 0 0 0 0 0 0 0.13038 0.13113 0.13136 0.13209 0.13376 0.13237 0.13072 0.12908 0.12858 0.12861 0.12812 0.12883 0.12937 0.12958 0.12958 0.12991 0.13007 0.12976 0.12945 0.12918 0.12852 0.12791 0.12734 0.12697 0.12649 0.12594 0.1257 0.12542 0.125 0.12472 0.1245 0.12427 0.12387 0.12347 0.12312 0.1227 0.12252 0.12238 0.12218 0.12201 0.12172 0.12143 0.12125 0.1212 0.12108 0.1209 0.12071 0.12073 0.12066 0.12059 0.12084 0.12105 0.12128 0.12158 0.12181 0.12216 0.12244 0.1226 0.12288
0 0 0 0 0 0 0 0 0 0 0 0 0 0 0 0 0 0 0 0 0 0 0 0 0 0 0 0 0 0 0 0 0 0 0 0 0 0 0 0 0 0 0 0 0 0 0 0 0 0 0 0 0.13131 0.13176 0.13313 0.13164 0.1303 0.12878 0.12862 0.12829 0.12777 0.12835 0.12871 0.12888 0.1289 0.12917 0.1292 0.12895 0.12853 0.12812 0.12747 0.12698 0.12642 0.12601 0.1255 0.12502 0.1247 0.12443 0.12424 0.12395 0.12365 0.12334 0.12292 0.12256 0.12214 0.12178 0.12169 0.1216 0.12145 0.1214 0.12128 0.12115 0.12093 0.12088 0.12069 0.12051 0.12038 0.1204 0.1204 0.12052 0.12064 0.12075 0.12101 0.12133 0.12157 0.1219 0.12218 0.12247 0.12267
0 0 0 0 0 0 0 0 0 0 0 0 0 0 0 0 0 0 0 0 0 0 0 0 0 0 0 0 0 0 0 0 0 0 0 0 0 0 0 0 0 0 0 0 0 0 0 0 0 0 0.13065 0.13048 0.13097 0.13158 0.13212 0.13094 0.13007 0.12826 0.12809 0.12777 0.12721 0.12768 0.128 0.12828 0.12821 0.12826 0.12834 0.12786 0.12742 0.12705 0.1265 0.12598 0.12547 0.12517 0.12467 0.12411 0.12383 0.12355 0.12322 0.12306 0.12297 0.12279 0.12234 0.12188 0.12152 0.12127 0.12132 0.12127 0.12108 0.121 0.12086 0.12065 0.12052 0.12043 0.1202 0.12015 0.11994 0.11992 0.12002 0.12017 0.1204 0.1205 0.1208 0.12108 0.12149 0.1217 0.12205 0.12221 0.12248
0 0 0 0 0 0 0 0 0 0 0 0 0 0 0 0 0 0 0 0 0 0 0 0 0 0 0 0 0 0 0 0 0 0 0 0 0 0 0 0 0 0 0 0 0 0 0 0 0 0 0.13063 0.13079 0.13107 0.13154 0.13135 0.13027 0.12946 0.12797 0.12774 0.1272 0.1267 0.12704 0.12741 0.12763 0.12767 0.12764 0.12766 0.12729 0.12688 0.12652 0.12607 0.12569 0.12524 0.12497 0.12449 0.12403 0.12381 0.12348 0.1232 0.12305 0.12288 0.12278 0.12249 0.12228 0.12192 0.12159 0.12155 0.12152 0.1214 0.12128 0.12103 0.12073 0.12058 0.12046 0.12029 0.12018 0.12 0.12007 0.12016 0.1202 0.12045 0.12062 0.12085 0.12114 0.12136 0.12156 0.12178 0.12204 0.1223
0 0 0 0 0 0 0 0 0 0 0 0 0 0 0 0 0 0 0 0 0 0 0 0 0 0 0 0 0 0 0 0 0 0 0 0 0 0 0 0 0 0 0 0 0 0 0 0 0 0 0 0.1308 0.13115 0.13081 0.13041 0.12957 0.12875 0.1276 0.12721 0.12671 0.12627 0.12646 0.12698 0.12723 0.12715 0.12716 0.12703 0.12671 0.12646 0.1261 0.12577 0.1255 0.12514 0.12477 0.12436 0.124 0.12363 0.1233 0.12309 0.12292 0.12277 0.12261 0.12245 0.12216 0.12201 0.12187 0.12173 0.12166 0.12148 0.12121 0.12103 0.12084 0.12071 0.12056 0.12041 0.1203 0.12016 0.12005 0.12013 0.12011 0.12035 0.12049 0.12075 0.12095 0.12118 0.12136 0.12159 0.12186 0.12216
0 0 0 0 0 0 0 0 0 0 0 0 0 0 0 0 0 0 0 0 0 0 0 0 0 0 0 0 0 0 0 0 0 0 0 0 0 0 0 0 0 0 0 0 0 0 0 0 0 0 0 0.13041 0.13067 0.13028 0.12951 0.12873 0.12822 0.12689 0.12677 0.12633 0.12589 0.12623 0.12662 0.12676 0.12671 0.12652 0.12636 0.12626 0.12601 0.12579 0.12546 0.12512 0.12488 0.12467 0.1244 0.1239 0.12361 0.12333 0.12317 0.12283 0.12265 0.12262 0.12249 0.12239 0.12226 0.12199 0.12188 0.12178 0.12168 0.12139 0.12123 0.12095 0.12079 0.1207 0.12059 0.12042 0.12024 0.1202 0.12007 0.12012 0.12035 0.12051 0.1206 0.12078 0.12102 0.12106 0.12129 0.12153 0.12194
0 0 0 0 0 0 0 0 0 0 0 0 0 0 0 0 0 0 0 0 0 0 0 0 0 0 0 0 0 0 0 0 0 0 0 0 0 0 0 0 0 0 0 0 0 0 0 0 0 0 0 0.13074 0.12971 0.12971 0.12907 0.12819 0.12758 0.12641 0.12605 0.1259 0.12567 0.12594 0.12647 0.12652 0.12643 0.12628 0.12609 0.12603 0.12583 0.12576 0.12544 0.12525 0.12501 0.12476 0.12437 0.12403 0.12382 0.12356 0.12322 0.12285 0.12268 0.12264 0.12259 0.12251 0.1223 0.12216 0.12198 0.12186 0.12165 0.12142 0.12129 0.12111 0.12086 0.12074 0.12074 0.12047 0.12036 0.12047 0.12037 0.12022 0.12035 0.12048 0.12048 0.12068 0.12085 0.12098 0.12124 0.1215 0.12185
0 0 0 0 0 0 0 0 0 0 0 0 0 0 0 0 0 0 0 0 0 0 0 0 0 0 0 0 0 0 0 0 0 0 0 0 0 0 0 0 0 0 0 0 0 0 0 0 0 0.12766 0.12927 0.1311 0.13016 0.12944 0.12854 0.12776 0.12677 0.12593 0.12569 0.12566 0.12552 0.12614 0.12633 0.12643 0.12618 0.12602 0.12589 0.12569 0.1257 0.12567 0.12553 0.1254 0.12508 0.12493 0.12455 0.1242 0.12398 0.12367 0.12332 0.12308 0.12292 0.12281 0.12276 0.12259 0.1224 0.12224 0.12207 0.12186 0.12168 0.12149 0.12134 0.12103 0.12091 0.12086 0.12081 0.12068 0.12049 0.1204 0.12038 0.12027 0.12037 0.12034 0.12033 0.12046 0.12058 0.12075 0.1211 0.12138 0.12171
0 0 0 0 0 0 0 0 0 0 0 0 0 0 0 0 0 0 0 0 0 0 0 0 0 0 0 0 0 0 0 0 0 0 0 0 0 0 0 0 0 0 0 0 0 0 0 0 0.12255 0.12556 0.12867 0.13089 0.12986 0.12879 0.12804 0.1273 0.12641 0.12529 0.12536 0.12538 0.12554 0.12588 0.12613 0.12611 0.12572 0.12562 0.12556 0.12542 0.12537 0.12538 0.1253 0.12523 0.12507 0.12488 0.12452 0.1242 0.12401 0.12373 0.12347 0.1232 0.12311 0.12305 0.12294 0.12275 0.12253 0.12231 0.12217 0.12201 0.1218 0.12162 0.12148 0.12126 0.12114 0.12093 0.12097 0.12089 0.1208 0.12064 0.12047 0.12048 0.12037 0.12047 0.12039 0.12053 0.12065 0.12087 0.12114 0.12142 0.12167
0 0 0 0 0 0 0 0 0 0 0 0 0 0 0 0 0 0 0 0 0 0 0 0 0 0 0 0 0 0 0 0 0 0 0 0 0 0 0 0 0 0 0 0 0 0.13019 0.12894 0.12767 0.1259 0.1273 0.12864 0.12998 0.12917 0.12833 0.12723 0.12688 0.12593 0.1249 0.12523 0.12539 0.12528 0.12551 0.12564 0.12568 0.12537 0.12535 0.12525 0.12517 0.12512 0.12526 0.12518 0.12514 0.12517 0.12505 0.12471 0.12441 0.12412 0.12393 0.12361 0.12354 0.12328 0.12304 0.12308 0.12286 0.12259 0.12232 0.12221 0.12206 0.12188 0.12172 0.12156 0.1214 0.12122 0.12107 0.12102 0.12094 0.12093 0.12078 0.1207 0.12064 0.1207 0.12071 0.12063 0.1207 0.12087 0.12106 0.12127 0.12156 0.12184
0 0 0 0 0 0 0 0 0 0 0 0 0 0 0 0 0 0 0 0 0 0 0 0 0 0 0 0 0 0 0 0 0 0 0 0 0 0 0 0 0 0 0.1291 0.13004 0.13085 0.13077 0.13018 0.12984 0.12867 0.12884 0.12906 0.12924 0.12837 0.12787 0.12697 0.12639 0.12569 0.125 0.12511 0.12504 0.12525 0.12536 0.12537 0.12533 0.12504 0.12494 0.12492 0.12487 0.12485 0.12484 0.12492 0.1249 0.12495 0.12481 0.12465 0.12458 0.12432 0.12408 0.12389 0.12372 0.12349 0.12321 0.12302 0.12283 0.12258 0.12244 0.12234 0.12208 0.12199 0.12184 0.12167 0.12149 0.12123 0.12111 0.12101 0.12101 0.121 0.12093 0.12081 0.12089 0.12091 0.12094 0.12082 0.12087 0.12111 0.12123 0.12153 0.12181 0.12204
0 0 0 0 0 0 0 0 0 0 0 0 0 0 0 0 0 0 0 0 0 0 0 0 0 0 0 0 0 0 0 0 0 0 0 0 0 0 0 0 0.12938 0.12894 0.12948 0.13028 0.13183 0.13252 0.13178 0.13136 0.13092 0.12986 0.12907 0.12811 0.12757 0.12723 0.12652 0.12583 0.12542 0.12493 0.12518 0.12514 0.12505 0.12509 0.12515 0.12485 0.12474 0.12469 0.12462 0.12459 0.12473 0.12482 0.12475 0.12476 0.1248 0.12482 0.12483 0.12464 0.1244 0.12421 0.12412 0.12398 0.12362 0.12334 0.12299 0.12267 0.12248 0.12243 0.1224 0.12208 0.12202 0.12185 0.12172 0.12145 0.12132 0.12113 0.12096 0.12101 0.12113 0.12107 0.12102 0.12098 0.1211 0.1211 0.12103 0.1211 0.12129 0.12144 0.12178 0.12207 0.12225
0 0 0 0 0 0 0 0 0 0 0 0 0 0 0 0 0 0 0 0 0 0 0 0 0 0 0 0 0 0 0 0 0 0 0 0 0 0 0 0.1291 0.12992 0.12957 0.12995 0.13005 0.13087 0.13133 0.1308 0.12996 0.12924 0.12849 0.12783 0.12752 0.12708 0.12666 0.12624 0.12592 0.12511 0.12475 0.12507 0.12483 0.12479 0.12487 0.12482 0.12486 0.12492 0.12469 0.1245 0.12456 0.12452 0.12464 0.12474 0.12474 0.12483 0.12478 0.12473 0.12468 0.12444 0.12417 0.12412 0.12391 0.12364 0.12326 0.12291 0.12262 0.12245 0.12232 0.12231 0.12224 0.12214 0.12193 0.12174 0.12162 0.12152 0.12122 0.12121 0.12128 0.12119 0.12129 0.12121 0.1212 0.12125 0.12123 0.12125 0.12138 0.12173 0.12188 0.12217 0.12227 0.12244
0 0 0 0 0 0 0 0 0 0 0 0 0 0 0 0 0 0 0 0 0 0 0 0 0 0 0 0 0 0 0 0 0 0 0 0 0 0 0.12853 0.13095 0.13094 0.13006 0.13027 0.1301 0.13009 0.13017 0.12953 0.1289 0.12833 0.12782 0.12729 0.12702 0.12667 0.12644 0.12604 0.1255 0.12528 0.12514 0.12519 0.12512 0.12507 0.12492 0.12484 0.12483 0.12498 0.12484 0.12462 0.12442 0.12444 0.12456 0.12467 0.12477 0.1249 0.1248 0.12466 0.12447 0.12439 0.12412 0.12385 0.12376 0.12358 0.12325 0.12303 0.12277 0.12254 0.12251 0.12239 0.12223 0.1222 0.12194 0.12177 0.12176 0.12161 0.12142 0.12145 0.12145 0.12136 0.12142 0.12147 0.12144 0.12153 0.12148 0.12164 0.12184 0.12208 0.1223 0.1225 0.12255 0.12262
0 0 0 0 0 0 0 0 0 0 0 0 0 0 0 0 0 0 0 0 0 0 0 0 0 0 0 0 0 0 0 0 0 0 0.12612 0.1184 0.11137 0.11955 0.12718 0.13468 0.13341 0.13159 0.13054 0.13011 0.12959 0.12908 0.12838 0.12762 0.1269 0.12678 0.12674 0.12675 0.12663 0.12645 0.126 0.12551 0.12536 0.12523 0.12528 0.12517 0.12516 0.125 0.12495 0.12481 0.12487 0.1247 0.12449 0.12451 0.12455 0.12454 0.12463 0.12454 0.12442 0.12443 0.12416 0.12409 0.12417 0.12409 0.1239 0.1237 0.1237 0.1234 0.12319 0.12292 0.12271 0.12253 0.12239 0.12234 0.12219 0.1221 0.12199 0.12187 0.12185 0.12164 0.12156 0.12161 0.12153 0.12153 0.1216 0.12158 0.12175 0.12186 0.12194 0.12221 0.12243 0.12269 0.12286 0.12287 0.12283
0 0 0 0 0 0 0 0 0 0 0 0 0 0 0 0 0 0 0 0 0 0 0 0 0 0 0 0 0 0.14274 0.14156 0.14038 0.13829 0.13559 0.13106 0.12635 0.12022 0.12442 0.12924 0.13418 0.13301 0.13126 0.12982 0.12933 0.12888 0.12848 0.12796 0.12739 0.1268 0.12674 0.12674 0.12674 0.12664 0.12633 0.12605 0.12579 0.12552 0.12536 0.12527 0.12514 0.12516 0.12522 0.12518 0.12519 0.12506 0.12482 0.1247 0.12468 0.12467 0.12464 0.1245 0.12439 0.12407 0.12409 0.12401 0.12403 0.12397 0.1239 0.12375 0.12358 0.12354 0.12345 0.12319 0.12294 0.12272 0.12262 0.12252 0.12244 0.12233 0.12226 0.1222 0.12214 0.12204 0.12185 0.12179 0.12178 0.12166 0.12173 0.12177 0.12172 0.12186 0.12207 0.12223 0.12254 0.12277 0.12298 0.12313 0.12305 0.12311
0 0 0 0 0 0 0 0 0 0 0 0 0 0 0 0 0 0 0 0 0 0 0 0 0 0.14215 0.14354 0.14306 0.14411 0.14553 0.14535 0.14244 0.14009 0.13894 0.13687 0.13401 0.12819 0.12918 0.13132 0.13329 0.13221 0.13066 0.12956 0.12877 0.12836 0.12788 0.12756 0.12717 0.1269 0.12662 0.12655 0.12667 0.12642 0.12644 0.12624 0.12616 0.12567 0.12549 0.12542 0.12542 0.12538 0.12534 0.12533 0.12533 0.12514 0.12499 0.12488 0.12479 0.12467 0.1246 0.12448 0.12426 0.12396 0.12395 0.12384 0.12379 0.12382 0.12364 0.1236 0.12345 0.12341 0.12332 0.12315 0.123 0.12275 0.12264 0.12273 0.12262 0.1225 0.12247 0.12232 0.12232 0.12223 0.12215 0.12215 0.12206 0.12195 0.12194 0.12199 0.12191 0.12213 0.12235 0.12248 0.1228 0.12307 0.12329 0.12335 0.1234 0.12346
0 0 0 0 0 0 0 0 0 0 0 0 0 0 0 0 0 0 0 0 0 0 0 0.1393 0.14096 0.14268 0.14397 0.14319 0.14661 0.14802 0.14941 0.14492 0.14208 0.14057 0.13985 0.13781 0.13597 0.13456 0.13353 0.13261 0.13147 0.13011 0.12902 0.1281 0.12793 0.12732 0.12721 0.12695 0.12683 0.12656 0.12647 0.12668 0.12655 0.1265 0.1265 0.12632 0.12611 0.12583 0.12579 0.12564 0.12556 0.12551 0.12551 0.1253 0.12515 0.12505 0.12492 0.12477 0.12476 0.12474 0.12458 0.12424 0.12403 0.12393 0.12358 0.12356 0.12358 0.12353 0.12363 0.12342 0.12323 0.12302 0.12292 0.12296 0.12287 0.1228 0.1228 0.12266 0.12275 0.12269 0.12252 0.12247 0.12244 0.1224 0.12243 0.12236 0.12216 0.12227 0.12216 0.1221 0.12242 0.12258 0.12272 0.12306 0.12329 0.12349 0.12363 0.12368 0.12379
0 0 0 0 0 0 0 0 0 0 0 0 0 0 0 0 0 0 0 0 0 0 0.13641 0.13801 0.13931 0.14174 0.14545 0.14535 0.14612 0.14733 0.1485 0.14502 0.14132 0.13819 0.13731 0.13605 0.13458 0.1336 0.13272 0.13147 0.13066 0.12992 0.12917 0.12872 0.12796 0.12737 0.12691 0.12687 0.12669 0.1267 0.12662 0.12657 0.12659 0.1265 0.1265 0.12641 0.12621 0.12611 0.12601 0.12571 0.12573 0.12569 0.12552 0.12546 0.12535 0.12523 0.12505 0.12506 0.12495 0.12481 0.12456 0.12428 0.1239 0.12365 0.12352 0.12342 0.12335 0.1234 0.12317 0.12307 0.12291 0.12292 0.12293 0.12275 0.12279 0.1228 0.1228 0.12282 0.12287 0.12285 0.12273 0.12275 0.12276 0.12267 0.12262 0.12262 0.1224 0.12247 0.12238 0.12234 0.12268 0.12287 0.12303 0.12336 0.12364 0.12386 0.12397 0.12398 0.12416
0 0 0 0 0 0 0 0 0 0 0 0 0 0 0 0 0 0 0 0 0 0.13471 0.13535 0.13598 0.13637 0.13884 0.14303 0.14646 0.1461 0.14567 0.1459 0.1423 0.13851 0.13532 0.13443 0.13373 0.13239 0.13126 0.1308 0.13009 0.1295 0.12904 0.12855 0.12816 0.12737 0.12716 0.12694 0.12665 0.12649 0.12649 0.12641 0.12659 0.12681 0.12687 0.12659 0.12662 0.12655 0.12642 0.1263 0.12619 0.12608 0.12604 0.12585 0.12573 0.12562 0.12539 0.12523 0.12503 0.12491 0.1248 0.12464 0.1243 0.12395 0.1236 0.12352 0.12336 0.12321 0.12308 0.12286 0.12275 0.12281 0.12288 0.12294 0.12283 0.12288 0.12293 0.12302 0.1231 0.12307 0.12308 0.12296 0.12303 0.12296 0.12295 0.1229 0.12277 0.12258 0.12269 0.12263 0.12271 0.12305 0.12314 0.12338 0.12366 0.12391 0.12412 0.12426 0.12439 0.12449
0 0 0 0 0 0 0 0 0 0 0 0 0 0 0 0 0 0 0 0 0 0 0 0.13518 0.13295 0.13709 0.14116 0.14762 0.14595 0.14438 0.1435 0.13957 0.13576 0.13313 0.13229 0.13163 0.13063 0.13002 0.1293 0.12858 0.12818 0.12766 0.12733 0.12709 0.12707 0.1271 0.12675 0.12654 0.1265 0.12654 0.12632 0.12636 0.12651 0.12688 0.12682 0.1268 0.1267 0.1268 0.12681 0.12656 0.12639 0.12615 0.12607 0.12588 0.12574 0.12534 0.12506 0.12498 0.125 0.12482 0.12463 0.12428 0.12392 0.12358 0.12352 0.12334 0.12308 0.12287 0.12272 0.12272 0.12277 0.12284 0.12288 0.12287 0.12295 0.12304 0.12319 0.12324 0.12329 0.12324 0.12321 0.12312 0.12311 0.12311 0.12302 0.12296 0.12275 0.12288 0.12296 0.12311 0.12325 0.12343 0.12363 0.12393 0.12422 0.12448 0.12462 0.12465 0.12468
0 0 0 0 0 0 0 0 0 0 0 0 0 0 0 0 0 0 0 0 0 0.13062 0.13275 0.13535 0.13388 0.13749 0.14163 0.14897 0.14594 0.14363 0.14153 0.13787 0.1344 0.13182 0.13141 0.13083 0.12959 0.12908 0.12857 0.12806 0.12762 0.12718 0.1268 0.12677 0.12672 0.12672 0.1267 0.12663 0.12659 0.12631 0.12618 0.12621 0.12634 0.12648 0.12668 0.12659 0.12669 0.12673 0.12672 0.12666 0.12644 0.12629 0.12621 0.12613 0.12588 0.12567 0.12546 0.12528 0.12521 0.12498 0.12468 0.12452 0.1243 0.12411 0.12391 0.12364 0.12345 0.12325 0.12304 0.12302 0.123 0.12306 0.12305 0.12296 0.12309 0.12329 0.12341 0.12347 0.12351 0.12338 0.12332 0.12327 0.12324 0.12324 0.12312 0.12307 0.12288 0.12311 0.12326 0.12338 0.12344 0.12367 0.12371 0.124 0.12428 0.12446 0.12468 0.12482 0.12494
0 0 0 0 0 0 0 0 0 0 0 0 0 0 0 0 0 0 0 0.12575 0.12569 0.12577 0.13058 0.13539 0.13549 0.13819 0.14289 0.15003 0.14628 0.14301 0.13976 0.13643 0.13284 0.13043 0.13031 0.1297 0.12881 0.12824 0.12793 0.1274 0.1272 0.12684 0.12643 0.12645 0.12643 0.12637 0.12638 0.12622 0.12626 0.12604 0.12617 0.1262 0.12623 0.12615 0.12627 0.12633 0.12648 0.1267 0.12668 0.12648 0.12623 0.12621 0.12623 0.12637 0.12621 0.12599 0.12577 0.12563 0.12542 0.12515 0.12492 0.12479 0.12458 0.12447 0.12425 0.12388 0.12377 0.12365 0.12345 0.12333 0.12324 0.12318 0.12321 0.12322 0.12331 0.12345 0.12355 0.12356 0.1235 0.12346 0.12342 0.12338 0.1234 0.1233 0.12322 0.12316 0.12303 0.12328 0.12339 0.12353 0.12363 0.12372 0.12382 0.12409 0.12432 0.12441 0.12477 0.12505 0.12527
0 0 0 0 0 0 0 0 0 0 0 0 0 0 0 0 0 0 0.12101 0.12377 0.12338 0.11979 0.12679 0.1314 0.13656 0.13969 0.1447 0.15144 0.14658 0.14252 0.13779 0.13453 0.13139 0.12914 0.12889 0.12842 0.12788 0.12745 0.12697 0.1266 0.12639 0.12613 0.12592 0.12596 0.12595 0.12599 0.12604 0.12612 0.1262 0.12598 0.12601 0.12598 0.12588 0.12578 0.12573 0.126 0.12614 0.12633 0.12622 0.12613 0.12595 0.12602 0.12607 0.1263 0.1262 0.12606 0.12583 0.12573 0.12559 0.12534 0.12526 0.12508 0.12485 0.12468 0.12445 0.12417 0.12414 0.12402 0.12384 0.12375 0.12349 0.12334 0.12341 0.12342 0.12347 0.12359 0.12366 0.12367 0.12369 0.12359 0.12347 0.12348 0.12348 0.12337 0.12334 0.12324 0.12309 0.12337 0.12357 0.1237 0.12376 0.12381 0.12386 0.12406 0.1243 0.12435 0.12479 0.12518 0.12551
0 0 0 0 0 0 0 0 0 0 0 0 0 0 0 0 0 0.11562 0.11797 0.12196 0.12591 0.12253 0.12886 0.13523 0.14198 0.14397 0.146 0.14791 0.14387 0.14036 0.13661 0.13379 0.1306 0.12867 0.12834 0.12797 0.12777 0.12734 0.12698 0.12663 0.12635 0.12612 0.12596 0.12593 0.12588 0.12599 0.12607 0.12618 0.12627 0.12616 0.12615 0.12623 0.12612 0.12589 0.12581 0.12603 0.12595 0.1262 0.12627 0.12622 0.12615 0.12612 0.12614 0.12626 0.12626 0.12628 0.12619 0.12602 0.12586 0.12574 0.1256 0.12553 0.12537 0.12513 0.12492 0.12472 0.12462 0.12443 0.12422 0.12408 0.12381 0.12362 0.12374 0.12363 0.12371 0.1238 0.12393 0.1239 0.12401 0.12389 0.12366 0.12368 0.12373 0.12356 0.12352 0.12343 0.12326 0.1236 0.1237 0.12381 0.12391 0.12401 0.12395 0.12408 0.12435 0.12442 0.12485 0.12507 0.12536
0 0 0 0 0 0 0 0 0 0 0 0 0 0 0 0 0.10939 0.10913 0.10952 0.1158 0.12272 0.12084 0.13062 0.13716 0.14314 0.14346 0.14444 0.14433 0.14124 0.13855 0.13539 0.13302 0.13034 0.12832 0.12813 0.12774 0.12732 0.12714 0.12696 0.1267 0.12643 0.12628 0.12609 0.12594 0.12586 0.12589 0.12615 0.12642 0.1264 0.12622 0.12608 0.12591 0.12584 0.12585 0.12576 0.12592 0.12586 0.12596 0.12615 0.12625 0.12636 0.12624 0.1262 0.12619 0.12632 0.12634 0.12633 0.12626 0.12604 0.12595 0.12592 0.12589 0.12568 0.12555 0.12537 0.12507 0.12503 0.12486 0.1246 0.12439 0.12409 0.12397 0.12387 0.12393 0.12402 0.12409 0.12424 0.12435 0.12432 0.12425 0.12413 0.12401 0.12399 0.12377 0.1237 0.12372 0.12343 0.12377 0.12385 0.12397 0.12405 0.12404 0.12398 0.12428 0.12446 0.12451 0.12491 0.12498 0.12526
0 0 0 0 0 0 0 0 0 0 0 0 0 0 0 0.11077 0.10806 0.10337 0.09901 0.10618 0.11366 0.12047 0.13205 0.13812 0.14434 0.14306 0.14228 0.14138 0.13865 0.13677 0.1345 0.13226 0.12996 0.12805 0.12811 0.1278 0.12729 0.12726 0.12705 0.1268 0.1264 0.12633 0.1261 0.12598 0.12584 0.12587 0.12617 0.12639 0.12646 0.12617 0.1259 0.12583 0.12544 0.12529 0.12527 0.12539 0.12559 0.12576 0.12563 0.12594 0.12661 0.12601 0.12578 0.12627 0.12641 0.12639 0.12653 0.12642 0.12626 0.12624 0.12622 0.12623 0.12625 0.12598 0.12567 0.12532 0.12528 0.1251 0.12486 0.12467 0.12445 0.12427 0.12422 0.12418 0.12432 0.12442 0.12451 0.12459 0.12454 0.1245 0.12437 0.1242 0.12413 0.12391 0.12383 0.12387 0.12377 0.124 0.12407 0.12402 0.12409 0.12407 0.12411 0.12443 0.12459 0.12479 0.12504 0.12508 0.1252
0 0 0 0 0 0 0 0 0 0 0 0 0 0 0.10942 0.11016 0.1097 0.10866 0.10399 0.11096 0.1181 0.12504 0.13364 0.13724 0.14057 0.14018 0.13979 0.13908 0.13673 0.13495 0.1333 0.13134 0.12939 0.12797 0.12778 0.12745 0.12714 0.12707 0.1269 0.12659 0.12637 0.12622 0.12603 0.12586 0.1258 0.12582 0.12619 0.12641 0.12642 0.12653 0.12649 0.12648 0.12611 0.12576 0.12543 0.12455 0.12367 0.12293 0.12455 0.12475 0.12517 0.12478 0.12411 0.12114 0.12295 0.12497 0.12696 0.12663 0.12642 0.12624 0.12624 0.12614 0.12608 0.12588 0.12563 0.12534 0.12525 0.12505 0.1249 0.1247 0.12455 0.12427 0.12439 0.12451 0.12463 0.12469 0.12484 0.12485 0.12499 0.12492 0.12471 0.12459 0.12445 0.1243 0.12426 0.12421 0.1241 0.12428 0.12437 0.12429 0.1243 0.12427 0.12426 0.12467 0.12489 0.12514 0.12552 0.1258 0.12604
0 0 0 0 0 0 0 0 0 0 0 0 0 0.10954 0.10931 0.10742 0.11079 0.11505 0.11099 0.11805 0.12514 0.13163 0.13502 0.13615 0.13719 0.13738 0.13706 0.1367 0.13497 0.13342 0.13217 0.13058 0.12898 0.12758 0.12741 0.12722 0.12714 0.12696 0.12666 0.12632 0.12624 0.12616 0.12586 0.12565 0.12544 0.12535 0.1258 0.12614 0.12636 0.12662 0.12683 0.12692 0.12652 0.12604 0.12555 0.12363 0.12169 0.11989 0 0 0 0.12469 0.12154 0.11612 0.11977 0.12362 0.12745 0.12707 0.12669 0.12633 0.12615 0.126 0.12596 0.12584 0.12565 0.12541 0.12527 0.12509 0.12494 0.12477 0.12468 0.12455 0.12465 0.12472 0.12483 0.12499 0.12519 0.1253 0.12545 0.12536 0.12514 0.12501 0.12487 0.12464 0.12462 0.12453 0.12435 0.12452 0.12457 0.12455 0.12453 0.12455 0.12444 0.12488 0.12512 0.12538 0.12591 0.12632 0.12663
0 0 0 0 0 0 0 0 0 0 0 0 0 0.11243 0.10687 0.1018 0.10649 0.11226 0.11846 0.12499 0.13151 0.13844 0.13723 0.13597 0.13456 0.13495 0.13468 0.13445 0.13326 0.13191 0.13122 0.13 0.12854 0.12726 0.12709 0.1272 0.12701 0.12681 0.12647 0.12627 0.12612 0.12594 0.12545 0.12485 0.12479 0.12509 0.1252 0.12584 0.12601 0.12558 0.12597 0.12735 0.1252 0.12407 0.12533 0.12234 0.11952 0.11659 0 0 0 0 0 0.11806 0.11664 0.12217 0.12788 0.12744 0.12695 0.12655 0.1264 0.12633 0.12604 0.12595 0.1258 0.1255 0.12536 0.12537 0.12517 0.12494 0.12494 0.12483 0.12501 0.12506 0.12501 0.12534 0.1255 0.12562 0.12591 0.12569 0.12554 0.12547 0.12526 0.1249 0.12486 0.12484 0.12461 0.12472 0.12477 0.12473 0.12474 0.12468 0.12449 0.12501 0.1253 0.12564 0.12624 0.12678 0.12726
0 0 0 0 0 0 0 0 0 0 0 0 0.11668 0.11625 0.11463 0.1135 0.11602 0.1203 0.1246 0.1287 0.13259 0.13661 0.13554 0.13441 0.13344 0.13362 0.13332 0.13317 0.13202 0.13093 0.13035 0.12932 0.12804 0.12706 0.12696 0.12694 0.12685 0.12669 0.1262 0.12606 0.12406 0.1221 0.11985 0.12321 0.12368 0.12438 0.12477 0 0 0.12585 0 0.1241 0.12214 0.12039 0.11318 0.11542 0.11771 0.12006 0.11944 0.12129 0.1224 0 0 0 0.11971 0.1236 0.12773 0.12721 0.12678 0.12634 0.1261 0.12584 0.12569 0.12567 0.12548 0.12533 0.12534 0.12541 0.12522 0.1253 0.12525 0.12522 0.12534 0.12534 0.1255 0.12575 0.12595 0.12604 0.12613 0.12615 0.1259 0.1258 0.12551 0.12527 0.12515 0.12509 0.12482 0.12495 0.12497 0.12493 0.12488 0.12483 0.12461 0.125 0.12531 0.1255 0.12599 0.12667 0.12719
0 0 0 0 0 0 0 0 0 0 0 0.11494 0.11443 0.11797 0.1246 0.12411 0.12579 0.12803 0.13034 0.13196 0.13332 0.13475 0.13379 0.13303 0.13226 0.13224 0.13189 0.13174 0.1309 0.13009 0.12943 0.12865 0.12779 0.12703 0.12697 0.12701 0.12676 0.12636 0.12598 0.12556 0.12182 0.11807 0.11406 0.11781 0.12059 0 0 0 0 0 0.12159 0.11907 0.11495 0.10872 0.10073 0.1082 0.11578 0.12306 0.12156 0.12179 0.12236 0.12306 0.12289 0.12039 0.123 0.12522 0.1275 0.1272 0.12641 0.12587 0.1257 0.12554 0.12542 0.12533 0.12521 0.12508 0.12507 0.1252 0.12526 0.12545 0.1255 0.12557 0.1255 0.12557 0.12572 0.12593 0.12618 0.12621 0.12658 0.12627 0.12618 0.12585 0.1258 0.1256 0.12542 0.12534 0.12512 0.12518 0.12517 0.1251 0.12501 0.12491 0.12474 0.125 0.12518 0.1253 0.12591 0.12652 0.12695
0 0 0 0 0 0 0 0 0 0 0.11752 0.11225 0.1077 0.11693 0.12617 0.13474 0.13578 0.13615 0.13621 0.13518 0.13393 0.1328 0.13233 0.13145 0.13094 0.13083 0.13069 0.13044 0.12986 0.12922 0.12869 0.1281 0.12751 0.12703 0.127 0.12698 0.12661 0.12613 0.1255 0.12518 0.12279 0.11443 0.1082 0 0 0 0 0 0 0 0 0 0 0 0.08843 0.10097 0.11364 0.12606 0.12527 0.12463 0.12394 0.12409 0.12441 0.1249 0.12573 0.12649 0.12723 0.12677 0.12618 0.12559 0.12545 0.12524 0.12507 0.12491 0.12478 0.12483 0.12499 0.12508 0.12526 0.12544 0.12552 0.12557 0.12568 0.12577 0.12592 0.12611 0.1263 0.12655 0.12668 0.12645 0.12625 0.12608 0.12604 0.12585 0.12571 0.12555 0.12524 0.12531 0.12531 0.12524 0.12507 0.12493 0.12479 0.12498 0.12501 0.12512 0.12571 0.12631 0.12673
0 0 0 0 0 0 0 0 0 0 0.12187 0.11884 0.11758 0.12251 0.12772 0.13292 0.13386 0.13383 0.13374 0.13274 0.13173 0.13106 0.1306 0.13011 0.1295 0.12946 0.12947 0.1293 0.12888 0.12846 0.12796 0.12764 0.12734 0.12703 0.12691 0.12679 0.12649 0.12592 0.12514 0.12469 0.12216 0 0 0 0 0 0 0 0 0 0 0 0 0 0.1014 0.10941 0.11737 0.12525 0.1247 0.1241 0.12367 0.1239 0.12418 0.12451 0.12522 0.12592 0.12668 0.12633 0.12584 0.12549 0.12529 0.12505 0.12489 0.12486 0.12479 0.12477 0.12489 0.12514 0.12543 0.12552 0.12562 0.12586 0.1259 0.12607 0.12626 0.12636 0.12647 0.12649 0.12639 0.1263 0.12621 0.12608 0.12602 0.12585 0.12571 0.12561 0.1254 0.12544 0.12542 0.12533 0.12525 0.1251 0.12494 0.12507 0.12506 0.12504 0.12555 0.12592 0.12633
0 0 0 0 0 0 0 0 0 0.12638 0.1278 0.13058 0.12763 0.12906 0.13035 0.132 0.1318 0.13143 0.13112 0.13056 0.12987 0.12922 0.12895 0.12856 0.12832 0.12829 0.12835 0.12823 0.12782 0.12762 0.12717 0.12706 0.12713 0.12689 0.12674 0.12656 0.12635 0.12563 0.12476 0.12405 0.12358 0 0 0 0 0 0 0 0 0 0 0 0 0.11744 0.11414 0.11767 0.12117 0.12459 0.12417 0.12382 0.12345 0.12367 0.12387 0.12416 0.12498 0.12549 0.12588 0.12572 0.12557 0.12525 0.1249 0.12491 0.12466 0.12472 0.12468 0.12477 0.12498 0.12524 0.12548 0.12559 0.12575 0.12591 0.12614 0.12646 0.1267 0.12657 0.1264 0.12646 0.12643 0.12627 0.12609 0.12602 0.126 0.12587 0.12571 0.12561 0.12554 0.12557 0.12553 0.12553 0.12542 0.12527 0.1251 0.12517 0.1252 0.12503 0.12533 0.12563 0.12589
0 0 0 0 0 0 0 0 0.12647 0.12849 0.13167 0.13534 0.13817 0.13587 0.13348 0.13102 0.13067 0.13028 0.12997 0.12962 0.12927 0.12897 0.12888 0.1285 0.12838 0.12824 0.12824 0.12811 0.12768 0.12737 0.12699 0.12695 0.12688 0.12676 0.12655 0.12636 0.12622 0.12529 0.1244 0.12355 0.12363 0.12339 0 0.1212 0.12072 0 0 0 0 0 0 0 0.12097 0.12406 0.12663 0.12581 0.12478 0.12365 0.12366 0.12356 0.12338 0.12369 0.12389 0.12414 0.12475 0.12531 0.12542 0.12518 0.12518 0.12498 0.12479 0.1246 0.12442 0.12456 0.12454 0.12458 0.12478 0.125 0.12523 0.12554 0.12591 0.12615 0.12634 0.12646 0.12656 0.12651 0.12641 0.12623 0.12607 0.12597 0.12581 0.12573 0.12578 0.12569 0.12579 0.12563 0.12556 0.12552 0.12552 0.12557 0.12544 0.1253 0.12507 0.12511 0.12507 0.12483 0.125 0.12516 0.12527
0 0 0 0 0 0 0 0 0.12759 0.12907 0.13072 0.13258 0.13688 0.13465 0.13225 0.13 0.12965 0.12931 0.12896 0.12888 0.12876 0.12859 0.12842 0.12819 0.12803 0.12794 0.12771 0.1275 0.12728 0.12712 0.12684 0.12685 0.12672 0.12652 0.12639 0.12626 0.1261 0.12545 0.12488 0.12439 0.1244 0.12444 0.12345 0.12294 0.12234 0 0 0 0 0 0 0.12036 0.12155 0.12288 0.12578 0.1252 0.12457 0.12377 0.12365 0.12356 0.12348 0.12366 0.12385 0.12407 0.1246 0.1249 0.12508 0.12491 0.12478 0.12467 0.12455 0.12455 0.1246 0.12445 0.12457 0.12467 0.12473 0.12491 0.12518 0.12545 0.12571 0.12579 0.126 0.12625 0.12628 0.12625 0.1262 0.12601 0.12595 0.12586 0.12579 0.12582 0.12566 0.12569 0.12573 0.12567 0.12552 0.12555 0.12553 0.12561 0.1254 0.12526 0.1251 0.12505 0.12491 0.12482 0.12502 0.12508 0.12518
0 0 0 0 0 0 0 0 0 0.12716 0.12907 0.1307 0.13546 0.13334 0.13114 0.12896 0.12865 0.12827 0.12812 0.12816 0.12828 0.12831 0.12817 0.12796 0.12782 0.12758 0.12747 0.12732 0.12711 0.12691 0.1268 0.12673 0.12662 0.12651 0.12632 0.12624 0.12615 0.12577 0.12541 0.12504 0.12561 0.12539 0.125 0.12456 0.12395 0.12345 0.12045 0.11426 0 0 0.12012 0.12286 0.12247 0.12284 0.12489 0.12455 0.1242 0.12382 0.1236 0.12339 0.12338 0.12369 0.12384 0.12403 0.12428 0.12451 0.12463 0.12448 0.12439 0.12441 0.1245 0.12454 0.12449 0.12445 0.12452 0.12461 0.12473 0.12502 0.12513 0.12522 0.12541 0.12554 0.12581 0.1259 0.12598 0.12594 0.12584 0.12577 0.12572 0.12567 0.12575 0.12566 0.12566 0.12567 0.12569 0.12567 0.12551 0.12552 0.1255 0.12551 0.12541 0.12524 0.12503 0.12504 0.12486 0.12471 0.12486 0.12505 0.12518
0 0 0 0 0 0 0 0 0 0.12418 0.12697 0.13092 0.13422 0.13223 0.12985 0.12783 0.12762 0.1275 0.12732 0.12748 0.12779 0.12791 0.12774 0.12756 0.12732 0.12728 0.12717 0.12692 0.12685 0.12674 0.12656 0.12657 0.12649 0.1264 0.12633 0.12634 0.12621 0.12611 0.12596 0.12577 0.12593 0.12608 0.12613 0.12631 0.12642 0.12659 0.11818 0.10976 0.10093 0.10928 0.11741 0.1252 0.12488 0.12449 0.12407 0.12395 0.12387 0.12369 0.12362 0.12348 0.12342 0.12351 0.12378 0.12398 0.12409 0.12417 0.12417 0.12401 0.12385 0.12408 0.12422 0.12439 0.12433 0.12444 0.12463 0.12477 0.12474 0.12486 0.12513 0.1251 0.12518 0.12523 0.12553 0.12561 0.12572 0.12573 0.12571 0.12567 0.12546 0.12537 0.1253 0.1254 0.12558 0.12567 0.12564 0.12555 0.12559 0.12557 0.12537 0.12538 0.12538 0.12518 0.12506 0.12499 0.1248 0.12463 0.12475 0.12484 0.12494
0 0 0 0 0 0 0 0 0 0.11951 0.12045 0.12246 0.11514 0.11956 0.12352 0.12762 0.12742 0.12716 0.12703 0.12728 0.12745 0.12759 0.12747 0.12734 0.12727 0.12712 0.12706 0.12696 0.12718 0.12736 0.12744 0.12764 0.12784 0.12805 0.12749 0.12693 0.12637 0.12619 0.12593 0.12568 0.12578 0.12572 0.12563 0.12572 0.12587 0.12607 0.12043 0 0.109 0.1145 0.11993 0.12515 0.12479 0.12436 0.12398 0.12375 0.12366 0.12345 0.12346 0.12348 0.12346 0.1236 0.12385 0.12407 0.12417 0.12422 0.12428 0.12418 0.12414 0.12411 0.12428 0.12428 0.12425 0.12442 0.12463 0.12467 0.12472 0.12481 0.12484 0.12498 0.12508 0.12513 0.12521 0.12535 0.12541 0.12557 0.12564 0.12572 0.12553 0.12545 0.12557 0.12563 0.12566 0.12582 0.12572 0.12573 0.1258 0.12574 0.12569 0.12546 0.12533 0.1252 0.125 0.1249 0.12477 0.12451 0.12467 0.12472 0.12481
0 0 0 0 0 0 0 0 0 0 0.10908 0.10306 0.09687 0.10719 0.11747 0.12766 0.1273 0.12708 0.12692 0.12719 0.12733 0.12743 0.12727 0.12724 0.1273 0.12715 0.1272 0.12717 0 0 0 0.12856 0.12927 0.12967 0.12859 0.12754 0.12647 0.12615 0.1259 0.12565 0.12555 0.12539 0.12516 0.12518 0.12516 0.12527 0.12265 0.11982 0.11695 0.11961 0.12223 0.12472 0.12447 0.12417 0.12388 0.12368 0.12342 0.12341 0.12347 0.12341 0.12329 0.12345 0.12365 0.12388 0.12391 0.12408 0.12428 0.12423 0.12418 0.12411 0.1242 0.12419 0.12418 0.12433 0.12433 0.12438 0.12452 0.12466 0.1249 0.12487 0.12486 0.12497 0.125 0.1252 0.12526 0.1254 0.12548 0.12555 0.12556 0.12567 0.12569 0.12573 0.12579 0.12582 0.12578 0.12577 0.12574 0.1257 0.12559 0.12541 0.12525 0.12514 0.12498 0.12479 0.12458 0.1243 0.12452 0.1246 0.12474
0 0 0 0 0 0 0 0 0 0 0 0.08868 0.07839 0.0953 0.12 0.12807 0.12547 0.12584 0.12692 0.12721 0.12731 0.12738 0.12723 0.12731 0.12749 0.12745 0.12757 0.12777 0 0 0 0.12919 0.13059 0.13115 0.12976 0.12822 0.12646 0.12628 0.12601 0.12568 0.12536 0.12499 0.1246 0.12446 0.12435 0.12446 0.1245 0.1245 0.12439 0.12441 0.12445 0.12441 0.1241 0.12386 0.12365 0.12341 0.12322 0.12332 0.12325 0.12329 0.12336 0.12357 0.12369 0.12397 0.12408 0.1242 0.12419 0.1242 0.12427 0.12418 0.1242 0.12418 0.12419 0.12433 0.12437 0.12428 0.12441 0.12448 0.12455 0.12454 0.12462 0.12462 0.1248 0.12485 0.12486 0.12504 0.12519 0.1253 0.12536 0.12551 0.1257 0.12557 0.1257 0.12567 0.1257 0.12569 0.12558 0.12559 0.12545 0.12527 0.12515 0.12504 0.12489 0.12474 0.12443 0.12413 0.12434 0.12447 0.12464
0 0 0 0 0 0 0 0 0 0 0 0 0.0936 0.10298 0.11621 0.12291 0.1236 0.12483 0.12658 0.12684 0.12721 0.1274 0.12745 0.1276 0.1278 0.12447 0.12122 0 0 0.12247 0.12812 0.12874 0.12923 0.12973 0.12875 0.12758 0.12642 0.12619 0.12595 0.12556 0.12522 0.12491 0.12449 0.1245 0.1244 0.12428 0.12429 0.12421 0.12414 0.12412 0.12411 0.12409 0.12394 0.12377 0.12353 0.12347 0.1234 0.12332 0.12349 0.12355 0.12363 0.12369 0.12383 0.12415 0.12426 0.12414 0.1241 0.12416 0.12419 0.1241 0.12408 0.12414 0.1242 0.12421 0.12416 0.12422 0.12423 0.12427 0.12438 0.1244 0.12452 0.12456 0.12468 0.12465 0.12466 0.12479 0.12496 0.12498 0.12511 0.12513 0.12539 0.12542 0.12548 0.12546 0.12555 0.12562 0.12562 0.12552 0.12543 0.12535 0.12518 0.12499 0.12481 0.12462 0.12431 0.12403 0.1242 0.1243 0.12437
0 0 0 0 0 0 0 0 0 0 0 0 0 0 0 0.11862 0.12136 0.12402 0.12625 0.12665 0.12693 0.12732 0.1276 0.12787 0.12823 0.12155 0.11496 0.10821 0.11437 0.12059 0.12681 0.12731 0.12775 0.12822 0.12765 0.127 0.12643 0.12609 0.1257 0.12541 0.12522 0.12484 0.12447 0.12445 0.12432 0.12418 0.12414 0.12408 0.12397 0.12397 0.12396 0.12388 0.12383 0.1237 0.12359 0.12354 0.12352 0.1234 0.12361 0.12362 0.12376 0.12387 0.12403 0.12425 0.1242 0.12418 0.12419 0.12408 0.12396 0.12407 0.12394 0.12393 0.12399 0.12396 0.12401 0.12404 0.12416 0.12419 0.12416 0.12429 0.12439 0.12448 0.12451 0.12461 0.12468 0.12475 0.12476 0.12473 0.12487 0.12504 0.12525 0.12538 0.12532 0.12543 0.12554 0.12565 0.12566 0.12553 0.12543 0.12524 0.12514 0.12497 0.12469 0.12452 0.12428 0.12396 0.12407 0.12407 0.12409
0 0 0 0 0 0 0 0 0 0 0 0 0 0 0 0.11753 0.1208 0.1242 0.12604 0.12649 0.12684 0.12729 0.12779 0.12822 0.12869 0.1186 0.10853 0.09828 0.10742 0 0.12543 0.12587 0.12624 0.12661 0.12657 0.12643 0.12628 0.12588 0.12558 0.12526 0.125 0.12466 0.12434 0.12433 0.12422 0.12407 0.12412 0.12409 0.124 0.12391 0.12381 0.12378 0.12384 0.1238 0.12372 0.1236 0.12338 0.12333 0.12356 0.12373 0.12386 0.12387 0.124 0.12419 0.1242 0.12419 0.12419 0.12413 0.12402 0.124 0.12399 0.12397 0.12387 0.12382 0.12392 0.12389 0.12387 0.12385 0.12397 0.12409 0.12425 0.12427 0.1243 0.12437 0.12446 0.12438 0.12447 0.12453 0.12475 0.12495 0.12511 0.12515 0.12524 0.12536 0.12548 0.12558 0.12565 0.12554 0.12535 0.1252 0.12509 0.12488 0.12471 0.1244 0.12412 0.12382 0.12383 0.12389 0.12387
0 0 0 0 0 0 0 0 0 0 0 0 0 0.11157 0.11358 0.11569 0.11887 0.12336 0.12607 0.12658 0.1271 0.12764 0.12812 0.12849 0.1288 0.12203 0.1154 0.10853 0.11456 0.12105 0.12652 0.12654 0.12662 0.12662 0.12649 0.12634 0.12615 0.12581 0.12556 0.12524 0.125 0.12475 0.12456 0.12457 0.12449 0.12436 0.12431 0.12421 0.12408 0.12403 0.12392 0.12391 0.12389 0.12377 0.12372 0.12364 0.12362 0.12359 0.12365 0.12378 0.12386 0.12392 0.12391 0.12404 0.12399 0.12408 0.12407 0.124 0.12394 0.1239 0.12395 0.12397 0.12397 0.12393 0.12409 0.12404 0.12407 0.12406 0.12405 0.12408 0.12407 0.12412 0.1242 0.12432 0.12441 0.12447 0.12445 0.12449 0.12472 0.12481 0.12491 0.12505 0.12515 0.12522 0.1254 0.12546 0.12556 0.1255 0.12534 0.12522 0.12517 0.12506 0.12484 0.12461 0.12429 0.1241 0.12401 0.12396 0.12389
0 0 0 0 0 0 0 0 0 0 0 0 0.10766 0.10952 0.11161 0.11336 0.11712 0.122 0.12609 0.12667 0.12738 0.12791 0.12821 0.12842 0.12872 0.12538 0.12195 0.11848 0.12152 0.12447 0.12741 0.12719 0.12683 0.12657 0.12643 0.12624 0.12609 0.12582 0.12552 0.12522 0.12506 0.12492 0.12477 0.12471 0.12462 0.12447 0.12435 0.12434 0.12424 0.12416 0.12407 0.12407 0.12408 0.12399 0.12396 0.12395 0.12384 0.12385 0.12385 0.12387 0.12388 0.12383 0.12377 0.12392 0.12391 0.12386 0.12392 0.12392 0.12386 0.12388 0.12391 0.12398 0.12407 0.1241 0.12406 0.12406 0.12409 0.12408 0.124 0.12401 0.12396 0.12402 0.12419 0.12422 0.12421 0.12434 0.12435 0.12439 0.12453 0.1247 0.12468 0.12479 0.12492 0.1251 0.12519 0.12526 0.12527 0.12527 0.1253 0.12513 0.12512 0.12504 0.12479 0.12466 0.12445 0.12422 0.12411 0.12404 0.12388
0 0 0 0 0 0 0 0 0.11473 0.11365 0.11124 0.10691 0.10323 0.1049 0.10634 0.10783 0.11372 0.11997 0.12602 0.12676 0.12756 0.12819 0.12831 0.12848 0.12858 0.12857 0.12846 0.1284 0.12842 0.12846 0.12836 0.12772 0.1271 0.12639 0.12626 0.12618 0.12596 0.1257 0.1254 0.12514 0.1251 0.12496 0.12488 0.12485 0.12481 0.12475 0.12468 0.12454 0.12437 0.12436 0.12421 0.12412 0.12404 0.12401 0.12406 0.12403 0.12402 0.12387 0.12393 0.12388 0.12398 0.12388 0.12377 0.1238 0.12386 0.1238 0.12382 0.12382 0.12391 0.12394 0.12402 0.12401 0.12403 0.12409 0.12406 0.124 0.12403 0.12389 0.12371 0.12383 0.1238 0.12388 0.12402 0.12396 0.12398 0.12416 0.12422 0.12433 0.12451 0.12454 0.12456 0.12459 0.12469 0.12479 0.12491 0.125 0.12505 0.12513 0.12504 0.12493 0.12495 0.12494 0.12469 0.1247 0.12454 0.12431 0.12421 0.12403 0.12391
0 0 0 0 0 0 0 0.11713 0.11664 0.11746 0.11626 0.11405 0.11176 0.1126 0.11351 0.11434 0.11844 0.12259 0.12669 0.12717 0.12771 0.12811 0.12813 0.12814 0.12813 0.12814 0.12808 0.12802 0.12801 0.12796 0.12792 0.12743 0.12695 0.12646 0.12636 0.12625 0.12609 0.12584 0.12556 0.12537 0.1253 0.12517 0.12511 0.12508 0.125 0.12487 0.12481 0.12467 0.12456 0.12453 0.12441 0.1243 0.12421 0.12404 0.12408 0.12407 0.12404 0.12399 0.12395 0.12389 0.12384 0.1238 0.12371 0.12376 0.12379 0.12384 0.12385 0.12386 0.12398 0.1239 0.12397 0.12407 0.12406 0.12405 0.12395 0.12389 0.12387 0.12384 0.12372 0.12372 0.12372 0.12369 0.12384 0.1238 0.12374 0.12391 0.12403 0.12406 0.12424 0.12425 0.12429 0.12439 0.12454 0.1247 0.12483 0.125 0.12503 0.12502 0.12499 0.12496 0.12494 0.12501 0.1248 0.12474 0.12463 0.12443 0.12432 0.12423 0.12402
0 0 0 0 0 0 0.11873 0.1189 0.11826 0.118 0.11916 0.12139 0.1203 0.12043 0.12056 0.12076 0.12295 0.12511 0.12728 0.1276 0.12781 0.12799 0.12788 0.1278 0.12774 0.12769 0.12761 0.12751 0.12753 0.12746 0.12748 0.12718 0.12685 0.12656 0.12644 0.12628 0.12612 0.12594 0.1258 0.12555 0.12554 0.1254 0.12537 0.12532 0.12526 0.1251 0.12501 0.12487 0.12472 0.12465 0.12458 0.12448 0.12433 0.12435 0.12418 0.12407 0.12396 0.1239 0.1239 0.12395 0.12385 0.12384 0.12378 0.12375 0.12376 0.12377 0.12376 0.12394 0.12396 0.12389 0.12399 0.12407 0.12408 0.124 0.12397 0.12391 0.12384 0.12378 0.12362 0.12356 0.12359 0.12351 0.12359 0.12354 0.12346 0.12358 0.12369 0.12374 0.12386 0.12391 0.12408 0.12428 0.12447 0.12468 0.12481 0.12497 0.12504 0.12503 0.12505 0.125 0.12499 0.12502 0.12482 0.12471 0.12463 0.12451 0.12438 0.12437 0.12413
0 0 0 0 0 0 0.11871 0.11857 0.11776 0.11619 0.12025 0.12439 0.12854 0.12805 0.1276 0.12707 0.12735 0.12763 0.12792 0.12791 0.12792 0.12789 0.12768 0.12753 0.12732 0.12716 0.12709 0.127 0.12699 0.12687 0.12683 0.12681 0.12672 0.12656 0.12647 0.1263 0.12617 0.12608 0.12592 0.12582 0.12582 0.12569 0.12563 0.12554 0.12543 0.12523 0.12511 0.12504 0.1249 0.12476 0.12462 0.12453 0.12442 0.12426 0.12417 0.12406 0.12394 0.12393 0.1239 0.12381 0.12374 0.12368 0.12368 0.12369 0.12377 0.12379 0.1239 0.12389 0.12392 0.12396 0.12399 0.12401 0.12393 0.12388 0.12382 0.1237 0.12367 0.12369 0.12352 0.12333 0.12323 0.12316 0.12319 0.12318 0.12312 0.1233 0.12335 0.1234 0.12351 0.12364 0.12375 0.12403 0.12429 0.1245 0.12463 0.1248 0.12491 0.12498 0.12505 0.12491 0.12497 0.12496 0.12484 0.12474 0.12459 0.12459 0.12454 0.12437 0.1242
0 0 0 0 0 0.11768 0.11845 0.11941 0.1206 0.12065 0.12344 0.12619 0.12891 0.12865 0.12829 0.12789 0.12795 0.12793 0.12798 0.12786 0.12778 0.12764 0.1275 0.12738 0.12721 0.12715 0.12712 0.1271 0.12703 0.12695 0.12692 0.12684 0.12671 0.12663 0.12657 0.1264 0.12625 0.12614 0.12601 0.12596 0.12591 0.12581 0.12574 0.12567 0.12552 0.12536 0.12531 0.12524 0.12511 0.12498 0.12485 0.12474 0.12462 0.12446 0.12433 0.12423 0.12412 0.12403 0.124 0.12398 0.12381 0.12377 0.1237 0.12363 0.12355 0.12377 0.12381 0.12385 0.12403 0.12406 0.12403 0.12396 0.12399 0.12389 0.12372 0.12371 0.12364 0.12352 0.12343 0.12331 0.12317 0.12311 0.12307 0.12308 0.12298 0.12306 0.12312 0.12315 0.12329 0.12342 0.12358 0.12383 0.12407 0.12423 0.12438 0.12463 0.12471 0.12471 0.12479 0.12478 0.12472 0.12471 0.12461 0.12462 0.12461 0.12457 0.12449 0.12445 0.1243
0 0 0 0 0.11637 0.11671 0.11649 0.11904 0.1235 0.12517 0.12655 0.1279 0.12926 0.12909 0.12891 0.1286 0.12843 0.12826 0.12798 0.12781 0.12768 0.12748 0.12737 0.12723 0.12712 0.12715 0.12711 0.12711 0.12704 0.12692 0.12688 0.12683 0.12674 0.12666 0.12658 0.12648 0.12639 0.12624 0.12613 0.12606 0.12599 0.12592 0.12582 0.12578 0.12569 0.12554 0.12546 0.12538 0.12517 0.12508 0.125 0.12488 0.12474 0.12462 0.1245 0.12436 0.12425 0.12416 0.12399 0.1239 0.12381 0.12367 0.12369 0.12362 0.1236 0.12376 0.12387 0.12399 0.12403 0.12403 0.12415 0.12407 0.12404 0.12393 0.12381 0.12366 0.12364 0.12351 0.12339 0.12328 0.12312 0.12291 0.12287 0.12299 0.12288 0.12282 0.12299 0.12291 0.12305 0.12319 0.12331 0.12347 0.12367 0.12388 0.12403 0.12424 0.12433 0.12443 0.12454 0.12461 0.12448 0.1245 0.12434 0.12455 0.12451 0.12439 0.12437 0.12435 0.12418
0 0 0 0 0.11572 0.11536 0.11375 0.11909 0.12431 0.12958 0.12957 0.12958 0.1296 0.12956 0.12947 0.12933 0.12891 0.1285 0.12802 0.12771 0.12747 0.12719 0.1272 0.12715 0.12713 0.12708 0.12704 0.12709 0.12703 0.12694 0.12679 0.12673 0.12664 0.12663 0.12659 0.12653 0.12649 0.12639 0.1263 0.12626 0.1262 0.12608 0.12593 0.12583 0.12577 0.12566 0.12557 0.12544 0.12523 0.12516 0.1251 0.12501 0.12486 0.12472 0.12459 0.12448 0.12439 0.12417 0.12407 0.12386 0.12372 0.12371 0.12369 0.12363 0.12364 0.12378 0.124 0.12392 0.12405 0.12418 0.12411 0.12404 0.12398 0.12388 0.12383 0.12376 0.12357 0.12343 0.12326 0.12307 0.12295 0.12265 0.12272 0.12274 0.12261 0.12267 0.12267 0.12262 0.12274 0.12291 0.12287 0.12299 0.12317 0.12343 0.12361 0.12373 0.12388 0.12406 0.12413 0.12411 0.12427 0.12428 0.1242 0.1243 0.12431 0.12404 0.12403 0.12408 0.12407
0 0 0 0.10897 0.11375 0.11635 0.11805 0.12161 0.12526 0.1288 0.12905 0.1291 0.12916 0.12904 0.12892 0.12887 0.12856 0.12818 0.12786 0.12765 0.12741 0.12721 0.12715 0.12714 0.12708 0.12706 0.12699 0.12695 0.12694 0.12683 0.12668 0.12668 0.12664 0.12658 0.12653 0.12654 0.12651 0.12642 0.12635 0.12629 0.12621 0.12611 0.12602 0.126 0.12595 0.12591 0.12582 0.12569 0.12554 0.12549 0.12539 0.12524 0.12512 0.125 0.12492 0.1248 0.12469 0.12459 0.12445 0.12428 0.12406 0.12396 0.12395 0.12387 0.12391 0.12395 0.12408 0.12415 0.12423 0.12428 0.12414 0.12403 0.12405 0.12395 0.12386 0.1238 0.12363 0.12348 0.12318 0.123 0.12291 0.12264 0.12262 0.12266 0.12254 0.12262 0.12267 0.12263 0.12276 0.12283 0.12286 0.12293 0.123 0.12303 0.1233 0.12337 0.12343 0.12346 0.12347 0.12355 0.12375 0.12391 0.124 0.12389 0.12395 0.12374 0.1238 0.1238 0.1238
0 0 0 0.09909 0.10733 0.11791 0.12227 0.12417 0.12612 0.128 0.12837 0.12853 0.12871 0.12858 0.12848 0.12829 0.12803 0.12784 0.12764 0.12753 0.12732 0.12717 0.12712 0.12708 0.12703 0.12701 0.12691 0.12686 0.1268 0.12669 0.12663 0.1266 0.12655 0.12649 0.12651 0.12647 0.12644 0.12643 0.12636 0.12628 0.12623 0.12616 0.12611 0.12611 0.12613 0.12605 0.12608 0.12605 0.12591 0.12579 0.12567 0.12552 0.12541 0.12525 0.12516 0.12507 0.12498 0.1249 0.12478 0.12457 0.12449 0.12432 0.12416 0.12405 0.12412 0.12415 0.12421 0.12434 0.12433 0.12431 0.12426 0.12416 0.12408 0.12394 0.12381 0.12366 0.12351 0.12339 0.12318 0.12296 0.12282 0.12265 0.12251 0.12243 0.12245 0.12255 0.12257 0.12263 0.12274 0.1227 0.12272 0.12274 0.12275 0.1228 0.12289 0.12285 0.123 0.12312 0.12327 0.12323 0.12335 0.12344 0.12353 0.12367 0.12353 0.12344 0.12347 0.12346 0.1235
0 0 0 0.08386 0.09858 0.11275 0.12654 0.12687 0.12716 0.12744 0.12774 0.12796 0.12816 0.12805 0.12787 0.12771 0.12758 0.12755 0.12741 0.12739 0.12728 0.1272 0.12718 0.12712 0.12703 0.12691 0.12682 0.12676 0.12668 0.12662 0.12651 0.12646 0.12643 0.12641 0.12644 0.12645 0.12644 0.12639 0.12629 0.12623 0.1262 0.12611 0.12617 0.12621 0.12624 0.12618 0.12617 0.1261 0.126 0.12588 0.12578 0.12575 0.12559 0.12548 0.12541 0.12531 0.12521 0.12514 0.12511 0.125 0.12478 0.12469 0.12456 0.12436 0.12437 0.12432 0.12435 0.12432 0.12438 0.12441 0.12436 0.1242 0.12407 0.12394 0.12377 0.12361 0.12349 0.1234 0.12327 0.12296 0.12277 0.12259 0.1225 0.12248 0.12248 0.12246 0.12241 0.1225 0.12261 0.12262 0.12255 0.12259 0.12245 0.12241 0.12249 0.12262 0.12276 0.12277 0.12295 0.12302 0.12309 0.12316 0.12317 0.12328 0.12317 0.12317 0.12322 0.12318 0.12319
0 0 0 0.1005 0.11025 0.11972 0.12907 0.1289 0.12876 0.12861 0.12855 0.12839 0.12827 0.12809 0.12785 0.12762 0.12761 0.12755 0.12742 0.12736 0.12724 0.12714 0.12701 0.12689 0.12677 0.1267 0.12663 0.12651 0.12645 0.12638 0.12629 0.12628 0.1262 0.12615 0.12616 0.12623 0.12621 0.12619 0.12621 0.12622 0.12621 0.12618 0.12618 0.12623 0.12627 0.12626 0.1262 0.12613 0.12613 0.12605 0.12592 0.12587 0.12588 0.12583 0.1258 0.12571 0.12568 0.12557 0.12554 0.12547 0.12538 0.12531 0.12513 0.12503 0.12491 0.12478 0.12467 0.12464 0.12464 0.12456 0.12448 0.12435 0.12428 0.12415 0.12399 0.12386 0.1237 0.12352 0.12336 0.12326 0.12308 0.12298 0.12296 0.12288 0.12279 0.12282 0.12281 0.12292 0.123 0.12288 0.1228 0.12283 0.12268 0.12254 0.12276 0.12286 0.12281 0.12293 0.12294 0.12295 0.12304 0.12317 0.1233 0.12325 0.12326 0.12317 0.12319 0.12326 0.12327
0.12827 0.12929 0.12224 0.11687 0.122 0.12682 0.1314 0.13087 0.13031 0.1297 0.12929 0.12879 0.12831 0.12809 0.12787 0.1276 0.12753 0.12746 0.12743 0.1273 0.12714 0.12699 0.12684 0.12672 0.12655 0.12644 0.12635 0.12625 0.12618 0.12607 0.12602 0.12604 0.12597 0.12593 0.12606 0.12615 0.12617 0.1262 0.12613 0.12613 0.12617 0.12616 0.12608 0.12628 0.1263 0.12631 0.12626 0.12624 0.1262 0.12622 0.12623 0.12615 0.12611 0.12606 0.12609 0.12603 0.12598 0.12591 0.12589 0.1258 0.12585 0.12582 0.12572 0.12541 0.12527 0.12511 0.12499 0.12492 0.12487 0.12478 0.1247 0.12452 0.12439 0.12424 0.12411 0.12389 0.12379 0.12364 0.12353 0.12343 0.12335 0.12322 0.1232 0.12322 0.12308 0.1231 0.12306 0.12325 0.12335 0.12325 0.12309 0.12294 0.12282 0.12289 0.12294 0.12302 0.12294 0.12303 0.12306 0.123 0.12307 0.12317 0.12322 0.12329 0.12321 0.12304 0.12311 0.12319 0.12324
0.12719 0.12935 0.13134 0.13313 0.13352 0.13351 0.13313 0.13232 0.13145 0.13056 0.1299 0.12915 0.12834 0.12816 0.12791 0.12751 0.12742 0.12737 0.12734 0.1272 0.12701 0.12686 0.12671 0.1265 0.12631 0.12622 0.12611 0.12595 0.12583 0.12577 0.12575 0.12576 0.12577 0.12578 0.12594 0.12603 0.12602 0.12599 0.12594 0.12597 0.12605 0.12607 0.12615 0.12621 0.1263 0.12631 0.1264 0.1264 0.12633 0.12634 0.12638 0.12629 0.1263 0.12628 0.12615 0.12621 0.12625 0.1263 0.12634 0.12629 0.12624 0.12611 0.12595 0.12575 0.12568 0.12554 0.12542 0.12525 0.12505 0.12493 0.12474 0.12464 0.12456 0.12438 0.12413 0.12387 0.12387 0.12386 0.12376 0.12366 0.12353 0.12346 0.12357 0.12351 0.1234 0.12353 0.1235 0.12358 0.12358 0.12345 0.1233 0.12314 0.12312 0.12304 0.12304 0.12297 0.12294 0.12297 0.12297 0.12296 0.12305 0.1231 0.12317 0.12324 0.12324 0.12316 0.12318 0.12308 0.12329
0.12775 0.12943 0.13112 0.13264 0.13305 0.13319 0.13323 0.13258 0.13184 0.13111 0.13044 0.1297 0.12892 0.1285 0.12808 0.12763 0.12747 0.12736 0.12719 0.12703 0.12686 0.12669 0.12653 0.12631 0.12612 0.12605 0.126 0.12594 0.12592 0.1259 0.12591 0.12601 0.1261 0.12611 0.12616 0.12619 0.12624 0.1262 0.12615 0.12611 0.12624 0.1263 0.12639 0.1265 0.12661 0.12666 0.12672 0.12679 0.12682 0.1269 0.1269 0.12689 0.12683 0.12672 0.12674 0.12676 0.12677 0.12672 0.12673 0.12677 0.12675 0.12659 0.12648 0.12641 0.12622 0.12602 0.12589 0.12573 0.12559 0.1254 0.12527 0.1252 0.12501 0.12493 0.12474 0.1245 0.12442 0.12439 0.12428 0.12425 0.12421 0.12411 0.12413 0.12412 0.12414 0.12436 0.12455 0.1248 0.12471 0.12457 0.12442 0.12408 0.12375 0.12356 0.12353 0.12342 0.12329 0.12337 0.1234 0.12351 0.12369 0.12382 0.12392 0.12389 0.12374 0.12365 0.1236 0.12348 0.12347
0.12805 0.12937 0.1307 0.13188 0.13248 0.13292 0.13329 0.13277 0.1322 0.13162 0.13089 0.13015 0.12935 0.12882 0.12826 0.12773 0.12751 0.12724 0.12702 0.12686 0.12665 0.12644 0.12628 0.12613 0.126 0.12598 0.12595 0.12594 0.12597 0.12602 0.12607 0.1261 0.12616 0.12622 0.12622 0.12629 0.12634 0.12637 0.12628 0.12631 0.12641 0.12651 0.12658 0.12672 0.12683 0.12703 0.1271 0.12721 0.12727 0.12728 0.12727 0.12724 0.12714 0.12714 0.12718 0.12721 0.12728 0.12735 0.12724 0.12718 0.12716 0.12713 0.12701 0.12685 0.12664 0.12655 0.12633 0.12619 0.12608 0.12588 0.12578 0.1257 0.12558 0.12549 0.12527 0.125 0.12493 0.12491 0.1248 0.12478 0.12472 0.1246 0.12462 0.1246 0.12464 0.12507 0.12549 0.1258 0.12572 0.12551 0.1254 0.12497 0.1245 0.12406 0.12395 0.12381 0.12365 0.1238 0.12392 0.12405 0.12425 0.12453 0.12475 0.12466 0.12448 0.12432 0.1242 0.12406 0.12401
0.12794 0.12898 0.13003 0.13109 0.13188 0.1326 0.13314 0.13284 0.13241 0.13202 0.13133 0.13059 0.12978 0.1292 0.12856 0.12789 0.12753 0.1272 0.12691 0.12674 0.12646 0.12623 0.1261 0.12599 0.12587 0.12597 0.12597 0.12595 0.12605 0.12614 0.12617 0.1262 0.12625 0.12628 0.12626 0.1263 0.12635 0.12635 0.12639 0.1265 0.12656 0.12661 0.12669 0.12684 0.12706 0.1272 0.12738 0.1276 0.12755 0.12744 0.12744 0.12746 0.12753 0.12759 0.12779 0.12779 0.1277 0.12767 0.12767 0.1276 0.1275 0.12735 0.12726 0.12715 0.12699 0.12681 0.12663 0.12657 0.12635 0.12613 0.12606 0.12601 0.12596 0.12586 0.12571 0.12549 0.12541 0.12527 0.12505 0.125 0.12505 0.12496 0.12509 0.12511 0.1251 0.12539 0.12625 0.12682 0.12623 0.12585 0.12632 0.1256 0.12504 0.12441 0.12429 0.12418 0.12403 0.12422 0.12435 0.12461 0.12285 0.12364 0.12552 0.12468 0.12458 0.12494 0.12492 0.12471 0.12432
0.12894 0.12969 0.13036 0.13108 0.13175 0.13235 0.13279 0.13246 0.13207 0.13166 0.13105 0.13047 0.12975 0.12919 0.12855 0.12799 0.12772 0.1274 0.12707 0.12686 0.12668 0.12649 0.12647 0.1264 0.12634 0.12647 0.12657 0.12663 0.12672 0.12689 0.12691 0.12693 0.12693 0.12689 0.12682 0.12677 0.1267 0.12682 0.12684 0.12683 0.12693 0.12693 0.12689 0.12725 0.12758 0.12782 0.12803 0.12814 0.12813 0.12809 0.12807 0.12795 0.12799 0.12809 0.12819 0.12823 0.1284 0.12842 0.12846 0.12846 0.12833 0.12824 0.12815 0.12807 0.12791 0.12772 0.12746 0.12726 0.12696 0.12657 0.12648 0.12631 0.12625 0.1262 0.12604 0.12583 0.12567 0.12542 0.12526 0.12532 0.12545 0.12543 0.12578 0.126 0.12608 0.12579 0.1261 0.12628 0.12588 0.12557 0.12546 0.12492 0.12452 0.12421 0.12116 0.11794 0.11465 0.11487 0.11505 0.11525 0.11927 0.12082 0.1227 0.12379 0.12421 0.12463 0.1255 0.12568 0.12721
0.12973 0.1303 0.13064 0.13104 0.13146 0.13181 0.13219 0.13199 0.1317 0.13135 0.13079 0.13023 0.1297 0.1291 0.12853 0.128 0.12774 0.12749 0.12725 0.12714 0.12699 0.12687 0.12688 0.12686 0.12685 0.12692 0.12698 0.12702 0.12719 0.1273 0.12737 0.1274 0.12732 0.12723 0.12717 0.12713 0.12704 0.12715 0.12719 0.12718 0.12727 0.1273 0.12731 0.12761 0.12797 0.12831 0.12846 0.12867 0.12884 0.12878 0.12882 0.1288 0.12872 0.12866 0.12864 0.12868 0.12881 0.12896 0.12906 0.12918 0.12922 0.12916 0.1291 0.12915 0.12888 0.12857 0.12826 0.12788 0.12736 0.12692 0.12676 0.12642 0.12622 0.12617 0.12618 0.12593 0.1258 0.12563 0.12554 0.12564 0.12575 0.12587 0.12638 0.12674 0.12718 0.12495 0.12437 0.12584 0 0 0.12487 0.12458 0.12433 0.12416 0.11791 0.11158 0.10522 0.10545 0.10563 0 0 0.1204 0.11881 0.12101 0.12361 0.12482 0.12616 0.12816 0.13001
