ncols        109
nrows        82
xllcorner    -1.041666666667
yllcorner    37.041665395101
cellsize     0.083333333333
NODATA_value -9999
0.0 0 0 0 0 0 0 0 0 0 0 0 0 0 0 0 0 0 0 0 0 0 0 0 0 0 0 0 0 0 0 0 0 0 0 0 0 0 0 0 0 0 0 0 0 0 0 0 0 0 0 0 0 0 0 0 0 0 0 0 0 0 0 0 0 0 0 0 0 0 0 0 0 0 0 0 0 0 0 0 0 0 0 0 0 0 0 0 0 0 0 0 0 0 0 0 0 0 0 0 0 0 0 0 0 0.13171 0.13178 0.13188 0.13195
0 0 0 0 0 0 0 0 0 0 0 0 0 0 0 0 0 0 0 0 0 0 0 0 0 0 0 0 0 0 0 0 0 0 0 0 0 0 0 0 0 0 0 0 0 0 0 0 0 0 0 0 0 0 0 0 0 0 0 0 0 0 0 0 0 0 0 0 0 0 0 0 0 0 0 0 0 0 0 0 0 0 0 0 0 0 0 0 0 0 0 0 0 0 0 0 0 0 0 0 0 0.13104 0.13115 0.13128 0.13155 0.13178 0.13212 0.13233 0.13243
0 0 0 0 0 0 0 0 0 0 0 0 0 0 0 0 0 0 0 0 0 0 0 0 0 0 0 0 0 0 0 0 0 0 0 0 0 0 0 0 0 0 0 0 0 0 0 0 0 0 0 0 0 0 0 0 0 0 0 0 0 0 0 0 0 0 0 0 0 0 0 0 0 0 0 0 0 0 0 0 0 0 0 0 0 0 0 0 0 0 0 0 0 0 0 0 0 0 0.13031 0.13065 0.13095 0.13111 0.1312 0.13123 0.13133 0.13142 0.13166 0.13179 0.13177
0 0 0 0 0 0 0 0 0 0 0 0 0 0 0 0 0 0 0 0 0 0 0 0 0 0 0 0 0 0 0 0 0 0 0 0 0 0 0 0 0 0 0 0 0 0 0 0 0 0 0 0 0 0 0 0 0 0 0 0 0 0 0 0 0 0 0 0 0 0 0 0 0 0 0 0 0 0 0 0 0 0 0 0 0 0 0 0 0 0 0 0 0 0 0 0 0 0.12974 0.13039 0.13076 0.13096 0.13136 0.13161 0.13138 0.131 0.13115 0.13107 0.13092 0.13083
0 0 0 0 0 0 0 0 0 0 0 0 0 0 0 0 0 0 0 0 0 0 0 0 0 0 0 0 0 0 0 0 0 0 0 0 0 0 0 0 0 0 0 0 0 0 0 0 0 0 0 0 0 0 0 0 0 0 0.11621 0.11559 0.11498 0.11652 0 0 0 0 0 0 0 0 0 0 0 0 0 0 0 0 0 0 0 0 0 0 0 0 0 0 0 0 0 0 0 0 0 0.12889 0.12865 0.12946 0.13031 0.13116 0.1316 0.13204 0.13249 0.13187 0.13124 0.13065 0.13038 0.13006 0.12989
0 0 0 0 0 0 0 0 0 0 0 0 0 0 0 0 0 0 0 0 0 0 0 0 0 0 0 0 0 0 0 0 0 0 0 0 0 0 0 0 0 0 0 0 0 0 0 0 0 0 0 0 0 0 0 0 0.11746 0.11694 0.11718 0.11717 0.11697 0.11814 0.11936 0.12009 0.11385 0.10749 0.10104 0 0 0 0 0.1139 0 0 0 0 0 0 0 0 0 0 0 0 0 0 0 0 0 0 0 0 0 0.12906 0.12916 0.12901 0.12873 0.12931 0.12995 0.13057 0.13082 0.1311 0.1313 0.1307 0.13021 0.12961 0.12933 0.12909 0.12887
0 0 0 0 0 0 0 0 0 0 0 0 0 0 0 0 0 0 0 0 0 0 0 0 0 0 0 0 0 0 0 0 0 0 0 0 0 0 0 0 0 0 0 0 0 0 0 0 0 0 0 0 0 0 0 0.11702 0.11813 0.11883 0.11905 0.11892 0.11842 0.11909 0.11956 0.12017 0.11738 0.11497 0.11219 0.11858 0.11761 0.11708 0.11701 0.11559 0.11421 0.11134 0.10567 0.10212 0.10319 0 0 0 0 0 0 0 0 0 0 0 0 0 0 0 0.12854 0.12792 0.12898 0.12897 0.12881 0.1291 0.12955 0.12998 0.13001 0.12997 0.12993 0.12953 0.12905 0.12868 0.12849 0.12827 0.12805
0 0 0 0 0 0 0 0 0 0 0 0 0 0 0 0 0 0 0 0 0 0 0 0 0 0 0 0 0 0 0 0 0 0 0 0 0 0 0 0 0 0 0 0 0 0 0 0 0 0 0 0.11087 0.11248 0.11351 0.11482 0.11679 0.11878 0.12042 0.12023 0.11996 0.11959 0.11949 0.11939 0.11908 0.12037 0.12192 0.12291 0.12091 0.11858 0.11555 0.11533 0.115 0.11454 0.10746 0.10032 0.09301 0 0 0 0 0 0 0 0 0 0 0 0 0 0 0 0 0.12761 0.12865 0.12873 0.12888 0.12885 0.12896 0.12912 0.12931 0.12912 0.12885 0.12861 0.1284 0.12822 0.12794 0.12763 0.12736 0.12703
0 0 0 0 0 0 0 0 0 0 0 0 0 0 0 0 0 0 0 0 0 0 0 0 0 0 0 0 0 0 0 0 0 0 0 0 0 0 0 0 0 0 0 0 0 0 0 0 0 0 0.10819 0.10969 0.11043 0.11161 0.11281 0.11438 0.11614 0.11666 0.11634 0.1157 0.11495 0.11685 0.11843 0.12004 0.12379 0.12759 0.13122 0.12942 0.12733 0.12495 0.12364 0.12226 0.12082 0.11544 0.10994 0.10432 0.10563 0.10678 0.10805 0.11192 0.1161 0.11958 0 0 0 0 0 0 0 0.1196 0.12324 0.12554 0.12698 0.12898 0.12893 0.12893 0.12887 0.1287 0.12851 0.12841 0.12809 0.12776 0.12748 0.12724 0.12706 0.12682 0.1266 0.12646 0.12621
0 0 0 0 0 0 0 0 0 0 0 0 0 0 0 0 0 0 0 0 0 0 0 0 0 0 0 0 0 0 0 0 0 0 0 0 0 0 0 0 0 0 0 0 0 0 0 0 0 0.10874 0.10741 0.10691 0.10811 0.10943 0.10983 0.11126 0.1123 0.11275 0.11206 0.11141 0.11038 0.11382 0.1173 0.12072 0.12711 0.13345 0.13949 0.13783 0.13599 0.13405 0.13165 0.12924 0.12663 0.12296 0.1192 0.11538 0.11628 0.11729 0.11823 0.12323 0.1239 0.12585 0 0.12718 0.127 0.11993 0.10713 0.09959 0.10681 0.11879 0.12486 0.12631 0.12704 0.12923 0.12919 0.12893 0.12871 0.12836 0.12804 0.12766 0.12726 0.12682 0.12639 0.12615 0.1259 0.12566 0.12557 0.12554 0.12545
0 0 0 0 0 0 0 0 0 0 0 0 0 0 0 0 0 0 0 0 0 0 0 0 0 0 0 0 0 0 0 0 0 0 0 0 0 0 0 0 0 0 0 0 0 0 0 0 0 0.10828 0.10568 0.10346 0.10492 0.10615 0.10718 0.10737 0.10793 0.10806 0.10732 0.10658 0.10553 0.1109 0.11623 0.12138 0.13025 0.13887 0.14735 0.14585 0.14436 0.14282 0.13927 0.13567 0.13225 0.13009 0.12806 0.12592 0.12658 0.12734 0.12816 0.12873 0.12934 0.12991 0.13166 0.13343 0.1352 0.11629 0.09726 0.07821 0.09571 0.11292 0.12994 0.12992 0.1298 0.12969 0.12942 0.12906 0.12877 0.12795 0.12734 0.1268 0.12626 0.12576 0.12521 0.12501 0.12475 0.12457 0.12455 0.12454 0.12456
0 0 0 0 0 0 0 0 0 0 0 0 0 0 0 0 0 0 0 0 0 0 0 0 0 0 0 0 0 0 0 0 0 0 0 0 0 0 0 0 0 0 0 0 0 0 0 0 0 0.10975 0.10842 0.10587 0.10794 0.11008 0.11185 0.11297 0.11421 0.11508 0.11443 0.1138 0.11296 0.1167 0.1203 0.12395 0.13021 0.13619 0.14183 0.14073 0.13972 0.13855 0.13605 0.13355 0.13086 0.12914 0.12753 0.12604 0.12671 0.12755 0.12821 0.12865 0.12906 0.12957 0.13095 0.13232 0.13372 0.12111 0.10845 0.09596 0.10726 0.11855 0.12983 0.12966 0.12946 0.12933 0.12886 0.12836 0.12787 0.12717 0.12656 0.12594 0.12551 0.12505 0.12458 0.1244 0.12426 0.12412 0.12411 0.12418 0.12425
0 0 0 0 0 0 0 0 0 0 0 0 0 0 0 0 0 0 0 0 0 0 0 0 0 0 0 0 0 0 0 0 0 0 0 0 0 0 0 0 0 0 0 0 0 0 0 0 0 0.1117 0.11107 0.10745 0.1105 0.11352 0.11637 0.11841 0.12003 0.12157 0.12113 0.12058 0.11997 0.12207 0.12428 0.12644 0.12983 0.1331 0.13606 0.13555 0.13505 0.13465 0.13278 0.13101 0.12926 0.12831 0.12736 0.12639 0.12683 0.12747 0.12796 0.12817 0.1285 0.12905 0.13002 0.13101 0.13203 0.12582 0.11957 0.11328 0.11887 0.1243 0.12974 0.12952 0.12919 0.12877 0.12811 0.12752 0.12698 0.12626 0.12565 0.12512 0.12467 0.12431 0.12392 0.12394 0.12385 0.12374 0.12376 0.12386 0.12395
0 0 0 0 0 0 0 0 0 0 0 0 0 0 0 0 0 0 0 0 0 0 0 0 0 0 0 0 0 0 0 0 0 0 0 0 0 0 0 0 0 0 0 0 0 0 0 0 0 0.1127 0.11058 0.10889 0.11265 0.11835 0.1205 0.12339 0.12565 0.12795 0.12772 0.1273 0.12691 0.12755 0.1281 0.1286 0.12928 0.12988 0.13032 0.13028 0.13057 0.13038 0.12953 0.12864 0.12769 0.12736 0.12698 0.12658 0.1268 0.1273 0.12761 0.12785 0.128 0.12834 0.12888 0.1296 0.13013 0.13027 0.13041 0.13056 0.13031 0.13003 0.12958 0.12912 0.12869 0.12817 0.12746 0.12669 0.12599 0.12535 0.12478 0.12412 0.12383 0.12359 0.12337 0.12336 0.12333 0.12332 0.12342 0.12353 0.12359
0 0 0 0 0 0 0 0 0 0 0 0 0 0 0 0 0 0 0 0 0 0 0 0 0 0 0 0 0 0 0 0 0 0 0 0 0 0 0 0 0 0 0 0 0 0 0 0 0 0.11481 0.11359 0.11345 0.11632 0.11971 0.12399 0.12523 0.12609 0.12705 0.1268 0.12652 0.12614 0.12684 0.1275 0.12796 0.12842 0.12885 0.12921 0.12944 0.12951 0.12932 0.12866 0.12797 0.12719 0.12668 0.12627 0.12599 0.12622 0.12636 0.12649 0.1266 0.12686 0.12699 0.1273 0.12781 0.12831 0.1285 0.12863 0.12873 0.12841 0.12807 0.12768 0.12733 0.127 0.12661 0.12606 0.12538 0.12482 0.12434 0.12395 0.12349 0.12333 0.12315 0.12302 0.12312 0.12318 0.12322 0.12333 0.12349 0.12359
0 0 0 0 0 0 0 0 0 0 0 0 0 0 0 0 0 0 0 0 0 0 0 0 0 0 0 0 0 0 0 0 0 0 0 0 0 0 0 0 0 0 0 0 0 0 0 0 0 0.11573 0.11878 0.11974 0.12193 0.12452 0.12713 0.12686 0.12652 0.12608 0.12593 0.12567 0.12536 0.12609 0.12674 0.12713 0.12749 0.12781 0.12831 0.12844 0.12828 0.1281 0.12777 0.12723 0.12659 0.12616 0.12571 0.12543 0.12543 0.1254 0.12534 0.12534 0.12539 0.12548 0.12571 0.12597 0.12618 0.12627 0.1263 0.12637 0.12617 0.12598 0.12579 0.12559 0.12525 0.12491 0.12449 0.12408 0.12365 0.12335 0.12309 0.12285 0.12281 0.12274 0.12267 0.12288 0.12301 0.12313 0.12328 0.12342 0.12355
0 0 0 0 0 0 0 0 0 0 0 0 0 0 0 0 0 0 0 0 0 0 0 0 0 0 0 0 0 0 0 0 0 0 0 0 0 0 0 0 0 0 0 0 0 0 0 0 0 0 0.1227 0.12378 0.1254 0.12811 0.12987 0.12836 0.12684 0.12495 0.12485 0.12476 0.12449 0.12525 0.12606 0.12657 0.12672 0.12721 0.12753 0.1274 0.12733 0.12719 0.12692 0.12646 0.12587 0.12547 0.12511 0.12473 0.12456 0.12434 0.12413 0.12404 0.12405 0.12406 0.12415 0.12417 0.12416 0.12413 0.12418 0.12423 0.1242 0.12406 0.12392 0.12373 0.12347 0.12323 0.12297 0.12271 0.12242 0.12229 0.12219 0.12215 0.12229 0.12239 0.12241 0.12263 0.12281 0.12304 0.12315 0.12328 0.12351
0 0 0 0 0 0 0 0 0 0 0 0 0 0 0 0 0 0 0 0 0 0 0 0 0 0 0 0 0 0 0 0 0 0 0 0 0 0 0 0 0 0 0 0 0 0 0 0 0 0 0.12538 0.1258 0.12636 0.12725 0.12888 0.12749 0.12605 0.12453 0.12442 0.12439 0.12427 0.12499 0.12564 0.12602 0.1262 0.12655 0.12689 0.12685 0.12677 0.12662 0.12627 0.12587 0.1253 0.12497 0.12469 0.12439 0.12431 0.12417 0.12399 0.12396 0.12404 0.12402 0.12398 0.124 0.12401 0.12396 0.12397 0.12389 0.12372 0.1236 0.12347 0.1233 0.12303 0.12281 0.12267 0.12248 0.12223 0.12215 0.12202 0.12194 0.12211 0.12222 0.12227 0.12247 0.12268 0.12292 0.12306 0.12318 0.12336
0 0 0 0 0 0 0 0 0 0 0 0 0 0 0 0 0 0 0 0 0 0 0 0 0 0 0 0 0 0 0 0 0 0 0 0 0 0 0 0 0 0 0 0 0 0 0 0 0 0 0 0 0.12652 0.1266 0.12777 0.1265 0.12528 0.12398 0.12386 0.12375 0.12347 0.12437 0.12508 0.12544 0.12568 0.12602 0.12624 0.12617 0.12595 0.12584 0.12552 0.12522 0.12487 0.12466 0.12443 0.12416 0.12403 0.12389 0.12382 0.12383 0.12378 0.12373 0.12377 0.1238 0.12381 0.12374 0.12363 0.12353 0.12339 0.12322 0.12307 0.12295 0.12274 0.12256 0.12237 0.1222 0.12206 0.12197 0.12186 0.12175 0.12182 0.12195 0.12205 0.12228 0.12251 0.12272 0.12292 0.12309 0.12328
0 0 0 0 0 0 0 0 0 0 0 0 0 0 0 0 0 0 0 0 0 0 0 0 0 0 0 0 0 0 0 0 0 0 0 0 0 0 0 0 0 0 0 0 0 0 0 0 0 0 0.12719 0.12701 0.12725 0.12701 0.12664 0.1255 0.12449 0.12331 0.12331 0.12327 0.12318 0.12392 0.12472 0.12501 0.12508 0.12533 0.12561 0.12534 0.12518 0.12495 0.1247 0.12445 0.12414 0.12399 0.12376 0.1235 0.12344 0.12334 0.12335 0.12339 0.12349 0.12353 0.12349 0.12345 0.1234 0.12331 0.12325 0.12311 0.12292 0.12279 0.12267 0.12252 0.12238 0.12219 0.122 0.12184 0.12175 0.12171 0.12162 0.12153 0.12163 0.1217 0.12182 0.12206 0.12234 0.12259 0.12284 0.12303 0.12316
0 0 0 0 0 0 0 0 0 0 0 0 0 0 0 0 0 0 0 0 0 0 0 0 0 0 0 0 0 0 0 0 0 0 0 0 0 0 0 0 0 0 0 0 0 0 0 0 0 0 0.12767 0.12777 0.12772 0.12748 0.12694 0.12553 0.12448 0.12352 0.12349 0.12335 0.12334 0.12387 0.12447 0.12485 0.12493 0.1251 0.12526 0.12505 0.12486 0.12468 0.12457 0.12446 0.1242 0.1241 0.12377 0.12345 0.1235 0.12351 0.12351 0.12361 0.12354 0.12349 0.12344 0.1235 0.12346 0.12341 0.12337 0.12332 0.12319 0.12312 0.12292 0.12273 0.12254 0.12232 0.12214 0.12201 0.12187 0.12179 0.12162 0.1215 0.12166 0.12173 0.12179 0.12202 0.12227 0.12243 0.12267 0.12291 0.12315
0 0 0 0 0 0 0 0 0 0 0 0 0 0 0 0 0 0 0 0 0 0 0 0 0 0 0 0 0 0 0 0 0 0 0 0 0 0 0 0 0 0 0 0 0 0 0 0 0 0 0 0.12838 0.12814 0.12793 0.12734 0.12625 0.12479 0.12367 0.1235 0.12337 0.12333 0.1238 0.12437 0.12467 0.12485 0.12503 0.12503 0.1248 0.12475 0.12468 0.12455 0.1244 0.12425 0.12403 0.12378 0.12361 0.12363 0.12354 0.1235 0.12353 0.12353 0.12351 0.12351 0.12357 0.12361 0.12356 0.12351 0.12353 0.12338 0.12323 0.12311 0.12286 0.12268 0.12243 0.1223 0.12217 0.12207 0.12191 0.12173 0.12159 0.12164 0.12165 0.12176 0.12189 0.12209 0.12225 0.12248 0.12277 0.12304
0 0 0 0 0 0 0 0 0 0 0 0 0 0 0 0 0 0 0 0 0 0 0 0 0 0 0 0 0 0 0 0 0 0 0 0 0 0 0 0 0 0 0 0 0 0 0 0 0 0 0 0.12891 0.12833 0.1279 0.12706 0.12634 0.12489 0.12365 0.12346 0.12351 0.12347 0.12391 0.1242 0.12455 0.12472 0.12481 0.12471 0.12468 0.1246 0.12452 0.1243 0.12417 0.12408 0.12395 0.12382 0.1236 0.12359 0.12362 0.12354 0.12353 0.1236 0.12367 0.12378 0.12376 0.12377 0.12377 0.12372 0.12369 0.12351 0.12338 0.12323 0.123 0.12283 0.1227 0.12257 0.12244 0.12225 0.12205 0.12197 0.12183 0.12182 0.12178 0.12171 0.12183 0.12202 0.12211 0.12234 0.1226 0.1229
0 0 0 0 0 0 0 0 0 0 0 0 0 0 0 0 0 0 0 0 0 0 0 0 0 0 0 0 0 0 0 0 0 0 0 0 0 0 0 0 0 0 0 0 0 0 0 0 0 0 0 0.12922 0.12863 0.12814 0.12707 0.12614 0.12492 0.12389 0.12377 0.12385 0.12384 0.12398 0.12431 0.12461 0.12468 0.12479 0.12471 0.12477 0.12467 0.12474 0.12445 0.1244 0.12445 0.12435 0.12408 0.12394 0.12389 0.12389 0.12383 0.12375 0.1237 0.12381 0.1239 0.12396 0.12394 0.12389 0.12382 0.1238 0.12361 0.1235 0.12328 0.12314 0.12304 0.12292 0.12282 0.12257 0.12239 0.12231 0.12192 0.12191 0.12185 0.12174 0.12173 0.12182 0.12186 0.12204 0.12231 0.12256 0.12285
0 0 0 0 0 0 0 0 0 0 0 0 0 0 0 0 0 0 0 0 0 0 0 0 0 0 0 0 0 0 0 0 0 0 0 0 0 0 0 0 0 0 0 0 0 0 0 0 0 0.1257 0.1275 0.1297 0.12888 0.12794 0.12685 0.12593 0.12502 0.12429 0.12405 0.12422 0.12407 0.12422 0.12455 0.12463 0.12473 0.12472 0.12479 0.12465 0.12482 0.12483 0.12484 0.12478 0.12467 0.12469 0.12442 0.12423 0.12415 0.1241 0.12411 0.12401 0.12401 0.12403 0.12405 0.12408 0.12404 0.12402 0.12396 0.12397 0.12385 0.12371 0.12346 0.12321 0.12314 0.12309 0.12292 0.12272 0.12251 0.12236 0.12213 0.12191 0.12184 0.1217 0.12163 0.12179 0.12186 0.12194 0.12222 0.12247 0.12275
0 0 0 0 0 0 0 0 0 0 0 0 0 0 0 0 0 0 0 0 0 0 0 0 0 0 0 0 0 0 0 0 0 0 0 0 0 0 0 0 0 0 0 0 0 0 0 0 0.12089 0.12394 0.12706 0.13019 0.12916 0.12798 0.12676 0.12595 0.12505 0.1243 0.12433 0.12437 0.12434 0.12447 0.12459 0.12468 0.12467 0.12471 0.12472 0.12467 0.12483 0.1249 0.125 0.12501 0.12496 0.12485 0.12463 0.12441 0.12438 0.12425 0.12426 0.12425 0.12421 0.12428 0.12418 0.12413 0.12413 0.12409 0.12412 0.12402 0.12386 0.12371 0.12365 0.12347 0.12332 0.12319 0.123 0.12279 0.12265 0.12253 0.12229 0.12207 0.12186 0.12171 0.12157 0.12168 0.1218 0.12183 0.12209 0.12233 0.12263
0 0 0 0 0 0 0 0 0 0 0 0 0 0 0 0 0 0 0 0 0 0 0 0 0 0 0 0 0 0 0 0 0 0 0 0 0 0 0 0 0 0 0 0 0 0.12792 0.12644 0.12518 0.12391 0.12584 0.12777 0.12976 0.12899 0.12786 0.12673 0.12617 0.12543 0.12477 0.12481 0.12485 0.12485 0.12484 0.12485 0.12488 0.12488 0.1249 0.12496 0.12499 0.12508 0.12526 0.12535 0.12525 0.12517 0.12506 0.12492 0.12482 0.12467 0.1247 0.12463 0.12455 0.12447 0.12434 0.12438 0.12435 0.12429 0.12423 0.12405 0.12404 0.12391 0.12377 0.12368 0.12345 0.12334 0.12331 0.12316 0.12294 0.12278 0.12259 0.12229 0.12202 0.12188 0.12177 0.12156 0.12169 0.12177 0.12186 0.12209 0.12243 0.12271
0 0 0 0 0 0 0 0 0 0 0 0 0 0 0 0 0 0 0 0 0 0 0 0 0 0 0 0 0 0 0 0 0 0 0 0 0 0 0 0 0 0 0.12559 0.12684 0.12824 0.12865 0.12836 0.12814 0.12708 0.1277 0.12854 0.12912 0.12842 0.12752 0.12669 0.12629 0.12567 0.12506 0.12516 0.12521 0.12517 0.1251 0.12504 0.12501 0.12495 0.12508 0.12514 0.12522 0.12532 0.12548 0.1255 0.12537 0.12534 0.12526 0.12513 0.12518 0.12509 0.12499 0.12489 0.12469 0.12455 0.12449 0.1244 0.12442 0.12447 0.12432 0.12407 0.12389 0.12384 0.12382 0.12373 0.12364 0.12353 0.12346 0.12336 0.12312 0.12281 0.12265 0.12237 0.1222 0.1219 0.12175 0.12164 0.12169 0.12176 0.12187 0.12217 0.12248 0.12278
0 0 0 0 0 0 0 0 0 0 0 0 0 0 0 0 0 0 0 0 0 0 0 0 0 0 0 0 0 0 0 0 0 0 0 0 0 0 0 0 0.12343 0.12442 0.12546 0.12667 0.12858 0.12935 0.12979 0.12988 0.13005 0.12982 0.12933 0.1283 0.12777 0.12709 0.12658 0.12634 0.12596 0.12554 0.12569 0.12559 0.1254 0.12527 0.12524 0.12504 0.12513 0.12518 0.12529 0.12538 0.1255 0.12562 0.12558 0.12551 0.12546 0.12547 0.12553 0.12564 0.12549 0.12532 0.12513 0.12488 0.12466 0.12452 0.12466 0.12467 0.12458 0.12443 0.1243 0.12404 0.12397 0.12384 0.12366 0.12359 0.12352 0.1234 0.12316 0.12302 0.12285 0.12265 0.12248 0.12231 0.12212 0.12182 0.12179 0.12173 0.12178 0.12186 0.12229 0.12259 0.12288
0 0 0 0 0 0 0 0 0 0 0 0 0 0 0 0 0 0 0 0 0 0 0 0 0 0 0 0 0 0 0 0 0 0 0 0 0 0 0 0.12146 0.12315 0.1247 0.12565 0.12629 0.12742 0.12801 0.1283 0.12856 0.12873 0.12899 0.12853 0.12802 0.12758 0.12722 0.12675 0.12666 0.12649 0.12614 0.12632 0.12609 0.12585 0.12566 0.12543 0.1253 0.12529 0.12532 0.12562 0.12564 0.12561 0.12568 0.12573 0.12545 0.12558 0.12556 0.12558 0.12559 0.12543 0.12527 0.1251 0.12501 0.12486 0.12474 0.12481 0.12472 0.12466 0.12454 0.12445 0.12422 0.12393 0.12384 0.12362 0.12352 0.12345 0.12338 0.12331 0.12312 0.12282 0.12267 0.12252 0.12235 0.12219 0.12198 0.12189 0.12195 0.12215 0.12229 0.12267 0.12282 0.12304
0 0 0 0 0 0 0 0 0 0 0 0 0 0 0 0 0 0 0 0 0 0 0 0 0 0 0 0 0 0 0 0 0 0 0 0 0 0 0.11829 0.12214 0.12348 0.12484 0.12563 0.12607 0.12662 0.12725 0.12724 0.12728 0.12741 0.12766 0.12756 0.12734 0.12708 0.12719 0.12688 0.12682 0.12672 0.12644 0.1265 0.12645 0.12616 0.12593 0.12568 0.12563 0.12568 0.1256 0.12566 0.12561 0.12574 0.12577 0.12565 0.1256 0.12558 0.12553 0.12555 0.12555 0.1255 0.12519 0.12509 0.12502 0.12495 0.12486 0.12476 0.12467 0.12456 0.12449 0.12436 0.12415 0.124 0.12391 0.12374 0.12357 0.1235 0.12348 0.12331 0.12324 0.12303 0.12287 0.12241 0.12236 0.12224 0.12208 0.12205 0.12215 0.12232 0.12257 0.12288 0.12299 0.12316
0 0 0 0 0 0 0 0 0 0 0 0 0 0 0 0 0 0 0 0 0 0 0 0 0 0 0 0 0 0 0 0 0 0 0.10956 0.10165 0.09522 0.10532 0.11472 0.12299 0.12443 0.12512 0.1259 0.12609 0.12593 0.12602 0.12572 0.12585 0.12584 0.1261 0.12653 0.12642 0.12674 0.12693 0.12671 0.12674 0.12675 0.12669 0.12661 0.12645 0.12626 0.126 0.1259 0.12583 0.12584 0.12577 0.12567 0.12569 0.12579 0.12581 0.12575 0.12572 0.12566 0.12576 0.12558 0.12556 0.12559 0.12538 0.12523 0.12509 0.12502 0.1249 0.12486 0.12473 0.12451 0.12437 0.12422 0.12405 0.12389 0.12386 0.12371 0.12364 0.12371 0.12358 0.12343 0.12332 0.12325 0.12283 0.12244 0.12227 0.12235 0.12214 0.12203 0.12228 0.12253 0.12282 0.12308 0.12315 0.12326
0 0 0 0 0 0 0 0 0 0 0 0 0 0 0 0 0 0 0 0 0 0 0 0 0 0 0 0 0 0.11773 0.1189 0.11974 0.11935 0.11782 0.11477 0.11058 0.10436 0.1111 0.11714 0.12272 0.12328 0.12421 0.12468 0.12509 0.12514 0.12566 0.12566 0.12588 0.12579 0.12594 0.1262 0.12654 0.12675 0.12686 0.12677 0.12664 0.12672 0.12675 0.12657 0.12658 0.12663 0.1266 0.12644 0.12619 0.12615 0.12604 0.126 0.12599 0.12593 0.12587 0.12582 0.1258 0.12547 0.12562 0.12563 0.12565 0.12552 0.12536 0.12515 0.1251 0.12496 0.12487 0.12478 0.12448 0.12442 0.12419 0.12403 0.1239 0.12382 0.12381 0.12372 0.12365 0.12352 0.12339 0.12345 0.12326 0.12305 0.12271 0.12241 0.12221 0.12222 0.1221 0.1222 0.12246 0.1227 0.12297 0.12317 0.12327 0.12341
0 0 0 0 0 0 0 0 0 0 0 0 0 0 0 0 0 0 0 0 0 0 0 0 0 0.11011 0.1105 0.11022 0.11373 0.11908 0.12147 0.1217 0.1216 0.12158 0.12019 0.11904 0.11338 0.11668 0.11956 0.12244 0.12254 0.12312 0.1235 0.12428 0.1244 0.12492 0.12542 0.12569 0.12563 0.12597 0.12635 0.12667 0.12676 0.12692 0.12698 0.12714 0.127 0.127 0.12698 0.1269 0.12693 0.12692 0.12674 0.1267 0.12651 0.12638 0.12627 0.12625 0.12608 0.12616 0.12605 0.12575 0.12545 0.12562 0.12552 0.12552 0.12548 0.12526 0.12509 0.12513 0.12498 0.12476 0.12461 0.12445 0.12417 0.12405 0.12396 0.12379 0.12387 0.12385 0.12373 0.12359 0.12337 0.12334 0.12335 0.12308 0.12291 0.12262 0.12247 0.12225 0.12207 0.12212 0.12223 0.12251 0.12286 0.12309 0.12321 0.12336 0.12358
0 0 0 0 0 0 0 0 0 0 0 0 0 0 0 0 0 0 0 0 0 0 0 0.10757 0.10885 0.10936 0.10836 0.10574 0.11237 0.11884 0.12451 0.12428 0.12414 0.12372 0.12318 0.12237 0.12165 0.12201 0.12189 0.12141 0.12172 0.12202 0.1226 0.12339 0.12384 0.12421 0.12506 0.12533 0.12566 0.12612 0.12645 0.1266 0.12678 0.127 0.12718 0.1272 0.12729 0.1272 0.12727 0.12725 0.12719 0.12721 0.12711 0.12704 0.12691 0.1267 0.1265 0.12634 0.12631 0.12629 0.12611 0.12592 0.12576 0.12569 0.12553 0.12546 0.12533 0.12509 0.12505 0.12501 0.12507 0.12468 0.12436 0.12427 0.12415 0.12394 0.12384 0.12379 0.12387 0.12395 0.12366 0.12346 0.12318 0.1232 0.12312 0.12298 0.12276 0.12261 0.12244 0.12216 0.12211 0.12215 0.12231 0.12263 0.12297 0.12314 0.12338 0.12363 0.12386
0 0 0 0 0 0 0 0 0 0 0 0 0 0 0 0 0 0 0 0 0 0 0.10338 0.10516 0.10664 0.10866 0.11094 0.1089 0.11408 0.11927 0.12383 0.12378 0.1237 0.12328 0.12267 0.12201 0.12156 0.12155 0.12149 0.12125 0.12145 0.12172 0.122 0.12289 0.12369 0.1239 0.12435 0.12521 0.12539 0.12577 0.12628 0.12634 0.12668 0.12701 0.12722 0.1273 0.12731 0.1275 0.12752 0.12747 0.12739 0.12746 0.12738 0.12731 0.1272 0.12701 0.12679 0.12662 0.12659 0.1265 0.12634 0.12607 0.12585 0.12569 0.12557 0.12545 0.12509 0.12493 0.12479 0.12463 0.12456 0.12432 0.12411 0.12402 0.12402 0.1238 0.1237 0.12371 0.12365 0.12367 0.12356 0.12322 0.12322 0.12307 0.12308 0.12289 0.12266 0.12249 0.12234 0.12227 0.12218 0.12224 0.12233 0.12268 0.12298 0.12322 0.12342 0.12361 0.12372
0 0 0 0 0 0 0 0 0 0 0 0 0 0 0 0 0 0 0 0 0 0.10075 0.1012 0.1017 0.10211 0.10582 0.11086 0.1121 0.11568 0.11905 0.12235 0.12268 0.1227 0.12248 0.12192 0.12149 0.12094 0.12092 0.12093 0.12084 0.12115 0.12143 0.12187 0.12268 0.12323 0.12347 0.12391 0.12463 0.125 0.12544 0.1259 0.12618 0.12662 0.12684 0.12722 0.12734 0.12746 0.12757 0.12751 0.12767 0.1277 0.12765 0.12763 0.12761 0.12748 0.12738 0.12721 0.12682 0.1266 0.12648 0.12646 0.12614 0.12598 0.12576 0.12559 0.12532 0.12501 0.1248 0.12456 0.12436 0.12416 0.12401 0.12383 0.12374 0.12373 0.1237 0.12353 0.12359 0.12361 0.12347 0.12342 0.12319 0.12313 0.12299 0.12294 0.12266 0.12249 0.1224 0.12228 0.12215 0.1222 0.12224 0.12242 0.12274 0.12304 0.12323 0.12338 0.12361 0.12378
0 0 0 0 0 0 0 0 0 0 0 0 0 0 0 0 0 0 0 0 0 0 0 0.09934 0.09725 0.10327 0.10882 0.11463 0.11687 0.11896 0.12074 0.12121 0.12148 0.12118 0.12089 0.12058 0.11998 0.12017 0.12015 0.12003 0.12047 0.12085 0.12111 0.12195 0.12268 0.12307 0.12361 0.12401 0.1244 0.12505 0.12567 0.12601 0.12646 0.12686 0.12728 0.12746 0.12754 0.1277 0.12779 0.12776 0.12785 0.12786 0.12783 0.12773 0.12763 0.12732 0.12712 0.12685 0.12672 0.1268 0.12664 0.1262 0.12608 0.12578 0.12542 0.12519 0.12493 0.1246 0.12436 0.12406 0.12383 0.12364 0.12355 0.12347 0.12352 0.12358 0.12349 0.12346 0.12349 0.12345 0.12329 0.12307 0.12298 0.12289 0.12282 0.12261 0.1224 0.12232 0.12211 0.12224 0.12223 0.12227 0.12249 0.12282 0.12307 0.12331 0.12342 0.12363 0.12373
0 0 0 0 0 0 0 0 0 0 0 0 0 0 0 0 0 0 0 0 0 0.09077 0.09474 0.09929 0.09842 0.10492 0.11109 0.1175 0.11848 0.11957 0.12019 0.12074 0.12098 0.12074 0.12067 0.12048 0.11995 0.12031 0.12027 0.12024 0.12064 0.12093 0.12116 0.12188 0.12248 0.12285 0.12326 0.12377 0.12423 0.12463 0.12504 0.12543 0.12588 0.12623 0.12685 0.12719 0.12741 0.12751 0.12752 0.12765 0.12765 0.12768 0.12757 0.12766 0.12754 0.12736 0.12721 0.127 0.12678 0.1269 0.1266 0.12625 0.12609 0.12592 0.12553 0.12515 0.12485 0.12452 0.1242 0.1239 0.12371 0.12353 0.12356 0.12345 0.1235 0.12353 0.12356 0.1235 0.12347 0.12337 0.12327 0.12312 0.12312 0.12303 0.12278 0.12253 0.12239 0.12213 0.12209 0.12203 0.12204 0.12216 0.12222 0.12256 0.12285 0.12303 0.12328 0.12356 0.12383
0 0 0 0 0 0 0 0 0 0 0 0 0 0 0 0 0 0 0 0.08402 0.0807 0.07937 0.08708 0.09654 0.09953 0.10644 0.11332 0.12009 0.1201 0.11993 0.11946 0.12012 0.12051 0.12031 0.12032 0.1202 0.11987 0.12027 0.1203 0.12024 0.12047 0.12082 0.12108 0.12176 0.12226 0.12269 0.12299 0.12337 0.12374 0.12421 0.12463 0.12498 0.12544 0.12574 0.12611 0.12663 0.12708 0.12724 0.12724 0.12734 0.12723 0.12742 0.12759 0.1277 0.12752 0.12727 0.12707 0.12695 0.1268 0.1267 0.12649 0.12627 0.12609 0.12591 0.12561 0.12516 0.12484 0.12451 0.12425 0.12392 0.12372 0.12356 0.12358 0.1235 0.12355 0.12353 0.12356 0.12353 0.12342 0.1234 0.12337 0.12321 0.12309 0.12303 0.12269 0.1223 0.12205 0.12191 0.12193 0.12185 0.12185 0.12191 0.12195 0.12227 0.12262 0.12275 0.12316 0.12352 0.12392
0 0 0 0 0 0 0 0 0 0 0 0 0 0 0 0 0 0 0.08248 0.08059 0.07422 0.06639 0.07782 0.08913 0.0999 0.10777 0.11531 0.12251 0.12156 0.12035 0.11873 0.11926 0.1198 0.11953 0.11967 0.11975 0.11959 0.11992 0.12 0.12002 0.12032 0.12063 0.12096 0.12144 0.1218 0.12218 0.12255 0.12301 0.12342 0.12386 0.12411 0.12434 0.12476 0.12512 0.12556 0.12609 0.12666 0.12692 0.12705 0.12717 0.12716 0.12737 0.12756 0.12755 0.12748 0.12728 0.12712 0.12691 0.1267 0.12651 0.12635 0.12624 0.12602 0.1258 0.12555 0.12513 0.12492 0.1246 0.12424 0.12401 0.12372 0.12363 0.12364 0.12367 0.12366 0.12357 0.12362 0.12343 0.12338 0.1233 0.12319 0.12314 0.12305 0.12303 0.12253 0.12227 0.12177 0.12188 0.12174 0.12174 0.12174 0.12163 0.1215 0.12192 0.12221 0.12244 0.12294 0.12349 0.12398
0 0 0 0 0 0 0 0 0 0 0 0 0 0 0 0 0 0.08262 0.0824 0.08276 0.08202 0.07501 0.08543 0.09558 0.10536 0.11111 0.11648 0.12143 0.12086 0.12022 0.11899 0.11948 0.11993 0.11964 0.11973 0.11985 0.11992 0.12008 0.12026 0.12034 0.12057 0.12079 0.12103 0.12152 0.12189 0.1221 0.12256 0.12293 0.12342 0.12375 0.12402 0.12434 0.12462 0.12488 0.12511 0.12578 0.12612 0.12643 0.12658 0.12695 0.12712 0.1273 0.12746 0.12748 0.12742 0.12752 0.12744 0.1272 0.12686 0.12663 0.12657 0.12642 0.12626 0.12599 0.12571 0.12532 0.12509 0.12475 0.12449 0.12427 0.12402 0.12381 0.12382 0.12372 0.12366 0.12369 0.12376 0.12354 0.12369 0.12345 0.12327 0.12314 0.12302 0.12286 0.12251 0.1221 0.12164 0.12161 0.12157 0.12158 0.12166 0.12158 0.12138 0.12184 0.12209 0.12237 0.12285 0.12321 0.12369
0 0 0 0 0 0 0 0 0 0 0 0 0 0 0 0 0.08006 0.07841 0.07669 0.08182 0.08776 0.08334 0.0928 0.10173 0.11071 0.11411 0.11735 0.11997 0.12009 0.11995 0.11926 0.11972 0.12006 0.11973 0.11982 0.11999 0.12001 0.12024 0.1204 0.1205 0.12079 0.12099 0.12127 0.12173 0.12203 0.12226 0.12257 0.12295 0.12328 0.12358 0.12384 0.12413 0.12425 0.12442 0.12462 0.12517 0.12548 0.12583 0.12621 0.12654 0.12683 0.12691 0.12708 0.12722 0.12733 0.12741 0.12753 0.12732 0.12701 0.12682 0.12671 0.12661 0.12633 0.12605 0.12572 0.12538 0.12515 0.12493 0.12464 0.12441 0.12422 0.12407 0.1239 0.12384 0.12394 0.12389 0.12388 0.12378 0.12373 0.12365 0.12337 0.12315 0.12293 0.12268 0.12235 0.12208 0.12147 0.12141 0.1215 0.12154 0.12148 0.12132 0.12123 0.12169 0.12198 0.12227 0.12267 0.12291 0.12316
0 0 0 0 0 0 0 0 0 0 0 0 0 0 0 0.08447 0.08087 0.07392 0.06725 0.07524 0.08292 0.09025 0.09913 0.10747 0.11573 0.11703 0.11812 0.11856 0.11916 0.11958 0.11927 0.11984 0.11996 0.11972 0.11989 0.12006 0.11998 0.12035 0.12057 0.12057 0.1209 0.12119 0.12153 0.12186 0.12201 0.12213 0.12252 0.12276 0.12312 0.12334 0.12356 0.12384 0.12392 0.12395 0.12408 0.12446 0.12483 0.12517 0.12526 0.12583 0.12653 0.126 0.12626 0.12677 0.12709 0.12717 0.12734 0.12723 0.12713 0.127 0.12687 0.12673 0.12649 0.12618 0.12585 0.12531 0.12514 0.1251 0.12485 0.12468 0.12447 0.12421 0.12412 0.12398 0.12393 0.1239 0.12394 0.12384 0.12379 0.1237 0.12344 0.1231 0.1229 0.12256 0.12233 0.12188 0.12132 0.12134 0.12151 0.12131 0.12126 0.12121 0.12105 0.12165 0.12184 0.12217 0.12248 0.12259 0.1227
0 0 0 0 0 0 0 0 0 0 0 0 0 0 0.08339 0.08509 0.08422 0.08272 0.07688 0.08464 0.09216 0.09941 0.10538 0.11094 0.11627 0.11767 0.11865 0.11913 0.11958 0.11993 0.11972 0.12016 0.12026 0.12015 0.12022 0.1204 0.12049 0.12073 0.12093 0.12102 0.12128 0.12146 0.12161 0.12178 0.12184 0.12194 0.12234 0.1227 0.12317 0.12357 0.12382 0.1242 0.12427 0.1243 0.12421 0.12356 0.12265 0.12192 0.12377 0.12431 0.12493 0.12456 0.12425 0.1215 0.12364 0.12576 0.12787 0.12765 0.12726 0.12685 0.12673 0.12649 0.12623 0.1259 0.12556 0.12527 0.12518 0.125 0.12478 0.12463 0.12448 0.12416 0.12405 0.12396 0.12395 0.12393 0.12395 0.12398 0.12399 0.12375 0.12345 0.12325 0.12294 0.12275 0.12229 0.12192 0.12144 0.12139 0.12161 0.12125 0.12121 0.12117 0.1211 0.12165 0.1219 0.1222 0.12263 0.12282 0.12317
0 0 0 0 0 0 0 0 0 0 0 0 0 0.08357 0.08335 0.08066 0.08602 0.09149 0.08633 0.09397 0.10162 0.10894 0.11173 0.11452 0.11709 0.11823 0.11905 0.11961 0.12002 0.12014 0.12011 0.1205 0.12054 0.12048 0.12063 0.12087 0.12096 0.12118 0.12134 0.12127 0.12138 0.12152 0.12154 0.12171 0.12179 0.12177 0.12219 0.12257 0.12303 0.1236 0.12426 0.12475 0.12454 0.12439 0.12414 0.12264 0.12081 0.11905 0 0 0 0.12458 0.1217 0.1165 0.12048 0.12436 0.12833 0.12787 0.12742 0.12684 0.12664 0.12635 0.12607 0.12582 0.12549 0.12522 0.12493 0.12483 0.12468 0.12453 0.12433 0.12413 0.12396 0.12392 0.12391 0.12396 0.12403 0.12408 0.12405 0.12373 0.12354 0.12345 0.12315 0.12287 0.12249 0.12201 0.12149 0.12145 0.12158 0.12127 0.12119 0.12122 0.12111 0.12155 0.12195 0.12219 0.12269 0.12317 0.12361
0 0 0 0 0 0 0 0 0 0 0 0 0 0.08826 0.07908 0.07126 0.07967 0.08782 0.09559 0.10317 0.11053 0.11786 0.11794 0.11786 0.1176 0.1186 0.11934 0.11974 0.12025 0.12028 0.12035 0.12057 0.12073 0.12063 0.12093 0.12116 0.12138 0.12158 0.1216 0.12136 0.12132 0.12129 0.12142 0.12111 0.12117 0.12144 0.12164 0.12241 0.12302 0.12293 0.12362 0.12511 0.12332 0.12248 0.12412 0.12151 0.11874 0.11587 0 0 0 0 0 0.11851 0.11712 0.12304 0.12886 0.12824 0.12765 0.12702 0.1267 0.1264 0.12601 0.12567 0.1254 0.12514 0.1248 0.12473 0.12458 0.12445 0.12437 0.12413 0.12396 0.12389 0.12375 0.12393 0.12396 0.12415 0.12406 0.12374 0.1236 0.12341 0.12318 0.12286 0.12248 0.122 0.12147 0.12143 0.12153 0.12136 0.12134 0.12116 0.121 0.12146 0.12186 0.12228 0.12295 0.12354 0.12412
0 0 0 0 0 0 0 0 0 0 0 0 0.09696 0.09541 0.09153 0.08806 0.09395 0.09951 0.10486 0.10967 0.11446 0.11914 0.11917 0.11897 0.11855 0.11931 0.11977 0.12007 0.12047 0.12073 0.12065 0.12089 0.12094 0.12083 0.12114 0.12129 0.12146 0.12161 0.12156 0.12114 0.11939 0.11764 0.11593 0.11944 0.12013 0.12087 0.12127 0 0 0.12319 0 0.12197 0.12022 0.11883 0.11197 0.1144 0.1168 0.11902 0.11842 0.12029 0.12155 0 0 0 0.11994 0.12416 0.12844 0.12781 0.12707 0.12642 0.12604 0.12572 0.12547 0.12521 0.12492 0.12462 0.12456 0.12454 0.1244 0.12439 0.12425 0.1241 0.12399 0.12382 0.12384 0.12403 0.12409 0.12417 0.12406 0.12381 0.1237 0.12334 0.1231 0.12283 0.12251 0.12198 0.12164 0.12166 0.12165 0.12155 0.12142 0.12125 0.12105 0.12148 0.12184 0.1221 0.12277 0.12338 0.12394
0 0 0 0 0 0 0 0 0 0 0 0.0963 0.09518 0.09969 0.10728 0.10491 0.1082 0.11117 0.11407 0.11626 0.11837 0.12034 0.12026 0.11995 0.1195 0.11997 0.12021 0.12029 0.12078 0.12093 0.1209 0.12109 0.12116 0.12102 0.12129 0.12143 0.12153 0.12154 0.1214 0.12095 0.11749 0.11383 0.10992 0.1138 0.1169 0 0 0 0 0 0.11961 0.11725 0.11328 0.1075 0.09982 0.10719 0.11454 0.12189 0.12046 0.12077 0.1215 0.12236 0.12268 0.12025 0.12292 0.12537 0.12777 0.12719 0.12651 0.12584 0.12553 0.12529 0.12504 0.12479 0.12451 0.12433 0.1243 0.12437 0.1243 0.12428 0.1243 0.12422 0.12398 0.12382 0.12389 0.12404 0.12421 0.12407 0.12418 0.12399 0.12374 0.12339 0.12312 0.12287 0.12245 0.12201 0.12174 0.12188 0.12181 0.12167 0.12149 0.1213 0.12108 0.12146 0.1217 0.12188 0.12255 0.12319 0.12369
0 0 0 0 0 0 0 0 0 0 0.10098 0.09383 0.08757 0.09898 0.11026 0.12108 0.12201 0.12267 0.12314 0.12269 0.1221 0.1214 0.12116 0.12075 0.12018 0.12044 0.12062 0.12062 0.12095 0.1211 0.12105 0.12119 0.12125 0.12121 0.12135 0.12151 0.12143 0.12135 0.1212 0.12092 0.11856 0.1103 0.104 0 0 0 0 0 0 0 0 0 0 0 0.08731 0.1 0.11243 0.12468 0.12417 0.12365 0.12306 0.12349 0.12404 0.12456 0.12553 0.12638 0.12712 0.12655 0.12592 0.12533 0.1251 0.12483 0.12456 0.12425 0.12409 0.12404 0.12408 0.12415 0.12416 0.12417 0.12409 0.12393 0.12392 0.12383 0.12391 0.12409 0.12419 0.12428 0.12436 0.124 0.1238 0.12356 0.12315 0.12294 0.12257 0.12234 0.12193 0.1219 0.12181 0.12168 0.12153 0.12132 0.12105 0.12141 0.12156 0.12169 0.12236 0.12297 0.12347
0 0 0 0 0 0 0 0 0 0 0.10681 0.10337 0.10065 0.10785 0.11488 0.1216 0.12228 0.12275 0.12314 0.12271 0.12215 0.12164 0.12139 0.12112 0.12077 0.1211 0.12118 0.12112 0.12133 0.12143 0.12137 0.1215 0.12153 0.12146 0.1216 0.12164 0.12158 0.12136 0.12104 0.12068 0.11815 0 0 0 0 0 0 0 0 0 0 0 0 0 0.10028 0.10827 0.11606 0.12391 0.12352 0.12312 0.1229 0.12326 0.12368 0.12412 0.12494 0.12568 0.12633 0.12581 0.12542 0.12494 0.12472 0.12448 0.12422 0.12405 0.12386 0.1238 0.12393 0.12401 0.12412 0.12413 0.12402 0.12394 0.1238 0.1239 0.12405 0.12418 0.12421 0.12413 0.12386 0.12366 0.12356 0.1233 0.12315 0.12288 0.12256 0.12244 0.12198 0.12199 0.12188 0.12173 0.12163 0.12142 0.12119 0.12144 0.1216 0.12165 0.12215 0.12257 0.12301
0 0 0 0 0 0 0 0 0 0.11265 0.11406 0.11729 0.11344 0.11639 0.11932 0.1221 0.12252 0.12275 0.12302 0.12261 0.12231 0.12198 0.12192 0.12179 0.12167 0.12171 0.12172 0.12164 0.12168 0.12172 0.12156 0.12168 0.12174 0.12166 0.12175 0.1217 0.1217 0.12132 0.12088 0.1203 0.11978 0 0 0 0 0 0 0 0 0 0 0 0 0.11607 0.11288 0.11632 0.11974 0.12318 0.12292 0.12278 0.12263 0.12299 0.12326 0.12359 0.12436 0.125 0.12546 0.1252 0.1249 0.12455 0.1242 0.1241 0.12381 0.1238 0.12373 0.12376 0.12384 0.12389 0.12391 0.12397 0.12388 0.12391 0.1241 0.12417 0.12426 0.12409 0.12392 0.12379 0.12361 0.12343 0.12313 0.12308 0.12288 0.12269 0.12251 0.12237 0.12202 0.12197 0.12186 0.12175 0.12166 0.1216 0.12129 0.12147 0.12167 0.12162 0.12194 0.12219 0.12252
0 0 0 0 0 0 0 0 0.11362 0.11545 0.11926 0.12278 0.12548 0.12448 0.12341 0.12226 0.12255 0.1227 0.12269 0.12249 0.12224 0.12202 0.12213 0.12212 0.1221 0.12216 0.12217 0.12207 0.12196 0.12191 0.12174 0.1218 0.12175 0.12176 0.12179 0.12178 0.12181 0.12119 0.12065 0.11983 0.11997 0.11973 0 0.11794 0.11754 0 0 0 0 0 0 0 0.11939 0.12257 0.12521 0.12434 0.12338 0.12231 0.12233 0.12232 0.12227 0.12256 0.12279 0.12319 0.12368 0.12422 0.12459 0.12443 0.1243 0.12414 0.12389 0.12363 0.1234 0.12338 0.12346 0.1233 0.12342 0.12356 0.12355 0.12377 0.12397 0.12414 0.12422 0.12425 0.12418 0.12394 0.1237 0.12345 0.12317 0.12298 0.12272 0.12267 0.12268 0.12265 0.12261 0.12236 0.12204 0.12198 0.12194 0.12195 0.12185 0.12167 0.12153 0.12162 0.12167 0.12162 0.12181 0.12196 0.12209
0 0 0 0 0 0 0 0 0.11593 0.1173 0.11912 0.12099 0.12503 0.12401 0.12294 0.12173 0.122 0.12217 0.1221 0.12206 0.12202 0.12194 0.12188 0.12185 0.12187 0.12196 0.12196 0.12193 0.122 0.12199 0.12189 0.12197 0.12196 0.12186 0.12196 0.12198 0.12199 0.12165 0.12125 0.12066 0.12072 0.12101 0.12015 0.11979 0.11932 0 0 0 0 0 0 0.11842 0.11996 0.12143 0.12433 0.12368 0.12306 0.12231 0.12228 0.1222 0.12218 0.12242 0.12256 0.1228 0.12332 0.12368 0.12398 0.1239 0.12387 0.12373 0.12354 0.12335 0.12319 0.12318 0.12328 0.12325 0.12329 0.1234 0.12352 0.12372 0.12388 0.12394 0.12394 0.12404 0.12387 0.12363 0.12349 0.12321 0.12313 0.12298 0.1228 0.12278 0.12255 0.12256 0.12264 0.12251 0.12224 0.12216 0.12209 0.12217 0.12199 0.12188 0.12178 0.12185 0.12184 0.12182 0.122 0.12206 0.12217
0 0 0 0 0 0 0 0 0 0.11656 0.11837 0.12018 0.12451 0.12355 0.1224 0.12116 0.12143 0.1215 0.12146 0.1216 0.12175 0.12172 0.1217 0.1217 0.1217 0.12173 0.12181 0.12181 0.12191 0.12196 0.12196 0.12195 0.12192 0.12193 0.12205 0.12216 0.12224 0.1221 0.12192 0.12161 0.12229 0.12215 0.12185 0.12148 0.12118 0.12085 0.11794 0.1116 0 0 0.11778 0.12081 0.12061 0.12113 0.12341 0.12304 0.1227 0.12232 0.12223 0.12219 0.12214 0.1224 0.12253 0.1227 0.12298 0.12322 0.12341 0.12338 0.12329 0.12323 0.12321 0.12311 0.12294 0.12296 0.12304 0.12312 0.12321 0.12338 0.12354 0.12366 0.12373 0.12371 0.12376 0.12367 0.1235 0.12343 0.12328 0.12298 0.12292 0.12285 0.12272 0.12253 0.12256 0.12243 0.12255 0.12244 0.12227 0.12223 0.12219 0.12221 0.12214 0.12202 0.12183 0.12197 0.122 0.1219 0.12203 0.12214 0.12219
0 0 0 0 0 0 0 0 0 0.1147 0.117 0.12086 0.124 0.12298 0.12182 0.12054 0.12077 0.12087 0.12084 0.12112 0.12135 0.12141 0.12146 0.12151 0.1215 0.12156 0.12169 0.1217 0.12176 0.12178 0.12176 0.12183 0.12187 0.12189 0.12211 0.12231 0.12242 0.12252 0.12255 0.12248 0.12271 0.12295 0.12326 0.12358 0.12381 0.12403 0.11561 0.10699 0.09833 0.10671 0.11488 0.12291 0.12276 0.12265 0.1225 0.12244 0.12241 0.12235 0.12218 0.12214 0.12203 0.12221 0.12237 0.12243 0.12256 0.12266 0.12271 0.12274 0.1227 0.12263 0.12267 0.12273 0.12271 0.12282 0.12293 0.12309 0.12317 0.12333 0.12345 0.12347 0.12342 0.12331 0.12341 0.12332 0.12327 0.12321 0.12305 0.12287 0.12272 0.12257 0.12231 0.12219 0.12236 0.12246 0.12245 0.12225 0.12237 0.12238 0.12214 0.1222 0.12219 0.12205 0.12198 0.12204 0.12207 0.12194 0.12202 0.12219 0.12231
0 0 0 0 0 0 0 0 0 0.11055 0.11121 0.11329 0.1059 0.11088 0.11578 0.12058 0.12079 0.12088 0.12092 0.12125 0.12151 0.12154 0.12173 0.12184 0.12201 0.1222 0.12234 0.12237 0.12254 0.12269 0.1229 0.12315 0.12348 0.12383 0.12356 0.12314 0.12266 0.12272 0.12268 0.12253 0.12263 0.12275 0.12287 0.12311 0.12335 0.12345 0.11778 0 0.10635 0.11197 0.11738 0.12277 0.12273 0.12254 0.12246 0.12233 0.12235 0.12228 0.12221 0.12219 0.1222 0.12237 0.12256 0.12264 0.12269 0.12277 0.12286 0.1229 0.12283 0.12264 0.12276 0.12266 0.12266 0.12281 0.12291 0.12296 0.12305 0.12316 0.12314 0.1232 0.12319 0.1231 0.12316 0.12309 0.12297 0.123 0.12295 0.12292 0.12279 0.12264 0.12254 0.12254 0.12257 0.12266 0.12261 0.12256 0.12262 0.12261 0.12253 0.1223 0.12218 0.12212 0.12199 0.12198 0.1219 0.12191 0.12221 0.12234 0.12248
0 0 0 0 0 0 0 0 0 0 0.10026 0.09418 0.08746 0.09869 0.10974 0.12054 0.12077 0.12088 0.1209 0.12125 0.1215 0.12161 0.12191 0.12214 0.12229 0.12255 0.1228 0.12294 0 0 0 0.12414 0.12497 0.12546 0.12466 0.12379 0.12285 0.12281 0.12271 0.12248 0.12254 0.12256 0.12253 0.12263 0.12272 0.12276 0.11995 0.11712 0.11427 0.11706 0.11991 0.12265 0.12258 0.12243 0.1223 0.12228 0.12225 0.12218 0.12226 0.12218 0.12215 0.12238 0.12259 0.12282 0.12289 0.12295 0.12306 0.12306 0.12298 0.12281 0.12279 0.12275 0.12268 0.12281 0.12282 0.12277 0.12284 0.12292 0.12307 0.12301 0.12292 0.12284 0.1229 0.12293 0.12275 0.12287 0.12294 0.12293 0.12289 0.12291 0.12279 0.12282 0.12288 0.12288 0.12281 0.12281 0.12271 0.12261 0.12257 0.12252 0.12237 0.12223 0.12212 0.12203 0.12193 0.12194 0.1223 0.12248 0.12267
0 0 0 0 0 0 0 0 0 0 0 0.07958 0.06873 0.08647 0.11243 0.12045 0.11899 0.11984 0.12081 0.12113 0.12147 0.1216 0.12201 0.12229 0.12246 0.12288 0.12314 0.12335 0 0 0 0.12479 0.12621 0.1269 0.12567 0.12436 0.12291 0.12284 0.1227 0.12243 0.12233 0.12223 0.12204 0.12203 0.122 0.12194 0.12197 0.12199 0.12203 0.12216 0.12229 0.12241 0.12231 0.12221 0.12211 0.1221 0.12205 0.12205 0.12211 0.12214 0.12229 0.12258 0.12282 0.12311 0.12319 0.12312 0.1231 0.12313 0.12302 0.12291 0.12287 0.12284 0.1228 0.12291 0.12285 0.12273 0.12274 0.12273 0.12274 0.12273 0.12272 0.12263 0.1227 0.12265 0.12258 0.12269 0.12277 0.12276 0.12274 0.12296 0.1232 0.12313 0.12326 0.12308 0.12307 0.12298 0.12276 0.12269 0.12266 0.12255 0.12253 0.12235 0.12215 0.12204 0.12197 0.12187 0.1222 0.12242 0.12263
0 0 0 0 0 0 0 0 0 0 0 0 0.08469 0.09464 0.1087 0.11579 0.11743 0.11898 0.12063 0.12111 0.1215 0.12176 0.1222 0.12264 0.12295 0.1198 0.11654 0 0 0.11772 0.12363 0.12427 0.12489 0.12551 0.12475 0.12382 0.1228 0.12274 0.12262 0.12239 0.12232 0.12214 0.12192 0.12195 0.12197 0.12191 0.12196 0.12203 0.12205 0.12221 0.12232 0.12241 0.12242 0.12229 0.12218 0.12214 0.12205 0.12202 0.12224 0.12228 0.1224 0.12261 0.12287 0.12309 0.1231 0.12295 0.12299 0.12299 0.12291 0.12279 0.12286 0.12283 0.12271 0.1227 0.12262 0.12265 0.1226 0.12267 0.1227 0.12268 0.12266 0.12262 0.12268 0.12262 0.12259 0.12268 0.12283 0.12268 0.12262 0.12261 0.12278 0.12269 0.12277 0.12292 0.12308 0.12313 0.123 0.12297 0.12287 0.12267 0.12255 0.12245 0.12222 0.12214 0.12199 0.12184 0.12206 0.12231 0.12246
0 0 0 0 0 0 0 0 0 0 0 0 0 0 0 0.11246 0.11551 0.11835 0.12041 0.12094 0.12137 0.12182 0.12242 0.12299 0.12332 0.11661 0.1096 0.10236 0.10915 0.11583 0.12226 0.12289 0.12348 0.12408 0.12376 0.12328 0.12271 0.12262 0.12247 0.12226 0.12217 0.12196 0.12174 0.12183 0.12184 0.12183 0.12193 0.12199 0.12202 0.12216 0.1224 0.12242 0.12244 0.12236 0.12225 0.12224 0.12219 0.12215 0.12229 0.12237 0.12248 0.12264 0.12276 0.12294 0.12295 0.12296 0.12287 0.12279 0.12274 0.12277 0.12272 0.12269 0.12258 0.12256 0.12259 0.12254 0.12261 0.12261 0.12247 0.1226 0.12258 0.12256 0.12258 0.12263 0.12265 0.12275 0.12278 0.12264 0.1225 0.12266 0.12271 0.12275 0.12277 0.12291 0.12296 0.12305 0.12302 0.12291 0.12292 0.12275 0.12257 0.12246 0.1223 0.12218 0.12199 0.1218 0.12197 0.12219 0.12238
0 0 0 0 0 0 0 0 0 0 0 0 0 0 0 0.11198 0.11539 0.11861 0.12015 0.12077 0.12134 0.12176 0.1225 0.12319 0.12372 0.11343 0.10249 0.09151 0.10151 0 0.12075 0.12138 0.12196 0.12257 0.12279 0.12267 0.12253 0.12237 0.12225 0.12209 0.12199 0.12178 0.12154 0.12171 0.12175 0.12174 0.12186 0.12192 0.12204 0.12215 0.1223 0.12241 0.1224 0.1224 0.12231 0.12228 0.12223 0.12221 0.1224 0.12249 0.12262 0.12277 0.12277 0.12285 0.12286 0.12283 0.12277 0.12275 0.12259 0.12263 0.12268 0.1226 0.1224 0.12236 0.12241 0.12243 0.12241 0.12236 0.12234 0.12241 0.12241 0.12239 0.12242 0.12259 0.12271 0.12256 0.12251 0.12252 0.12262 0.12268 0.12272 0.12276 0.12293 0.12305 0.123 0.12311 0.12312 0.12305 0.12298 0.12284 0.12278 0.12257 0.12249 0.12218 0.12189 0.12167 0.12181 0.122 0.12222
0 0 0 0 0 0 0 0 0 0 0 0 0 0.10489 0.10752 0.11016 0.11353 0.11802 0.12038 0.12106 0.12169 0.12222 0.1228 0.12337 0.12379 0.11696 0.10977 0.10244 0.10905 0.11606 0.12184 0.12214 0.12242 0.1227 0.12274 0.12271 0.12264 0.12252 0.12238 0.12218 0.12211 0.12199 0.12186 0.12198 0.12203 0.12209 0.12219 0.12221 0.12226 0.12241 0.12249 0.12253 0.12257 0.12255 0.12252 0.12253 0.12259 0.12256 0.1227 0.12271 0.12273 0.12279 0.1228 0.12285 0.12278 0.12274 0.12275 0.12274 0.12274 0.1227 0.1227 0.12263 0.12259 0.12253 0.12261 0.12255 0.12252 0.1224 0.12234 0.12239 0.12234 0.12236 0.1224 0.12249 0.12259 0.12263 0.12251 0.12252 0.1227 0.12271 0.12286 0.123 0.1232 0.1232 0.12331 0.12322 0.12338 0.12325 0.12317 0.12312 0.12304 0.12296 0.12271 0.1225 0.12229 0.12215 0.12224 0.12224 0.1222
0 0 0 0 0 0 0 0 0 0 0 0 0.1002 0.10245 0.10508 0.10711 0.11125 0.11652 0.12051 0.12128 0.12204 0.12267 0.12303 0.12344 0.12373 0.1204 0.11684 0.1132 0.11655 0.11978 0.1229 0.12282 0.12275 0.12267 0.12265 0.12264 0.12262 0.12251 0.12233 0.12214 0.12214 0.12212 0.12206 0.12217 0.12224 0.12225 0.12235 0.12238 0.12241 0.1225 0.12254 0.12253 0.1226 0.12258 0.12258 0.1226 0.12263 0.12267 0.12276 0.12274 0.12272 0.12273 0.12273 0.12274 0.12274 0.12277 0.12277 0.12281 0.12276 0.1227 0.1227 0.12272 0.12271 0.12272 0.1227 0.12263 0.1226 0.12251 0.12235 0.12237 0.12235 0.12236 0.12243 0.12253 0.12252 0.12252 0.12258 0.12261 0.12273 0.12291 0.12313 0.12318 0.12323 0.12333 0.12334 0.12342 0.12351 0.12344 0.1233 0.12325 0.12327 0.12317 0.12296 0.12271 0.12257 0.12246 0.12244 0.1223 0.12218
0 0 0 0 0 0 0 0 0.10833 0.10705 0.10436 0.09963 0.09532 0.09724 0.0991 0.10092 0.10757 0.11407 0.12043 0.12142 0.1223 0.1231 0.12334 0.12353 0.12353 0.12366 0.12368 0.12354 0.12374 0.12385 0.12387 0.12341 0.12301 0.12252 0.12252 0.12253 0.12254 0.12248 0.12229 0.12209 0.12212 0.1222 0.12223 0.12233 0.12237 0.12238 0.12249 0.12254 0.12255 0.12263 0.12257 0.12253 0.12255 0.1225 0.12254 0.12259 0.12258 0.1225 0.1226 0.12259 0.12266 0.12267 0.1226 0.12254 0.12261 0.12262 0.12263 0.1227 0.1228 0.12277 0.12289 0.12279 0.12272 0.12281 0.12279 0.12271 0.12258 0.12243 0.12227 0.12225 0.12229 0.12241 0.12245 0.12241 0.12243 0.12261 0.12265 0.12265 0.12281 0.12294 0.1232 0.12332 0.12332 0.12341 0.12347 0.12352 0.12356 0.12361 0.12343 0.12341 0.12343 0.12333 0.12302 0.12297 0.12293 0.1228 0.12269 0.12243 0.12223
0 0 0 0 0 0 0 0.11095 0.11045 0.11119 0.10977 0.10735 0.10481 0.10584 0.1069 0.108 0.11256 0.11711 0.12145 0.12213 0.12274 0.12327 0.12338 0.12347 0.12339 0.12344 0.1234 0.12329 0.12341 0.12351 0.12356 0.12329 0.12295 0.12268 0.12273 0.12278 0.12274 0.12268 0.1226 0.12242 0.12248 0.1225 0.1225 0.12254 0.12256 0.12256 0.12264 0.12266 0.12268 0.12272 0.12268 0.12267 0.12264 0.12261 0.12265 0.12267 0.12265 0.12262 0.12263 0.12263 0.1226 0.12256 0.12258 0.12261 0.12267 0.12269 0.12273 0.12281 0.12289 0.12279 0.12285 0.12291 0.12292 0.1229 0.12285 0.12275 0.12262 0.12252 0.12233 0.12229 0.12227 0.12233 0.12241 0.12241 0.1223 0.1224 0.12253 0.12254 0.12278 0.123 0.12312 0.12333 0.12342 0.12344 0.12349 0.12361 0.12367 0.12367 0.12368 0.12367 0.12363 0.12367 0.12343 0.12327 0.12318 0.12309 0.12295 0.12282 0.12259
0 0 0 0 0 0 0.11264 0.11281 0.1122 0.11191 0.11324 0.11548 0.11394 0.11429 0.11457 0.115 0.11749 0.11998 0.12242 0.12282 0.12311 0.1234 0.12338 0.12325 0.12305 0.1231 0.12307 0.12301 0.12311 0.12316 0.12318 0.12305 0.12292 0.12279 0.12285 0.12286 0.12286 0.12283 0.1228 0.12267 0.12271 0.12273 0.12276 0.12277 0.12273 0.1227 0.12271 0.12272 0.12271 0.12277 0.12274 0.12266 0.12267 0.12276 0.12273 0.1227 0.12263 0.12257 0.12257 0.1226 0.12253 0.12254 0.12255 0.12254 0.12259 0.12265 0.1227 0.12282 0.12287 0.12278 0.1229 0.12295 0.12292 0.12291 0.12287 0.1228 0.12275 0.12261 0.12244 0.12237 0.12233 0.12218 0.12226 0.12226 0.12218 0.12226 0.12245 0.12259 0.12278 0.12305 0.1233 0.12339 0.12362 0.1237 0.12367 0.12369 0.12376 0.12385 0.12388 0.12395 0.12383 0.12384 0.12371 0.12366 0.12362 0.12342 0.1233 0.12326 0.12305
0 0 0 0 0 0 0.11255 0.11257 0.11166 0.10988 0.11431 0.11855 0.12267 0.12232 0.12195 0.12157 0.12216 0.12272 0.1232 0.12329 0.12342 0.12339 0.12322 0.12299 0.12269 0.12274 0.12271 0.12266 0.12275 0.12276 0.12277 0.12284 0.12287 0.12284 0.12286 0.12287 0.12288 0.12296 0.12292 0.12283 0.1229 0.1229 0.12287 0.12287 0.12283 0.12275 0.12276 0.12277 0.1227 0.12279 0.12277 0.12269 0.12265 0.12262 0.12261 0.12261 0.12249 0.12252 0.1225 0.12242 0.12234 0.12238 0.12245 0.12246 0.12255 0.12261 0.1227 0.12276 0.12276 0.1228 0.12288 0.12293 0.12295 0.12283 0.12277 0.12267 0.12264 0.12259 0.12243 0.12223 0.12226 0.12207 0.12208 0.12198 0.1219 0.12213 0.12223 0.12243 0.12263 0.123 0.12328 0.12341 0.12349 0.1237 0.12377 0.12379 0.1239 0.12402 0.1241 0.12408 0.12406 0.12402 0.12397 0.12385 0.12387 0.12385 0.1237 0.12353 0.12338
0 0 0 0 0 0.1117 0.11237 0.11333 0.11475 0.11479 0.11785 0.12076 0.12354 0.12334 0.12308 0.12278 0.12302 0.12326 0.12346 0.12351 0.12349 0.12339 0.12324 0.12312 0.12291 0.12296 0.12296 0.12289 0.12295 0.12299 0.12295 0.123 0.12303 0.12297 0.12301 0.12305 0.12305 0.12317 0.12315 0.12307 0.12309 0.12309 0.12309 0.12306 0.123 0.12297 0.12296 0.12293 0.12292 0.12293 0.12295 0.12291 0.12284 0.12282 0.12271 0.1227 0.12263 0.12268 0.12271 0.12262 0.12247 0.12249 0.12246 0.12242 0.12252 0.12263 0.12267 0.12271 0.12283 0.12291 0.12297 0.123 0.12296 0.12285 0.12275 0.12267 0.12259 0.12243 0.12234 0.1223 0.12217 0.12209 0.12204 0.12206 0.1219 0.12203 0.12221 0.12234 0.12257 0.12285 0.12306 0.1232 0.12338 0.12347 0.12352 0.12373 0.12381 0.12386 0.12394 0.12397 0.124 0.12399 0.12392 0.12393 0.12398 0.12398 0.12385 0.12376 0.12361
0 0 0 0 0.11046 0.11081 0.11051 0.11314 0.1179 0.11953 0.12123 0.12277 0.12429 0.12421 0.12402 0.12382 0.12379 0.12377 0.12369 0.1236 0.12346 0.12329 0.12319 0.12311 0.12305 0.1231 0.12305 0.12299 0.12309 0.12308 0.12305 0.1231 0.1231 0.12309 0.12311 0.12313 0.12316 0.12325 0.12328 0.12322 0.12326 0.1233 0.12321 0.1232 0.1232 0.12313 0.12306 0.12302 0.12294 0.12294 0.12288 0.12289 0.12292 0.12294 0.12288 0.12276 0.12267 0.12261 0.1226 0.12257 0.12251 0.12245 0.12245 0.12243 0.12251 0.12259 0.12265 0.12279 0.12288 0.12292 0.12302 0.12304 0.123 0.12291 0.12278 0.12269 0.12261 0.12249 0.12242 0.12233 0.12218 0.12198 0.12197 0.12199 0.12192 0.12194 0.12207 0.12213 0.12242 0.12261 0.12269 0.12288 0.12309 0.12323 0.12331 0.12348 0.12359 0.12365 0.12372 0.1238 0.12381 0.1239 0.12389 0.12396 0.12396 0.12396 0.12389 0.12391 0.12379
0 0 0 0 0.10997 0.10937 0.10744 0.11311 0.11863 0.12424 0.12454 0.12472 0.12484 0.12489 0.12478 0.12468 0.12442 0.1241 0.12376 0.12355 0.12334 0.12311 0.12313 0.1231 0.12306 0.12307 0.12309 0.12305 0.12308 0.12304 0.123 0.12302 0.12303 0.12304 0.12312 0.12322 0.12324 0.12331 0.12332 0.12328 0.12329 0.12328 0.12327 0.1233 0.12329 0.12321 0.12317 0.12311 0.123 0.12297 0.12296 0.12296 0.12294 0.12295 0.12289 0.12283 0.12271 0.12263 0.12263 0.12251 0.12239 0.12243 0.12239 0.12238 0.12247 0.12255 0.12271 0.12272 0.12283 0.12293 0.12301 0.12291 0.12291 0.1229 0.12286 0.12283 0.12268 0.12253 0.12233 0.12217 0.12205 0.12183 0.12183 0.12178 0.12172 0.12182 0.1219 0.12196 0.1222 0.12236 0.12231 0.1225 0.12262 0.12287 0.12307 0.12318 0.1233 0.12343 0.12349 0.12355 0.12362 0.12367 0.12383 0.12389 0.12387 0.12381 0.12386 0.12391 0.12395
0 0 0 0.10336 0.10821 0.11073 0.11221 0.11609 0.12004 0.12399 0.12422 0.12448 0.12465 0.12457 0.12448 0.12436 0.12418 0.12395 0.1237 0.12355 0.12341 0.12329 0.12325 0.12323 0.12324 0.12323 0.12319 0.12312 0.12313 0.12311 0.12311 0.12312 0.12312 0.12314 0.12325 0.12336 0.12343 0.12346 0.12346 0.12346 0.12347 0.12346 0.12349 0.12356 0.12355 0.1235 0.12343 0.12339 0.12336 0.12337 0.12336 0.1233 0.12326 0.12322 0.12321 0.12314 0.12306 0.12301 0.12297 0.12287 0.12271 0.12273 0.12265 0.12265 0.12275 0.12275 0.12289 0.12293 0.12302 0.12307 0.12308 0.1231 0.12305 0.12304 0.12301 0.12293 0.12276 0.12263 0.1224 0.1222 0.12208 0.12182 0.12181 0.12184 0.12174 0.12189 0.12198 0.12202 0.12221 0.12244 0.12249 0.12263 0.12265 0.12264 0.1228 0.12291 0.12307 0.12307 0.12316 0.12319 0.12327 0.12335 0.12361 0.12361 0.12367 0.12362 0.12366 0.1237 0.12366
0 0 0 0.0935 0.10176 0.11269 0.11698 0.11914 0.12134 0.1235 0.12381 0.12413 0.12431 0.12425 0.12417 0.12403 0.12392 0.12377 0.12363 0.12356 0.12348 0.12342 0.12334 0.12334 0.12327 0.12328 0.12324 0.12321 0.12321 0.12318 0.12311 0.12311 0.12314 0.12314 0.12326 0.12334 0.12343 0.12348 0.12353 0.12351 0.12359 0.1236 0.12363 0.1237 0.12375 0.12372 0.12369 0.12362 0.12365 0.12364 0.12361 0.12357 0.12356 0.12347 0.12343 0.12338 0.12329 0.12325 0.1232 0.12311 0.12308 0.12308 0.12302 0.12292 0.12289 0.12295 0.12299 0.12313 0.12314 0.1232 0.12314 0.12313 0.12308 0.12303 0.12296 0.12279 0.12263 0.12255 0.12241 0.1222 0.12205 0.12192 0.12191 0.12194 0.12188 0.12194 0.12196 0.12207 0.12224 0.1223 0.12229 0.12231 0.12243 0.12257 0.12264 0.12273 0.12276 0.12285 0.12295 0.12293 0.12299 0.12306 0.12317 0.12332 0.12336 0.1234 0.12354 0.12354 0.12356
0 0 0 0.07813 0.09301 0.10745 0.12161 0.1222 0.12265 0.12302 0.12336 0.12367 0.12392 0.12386 0.1237 0.12356 0.12355 0.12351 0.1235 0.12348 0.12349 0.12345 0.12344 0.12337 0.12331 0.12326 0.12323 0.12316 0.12316 0.12307 0.12299 0.12301 0.12303 0.12304 0.12317 0.12326 0.12332 0.12343 0.12349 0.12347 0.12354 0.12358 0.12363 0.12377 0.12386 0.12385 0.12387 0.12382 0.12382 0.12383 0.12383 0.1238 0.12377 0.12372 0.12368 0.12362 0.12354 0.12342 0.12344 0.12343 0.1234 0.12338 0.1233 0.12313 0.12306 0.12305 0.12313 0.12318 0.12323 0.1232 0.12318 0.12311 0.123 0.12293 0.12285 0.12277 0.12261 0.12258 0.12244 0.12225 0.12215 0.12198 0.122 0.12199 0.12197 0.12203 0.12203 0.12209 0.1222 0.12223 0.12215 0.12218 0.12229 0.12224 0.12234 0.12237 0.12247 0.12252 0.12266 0.12272 0.12273 0.12286 0.12287 0.1231 0.1231 0.12323 0.12326 0.12334 0.12344
0 0 0 0.09508 0.10498 0.1147 0.1242 0.12429 0.12428 0.12415 0.12421 0.12415 0.12402 0.12393 0.12377 0.1236 0.12359 0.12364 0.12358 0.12356 0.12353 0.12348 0.12339 0.12335 0.12328 0.12323 0.12314 0.12304 0.12302 0.12299 0.12292 0.123 0.12303 0.12304 0.12319 0.12324 0.12333 0.12341 0.1235 0.12355 0.12362 0.1237 0.12369 0.12382 0.12394 0.124 0.12405 0.1241 0.12412 0.12414 0.12413 0.12405 0.12408 0.12407 0.12408 0.12407 0.12404 0.12398 0.12395 0.12389 0.12383 0.12379 0.12369 0.12349 0.12341 0.12341 0.12341 0.1234 0.12345 0.12337 0.12334 0.12328 0.12317 0.12314 0.12302 0.12303 0.12294 0.12281 0.12263 0.12247 0.12237 0.12233 0.1224 0.12241 0.12232 0.12238 0.12245 0.12255 0.12263 0.12258 0.12255 0.12254 0.12254 0.12244 0.12253 0.12257 0.12256 0.12262 0.12271 0.12275 0.12282 0.12293 0.12306 0.12311 0.12323 0.1233 0.12342 0.1235 0.12354
0.12363 0.12464 0.11729 0.11173 0.11681 0.12164 0.12633 0.12603 0.12565 0.12517 0.12493 0.12458 0.1241 0.12395 0.1238 0.12357 0.1236 0.1236 0.12363 0.12356 0.12353 0.12345 0.12335 0.12325 0.12318 0.12307 0.12299 0.12282 0.12282 0.1228 0.12277 0.12286 0.12289 0.12293 0.12305 0.12321 0.12329 0.12339 0.12343 0.12356 0.12369 0.12372 0.12379 0.12397 0.12408 0.12419 0.12429 0.12434 0.1243 0.12439 0.12454 0.12448 0.1244 0.12442 0.12449 0.12446 0.12448 0.12442 0.12434 0.12422 0.12417 0.1241 0.12395 0.12375 0.12369 0.12363 0.12367 0.12372 0.12367 0.12362 0.12351 0.12346 0.1234 0.1233 0.12323 0.12303 0.12299 0.12283 0.12273 0.12267 0.12269 0.12259 0.12265 0.12269 0.1227 0.12278 0.12286 0.12291 0.12291 0.12292 0.12282 0.12272 0.12266 0.12266 0.12266 0.12269 0.12264 0.12269 0.12278 0.12283 0.12291 0.12302 0.12317 0.12326 0.12334 0.12335 0.12345 0.12353 0.12369
0.12257 0.12469 0.12664 0.12833 0.12852 0.12848 0.12818 0.12761 0.1269 0.12607 0.12555 0.12497 0.12417 0.12399 0.12385 0.12356 0.12355 0.1236 0.12361 0.12353 0.12351 0.12341 0.12329 0.12314 0.12297 0.12284 0.12269 0.12254 0.12253 0.12253 0.12256 0.12265 0.12272 0.12277 0.12296 0.12308 0.12319 0.1233 0.12335 0.12348 0.12358 0.12371 0.12388 0.12409 0.12429 0.12438 0.12443 0.12447 0.12452 0.1246 0.12465 0.12463 0.12463 0.12464 0.12462 0.12459 0.12467 0.12467 0.12459 0.12448 0.12436 0.12423 0.12407 0.1239 0.12384 0.12384 0.12385 0.12381 0.12379 0.12375 0.12365 0.12359 0.12351 0.12336 0.12327 0.1231 0.12303 0.12299 0.12289 0.12286 0.12283 0.12276 0.12292 0.12298 0.12297 0.12313 0.12316 0.12323 0.1233 0.12327 0.12322 0.123 0.12298 0.12287 0.1229 0.12281 0.12273 0.12271 0.12275 0.1228 0.12296 0.12313 0.12329 0.12334 0.12341 0.12342 0.12352 0.12359 0.12377
0.12299 0.12469 0.12634 0.12787 0.12827 0.12842 0.12849 0.12802 0.12746 0.12683 0.12628 0.12559 0.12481 0.12447 0.12412 0.12369 0.12371 0.12368 0.12355 0.12352 0.12341 0.12327 0.12315 0.123 0.12281 0.12276 0.12263 0.12256 0.12259 0.12262 0.12267 0.12282 0.12288 0.12296 0.12312 0.12323 0.12339 0.12351 0.12361 0.12367 0.12384 0.12399 0.12417 0.12437 0.12461 0.12474 0.12481 0.12491 0.12498 0.12511 0.12521 0.12522 0.12526 0.1252 0.12517 0.12513 0.12511 0.12502 0.125 0.12488 0.12481 0.1247 0.12452 0.12438 0.12424 0.1241 0.12404 0.12395 0.12395 0.12391 0.12392 0.12393 0.12379 0.12376 0.1237 0.12351 0.12342 0.12339 0.12332 0.1233 0.12334 0.12329 0.12343 0.12354 0.12366 0.1239 0.12416 0.12445 0.12446 0.12444 0.12436 0.12409 0.12383 0.12354 0.1234 0.12327 0.12316 0.12325 0.12337 0.12343 0.12366 0.12391 0.12409 0.12407 0.12403 0.12394 0.12397 0.12401 0.12403
0.12326 0.12465 0.12598 0.12718 0.12779 0.12828 0.12866 0.1283 0.12794 0.12747 0.12685 0.12608 0.12528 0.12487 0.1244 0.12388 0.12383 0.12374 0.12355 0.12341 0.12326 0.12308 0.12291 0.12277 0.12263 0.12259 0.12254 0.12249 0.12258 0.12265 0.12278 0.12291 0.12303 0.12315 0.12328 0.12343 0.12355 0.12372 0.12382 0.12393 0.12409 0.12424 0.12443 0.12472 0.12494 0.12516 0.12525 0.1254 0.12551 0.12557 0.12561 0.12559 0.1256 0.12562 0.12556 0.12559 0.12569 0.12567 0.12551 0.12546 0.12536 0.12524 0.12507 0.12491 0.12477 0.12464 0.12445 0.12431 0.12424 0.12415 0.12424 0.12424 0.12414 0.12412 0.12402 0.12386 0.12383 0.1238 0.12373 0.12369 0.12368 0.12367 0.12389 0.12407 0.1242 0.12467 0.12509 0.12544 0.12547 0.12546 0.12543 0.12497 0.12459 0.12408 0.12393 0.12375 0.12361 0.1238 0.12402 0.12413 0.12436 0.12463 0.12485 0.12479 0.12471 0.1246 0.12448 0.12446 0.12433
0.12352 0.12458 0.12552 0.12647 0.12725 0.12804 0.12867 0.12858 0.12826 0.12792 0.12728 0.12657 0.1257 0.12522 0.12464 0.12398 0.12381 0.12363 0.12332 0.12318 0.12299 0.12279 0.12264 0.12251 0.12233 0.12237 0.1224 0.12241 0.12253 0.12268 0.12282 0.12297 0.12308 0.1232 0.12335 0.12348 0.12361 0.12379 0.12393 0.12405 0.12421 0.12436 0.12455 0.12485 0.12516 0.12534 0.12553 0.12571 0.12573 0.1258 0.12585 0.12591 0.12592 0.12597 0.12604 0.12613 0.12608 0.12607 0.12597 0.12593 0.1258 0.12566 0.12555 0.12542 0.12526 0.125 0.12482 0.12471 0.12453 0.12442 0.12452 0.1246 0.12455 0.12453 0.12441 0.12429 0.12429 0.12411 0.12397 0.12403 0.12409 0.12412 0.12443 0.12469 0.12485 0.12512 0.12588 0.12661 0.12615 0.12598 0.1266 0.12591 0.1253 0.12462 0.12444 0.12432 0.12411 0.12432 0.12446 0.12472 0.1229 0.12368 0.12566 0.12478 0.12477 0.12522 0.12526 0.12498 0.12469
0.1247 0.12548 0.12615 0.12677 0.12734 0.12796 0.12849 0.12829 0.12805 0.12763 0.12708 0.12642 0.12578 0.12533 0.1248 0.12415 0.124 0.12383 0.12362 0.12343 0.12328 0.1231 0.12302 0.12294 0.1228 0.12291 0.12292 0.12292 0.12311 0.12328 0.12346 0.12362 0.12373 0.12382 0.1239 0.12397 0.12408 0.12416 0.12427 0.12441 0.12457 0.12472 0.12486 0.12524 0.12563 0.12593 0.12614 0.12629 0.12645 0.12645 0.12642 0.12643 0.12645 0.12645 0.12648 0.12658 0.12661 0.12661 0.12663 0.12666 0.12668 0.12668 0.12659 0.12648 0.1263 0.12616 0.12595 0.12564 0.12538 0.12504 0.12505 0.125 0.12488 0.12483 0.12467 0.12458 0.1245 0.12434 0.12425 0.12441 0.12456 0.12468 0.12499 0.12544 0.12586 0.12547 0.12575 0.126 0.12584 0.12567 0.1258 0.12536 0.12488 0.12442 0.12121 0.11786 0.11446 0.11465 0.11489 0.11515 0.11922 0.12079 0.12273 0.12387 0.12434 0.12486 0.12576 0.12589 0.12748
0.12582 0.12632 0.12667 0.12703 0.12742 0.1278 0.12813 0.12799 0.1277 0.12741 0.12691 0.12635 0.1258 0.12532 0.12488 0.12427 0.12415 0.124 0.12375 0.12363 0.12349 0.12332 0.12331 0.12327 0.12322 0.12329 0.1234 0.12343 0.12365 0.12386 0.12406 0.12419 0.12427 0.12435 0.12436 0.1244 0.12437 0.12451 0.12462 0.1247 0.12487 0.125 0.12516 0.12557 0.12605 0.12641 0.12664 0.12683 0.12703 0.127 0.127 0.127 0.12696 0.12692 0.12692 0.12705 0.12709 0.12719 0.12731 0.12742 0.12756 0.12758 0.12758 0.12759 0.12728 0.12708 0.12693 0.12658 0.12612 0.12563 0.12547 0.12527 0.12505 0.12501 0.12487 0.12474 0.12472 0.12465 0.12458 0.12484 0.12498 0.12505 0.12564 0.12619 0.1267 0.12455 0.12407 0.1257 0 0 0.12502 0.12478 0.12451 0.12421 0.1178 0.11135 0.10485 0.10506 0.10529 0 0 0.12037 0.11875 0.12105 0.12369 0.12494 0.12631 0.12822 0.13013
