ncols        109
nrows        82
xllcorner    -1.041666666667
yllcorner    37.041665395101
cellsize     0.083333333333
NODATA_value -9999
0.0 0 0 0 0 0 0 0 0 0 0 0 0 0 0 0 0 0 0 0 0 0 0 0 0 0 0 0 0 0 0 0 0 0 0 0 0 0 0 0 0 0 0 0 0 0 0 0 0 0 0 0 0 0 0 0 0 0 0 0 0 0 0 0 0 0 0 0 0 0 0 0 0 0 0 0 0 0 0 0 0 0 0 0 0 0 0 0 0 0 0 0 0 0 0 0 0 0 0 0 0 0 0 0 0 0.13176 0.13164 0.13159 0.13157
0 0 0 0 0 0 0 0 0 0 0 0 0 0 0 0 0 0 0 0 0 0 0 0 0 0 0 0 0 0 0 0 0 0 0 0 0 0 0 0 0 0 0 0 0 0 0 0 0 0 0 0 0 0 0 0 0 0 0 0 0 0 0 0 0 0 0 0 0 0 0 0 0 0 0 0 0 0 0 0 0 0 0 0 0 0 0 0 0 0 0 0 0 0 0 0 0 0 0 0 0 0.13142 0.13157 0.1318 0.13197 0.13205 0.13196 0.1319 0.13189
0 0 0 0 0 0 0 0 0 0 0 0 0 0 0 0 0 0 0 0 0 0 0 0 0 0 0 0 0 0 0 0 0 0 0 0 0 0 0 0 0 0 0 0 0 0 0 0 0 0 0 0 0 0 0 0 0 0 0 0 0 0 0 0 0 0 0 0 0 0 0 0 0 0 0 0 0 0 0 0 0 0 0 0 0 0 0 0 0 0 0 0 0 0 0 0 0 0 0.13096 0.1312 0.13145 0.13159 0.13175 0.13173 0.13174 0.13163 0.13158 0.13133 0.13125
0 0 0 0 0 0 0 0 0 0 0 0 0 0 0 0 0 0 0 0 0 0 0 0 0 0 0 0 0 0 0 0 0 0 0 0 0 0 0 0 0 0 0 0 0 0 0 0 0 0 0 0 0 0 0 0 0 0 0 0 0 0 0 0 0 0 0 0 0 0 0 0 0 0 0 0 0 0 0 0 0 0 0 0 0 0 0 0 0 0 0 0 0 0 0 0 0 0.13042 0.13104 0.13144 0.13157 0.13184 0.13208 0.13169 0.13112 0.13117 0.131 0.13073 0.13057
0 0 0 0 0 0 0 0 0 0 0 0 0 0 0 0 0 0 0 0 0 0 0 0 0 0 0 0 0 0 0 0 0 0 0 0 0 0 0 0 0 0 0 0 0 0 0 0 0 0 0 0 0 0 0 0 0 0 0.14415 0.14666 0.14826 0.14973 0 0 0 0 0 0 0 0 0 0 0 0 0 0 0 0 0 0 0 0 0 0 0 0 0 0 0 0 0 0 0 0 0 0.1303 0.13011 0.13056 0.13119 0.13181 0.13218 0.13248 0.13281 0.13214 0.1313 0.13054 0.13026 0.12991 0.12949
0 0 0 0 0 0 0 0 0 0 0 0 0 0 0 0 0 0 0 0 0 0 0 0 0 0 0 0 0 0 0 0 0 0 0 0 0 0 0 0 0 0 0 0 0 0 0 0 0 0 0 0 0 0 0 0 0.1428 0.14246 0.14308 0.14453 0.14738 0.14716 0.14781 0.14816 0.13651 0.12555 0.11623 0 0 0 0 0.12261 0 0 0 0 0 0 0 0 0 0 0 0 0 0 0 0 0 0 0 0 0 0.13119 0.13082 0.13063 0.13042 0.13088 0.1311 0.13146 0.1313 0.13137 0.13142 0.13097 0.13025 0.12955 0.12908 0.12876 0.12839
0 0 0 0 0 0 0 0 0 0 0 0 0 0 0 0 0 0 0 0 0 0 0 0 0 0 0 0 0 0 0 0 0 0 0 0 0 0 0 0 0 0 0 0 0 0 0 0 0 0 0 0 0 0 0 0.14249 0.14522 0.1465 0.14564 0.14472 0.1468 0.14594 0.1456 0.14637 0.13897 0.13279 0.12677 0.13129 0.12784 0.12675 0.12627 0.12429 0.12303 0.11996 0.11515 0.1122 0.113 0 0 0 0 0 0 0 0 0 0 0 0 0 0 0 0.13081 0.13026 0.13086 0.13097 0.13101 0.13109 0.13099 0.13089 0.13043 0.13014 0.13002 0.1296 0.12904 0.12838 0.12786 0.12749 0.12709
0 0 0 0 0 0 0 0 0 0 0 0 0 0 0 0 0 0 0 0 0 0 0 0 0 0 0 0 0 0 0 0 0 0 0 0 0 0 0 0 0 0 0 0 0 0 0 0 0 0 0 0.1329 0.13394 0.13565 0.13817 0.14202 0.14733 0.15107 0.15011 0.14932 0.14866 0.1483 0.14742 0.14601 0.1421 0.1403 0.13893 0.13309 0.12881 0.12591 0.12481 0.124 0.12337 0.11611 0.10992 0.10385 0 0 0 0 0 0 0 0 0 0 0 0 0 0 0 0 0.12987 0.13097 0.13116 0.13127 0.13148 0.13142 0.13103 0.13055 0.12979 0.12916 0.12881 0.12838 0.128 0.12755 0.12698 0.1265 0.12603
0 0 0 0 0 0 0 0 0 0 0 0 0 0 0 0 0 0 0 0 0 0 0 0 0 0 0 0 0 0 0 0 0 0 0 0 0 0 0 0 0 0 0 0 0 0 0 0 0 0 0.13189 0.13236 0.1324 0.13354 0.13544 0.13772 0.141 0.14302 0.14168 0.14113 0.1412 0.14168 0.14207 0.14214 0.14187 0.14341 0.14537 0.14072 0.13695 0.13416 0.13225 0.13117 0.13029 0.12496 0.11967 0.11469 0.11641 0.11765 0.11762 0.12064 0.1253 0.12809 0 0 0 0 0 0 0 0.12209 0.12569 0.12782 0.12931 0.13098 0.13113 0.13104 0.13117 0.13064 0.12997 0.12955 0.12887 0.12825 0.12765 0.12719 0.12676 0.12624 0.12576 0.12536 0.12491
0 0 0 0 0 0 0 0 0 0 0 0 0 0 0 0 0 0 0 0 0 0 0 0 0 0 0 0 0 0 0 0 0 0 0 0 0 0 0 0 0 0 0 0 0 0 0 0 0 0.1319 0.1317 0.1316 0.1313 0.13222 0.13221 0.13251 0.1339 0.13642 0.13457 0.13332 0.1328 0.13506 0.13786 0.14114 0.14453 0.14865 0.15318 0.1494 0.14628 0.14379 0.14176 0.14006 0.13855 0.13439 0.13016 0.12683 0.12873 0.12826 0.12845 0.1337 0.13381 0.13513 0 0.1335 0.13312 0.12511 0.11104 0.10269 0.10945 0.12122 0.1273 0.12851 0.12891 0.13122 0.13083 0.13061 0.13045 0.12989 0.12912 0.12846 0.12781 0.1271 0.12632 0.12586 0.1254 0.12491 0.12461 0.12433 0.12407
0 0 0 0 0 0 0 0 0 0 0 0 0 0 0 0 0 0 0 0 0 0 0 0 0 0 0 0 0 0 0 0 0 0 0 0 0 0 0 0 0 0 0 0 0 0 0 0 0 0.13155 0.13106 0.13099 0.13086 0.13144 0.13306 0.13151 0.12931 0.12891 0.12791 0.12705 0.12562 0.13044 0.13531 0.14071 0.14781 0.15518 0.16273 0.15933 0.15646 0.15506 0.15223 0.15009 0.14763 0.14433 0.14163 0.13919 0.14042 0.14003 0.14031 0.14041 0.14025 0.1397 0.14001 0.14089 0.1427 0.12153 0.10091 0.08137 0.09771 0.11511 0.13251 0.13205 0.13161 0.13108 0.13059 0.13018 0.12971 0.12899 0.1281 0.12723 0.1264 0.1257 0.12493 0.12454 0.12408 0.12367 0.12348 0.12334 0.12313
0 0 0 0 0 0 0 0 0 0 0 0 0 0 0 0 0 0 0 0 0 0 0 0 0 0 0 0 0 0 0 0 0 0 0 0 0 0 0 0 0 0 0 0 0 0 0 0 0 0.1324 0.13173 0.13158 0.13233 0.13352 0.13519 0.13435 0.13408 0.13486 0.13373 0.13288 0.13236 0.13525 0.13816 0.14161 0.14629 0.15162 0.15686 0.15401 0.15173 0.15112 0.14912 0.14713 0.14534 0.14336 0.14143 0.13922 0.13863 0.1388 0.13969 0.13982 0.13967 0.13886 0.1386 0.13891 0.13984 0.12601 0.11209 0.09843 0.10939 0.12056 0.13178 0.13115 0.13058 0.13008 0.12964 0.12885 0.12807 0.12759 0.12681 0.12593 0.12524 0.12454 0.12384 0.12347 0.12321 0.12296 0.12282 0.12267 0.12251
0 0 0 0 0 0 0 0 0 0 0 0 0 0 0 0 0 0 0 0 0 0 0 0 0 0 0 0 0 0 0 0 0 0 0 0 0 0 0 0 0 0 0 0 0 0 0 0 0 0.13495 0.1352 0.13415 0.13472 0.13609 0.13767 0.13768 0.13948 0.14082 0.13974 0.13879 0.13811 0.13999 0.14103 0.14267 0.14532 0.14835 0.15028 0.14847 0.14802 0.1473 0.14613 0.14472 0.14347 0.14174 0.14 0.13848 0.13865 0.13865 0.13859 0.13858 0.13856 0.13811 0.13751 0.13747 0.13747 0.13059 0.12367 0.11652 0.12119 0.12592 0.13085 0.13034 0.12989 0.12918 0.12849 0.1276 0.12678 0.12615 0.12533 0.12461 0.124 0.12338 0.12271 0.12249 0.12226 0.12207 0.12202 0.12202 0.12203
0 0 0 0 0 0 0 0 0 0 0 0 0 0 0 0 0 0 0 0 0 0 0 0 0 0 0 0 0 0 0 0 0 0 0 0 0 0 0 0 0 0 0 0 0 0 0 0 0 0.13658 0.13723 0.13776 0.13763 0.13857 0.14176 0.1442 0.14619 0.14853 0.14669 0.14592 0.14526 0.14583 0.14611 0.14621 0.14542 0.14537 0.14529 0.14476 0.14457 0.14471 0.14388 0.1426 0.14172 0.14096 0.14066 0.14001 0.13927 0.13863 0.13878 0.13906 0.13881 0.1379 0.13656 0.13599 0.13555 0.13543 0.13536 0.13477 0.1329 0.13147 0.13028 0.12968 0.12914 0.12847 0.12758 0.12662 0.12558 0.1249 0.12406 0.12314 0.1227 0.12224 0.1218 0.12169 0.12151 0.12148 0.12154 0.12161 0.12159
0 0 0 0 0 0 0 0 0 0 0 0 0 0 0 0 0 0 0 0 0 0 0 0 0 0 0 0 0 0 0 0 0 0 0 0 0 0 0 0 0 0 0 0 0 0 0 0 0 0.13737 0.1374 0.13769 0.13874 0.13989 0.14461 0.14571 0.14664 0.14802 0.14659 0.14604 0.14566 0.14548 0.14569 0.14552 0.14436 0.14375 0.14397 0.14329 0.14272 0.14285 0.14194 0.14094 0.14016 0.13913 0.13818 0.13788 0.13764 0.13712 0.13677 0.13649 0.13575 0.13516 0.13426 0.13391 0.13322 0.13242 0.132 0.13149 0.13052 0.1295 0.12849 0.12765 0.12706 0.12652 0.12579 0.12504 0.12452 0.12391 0.12321 0.12253 0.1221 0.12183 0.12156 0.12155 0.12141 0.12131 0.12132 0.12143 0.12151
0 0 0 0 0 0 0 0 0 0 0 0 0 0 0 0 0 0 0 0 0 0 0 0 0 0 0 0 0 0 0 0 0 0 0 0 0 0 0 0 0 0 0 0 0 0 0 0 0 0.13815 0.13967 0.14055 0.14242 0.14572 0.15037 0.14783 0.14804 0.14701 0.14604 0.14609 0.14585 0.14606 0.1455 0.14436 0.14352 0.14283 0.14296 0.14224 0.14145 0.1419 0.14075 0.13936 0.13839 0.13748 0.137 0.1363 0.13552 0.13508 0.13439 0.13397 0.13336 0.13282 0.13222 0.13177 0.13074 0.12985 0.12949 0.12889 0.12802 0.1273 0.12643 0.12576 0.12521 0.12485 0.12431 0.12383 0.12328 0.12285 0.12234 0.12183 0.1216 0.12147 0.12127 0.12125 0.1212 0.12112 0.1212 0.12138 0.12141
0 0 0 0 0 0 0 0 0 0 0 0 0 0 0 0 0 0 0 0 0 0 0 0 0 0 0 0 0 0 0 0 0 0 0 0 0 0 0 0 0 0 0 0 0 0 0 0 0 0 0.14306 0.14443 0.14642 0.15103 0.15457 0.15067 0.1491 0.14609 0.1458 0.14575 0.14579 0.14551 0.14503 0.1437 0.14321 0.14225 0.14245 0.14143 0.14097 0.14044 0.13936 0.13813 0.13755 0.1364 0.13544 0.13455 0.13388 0.13321 0.1327 0.13213 0.13174 0.13131 0.13043 0.12938 0.12854 0.12766 0.12712 0.12638 0.12578 0.12517 0.12454 0.12398 0.12351 0.12315 0.12276 0.12243 0.12201 0.12184 0.12154 0.12116 0.12105 0.12099 0.1209 0.12095 0.12099 0.12112 0.12117 0.12126 0.12143
0 0 0 0 0 0 0 0 0 0 0 0 0 0 0 0 0 0 0 0 0 0 0 0 0 0 0 0 0 0 0 0 0 0 0 0 0 0 0 0 0 0 0 0 0 0 0 0 0 0 0.14468 0.14597 0.14694 0.14846 0.1516 0.14876 0.14792 0.14609 0.14503 0.14439 0.14454 0.14434 0.14393 0.14314 0.14239 0.1417 0.14128 0.14022 0.13948 0.13874 0.13741 0.13666 0.1357 0.13465 0.13386 0.13299 0.13242 0.13178 0.13105 0.13041 0.13001 0.12954 0.12881 0.12818 0.12749 0.12675 0.12624 0.12581 0.12523 0.12459 0.12403 0.12349 0.12308 0.12283 0.12251 0.12215 0.1218 0.12157 0.12128 0.12095 0.12085 0.1209 0.12092 0.12095 0.12092 0.1211 0.12124 0.12126 0.12134
0 0 0 0 0 0 0 0 0 0 0 0 0 0 0 0 0 0 0 0 0 0 0 0 0 0 0 0 0 0 0 0 0 0 0 0 0 0 0 0 0 0 0 0 0 0 0 0 0 0 0 0 0.14614 0.14609 0.14884 0.14687 0.14619 0.14492 0.14414 0.14395 0.14365 0.14359 0.14304 0.14231 0.14157 0.14084 0.14047 0.13948 0.13856 0.13775 0.13651 0.13546 0.13448 0.13354 0.13271 0.13174 0.13106 0.13033 0.12988 0.12942 0.12856 0.12821 0.12759 0.12716 0.12662 0.12601 0.12564 0.12519 0.12469 0.1241 0.12359 0.12315 0.12283 0.1225 0.12214 0.12184 0.12147 0.12123 0.12091 0.12074 0.1208 0.12083 0.1209 0.12099 0.12104 0.12112 0.12131 0.12139 0.12145
0 0 0 0 0 0 0 0 0 0 0 0 0 0 0 0 0 0 0 0 0 0 0 0 0 0 0 0 0 0 0 0 0 0 0 0 0 0 0 0 0 0 0 0 0 0 0 0 0 0 0.14582 0.14701 0.14667 0.14641 0.14682 0.14598 0.14452 0.14389 0.14344 0.14308 0.14266 0.14243 0.1416 0.14124 0.14056 0.14044 0.1398 0.13849 0.13758 0.13659 0.13537 0.13416 0.13329 0.13246 0.1315 0.13062 0.12996 0.12945 0.12868 0.1282 0.12787 0.12754 0.1269 0.12626 0.12575 0.12536 0.12509 0.12464 0.12406 0.1236 0.12319 0.12284 0.12253 0.12212 0.12172 0.12149 0.12109 0.12091 0.12078 0.1207 0.12075 0.12077 0.12086 0.12102 0.12119 0.12123 0.12148 0.1215 0.12168
0 0 0 0 0 0 0 0 0 0 0 0 0 0 0 0 0 0 0 0 0 0 0 0 0 0 0 0 0 0 0 0 0 0 0 0 0 0 0 0 0 0 0 0 0 0 0 0 0 0 0.14261 0.14591 0.14539 0.14519 0.14572 0.14491 0.14349 0.14234 0.14229 0.14147 0.14079 0.14059 0.14001 0.13955 0.13933 0.13928 0.13894 0.1376 0.13654 0.13561 0.13447 0.13333 0.13248 0.13181 0.13092 0.13022 0.12982 0.12922 0.1288 0.12817 0.12765 0.12726 0.1267 0.1264 0.12597 0.12533 0.12495 0.12472 0.12427 0.12392 0.12353 0.12307 0.1227 0.12238 0.12199 0.12172 0.12142 0.12129 0.12119 0.12101 0.12102 0.121 0.12108 0.12123 0.12132 0.12136 0.12157 0.12169 0.12175
0 0 0 0 0 0 0 0 0 0 0 0 0 0 0 0 0 0 0 0 0 0 0 0 0 0 0 0 0 0 0 0 0 0 0 0 0 0 0 0 0 0 0 0 0 0 0 0 0 0 0 0.14248 0.14245 0.143 0.14316 0.14224 0.14188 0.14087 0.14037 0.13955 0.13919 0.13902 0.13848 0.13844 0.13813 0.13825 0.13784 0.13664 0.13554 0.13458 0.13364 0.13287 0.13199 0.13127 0.13044 0.13002 0.12948 0.12891 0.12851 0.12807 0.12766 0.12723 0.12669 0.12624 0.12614 0.12567 0.12529 0.12494 0.12462 0.12424 0.12372 0.12326 0.12293 0.1226 0.12233 0.12205 0.12179 0.12154 0.12141 0.12117 0.12116 0.12116 0.12126 0.12134 0.12142 0.12154 0.12164 0.12179 0.12187
0 0 0 0 0 0 0 0 0 0 0 0 0 0 0 0 0 0 0 0 0 0 0 0 0 0 0 0 0 0 0 0 0 0 0 0 0 0 0 0 0 0 0 0 0 0 0 0 0 0 0 0.14039 0.14011 0.1404 0.13994 0.13891 0.13966 0.13871 0.13825 0.13767 0.13762 0.13735 0.13715 0.1369 0.13703 0.13698 0.1367 0.13574 0.13471 0.13391 0.13317 0.13242 0.13173 0.13103 0.13057 0.12979 0.12934 0.12898 0.12855 0.12804 0.12768 0.12731 0.12683 0.12659 0.12616 0.12587 0.1256 0.12541 0.12481 0.12438 0.12402 0.12353 0.1233 0.12299 0.12268 0.12241 0.12211 0.12185 0.12162 0.12148 0.1214 0.12136 0.12132 0.12143 0.12154 0.1216 0.12174 0.12186 0.12199
0 0 0 0 0 0 0 0 0 0 0 0 0 0 0 0 0 0 0 0 0 0 0 0 0 0 0 0 0 0 0 0 0 0 0 0 0 0 0 0 0 0 0 0 0 0 0 0 0 0 0 0.13851 0.13867 0.13869 0.13858 0.13745 0.13803 0.13666 0.13598 0.1355 0.13567 0.13569 0.13584 0.13587 0.13546 0.13544 0.13523 0.13459 0.13385 0.13358 0.13273 0.13203 0.13152 0.131 0.13035 0.12966 0.12926 0.12892 0.12837 0.12774 0.12727 0.1271 0.12686 0.1264 0.12613 0.12579 0.12556 0.12537 0.1249 0.12445 0.1241 0.12377 0.12342 0.12317 0.12296 0.12273 0.12244 0.12217 0.12178 0.12161 0.12157 0.12153 0.12143 0.1215 0.12157 0.12165 0.12184 0.12201 0.12212
0 0 0 0 0 0 0 0 0 0 0 0 0 0 0 0 0 0 0 0 0 0 0 0 0 0 0 0 0 0 0 0 0 0 0 0 0 0 0 0 0 0 0 0 0 0 0 0 0 0.13379 0.1353 0.1384 0.138 0.13792 0.13752 0.13668 0.13587 0.13485 0.13435 0.13409 0.13372 0.13413 0.13415 0.13433 0.1341 0.13398 0.1341 0.13375 0.13338 0.13297 0.13231 0.13169 0.13114 0.13068 0.12997 0.12955 0.1291 0.12872 0.12833 0.1277 0.12733 0.12688 0.12659 0.12639 0.12591 0.12588 0.12552 0.12536 0.12503 0.12466 0.12431 0.12379 0.12364 0.12342 0.12326 0.12296 0.12266 0.12245 0.12213 0.12189 0.12183 0.12173 0.12161 0.12167 0.12168 0.12177 0.12197 0.12209 0.12231
0 0 0 0 0 0 0 0 0 0 0 0 0 0 0 0 0 0 0 0 0 0 0 0 0 0 0 0 0 0 0 0 0 0 0 0 0 0 0 0 0 0 0 0 0 0 0 0 0.12976 0.13243 0.13525 0.13801 0.13739 0.13709 0.13677 0.13591 0.13503 0.13405 0.13384 0.13347 0.13333 0.13326 0.13333 0.13327 0.13299 0.1331 0.13304 0.13293 0.13266 0.13227 0.13181 0.13139 0.13093 0.13027 0.12987 0.12947 0.12905 0.12864 0.12827 0.12794 0.12733 0.12707 0.12676 0.12646 0.12617 0.12572 0.1258 0.12552 0.1252 0.12492 0.12451 0.12417 0.12396 0.1238 0.12359 0.12322 0.12301 0.12277 0.12251 0.12225 0.12201 0.12189 0.12175 0.12182 0.12185 0.1219 0.12216 0.12238 0.12252
0 0 0 0 0 0 0 0 0 0 0 0 0 0 0 0 0 0 0 0 0 0 0 0 0 0 0 0 0 0 0 0 0 0 0 0 0 0 0 0 0 0 0 0 0 0.1336 0.13276 0.13185 0.13155 0.13339 0.13516 0.13628 0.13572 0.13541 0.13492 0.13459 0.13377 0.13286 0.13266 0.1326 0.13266 0.13245 0.13229 0.13244 0.13223 0.13228 0.13216 0.13192 0.13176 0.13161 0.13125 0.13088 0.13061 0.13008 0.12964 0.1293 0.12884 0.1287 0.12827 0.12783 0.12753 0.12706 0.1269 0.12663 0.12641 0.12614 0.12586 0.12551 0.12513 0.12463 0.12436 0.12411 0.12388 0.12378 0.12363 0.12335 0.1232 0.12298 0.12271 0.12246 0.12229 0.12216 0.12201 0.12208 0.12204 0.12216 0.12242 0.12271 0.12287
0 0 0 0 0 0 0 0 0 0 0 0 0 0 0 0 0 0 0 0 0 0 0 0 0 0 0 0 0 0 0 0 0 0 0 0 0 0 0 0 0 0 0.13092 0.13221 0.1336 0.13425 0.1338 0.13388 0.13322 0.13338 0.13371 0.13467 0.13417 0.13367 0.13352 0.13305 0.13248 0.13179 0.13171 0.13173 0.13182 0.13162 0.13134 0.13132 0.1312 0.13111 0.13112 0.13099 0.13083 0.13071 0.13057 0.13021 0.13012 0.12973 0.12933 0.12919 0.12872 0.12847 0.12819 0.12777 0.12757 0.1273 0.12689 0.12682 0.12666 0.12628 0.12598 0.12569 0.12532 0.12484 0.12447 0.12419 0.124 0.1238 0.12375 0.12357 0.12335 0.12322 0.12299 0.12282 0.12267 0.12249 0.12238 0.12232 0.12231 0.12242 0.12266 0.12294 0.12319
0 0 0 0 0 0 0 0 0 0 0 0 0 0 0 0 0 0 0 0 0 0 0 0 0 0 0 0 0 0 0 0 0 0 0 0 0 0 0 0 0.12937 0.12991 0.13077 0.13203 0.13393 0.13506 0.1348 0.13467 0.13458 0.13351 0.13267 0.13301 0.13243 0.13204 0.1319 0.13173 0.1313 0.13088 0.13063 0.13042 0.13054 0.1305 0.13031 0.12998 0.12997 0.13002 0.13019 0.13015 0.13019 0.13015 0.1299 0.12977 0.12962 0.12944 0.12925 0.12904 0.12862 0.1283 0.12813 0.12785 0.12743 0.12721 0.12694 0.12678 0.1266 0.1263 0.1262 0.12596 0.12568 0.12511 0.12445 0.12418 0.12403 0.12387 0.12373 0.12369 0.12353 0.12343 0.12334 0.12312 0.12303 0.12279 0.12269 0.12263 0.12268 0.12273 0.12303 0.12327 0.12357
0 0 0 0 0 0 0 0 0 0 0 0 0 0 0 0 0 0 0 0 0 0 0 0 0 0 0 0 0 0 0 0 0 0 0 0 0 0 0 0.12828 0.12935 0.12993 0.13072 0.13125 0.13226 0.13283 0.13304 0.1328 0.13213 0.13139 0.13085 0.13097 0.13075 0.13059 0.13037 0.1303 0.12981 0.1296 0.12941 0.12929 0.12936 0.12929 0.12913 0.12898 0.12903 0.12914 0.12932 0.1293 0.12917 0.12929 0.12929 0.12913 0.12911 0.12887 0.12864 0.12865 0.12837 0.12793 0.12769 0.12759 0.12725 0.12699 0.12677 0.12661 0.12658 0.12628 0.12617 0.12597 0.12556 0.12511 0.12467 0.12435 0.12422 0.12413 0.12403 0.12401 0.1237 0.12368 0.12359 0.12331 0.12318 0.12304 0.12294 0.12305 0.12322 0.1233 0.12357 0.12373 0.12402
0 0 0 0 0 0 0 0 0 0 0 0 0 0 0 0 0 0 0 0 0 0 0 0 0 0 0 0 0 0 0 0 0 0 0 0 0 0 0.12761 0.13021 0.13014 0.13011 0.13083 0.13081 0.13115 0.13154 0.13109 0.13055 0.12996 0.12988 0.12963 0.12976 0.12978 0.1298 0.12981 0.12939 0.12911 0.12908 0.12895 0.12896 0.1289 0.12884 0.12879 0.12859 0.12857 0.12857 0.12868 0.12875 0.12867 0.12868 0.12856 0.12864 0.12862 0.12852 0.12837 0.12836 0.12819 0.12766 0.12744 0.12725 0.12716 0.12705 0.12696 0.12659 0.12636 0.12644 0.12615 0.12579 0.12532 0.125 0.12472 0.12442 0.12431 0.12418 0.12419 0.12415 0.12401 0.12393 0.12366 0.12349 0.12332 0.12327 0.12326 0.12339 0.12355 0.1237 0.12392 0.12405 0.12422
0 0 0 0 0 0 0 0 0 0 0 0 0 0 0 0 0 0 0 0 0 0 0 0 0 0 0 0 0 0 0 0 0 0 0.12258 0.11538 0.10873 0.11696 0.1256 0.13372 0.13249 0.13139 0.13087 0.13087 0.13033 0.12951 0.12923 0.1289 0.12832 0.12853 0.12857 0.12898 0.12914 0.12928 0.12934 0.12918 0.12896 0.12888 0.12886 0.1288 0.12881 0.12862 0.12852 0.12837 0.12831 0.12824 0.12833 0.12835 0.12834 0.12838 0.12837 0.1283 0.12832 0.1283 0.12808 0.12805 0.12804 0.12777 0.12734 0.12711 0.12714 0.12699 0.12699 0.12686 0.12656 0.12631 0.12589 0.12551 0.12504 0.12502 0.1247 0.12454 0.12446 0.12439 0.12429 0.12434 0.12436 0.12399 0.12374 0.12354 0.12354 0.12349 0.12347 0.12365 0.12385 0.12403 0.12423 0.12426 0.12431
0 0 0 0 0 0 0 0 0 0 0 0 0 0 0 0 0 0 0 0 0 0 0 0 0 0 0 0 0 0.1357 0.13539 0.13516 0.13392 0.13139 0.12742 0.12315 0.11724 0.12238 0.12768 0.13283 0.1318 0.13024 0.12959 0.1293 0.12914 0.12848 0.12862 0.12859 0.12808 0.12831 0.1284 0.12868 0.12877 0.12893 0.12909 0.12885 0.12876 0.12863 0.12861 0.12864 0.1286 0.12846 0.12832 0.12815 0.12812 0.12813 0.12819 0.1282 0.1282 0.12821 0.12819 0.12809 0.12798 0.12793 0.12786 0.12784 0.12768 0.12751 0.12728 0.12708 0.12708 0.12692 0.12685 0.12673 0.12679 0.12631 0.12592 0.12576 0.12527 0.1251 0.12483 0.12464 0.12465 0.12482 0.12467 0.12456 0.12434 0.12403 0.12382 0.12366 0.1237 0.12367 0.12376 0.12395 0.12421 0.12438 0.12453 0.12453 0.12455
0 0 0 0 0 0 0 0 0 0 0 0 0 0 0 0 0 0 0 0 0 0 0 0 0 0.133 0.13411 0.13367 0.13544 0.13807 0.13886 0.13718 0.1357 0.13501 0.13301 0.13109 0.12567 0.12753 0.12993 0.13218 0.13109 0.12949 0.1284 0.12809 0.1279 0.12783 0.12798 0.128 0.12813 0.12823 0.12824 0.12832 0.12845 0.1287 0.12886 0.12866 0.12841 0.12839 0.12841 0.12837 0.12843 0.12836 0.12811 0.12804 0.12797 0.12793 0.12795 0.12785 0.12786 0.12798 0.12791 0.12778 0.12757 0.12756 0.12748 0.12749 0.1274 0.12719 0.1271 0.12705 0.12699 0.12689 0.12673 0.12674 0.12662 0.12624 0.12613 0.1259 0.12555 0.12524 0.12507 0.12489 0.12483 0.12487 0.12473 0.12457 0.12446 0.12411 0.12396 0.12383 0.12388 0.12394 0.12403 0.12425 0.12447 0.12467 0.12467 0.12478 0.12487
0 0 0 0 0 0 0 0 0 0 0 0 0 0 0 0 0 0 0 0 0 0 0 0.13049 0.13167 0.13305 0.13357 0.13189 0.13667 0.14006 0.14273 0.13998 0.13783 0.13733 0.13641 0.1349 0.13362 0.13253 0.13161 0.13077 0.1301 0.12892 0.12755 0.12713 0.12724 0.12726 0.12733 0.12763 0.12782 0.12799 0.128 0.1281 0.12816 0.12848 0.12862 0.1285 0.12842 0.12825 0.12823 0.12824 0.1283 0.12817 0.12803 0.12799 0.12782 0.12768 0.1276 0.12756 0.1276 0.12764 0.12753 0.12741 0.12728 0.12723 0.12708 0.12715 0.12716 0.12699 0.12703 0.12695 0.12681 0.12678 0.12658 0.12669 0.12661 0.12646 0.12619 0.12595 0.12568 0.1255 0.12536 0.12511 0.125 0.12503 0.12485 0.12473 0.12456 0.12434 0.12415 0.12402 0.12414 0.1242 0.12431 0.12451 0.12475 0.1249 0.12498 0.12513 0.12534
0 0 0 0 0 0 0 0 0 0 0 0 0 0 0 0 0 0 0 0 0 0 0.12735 0.12895 0.13018 0.13232 0.13514 0.13453 0.13703 0.13957 0.14179 0.13955 0.13719 0.13494 0.13398 0.13293 0.13192 0.13117 0.13048 0.12967 0.12895 0.12823 0.12723 0.12695 0.12678 0.12685 0.12709 0.12717 0.1274 0.12754 0.12766 0.12777 0.12788 0.12809 0.12821 0.12825 0.1281 0.12811 0.12813 0.1281 0.12811 0.12804 0.12787 0.12776 0.1276 0.12746 0.12734 0.12726 0.12733 0.12732 0.12726 0.12721 0.12701 0.12698 0.12678 0.12675 0.12678 0.1267 0.12668 0.12658 0.12651 0.12668 0.12649 0.12648 0.12658 0.12629 0.1263 0.12612 0.12584 0.12569 0.12563 0.12534 0.12505 0.12511 0.12492 0.1248 0.12468 0.12452 0.12436 0.12429 0.12432 0.12442 0.12459 0.12479 0.12492 0.12512 0.12522 0.1253 0.1255
0 0 0 0 0 0 0 0 0 0 0 0 0 0 0 0 0 0 0 0 0 0.1255 0.12583 0.12627 0.12667 0.12938 0.13365 0.13672 0.13767 0.13883 0.13969 0.13763 0.13514 0.1333 0.13223 0.13139 0.13023 0.12969 0.12906 0.12853 0.12785 0.1274 0.12677 0.12661 0.12636 0.12637 0.12669 0.12692 0.12706 0.1273 0.1274 0.12764 0.12784 0.12814 0.12826 0.1282 0.12805 0.12815 0.12827 0.12834 0.12832 0.12825 0.12815 0.12799 0.12787 0.12769 0.12757 0.12736 0.12736 0.1273 0.12724 0.12711 0.12695 0.12677 0.12661 0.12655 0.1267 0.12661 0.12653 0.12641 0.12639 0.12636 0.12644 0.12644 0.12654 0.12657 0.12643 0.12638 0.12599 0.12593 0.12584 0.12557 0.12534 0.12531 0.12509 0.12485 0.12478 0.12465 0.12457 0.1245 0.1246 0.12463 0.12481 0.12501 0.12516 0.12535 0.12543 0.12557 0.12573
0 0 0 0 0 0 0 0 0 0 0 0 0 0 0 0 0 0 0 0 0 0 0 0.12515 0.12323 0.12761 0.13215 0.1378 0.13771 0.13802 0.13781 0.13562 0.13321 0.13122 0.13026 0.12941 0.12845 0.1281 0.1277 0.12717 0.12689 0.12654 0.12609 0.12596 0.12597 0.12608 0.12646 0.12657 0.12675 0.12696 0.12708 0.12732 0.12766 0.12797 0.12814 0.12823 0.1282 0.12833 0.12833 0.12845 0.12853 0.12844 0.12831 0.12825 0.12814 0.12789 0.12776 0.1275 0.12736 0.12736 0.12723 0.127 0.12686 0.12671 0.12661 0.12645 0.12647 0.12643 0.12637 0.12629 0.1262 0.12628 0.12647 0.12648 0.12671 0.12672 0.12663 0.12644 0.12618 0.12601 0.126 0.12578 0.12558 0.12551 0.12525 0.12503 0.12488 0.12478 0.12472 0.12472 0.12479 0.12488 0.12507 0.12528 0.12541 0.12563 0.12562 0.12567 0.12583
0 0 0 0 0 0 0 0 0 0 0 0 0 0 0 0 0 0 0 0 0 0.11968 0.12236 0.12535 0.12437 0.12879 0.13297 0.13948 0.13835 0.13787 0.1366 0.13425 0.1321 0.13038 0.12961 0.12876 0.12795 0.12754 0.12727 0.12698 0.12667 0.12637 0.1259 0.12557 0.12555 0.12559 0.1259 0.12614 0.12632 0.12654 0.12671 0.12687 0.12721 0.12744 0.12758 0.1276 0.12776 0.12795 0.12802 0.12819 0.12816 0.12805 0.12803 0.12812 0.12805 0.12793 0.12784 0.12762 0.1274 0.1273 0.12721 0.12704 0.12687 0.12673 0.12659 0.12652 0.12648 0.1264 0.1262 0.1262 0.12617 0.12626 0.12651 0.12641 0.12671 0.12684 0.1268 0.12673 0.12648 0.1261 0.12604 0.12587 0.12574 0.12563 0.12537 0.12509 0.12498 0.12495 0.12485 0.12478 0.12485 0.12497 0.12506 0.12524 0.12538 0.12549 0.12562 0.12582 0.12605
0 0 0 0 0 0 0 0 0 0 0 0 0 0 0 0 0 0 0 0.11472 0.11345 0.113 0.11868 0.12447 0.12572 0.12975 0.13483 0.14113 0.13927 0.13741 0.13552 0.13284 0.13091 0.12938 0.1287 0.12814 0.12725 0.12711 0.12698 0.12666 0.12649 0.12597 0.12551 0.12544 0.12512 0.12507 0.12534 0.12553 0.12576 0.12599 0.1261 0.12627 0.1266 0.12685 0.12703 0.12709 0.12723 0.12758 0.12766 0.12771 0.12777 0.12781 0.12791 0.12807 0.12793 0.1278 0.12776 0.12761 0.12746 0.12729 0.12713 0.12695 0.12692 0.12673 0.12662 0.12655 0.12651 0.12637 0.12631 0.12631 0.12644 0.12634 0.12652 0.1265 0.12673 0.12688 0.12689 0.12684 0.12657 0.12641 0.12628 0.12609 0.12595 0.12581 0.12548 0.12525 0.12504 0.12499 0.12496 0.1249 0.12487 0.12501 0.12518 0.1252 0.12525 0.12539 0.12563 0.12602 0.12634
0 0 0 0 0 0 0 0 0 0 0 0 0 0 0 0 0 0 0.11086 0.11217 0.10965 0.10502 0.11338 0.12028 0.12658 0.13076 0.13651 0.14278 0.13992 0.13725 0.13367 0.13163 0.12958 0.12848 0.12789 0.12738 0.1266 0.12667 0.12661 0.12642 0.12612 0.12583 0.12531 0.12495 0.12473 0.1246 0.12468 0.12495 0.12521 0.12536 0.12557 0.12571 0.12587 0.12601 0.12612 0.12646 0.12677 0.12705 0.12707 0.12718 0.12721 0.12736 0.12754 0.12781 0.12775 0.12774 0.12765 0.12753 0.12746 0.1273 0.12714 0.12704 0.12693 0.12678 0.12671 0.12663 0.12658 0.12642 0.12645 0.12649 0.1265 0.12651 0.12659 0.1268 0.12686 0.12705 0.12714 0.12702 0.12687 0.12663 0.12663 0.12641 0.12622 0.12616 0.12573 0.1254 0.12519 0.12506 0.12507 0.125 0.12502 0.12513 0.12518 0.12519 0.12517 0.12525 0.12566 0.12613 0.1266
0 0 0 0 0 0 0 0 0 0 0 0 0 0 0 0 0 0.10737 0.1086 0.11142 0.11383 0.10952 0.11694 0.1241 0.13129 0.13433 0.13708 0.14 0.13777 0.13561 0.13267 0.13103 0.12912 0.12823 0.12778 0.12716 0.12659 0.1265 0.12647 0.12631 0.12613 0.12564 0.12526 0.12505 0.12494 0.12479 0.1249 0.12495 0.1252 0.12532 0.12549 0.12557 0.1256 0.1256 0.1257 0.12608 0.12632 0.12662 0.12687 0.12713 0.12728 0.12736 0.12748 0.12768 0.1277 0.12785 0.12792 0.12777 0.12769 0.12767 0.12758 0.12746 0.12736 0.12721 0.12709 0.12693 0.12682 0.12676 0.12672 0.12672 0.12683 0.12686 0.12696 0.12704 0.12717 0.12732 0.12749 0.12722 0.12713 0.12683 0.12675 0.1265 0.12635 0.12621 0.12593 0.12553 0.12529 0.12525 0.1252 0.12501 0.12502 0.12515 0.12516 0.12518 0.12524 0.12535 0.12568 0.12595 0.12634
0 0 0 0 0 0 0 0 0 0 0 0 0 0 0 0 0.10279 0.10173 0.10125 0.10674 0.11336 0.11107 0.11997 0.127 0.13398 0.1349 0.13613 0.13714 0.13568 0.13404 0.13177 0.13024 0.1286 0.12776 0.12758 0.12697 0.12626 0.1263 0.1261 0.12602 0.12575 0.12556 0.12531 0.12514 0.125 0.125 0.125 0.12506 0.12517 0.12523 0.12531 0.12526 0.12528 0.12529 0.12533 0.12566 0.12595 0.12625 0.12658 0.12686 0.12714 0.12716 0.12743 0.12762 0.12784 0.12801 0.1282 0.12816 0.12796 0.12807 0.12798 0.12786 0.12782 0.12762 0.12747 0.12732 0.12726 0.12716 0.1271 0.12718 0.12722 0.12733 0.12731 0.12739 0.12753 0.12759 0.12756 0.1275 0.12742 0.12711 0.12692 0.12664 0.12653 0.12638 0.12604 0.12575 0.12546 0.12536 0.12529 0.12511 0.12511 0.12513 0.12509 0.12519 0.12531 0.12545 0.12563 0.12581 0.1261
0 0 0 0 0 0 0 0 0 0 0 0 0 0 0 0.1055 0.10237 0.097 0.09179 0.09868 0.10606 0.1131 0.12253 0.12921 0.13582 0.13546 0.13513 0.13453 0.13355 0.13243 0.13078 0.12951 0.12824 0.12731 0.12713 0.12675 0.12619 0.12599 0.12582 0.12571 0.12557 0.12548 0.12542 0.12528 0.12516 0.12509 0.12513 0.12515 0.12518 0.12509 0.12511 0.1251 0.12496 0.12485 0.12482 0.12512 0.12553 0.12585 0.12576 0.12627 0.12694 0.12644 0.12695 0.12765 0.12798 0.12819 0.12844 0.12846 0.12838 0.12842 0.12845 0.1283 0.12822 0.12798 0.1278 0.12762 0.12752 0.12763 0.12769 0.1277 0.12771 0.12779 0.12779 0.12775 0.12788 0.12791 0.12789 0.12786 0.12764 0.12735 0.1272 0.12688 0.12676 0.12651 0.12623 0.1259 0.12564 0.12553 0.12537 0.12518 0.1252 0.12506 0.12507 0.12529 0.1254 0.12554 0.12562 0.12571 0.12589
0 0 0 0 0 0 0 0 0 0 0 0 0 0 0.10491 0.10556 0.10475 0.10334 0.0982 0.10512 0.11212 0.1189 0.12555 0.12955 0.13353 0.13347 0.13353 0.13337 0.13241 0.13144 0.13031 0.12908 0.12798 0.12707 0.12694 0.12667 0.12624 0.12595 0.12585 0.12568 0.12554 0.12538 0.12515 0.12509 0.12498 0.12487 0.12504 0.12517 0.12527 0.1254 0.12554 0.12561 0.12539 0.12525 0.125 0.1243 0.12357 0.12277 0.12452 0.12506 0.12562 0.12538 0.12521 0.12268 0.12479 0.12707 0.12936 0.12909 0.12874 0.12857 0.12843 0.12838 0.12839 0.12807 0.12787 0.12772 0.12772 0.12782 0.12785 0.12773 0.12774 0.12778 0.12783 0.12796 0.12811 0.12808 0.1281 0.12809 0.12787 0.12761 0.12743 0.1272 0.12694 0.12672 0.12637 0.12607 0.12581 0.12565 0.12544 0.12536 0.12526 0.12514 0.12511 0.12538 0.12562 0.12582 0.12601 0.1262 0.12645
0 0 0 0 0 0 0 0 0 0 0 0 0 0.10567 0.10525 0.10333 0.10656 0.1103 0.10549 0.11228 0.11907 0.12567 0.12841 0.12988 0.13119 0.13164 0.13188 0.132 0.13132 0.13055 0.12965 0.1287 0.12769 0.12685 0.12673 0.12649 0.12627 0.12595 0.1257 0.1256 0.12537 0.12511 0.1249 0.12479 0.12468 0.12455 0.12489 0.12521 0.12551 0.12575 0.12611 0.12643 0.12604 0.12562 0.12518 0.12349 0.1217 0.11988 0 0 0 0.1254 0.12276 0.11777 0.12185 0.12607 0.13007 0.12966 0.12908 0.12875 0.12855 0.12845 0.12838 0.1281 0.12791 0.12786 0.1278 0.12787 0.12795 0.12791 0.12788 0.12784 0.12802 0.12806 0.12822 0.12826 0.12832 0.12836 0.1281 0.12789 0.12779 0.12751 0.12724 0.12694 0.12654 0.12617 0.12594 0.12577 0.12553 0.12542 0.12532 0.1252 0.1251 0.12552 0.12583 0.12604 0.12636 0.12677 0.12713
0 0 0 0 0 0 0 0 0 0 0 0 0 0.10885 0.10292 0.0975 0.10249 0.10765 0.11332 0.11979 0.12638 0.13247 0.13172 0.13062 0.12948 0.13006 0.13039 0.13075 0.13032 0.12965 0.12901 0.12832 0.12753 0.12681 0.12668 0.12648 0.12628 0.12603 0.12571 0.12552 0.12533 0.12509 0.12467 0.12393 0.12394 0.12431 0.12432 0.12509 0.12541 0.12495 0.12551 0.12697 0.12501 0.12394 0.12541 0.12246 0.11972 0.11687 0 0 0 0 0 0.11997 0.11869 0.12477 0.13064 0.12999 0.12943 0.12891 0.12872 0.12859 0.12843 0.12821 0.12808 0.12796 0.12795 0.128 0.12799 0.12794 0.1281 0.1281 0.12818 0.12822 0.12815 0.12844 0.12843 0.12859 0.12841 0.12817 0.12803 0.12777 0.12743 0.1272 0.12679 0.12638 0.12611 0.12586 0.12565 0.12553 0.12538 0.12523 0.12499 0.12552 0.12588 0.12627 0.12675 0.12732 0.12782
0 0 0 0 0 0 0 0 0 0 0 0 0.11453 0.11363 0.11127 0.10982 0.11274 0.11645 0.12023 0.12422 0.12809 0.13191 0.13104 0.12998 0.12918 0.1296 0.12993 0.13011 0.12973 0.12922 0.12857 0.12797 0.12739 0.12687 0.12669 0.12647 0.12629 0.12596 0.12552 0.12529 0.12329 0.12132 0.11915 0.12239 0.12291 0.1236 0.12404 0 0 0.12529 0 0.12383 0.12196 0.12024 0.11329 0.11552 0.11781 0.12013 0.11953 0.12156 0.12285 0 0 0 0.12157 0.12596 0.13021 0.12953 0.12897 0.12833 0.12815 0.12799 0.12782 0.12769 0.12749 0.1274 0.12745 0.12762 0.12766 0.12781 0.12784 0.12788 0.1281 0.12818 0.12837 0.1285 0.1284 0.12848 0.12839 0.1282 0.12811 0.12774 0.12738 0.12712 0.1268 0.12654 0.12612 0.12598 0.12581 0.12563 0.12545 0.12532 0.12509 0.12539 0.12574 0.12603 0.12654 0.12709 0.1276
0 0 0 0 0 0 0 0 0 0 0 0.1137 0.11291 0.11613 0.12233 0.12154 0.12326 0.12493 0.12707 0.12848 0.12966 0.13107 0.13025 0.12943 0.12871 0.12904 0.12929 0.12951 0.12917 0.12873 0.12821 0.12778 0.12729 0.1269 0.1267 0.12647 0.1262 0.12581 0.12541 0.12507 0.12129 0.11753 0.11374 0.11725 0.1199 0 0 0 0 0 0.1214 0.11896 0.11499 0.10892 0.10113 0.1085 0.11583 0.12328 0.12182 0.1221 0.1228 0.12367 0.12396 0.12177 0.12453 0.12716 0.12991 0.12917 0.12848 0.12782 0.12759 0.12742 0.12737 0.12718 0.12706 0.12698 0.12705 0.12722 0.12731 0.12747 0.12767 0.12781 0.12789 0.128 0.1282 0.12833 0.12849 0.12856 0.12854 0.12819 0.12821 0.12779 0.12749 0.12728 0.1269 0.12656 0.12622 0.126 0.1258 0.12579 0.12558 0.12537 0.12515 0.12535 0.12556 0.1258 0.12637 0.12692 0.12738
0 0 0 0 0 0 0 0 0 0 0.11723 0.11229 0.10774 0.11612 0.12472 0.13345 0.13382 0.13386 0.13407 0.13263 0.1313 0.13007 0.12946 0.12883 0.12834 0.12869 0.12884 0.12886 0.12869 0.12836 0.12798 0.12766 0.12726 0.12686 0.12663 0.12636 0.12615 0.12566 0.12523 0.12502 0.1224 0.11431 0.10822 0 0 0 0 0 0 0 0 0 0 0 0.08901 0.10153 0.11399 0.12633 0.12564 0.12505 0.1244 0.12504 0.12569 0.12627 0.12749 0.12844 0.12944 0.1288 0.12802 0.12727 0.12707 0.12695 0.12687 0.12673 0.12668 0.12665 0.12678 0.12689 0.12709 0.12716 0.12735 0.1275 0.12765 0.12776 0.12819 0.12833 0.12852 0.12863 0.1285 0.12832 0.12821 0.12793 0.12758 0.1273 0.12691 0.12655 0.12627 0.1261 0.12595 0.12587 0.12565 0.12545 0.12514 0.12528 0.12536 0.12553 0.12617 0.12676 0.12721
0 0 0 0 0 0 0 0 0 0 0.12148 0.11899 0.11754 0.12217 0.12683 0.13212 0.13248 0.13229 0.13207 0.13106 0.13016 0.12915 0.12868 0.12832 0.12801 0.12829 0.12848 0.12844 0.12842 0.1282 0.12787 0.12757 0.12718 0.12684 0.12658 0.1264 0.12614 0.12558 0.12505 0.12461 0.12188 0 0 0 0 0 0 0 0 0 0 0 0 0 0.10184 0.10976 0.11768 0.12559 0.12521 0.12482 0.12442 0.12484 0.12534 0.1259 0.12686 0.12779 0.12868 0.12813 0.12746 0.12691 0.12678 0.12667 0.12644 0.12639 0.12627 0.12631 0.12644 0.12662 0.12686 0.12699 0.12718 0.1274 0.12733 0.12757 0.12789 0.12809 0.12813 0.12801 0.12784 0.12766 0.12774 0.12747 0.12721 0.12693 0.1267 0.12645 0.12624 0.12616 0.12594 0.12586 0.12563 0.12541 0.12516 0.12526 0.12531 0.12543 0.12592 0.1263 0.12663
0 0 0 0 0 0 0 0 0 0.12556 0.12702 0.13007 0.12752 0.12851 0.12966 0.1311 0.13092 0.13058 0.13023 0.12961 0.12894 0.12824 0.12806 0.12799 0.12787 0.12807 0.12815 0.12818 0.12805 0.12797 0.1277 0.1274 0.12711 0.1268 0.12663 0.12648 0.12631 0.12559 0.12484 0.12418 0.12361 0 0 0 0 0 0 0 0 0 0 0 0 0.11782 0.11441 0.11792 0.12134 0.12485 0.12462 0.12441 0.1242 0.1246 0.1249 0.12539 0.12621 0.1271 0.12782 0.12741 0.127 0.12661 0.1264 0.12626 0.12606 0.12605 0.12608 0.12617 0.12626 0.12646 0.12668 0.12683 0.12697 0.12722 0.12732 0.12749 0.12776 0.12774 0.12766 0.12756 0.12737 0.12723 0.12725 0.12705 0.12686 0.12673 0.12655 0.12638 0.12638 0.12626 0.12598 0.12586 0.12565 0.12539 0.12522 0.12532 0.1254 0.12542 0.12566 0.12585 0.1261
0 0 0 0 0 0 0 0 0.12574 0.12775 0.13117 0.13489 0.13804 0.13543 0.13285 0.1303 0.12989 0.12954 0.12921 0.12898 0.12865 0.12837 0.12843 0.1284 0.12853 0.12855 0.12849 0.1285 0.12832 0.12817 0.12785 0.12753 0.12715 0.12684 0.12672 0.12657 0.12638 0.1255 0.12468 0.12378 0.12383 0.12341 0 0.12117 0.12058 0 0 0 0 0 0 0 0.12131 0.12448 0.12703 0.12598 0.12512 0.12409 0.12405 0.12399 0.12399 0.12429 0.12466 0.12506 0.12566 0.12629 0.12696 0.12676 0.12651 0.12628 0.12612 0.12585 0.12571 0.12573 0.1259 0.12597 0.12608 0.12619 0.12645 0.12677 0.12703 0.12724 0.12738 0.1276 0.12768 0.12752 0.12735 0.12703 0.12683 0.12667 0.12671 0.12661 0.12655 0.12651 0.12645 0.12635 0.1264 0.12623 0.12606 0.12596 0.12573 0.12543 0.12524 0.1253 0.12533 0.1253 0.12536 0.12538 0.12548
0 0 0 0 0 0 0 0 0.12705 0.12848 0.13026 0.1322 0.13685 0.13432 0.13211 0.12977 0.12937 0.12898 0.1287 0.12861 0.1286 0.12834 0.12831 0.12835 0.12839 0.12843 0.12836 0.1284 0.12818 0.12805 0.12778 0.12747 0.12714 0.12693 0.12679 0.12669 0.12657 0.12588 0.12523 0.12459 0.12449 0.12453 0.12351 0.12292 0.12225 0 0 0 0 0 0 0.12049 0.122 0.12349 0.12632 0.12563 0.12489 0.12417 0.12411 0.12403 0.12402 0.12428 0.12454 0.12485 0.12534 0.12585 0.12632 0.1262 0.12606 0.12597 0.12582 0.12566 0.12561 0.12559 0.12569 0.12589 0.12591 0.12604 0.1264 0.1265 0.12673 0.12687 0.12683 0.12706 0.12718 0.12701 0.12688 0.12667 0.12652 0.12638 0.12636 0.12638 0.12636 0.12643 0.12635 0.12629 0.12632 0.12622 0.12611 0.12595 0.12572 0.12541 0.12522 0.12524 0.12519 0.12515 0.12523 0.12522 0.1253
0 0 0 0 0 0 0 0 0 0.127 0.12889 0.1307 0.13567 0.13358 0.13126 0.12913 0.12879 0.12845 0.12823 0.12835 0.12844 0.12836 0.12836 0.12831 0.1284 0.12832 0.12818 0.12813 0.12798 0.12782 0.12765 0.12739 0.12719 0.12703 0.12691 0.12684 0.1268 0.1263 0.12587 0.12547 0.12596 0.12556 0.12512 0.12464 0.1243 0.12371 0.1207 0.11436 0 0 0.12016 0.123 0.12276 0.12325 0.12555 0.12509 0.12464 0.12424 0.12417 0.12414 0.12408 0.12432 0.12452 0.12477 0.12506 0.12543 0.12574 0.12575 0.12568 0.12565 0.12561 0.12551 0.12546 0.12541 0.12554 0.12568 0.1258 0.12605 0.12622 0.12633 0.12635 0.12643 0.12657 0.12663 0.12664 0.12653 0.12641 0.12635 0.12616 0.12611 0.12602 0.12612 0.12625 0.12626 0.12631 0.12622 0.12623 0.12619 0.12605 0.12589 0.12561 0.12541 0.12524 0.12518 0.12502 0.12491 0.125 0.12511 0.12523
0 0 0 0 0 0 0 0 0 0.12467 0.1272 0.13138 0.13479 0.13269 0.13049 0.12839 0.12815 0.12806 0.12781 0.12809 0.12833 0.12848 0.12827 0.12829 0.12835 0.12811 0.12796 0.12784 0.12769 0.12759 0.12749 0.12741 0.12725 0.12716 0.1271 0.12702 0.12697 0.12673 0.12649 0.12633 0.12643 0.12648 0.12657 0.12677 0.12701 0.12717 0.11857 0.10994 0.10134 0.10936 0.11735 0.12532 0.12513 0.12493 0.12472 0.12463 0.12442 0.12428 0.12416 0.12413 0.12409 0.12428 0.12451 0.12468 0.12487 0.12507 0.12524 0.12529 0.12529 0.12527 0.12524 0.12527 0.12534 0.12543 0.12555 0.12576 0.12593 0.126 0.12617 0.12604 0.12605 0.12613 0.12629 0.12629 0.12626 0.1261 0.12608 0.126 0.12579 0.12575 0.12577 0.12597 0.12605 0.12623 0.12625 0.12622 0.12612 0.12611 0.12599 0.12574 0.12555 0.1254 0.12522 0.12511 0.12493 0.12473 0.12481 0.12493 0.12507
0 0 0 0 0 0 0 0 0 0.12034 0.12113 0.12321 0.11638 0.12042 0.12457 0.12861 0.12841 0.12831 0.128 0.12817 0.12838 0.12851 0.12847 0.12848 0.1285 0.12834 0.12824 0.12819 0.12817 0.12827 0.12838 0.12853 0.12861 0.12879 0.12818 0.12763 0.12706 0.12679 0.12651 0.12623 0.1262 0.12614 0.12609 0.12613 0.12627 0.12644 0.12067 0 0.10918 0.11451 0.11985 0.12528 0.12512 0.12493 0.12476 0.12455 0.12444 0.12432 0.12427 0.12436 0.12436 0.12455 0.12481 0.12501 0.12515 0.12525 0.12542 0.12536 0.12535 0.12528 0.12535 0.12524 0.12524 0.12527 0.12543 0.12557 0.12567 0.12572 0.12573 0.12571 0.12566 0.12564 0.12578 0.12585 0.12584 0.12577 0.12572 0.12591 0.1258 0.12575 0.12588 0.126 0.12611 0.1262 0.12617 0.12621 0.1262 0.12614 0.12592 0.12562 0.12547 0.12532 0.12513 0.12492 0.12468 0.12445 0.12458 0.12468 0.12486
0 0 0 0 0 0 0 0 0 0 0.10994 0.10411 0.09813 0.1084 0.11868 0.12898 0.1288 0.12858 0.12809 0.12817 0.12837 0.12852 0.12857 0.12869 0.12882 0.12869 0.1286 0.12859 0 0 0 0.12935 0.12997 0.13035 0.12925 0.12816 0.12713 0.12678 0.12643 0.12613 0.12596 0.12579 0.12559 0.12563 0.12558 0.12558 0.12269 0.11983 0.11697 0.1197 0.12239 0.12514 0.12498 0.12485 0.12468 0.1246 0.12451 0.12447 0.12454 0.12458 0.12458 0.12476 0.12499 0.12526 0.12528 0.12545 0.12557 0.12551 0.12545 0.12539 0.12536 0.12532 0.1253 0.12533 0.12535 0.12542 0.12538 0.12541 0.12555 0.1254 0.12534 0.12533 0.12532 0.12545 0.12552 0.12555 0.12559 0.12563 0.12571 0.12588 0.12602 0.12615 0.12621 0.12613 0.12619 0.12625 0.12628 0.12614 0.12585 0.12562 0.1255 0.12528 0.12503 0.12477 0.12448 0.12423 0.12438 0.12459 0.12479
0 0 0 0 0 0 0 0 0 0 0 0.09019 0.08022 0.09657 0.12123 0.12941 0.12733 0.12747 0.12828 0.12832 0.12835 0.12848 0.12858 0.1288 0.12901 0.12903 0.12893 0.12887 0 0 0 0.12982 0.13125 0.1319 0.1303 0.12871 0.12717 0.12677 0.12643 0.12609 0.12578 0.1255 0.12519 0.12509 0.125 0.12487 0.12483 0.12481 0.12478 0.12491 0.125 0.12511 0.12488 0.12477 0.12465 0.12457 0.1245 0.12457 0.12463 0.12471 0.1248 0.12504 0.12522 0.12551 0.12558 0.12562 0.12569 0.12564 0.12555 0.12552 0.12539 0.12534 0.12532 0.12528 0.1253 0.12529 0.12528 0.12532 0.1253 0.12505 0.12503 0.12498 0.12502 0.12505 0.12513 0.12524 0.12543 0.12559 0.12568 0.12588 0.12621 0.1261 0.12612 0.12615 0.12617 0.12622 0.1261 0.126 0.12571 0.12558 0.12547 0.12523 0.12496 0.12465 0.12435 0.1241 0.12431 0.12451 0.1247
0 0 0 0 0 0 0 0 0 0 0 0 0.09491 0.10419 0.11745 0.12445 0.12554 0.12663 0.12818 0.12817 0.12829 0.12842 0.12854 0.12885 0.12913 0.12586 0.12252 0 0 0.1233 0.12883 0.12928 0.12977 0.13027 0.1292 0.12807 0.12699 0.12658 0.1262 0.12597 0.12563 0.12537 0.12509 0.12499 0.12492 0.12485 0.12483 0.12483 0.12482 0.12495 0.1251 0.12514 0.12496 0.12484 0.12473 0.12464 0.12462 0.12465 0.12482 0.12485 0.12499 0.12512 0.12531 0.12558 0.12567 0.12556 0.12571 0.12574 0.12563 0.12549 0.12538 0.12528 0.12525 0.12514 0.12501 0.12504 0.12503 0.12504 0.12509 0.12498 0.12496 0.12491 0.12496 0.12502 0.12506 0.12518 0.12535 0.12543 0.12551 0.12564 0.12588 0.1259 0.12595 0.12603 0.12606 0.12603 0.12611 0.12597 0.1258 0.1256 0.12549 0.1252 0.12496 0.12468 0.12438 0.12409 0.12424 0.12433 0.12438
0 0 0 0 0 0 0 0 0 0 0 0 0 0 0 0.12061 0.12333 0.12585 0.12793 0.12809 0.12818 0.12835 0.12863 0.12897 0.12932 0.1226 0.11608 0.10949 0.11547 0.12144 0.12746 0.1278 0.12825 0.12867 0.128 0.12739 0.12682 0.12637 0.12607 0.12582 0.12554 0.12526 0.12493 0.12487 0.12483 0.12479 0.12487 0.1249 0.12495 0.12496 0.12509 0.12511 0.12503 0.12493 0.12482 0.12478 0.12478 0.12476 0.12487 0.12499 0.12518 0.12532 0.12549 0.12571 0.12574 0.12579 0.12576 0.12567 0.12556 0.12553 0.12533 0.12526 0.12511 0.12501 0.12497 0.12496 0.12494 0.12488 0.12482 0.1248 0.12487 0.12493 0.12494 0.12505 0.12508 0.12514 0.12521 0.12533 0.12539 0.12554 0.12566 0.12577 0.12588 0.12603 0.12612 0.12613 0.12611 0.12596 0.12585 0.12561 0.12545 0.12522 0.12498 0.12467 0.12436 0.12403 0.12419 0.1242 0.1242
0 0 0 0 0 0 0 0 0 0 0 0 0 0 0 0.11955 0.12278 0.12585 0.12762 0.12789 0.12816 0.12836 0.12867 0.12905 0.12955 0.11945 0.10967 0.09995 0.10864 0 0.12614 0.12636 0.12671 0.12708 0.12695 0.12676 0.12656 0.12623 0.12595 0.12568 0.12539 0.12506 0.12476 0.12475 0.12473 0.12473 0.12481 0.12489 0.12501 0.12504 0.12505 0.12517 0.12518 0.12514 0.12507 0.12503 0.12486 0.12487 0.125 0.12517 0.12536 0.12543 0.12567 0.12596 0.12595 0.12597 0.12589 0.12571 0.12555 0.12558 0.1254 0.12522 0.12518 0.12502 0.12493 0.12483 0.12469 0.12461 0.12459 0.12456 0.12468 0.1247 0.12481 0.12498 0.12516 0.12496 0.125 0.12521 0.12526 0.12542 0.12542 0.12554 0.1257 0.12592 0.12609 0.12611 0.12606 0.12593 0.12575 0.12562 0.12544 0.1252 0.12499 0.12469 0.12437 0.12396 0.12405 0.12407 0.12398
0 0 0 0 0 0 0 0 0 0 0 0 0 0.11344 0.11551 0.11764 0.12079 0.12501 0.12759 0.1279 0.12829 0.12861 0.1288 0.12909 0.12936 0.12254 0.11598 0.1095 0.11525 0.12168 0.12699 0.12697 0.12698 0.12702 0.12683 0.12658 0.12645 0.12614 0.12592 0.12559 0.12531 0.12514 0.12493 0.12496 0.12497 0.12499 0.12508 0.12511 0.12516 0.12519 0.12524 0.12534 0.12527 0.12517 0.1251 0.12503 0.12505 0.12501 0.12512 0.12525 0.12543 0.12547 0.12558 0.12579 0.12573 0.12579 0.12574 0.12564 0.12551 0.12547 0.12535 0.12518 0.12524 0.12508 0.1251 0.12495 0.12481 0.12472 0.12463 0.12455 0.12458 0.12459 0.12462 0.12473 0.12486 0.12489 0.12488 0.12503 0.12522 0.12529 0.12539 0.12561 0.12575 0.12585 0.12594 0.12596 0.12603 0.12586 0.1257 0.12568 0.12543 0.12535 0.12508 0.12486 0.12462 0.12428 0.12428 0.1242 0.12412
0 0 0 0 0 0 0 0 0 0 0 0 0.10947 0.11136 0.11346 0.11517 0.11879 0.12359 0.12766 0.1281 0.12853 0.12897 0.12898 0.1291 0.12925 0.12575 0.12239 0.11907 0.12195 0.12492 0.12788 0.12759 0.12725 0.1269 0.12671 0.12651 0.1264 0.12617 0.12584 0.12549 0.12537 0.12525 0.12516 0.12517 0.12517 0.12521 0.12524 0.12527 0.12529 0.12529 0.12533 0.12541 0.12539 0.12528 0.12518 0.12511 0.12505 0.12509 0.12516 0.12532 0.12543 0.12546 0.1255 0.1256 0.12555 0.12559 0.12558 0.12559 0.12552 0.12546 0.12536 0.12531 0.12533 0.12522 0.12507 0.12501 0.12486 0.12479 0.12461 0.12455 0.12454 0.12459 0.1247 0.12475 0.12474 0.12482 0.12485 0.12498 0.12516 0.12533 0.12546 0.12565 0.12579 0.12577 0.12581 0.126 0.1259 0.12585 0.1258 0.12565 0.12544 0.12536 0.12512 0.12496 0.12473 0.1246 0.12444 0.1243 0.12417
0 0 0 0 0 0 0 0 0.11634 0.11526 0.11296 0.10888 0.10538 0.10695 0.10849 0.10992 0.1156 0.12161 0.12761 0.12824 0.12875 0.12927 0.12914 0.12919 0.1292 0.12904 0.12889 0.12881 0.12879 0.12879 0.12879 0.12812 0.12743 0.12675 0.1266 0.1265 0.12642 0.12612 0.12578 0.12545 0.12542 0.1254 0.12543 0.12547 0.12551 0.12553 0.12557 0.12553 0.12549 0.12546 0.12541 0.12545 0.12541 0.12532 0.12529 0.12525 0.12514 0.12518 0.12526 0.12528 0.12535 0.12529 0.12537 0.12545 0.12554 0.12549 0.12552 0.12547 0.12552 0.12551 0.1255 0.12552 0.12551 0.12541 0.12529 0.12511 0.12493 0.12464 0.12444 0.12446 0.12454 0.12457 0.12464 0.12458 0.12462 0.12476 0.12483 0.12495 0.12521 0.12537 0.12556 0.12554 0.12562 0.12566 0.12577 0.12583 0.12585 0.12579 0.12571 0.12566 0.12547 0.12535 0.12513 0.12504 0.12495 0.12479 0.12465 0.12441 0.12421
0 0 0 0 0 0 0 0.11871 0.11823 0.119 0.11777 0.11558 0.11343 0.11415 0.1151 0.11598 0.12 0.12407 0.12806 0.1284 0.12874 0.12903 0.12886 0.12878 0.12872 0.12853 0.12837 0.12827 0.12823 0.12825 0.12822 0.12772 0.12723 0.12679 0.12664 0.12657 0.12647 0.12619 0.12591 0.12566 0.12565 0.1257 0.1257 0.1257 0.12571 0.12572 0.12573 0.12567 0.12567 0.12563 0.12559 0.12546 0.12541 0.12536 0.12528 0.12529 0.12518 0.12512 0.12516 0.12517 0.12521 0.1252 0.12523 0.12526 0.12536 0.12549 0.12553 0.12549 0.12559 0.12557 0.12558 0.1256 0.12555 0.12536 0.12513 0.12496 0.12488 0.12472 0.12451 0.12439 0.12439 0.12433 0.12438 0.12432 0.12425 0.12436 0.12455 0.12471 0.12503 0.12521 0.12528 0.12541 0.12542 0.12552 0.12557 0.12562 0.12566 0.12569 0.12569 0.12561 0.1255 0.12544 0.12529 0.12523 0.12518 0.125 0.1248 0.12469 0.12451
0 0 0 0 0 0 0.12022 0.12044 0.11983 0.11953 0.12068 0.12281 0.12169 0.12179 0.12179 0.12205 0.12427 0.12648 0.12858 0.12868 0.12874 0.12881 0.12863 0.12839 0.12822 0.12805 0.12787 0.12775 0.12771 0.12768 0.12768 0.1274 0.12711 0.12688 0.12677 0.12659 0.12643 0.12624 0.12611 0.12598 0.12596 0.12595 0.12598 0.12596 0.12597 0.12592 0.12587 0.1258 0.12579 0.12577 0.12571 0.12568 0.12552 0.12543 0.1253 0.12521 0.12519 0.12511 0.12509 0.12508 0.12512 0.12516 0.12519 0.1253 0.12529 0.12538 0.12548 0.1256 0.12565 0.12556 0.12562 0.12565 0.12563 0.12542 0.12532 0.1251 0.12488 0.12471 0.12447 0.1243 0.12423 0.12414 0.12414 0.12402 0.12396 0.12409 0.12423 0.12446 0.12472 0.12501 0.12516 0.12514 0.12531 0.12539 0.12551 0.12552 0.12559 0.1256 0.12562 0.12563 0.12558 0.12548 0.1254 0.12538 0.12536 0.12523 0.12513 0.125 0.12486
0 0 0 0 0 0 0.12017 0.12005 0.11944 0.11801 0.1219 0.1259 0.13003 0.1294 0.12874 0.12828 0.12852 0.12875 0.129 0.12886 0.12875 0.12874 0.12841 0.12809 0.12778 0.12761 0.12746 0.12734 0.12725 0.12718 0.12712 0.12708 0.12695 0.12689 0.12675 0.12663 0.12654 0.12643 0.12637 0.12631 0.12634 0.12625 0.12627 0.12621 0.1262 0.1261 0.12604 0.12605 0.12603 0.12588 0.12578 0.12573 0.12561 0.12546 0.12535 0.12522 0.12513 0.12507 0.12507 0.12509 0.12508 0.12512 0.12518 0.12524 0.12531 0.1254 0.12554 0.12556 0.12561 0.12566 0.1256 0.12563 0.1256 0.12546 0.1253 0.12507 0.12489 0.12465 0.12442 0.1242 0.12411 0.12394 0.12387 0.12374 0.12364 0.12386 0.12396 0.12415 0.12434 0.12463 0.12486 0.12502 0.12501 0.12525 0.12535 0.12543 0.12551 0.12555 0.12563 0.12558 0.12554 0.12555 0.12545 0.12544 0.12542 0.12539 0.12529 0.12519 0.12508
0 0 0 0 0 0.11952 0.12011 0.12097 0.12208 0.12202 0.12481 0.1275 0.13013 0.12971 0.12928 0.12888 0.12884 0.12889 0.12896 0.12875 0.12857 0.12843 0.12816 0.12794 0.12772 0.1276 0.12747 0.12734 0.12729 0.12722 0.12714 0.12707 0.12696 0.12682 0.12676 0.12672 0.12663 0.12658 0.12645 0.12642 0.12638 0.12634 0.12632 0.12626 0.12622 0.12615 0.12621 0.12628 0.12622 0.12615 0.12604 0.12591 0.12573 0.12561 0.12547 0.12539 0.12529 0.12527 0.12526 0.12527 0.12513 0.12517 0.12524 0.12529 0.12531 0.12543 0.12548 0.12555 0.12566 0.12577 0.12576 0.12574 0.1257 0.12554 0.12535 0.12532 0.12503 0.12477 0.1246 0.12435 0.12417 0.12396 0.12382 0.12371 0.12356 0.12365 0.12382 0.12398 0.12418 0.1244 0.1246 0.12473 0.12495 0.12508 0.12511 0.12512 0.12519 0.12525 0.12538 0.12545 0.12538 0.12537 0.12533 0.12535 0.12538 0.1254 0.12532 0.12528 0.12523
0 0 0 0 0.11861 0.11907 0.11901 0.12103 0.12485 0.12633 0.12772 0.12892 0.13023 0.12999 0.12975 0.12946 0.12927 0.12909 0.12888 0.12863 0.12844 0.12821 0.12801 0.12786 0.12772 0.12763 0.1275 0.12739 0.12733 0.12722 0.12715 0.12708 0.12696 0.12689 0.12681 0.12677 0.12674 0.12668 0.12664 0.12659 0.12649 0.12641 0.12643 0.12641 0.12634 0.1263 0.12637 0.12643 0.12632 0.12629 0.12618 0.12601 0.12585 0.12576 0.12566 0.12553 0.12547 0.12547 0.12538 0.1253 0.12528 0.12524 0.12523 0.12522 0.12533 0.12547 0.12556 0.12564 0.12568 0.12579 0.12591 0.12595 0.12594 0.12587 0.12569 0.12549 0.12531 0.12508 0.12485 0.12459 0.12431 0.12395 0.12374 0.12372 0.12361 0.12357 0.12373 0.12383 0.1241 0.12425 0.12436 0.1244 0.12459 0.12476 0.12482 0.12493 0.12503 0.12508 0.12512 0.12516 0.12519 0.12523 0.12519 0.12526 0.12533 0.12532 0.12526 0.12529 0.12526
0 0 0 0 0.11778 0.11808 0.11711 0.12168 0.12603 0.13077 0.1307 0.13054 0.13048 0.13038 0.13021 0.13014 0.12966 0.12934 0.12898 0.12859 0.12826 0.12799 0.12792 0.12784 0.12768 0.12759 0.1275 0.12745 0.12737 0.12725 0.12714 0.12703 0.12693 0.12683 0.12681 0.1268 0.12685 0.12684 0.12678 0.1267 0.1266 0.12652 0.12647 0.1265 0.12653 0.12649 0.12659 0.12656 0.12645 0.12641 0.12644 0.12629 0.12601 0.12593 0.12588 0.12577 0.12573 0.12565 0.12554 0.12543 0.12529 0.12532 0.12529 0.12526 0.12533 0.12547 0.12568 0.12572 0.12578 0.126 0.12603 0.12602 0.12603 0.12596 0.1259 0.12584 0.12558 0.1253 0.12501 0.12468 0.12439 0.12395 0.12378 0.12362 0.12346 0.12352 0.12361 0.12366 0.1238 0.12402 0.12414 0.12422 0.12416 0.12431 0.12444 0.12452 0.12468 0.12484 0.12487 0.12495 0.12503 0.12507 0.12511 0.12516 0.12524 0.12517 0.12516 0.12522 0.12533
0 0 0 0.1111 0.11569 0.11841 0.12061 0.12375 0.1268 0.12993 0.13008 0.13002 0.13008 0.12982 0.12964 0.12959 0.12931 0.12902 0.12879 0.12846 0.12819 0.12803 0.12789 0.12776 0.12767 0.12758 0.12745 0.12738 0.12728 0.12718 0.12707 0.12701 0.12695 0.12686 0.12685 0.12693 0.12695 0.12691 0.12685 0.12684 0.12674 0.12668 0.1267 0.12674 0.12682 0.12679 0.12678 0.12676 0.12676 0.12675 0.1267 0.12661 0.12644 0.12636 0.12626 0.12613 0.12605 0.126 0.12592 0.12583 0.1257 0.12562 0.12559 0.12553 0.12563 0.12569 0.12584 0.12594 0.12601 0.12611 0.12613 0.12619 0.12616 0.12607 0.12601 0.12593 0.12565 0.12548 0.12513 0.12469 0.12455 0.12414 0.12388 0.12379 0.12357 0.12367 0.1238 0.1238 0.12391 0.12398 0.12409 0.12415 0.12407 0.12401 0.12422 0.1243 0.12441 0.12445 0.12452 0.12464 0.12473 0.12483 0.12493 0.12498 0.12505 0.12499 0.12497 0.125 0.12505
0 0 0 0.10168 0.10924 0.11956 0.12458 0.12605 0.12758 0.12935 0.12948 0.12956 0.12969 0.12943 0.12931 0.12915 0.1289 0.12869 0.12855 0.12832 0.12808 0.12795 0.12783 0.12771 0.12765 0.12756 0.12746 0.12734 0.12725 0.12715 0.12703 0.12696 0.1269 0.12689 0.1269 0.12701 0.12704 0.12703 0.12707 0.127 0.12696 0.12699 0.12702 0.12711 0.12712 0.12708 0.12712 0.12708 0.1272 0.12711 0.12705 0.12695 0.12679 0.12665 0.12657 0.1265 0.12642 0.12647 0.12637 0.12625 0.12621 0.12607 0.12598 0.12588 0.12585 0.12593 0.12605 0.12625 0.12632 0.12636 0.1263 0.12628 0.12621 0.12608 0.12606 0.12593 0.12562 0.12548 0.12523 0.12495 0.12468 0.12426 0.12397 0.12372 0.12374 0.12387 0.12386 0.12386 0.12393 0.12395 0.12392 0.12391 0.12388 0.1239 0.12401 0.12402 0.12399 0.1241 0.12431 0.12429 0.12432 0.12439 0.12451 0.12469 0.12474 0.12474 0.12484 0.12485 0.12481
0 0 0 0.0875 0.10109 0.11463 0.12864 0.12865 0.12869 0.12876 0.12891 0.1291 0.12931 0.12908 0.1288 0.12868 0.12855 0.12846 0.12833 0.1282 0.12808 0.12801 0.12785 0.12772 0.12761 0.12749 0.1274 0.12727 0.1272 0.12703 0.12694 0.12692 0.12691 0.1269 0.12693 0.12698 0.12701 0.12702 0.12708 0.1271 0.12712 0.12718 0.12734 0.12742 0.12754 0.12758 0.12765 0.1276 0.12757 0.12759 0.12756 0.12741 0.12721 0.12712 0.12708 0.12692 0.12687 0.12682 0.1268 0.12679 0.12669 0.12668 0.12649 0.12631 0.12627 0.12619 0.12627 0.12627 0.12638 0.12652 0.12647 0.12636 0.12626 0.12609 0.12597 0.12585 0.12566 0.12554 0.12535 0.12491 0.12465 0.12431 0.12409 0.12399 0.12394 0.12388 0.12382 0.12388 0.12389 0.12389 0.12381 0.12378 0.12367 0.12362 0.12372 0.12366 0.12372 0.12383 0.12401 0.12412 0.12414 0.12418 0.12418 0.12437 0.1244 0.12442 0.12447 0.12454 0.12455
0 0 0 0.10358 0.1126 0.12161 0.13083 0.13036 0.13013 0.12979 0.12972 0.1296 0.12942 0.12914 0.12888 0.12869 0.12855 0.12842 0.12827 0.1281 0.12796 0.12783 0.12767 0.12752 0.12738 0.12726 0.12715 0.12703 0.12697 0.12684 0.12675 0.12671 0.1267 0.12669 0.12676 0.12693 0.12697 0.12705 0.12711 0.12723 0.12722 0.12724 0.12732 0.12748 0.12772 0.1278 0.12786 0.12782 0.12794 0.12803 0.12804 0.12778 0.12764 0.12769 0.12769 0.1276 0.12743 0.12733 0.12732 0.12732 0.12739 0.12723 0.12708 0.12694 0.12678 0.12658 0.12655 0.12654 0.1266 0.12661 0.12652 0.12644 0.12638 0.12632 0.12608 0.12592 0.12567 0.12548 0.1253 0.12512 0.12482 0.12464 0.12456 0.12443 0.12429 0.12421 0.12423 0.1243 0.12432 0.12421 0.12414 0.12417 0.12405 0.12389 0.12393 0.12393 0.12389 0.12406 0.12417 0.12419 0.12421 0.12431 0.12438 0.12442 0.12456 0.12454 0.12461 0.1246 0.12468
0.1318 0.13252 0.12497 0.11936 0.12406 0.12847 0.13294 0.13229 0.13155 0.13105 0.13062 0.13015 0.12954 0.1292 0.12892 0.12866 0.12852 0.12841 0.12829 0.12806 0.12789 0.12773 0.12757 0.12736 0.1272 0.12709 0.12698 0.12683 0.12676 0.12668 0.12661 0.12659 0.1266 0.12661 0.12675 0.12691 0.1271 0.12717 0.12722 0.12732 0.12734 0.12742 0.1276 0.12794 0.12811 0.12821 0.12821 0.12824 0.1283 0.12832 0.12852 0.1284 0.12825 0.12823 0.12832 0.12825 0.12813 0.12812 0.12802 0.12785 0.12786 0.12786 0.12771 0.12742 0.12714 0.1269 0.12688 0.12681 0.12689 0.12689 0.12681 0.12654 0.1264 0.12624 0.12611 0.12586 0.12567 0.12553 0.12539 0.12519 0.12509 0.12491 0.12489 0.12483 0.12458 0.12449 0.12444 0.12459 0.12462 0.12461 0.12451 0.12436 0.12425 0.12418 0.12415 0.12413 0.12403 0.12411 0.12422 0.12424 0.12423 0.12428 0.12433 0.12448 0.12458 0.12451 0.12459 0.12472 0.12486
0.13106 0.13255 0.13395 0.13541 0.13554 0.13542 0.1354 0.13423 0.13316 0.13218 0.13142 0.13054 0.12963 0.12928 0.12897 0.12874 0.12854 0.12836 0.12824 0.12802 0.12785 0.12769 0.12748 0.12727 0.12708 0.12696 0.12682 0.1266 0.12656 0.12653 0.12653 0.12657 0.12662 0.12663 0.12683 0.12697 0.12715 0.12726 0.12734 0.12745 0.12762 0.12775 0.12797 0.1283 0.12863 0.12871 0.12868 0.12872 0.12885 0.12884 0.12896 0.12886 0.12888 0.12888 0.12873 0.12871 0.12876 0.12881 0.1287 0.12853 0.12842 0.12832 0.12813 0.12792 0.12766 0.12752 0.12741 0.12728 0.12719 0.12712 0.12696 0.12675 0.12659 0.12632 0.12609 0.12586 0.12577 0.12572 0.12561 0.12547 0.12537 0.12521 0.12524 0.12514 0.12487 0.12491 0.1249 0.12494 0.12498 0.12491 0.1248 0.12452 0.12453 0.12444 0.12437 0.12417 0.12417 0.12416 0.12413 0.12418 0.12425 0.12432 0.12437 0.12447 0.12455 0.1246 0.1247 0.12478 0.12491
0.1307 0.13188 0.13317 0.13448 0.13478 0.13495 0.1351 0.13414 0.13338 0.13266 0.13185 0.13096 0.13001 0.12954 0.12908 0.12867 0.12844 0.12825 0.12805 0.12785 0.12761 0.12743 0.12727 0.12707 0.12689 0.12678 0.12668 0.12656 0.12657 0.12658 0.12665 0.12678 0.12684 0.12692 0.12711 0.12727 0.12747 0.12755 0.12768 0.12784 0.12799 0.12816 0.12835 0.12863 0.12896 0.12909 0.12916 0.12925 0.12935 0.12937 0.12941 0.12937 0.1295 0.12949 0.12951 0.12947 0.12938 0.12926 0.12915 0.12909 0.12899 0.12884 0.12871 0.1285 0.12824 0.12805 0.12795 0.12769 0.12754 0.12736 0.12723 0.12707 0.12687 0.12675 0.12658 0.12633 0.12619 0.12612 0.12603 0.12596 0.1259 0.12574 0.1257 0.12564 0.12556 0.12569 0.1259 0.12616 0.1261 0.126 0.12588 0.12552 0.12533 0.12505 0.12489 0.12471 0.12451 0.12462 0.12467 0.12474 0.12494 0.12514 0.12526 0.12525 0.12527 0.12526 0.12526 0.1252 0.12525
0.13043 0.13147 0.13257 0.13368 0.13401 0.13433 0.13473 0.13411 0.1335 0.13307 0.13221 0.13131 0.13039 0.12977 0.12921 0.12874 0.12845 0.12819 0.12793 0.12769 0.12743 0.1272 0.12702 0.12689 0.12679 0.12671 0.12662 0.12656 0.12662 0.1267 0.12679 0.12689 0.12704 0.12716 0.12733 0.12753 0.12776 0.12788 0.128 0.12811 0.1283 0.12851 0.12873 0.12904 0.12936 0.12961 0.12969 0.12975 0.12985 0.12988 0.1299 0.13 0.12997 0.12996 0.13001 0.12997 0.12996 0.12993 0.12976 0.12974 0.12964 0.12951 0.12936 0.12917 0.12889 0.12872 0.12852 0.12831 0.12811 0.12785 0.12772 0.12761 0.12739 0.12722 0.12696 0.12666 0.12661 0.12657 0.12643 0.12636 0.12627 0.1262 0.12618 0.12613 0.12607 0.12645 0.12687 0.12715 0.12713 0.12693 0.12689 0.12642 0.12597 0.12554 0.12536 0.12514 0.12495 0.12511 0.12528 0.12542 0.12565 0.12586 0.12606 0.12601 0.12596 0.12587 0.12581 0.12569 0.1256
0.13051 0.13128 0.13209 0.13314 0.1336 0.13414 0.13468 0.13425 0.13393 0.13369 0.13267 0.13175 0.13091 0.13016 0.12952 0.12891 0.12853 0.1282 0.12782 0.12752 0.12727 0.12702 0.12696 0.12687 0.12673 0.12672 0.12668 0.12662 0.12676 0.12689 0.12697 0.12708 0.12722 0.12737 0.12745 0.12773 0.12804 0.12809 0.12825 0.12843 0.12867 0.12887 0.12908 0.12935 0.12963 0.12991 0.13008 0.13022 0.13035 0.13038 0.13043 0.13047 0.13049 0.13047 0.13056 0.13049 0.13031 0.1303 0.13023 0.13014 0.13008 0.1299 0.12978 0.12965 0.12943 0.12909 0.12888 0.12872 0.12849 0.12819 0.12803 0.12796 0.12781 0.12761 0.12741 0.12718 0.12707 0.12685 0.12663 0.1266 0.12669 0.12666 0.12677 0.12676 0.12666 0.12687 0.12769 0.12831 0.12775 0.12745 0.1281 0.1273 0.12665 0.12599 0.12581 0.1256 0.12539 0.12556 0.12581 0.12607 0.12426 0.12499 0.12688 0.12602 0.1261 0.12656 0.1265 0.1263 0.12592
0.13115 0.13171 0.13238 0.13308 0.13348 0.13389 0.13426 0.13375 0.13335 0.13311 0.13225 0.13148 0.13067 0.12999 0.1294 0.12882 0.12847 0.12819 0.1279 0.12765 0.12744 0.12726 0.12725 0.12715 0.12708 0.12716 0.12719 0.12721 0.12739 0.12758 0.12772 0.12783 0.12791 0.12803 0.1282 0.1284 0.1286 0.1288 0.12888 0.12902 0.12917 0.12928 0.12948 0.12984 0.13019 0.13039 0.13058 0.13082 0.13103 0.13094 0.13093 0.13099 0.13102 0.13096 0.13098 0.13098 0.13083 0.13088 0.13089 0.13091 0.13094 0.13074 0.13063 0.13056 0.13028 0.13007 0.12984 0.12946 0.12913 0.12863 0.12844 0.12827 0.12813 0.12802 0.1277 0.12739 0.12718 0.12695 0.1268 0.12688 0.12709 0.12707 0.1274 0.12763 0.12773 0.1273 0.1276 0.12774 0.1274 0.12717 0.12724 0.12665 0.12622 0.12581 0.12259 0.11927 0.11593 0.11613 0.11634 0.11655 0.12056 0.12215 0.12404 0.12518 0.12563 0.12614 0.12704 0.12714 0.12866
0.13188 0.13228 0.13268 0.13306 0.13328 0.13353 0.13377 0.13334 0.13295 0.13272 0.13197 0.13125 0.13066 0.13002 0.12935 0.12871 0.12848 0.12831 0.12806 0.12784 0.1277 0.12759 0.12754 0.12751 0.12752 0.12755 0.12762 0.12771 0.12795 0.1282 0.12841 0.12852 0.12858 0.12877 0.12889 0.12908 0.12921 0.12934 0.12948 0.12966 0.12979 0.12992 0.12998 0.13037 0.13078 0.13116 0.13122 0.13144 0.13167 0.13166 0.13158 0.13161 0.1316 0.13157 0.13153 0.13159 0.13152 0.13162 0.13165 0.13174 0.13184 0.13177 0.1316 0.13163 0.13129 0.13099 0.13081 0.13035 0.12969 0.12913 0.1287 0.12834 0.12811 0.12806 0.12803 0.12768 0.1275 0.12729 0.1272 0.12728 0.12748 0.12757 0.12807 0.12852 0.12889 0.12657 0.12591 0.12742 0 0 0.1265 0.12616 0.12588 0.12564 0.11926 0.11287 0.10636 0.10659 0.10681 0 0 0.12173 0.12015 0.1224 0.12498 0.12626 0.12763 0.1296 0.13149
