ncols        109
nrows        82
xllcorner    -1.041666666667
yllcorner    37.041665395101
cellsize     0.083333333333
NODATA_value -9999
0.0 0 0 0 0 0 0 0 0 0 0 0 0 0 0 0 0 0 0 0 0 0 0 0 0 0 0 0 0 0 0 0 0 0 0 0 0 0 0 0 0 0 0 0 0 0 0 0 0 0 0 0 0 0 0 0 0 0 0 0 0 0 0 0 0 0 0 0 0 0 0 0 0 0 0 0 0 0 0 0 0 0 0 0 0 0 0 0 0 0 0 0 0 0 0 0 0 0 0 0 0 0 0 0 0 17.74121 16.38742 14.88471 14.87024
0 0 0 0 0 0 0 0 0 0 0 0 0 0 0 0 0 0 0 0 0 0 0 0 0 0 0 0 0 0 0 0 0 0 0 0 0 0 0 0 0 0 0 0 0 0 0 0 0 0 0 0 0 0 0 0 0 0 0 0 0 0 0 0 0 0 0 0 0 0 0 0 0 0 0 0 0 0 0 0 0 0 0 0 0 0 0 0 0 0 0 0 0 0 0 0 0 0 0 0 0 15.05853 15.0786 14.85215 14.86076 14.86175 14.84973 14.83336 14.79146
0 0 0 0 0 0 0 0 0 0 0 0 0 0 0 0 0 0 0 0 0 0 0 0 0 0 0 0 0 0 0 0 0 0 0 0 0 0 0 0 0 0 0 0 0 0 0 0 0 0 0 0 0 0 0 0 0 0 0 0 0 0 0 0 0 0 0 0 0 0 0 0 0 0 0 0 0 0 0 0 0 0 0 0 0 0 0 0 0 0 0 0 0 0 0 0 0 0 14.83598 14.84122 14.83839 14.82508 14.80282 14.78513 14.76661 14.73625 14.70044 14.672 14.63965
0 0 0 0 0 0 0 0 0 0 0 0 0 0 0 0 0 0 0 0 0 0 0 0 0 0 0 0 0 0 0 0 0 0 0 0 0 0 0 0 0 0 0 0 0 0 0 0 0 0 0 0 0 0 0 0 0 0 0 0 0 0 0 0 0 0 0 0 0 0 0 0 0 0 0 0 0 0 0 0 0 0 0 0 0 0 0 0 0 0 0 0 0 0 0 0 0 16.6581 14.80864 14.79152 14.75514 14.71922 14.68548 14.65902 14.62898 14.60269 14.5714 14.54257 14.51837
0 0 0 0 0 0 0 0 0 0 0 0 0 0 0 0 0 0 0 0 0 0 0 0 0 0 0 0 0 0 0 0 0 0 0 0 0 0 0 0 0 0 0 0 0 0 0 0 0 0 0 0 0 0 0 0 0 0 16.25991 15.8896 15.60463 15.73344 0 0 0 0 0 0 0 0 0 0 0 0 0 0 0 0 0 0 0 0 0 0 0 0 0 0 0 0 0 0 0 0 0 15.29634 14.80968 14.79505 14.74874 14.70805 14.66097 14.61117 14.56272 14.52056 14.48261 14.4445 14.41727 14.40706 14.38875
0 0 0 0 0 0 0 0 0 0 0 0 0 0 0 0 0 0 0 0 0 0 0 0 0 0 0 0 0 0 0 0 0 0 0 0 0 0 0 0 0 0 0 0 0 0 0 0 0 0 0 0 0 0 0 0 15.79933 15.82959 15.53909 15.30263 15.21475 15.20555 15.3063 15.52214 15.73176 15.85185 15.84306 0 0 0 0 16.24191 0 0 0 0 0 0 0 0 0 0 0 0 0 0 0 0 0 0 0 0 0 15.96279 14.77089 14.79127 14.75564 14.70137 14.64099 14.57997 14.52429 14.47094 14.42743 14.39693 14.37196 14.34577 14.33347 14.31938 14.31356
0 0 0 0 0 0 0 0 0 0 0 0 0 0 0 0 0 0 0 0 0 0 0 0 0 0 0 0 0 0 0 0 0 0 0 0 0 0 0 0 0 0 0 0 0 0 0 0 0 0 0 0 0 0 0 15.93468 15.54114 15.20675 14.98925 14.70867 14.77089 14.79964 14.98994 15.12909 15.28085 15.4081 15.5102 15.71914 15.93316 15.91327 15.87572 15.63825 15.41907 15.4838 15.67843 15.37682 15.37624 0 0 0 0 0 0 0 0 0 0 0 0 0 0 0 15.17011 14.78509 14.76484 14.72654 14.67567 14.60883 14.53989 14.47548 14.41322 14.35603 14.31492 14.28796 14.27276 14.26496 14.2634 14.26495 14.26432
0 0 0 0 0 0 0 0 0 0 0 0 0 0 0 0 0 0 0 0 0 0 0 0 0 0 0 0 0 0 0 0 0 0 0 0 0 0 0 0 0 0 0 0 0 0 0 0 0 0 0 15.52164 15.72079 15.87701 15.64178 15.23162 14.98978 14.68856 14.5547 14.62579 14.67989 14.70497 14.705 14.90541 14.9026 15.10822 15.09637 15.10145 15.12843 15.01717 14.90524 14.95604 14.80829 15.0353 15.07115 15.28372 0 0 0 0 0 0 0 0 0 0 0 0 0 0 0 0 14.7508 14.76245 14.70624 14.63943 14.56801 14.48973 14.41507 14.35144 14.30448 14.27193 14.2472 14.23537 14.2306 14.23246 14.23505 14.24045 14.24654
0 0 0 0 0 0 0 0 0 0 0 0 0 0 0 0 0 0 0 0 0 0 0 0 0 0 0 0 0 0 0 0 0 0 0 0 0 0 0 0 0 0 0 0 0 0 0 0 0 0 15.65144 15.53259 15.31154 15.28026 15.19629 14.88876 14.53369 14.60753 14.44539 14.49664 14.53969 14.56319 14.57766 14.78559 14.77845 14.99541 14.99457 15.00267 14.84775 14.7006 14.74224 14.78713 14.63405 14.86143 14.88657 15.12524 15.13134 14.91447 14.9356 15.38263 15.91432 16.80436 0 0 0 0 0 0 0 15.83111 15.18301 14.74248 14.75106 14.71291 14.62043 14.54348 14.47397 14.40089 14.33402 14.27707 14.24356 14.21994 14.20608 14.2058 14.21334 14.2225 14.22949 14.23714 14.24905
0 0 0 0 0 0 0 0 0 0 0 0 0 0 0 0 0 0 0 0 0 0 0 0 0 0 0 0 0 0 0 0 0 0 0 0 0 0 0 0 0 0 0 0 0 0 0 0 0 16.46511 15.34653 15.26155 15.22475 14.91227 14.76085 14.59161 14.63348 14.45712 14.49749 14.54712 14.58822 14.6136 14.62769 14.84658 14.85511 14.86303 14.8727 14.87532 14.89172 14.71984 14.75463 14.59573 14.42926 14.45036 14.46522 14.48394 14.49402 14.51355 14.53696 14.54467 14.98501 15.62811 0 15.44805 16.09948 16.65967 16.97911 16.68881 16.19943 14.68485 14.7145 14.72031 14.68832 14.60271 14.51207 14.43718 14.36319 14.30618 14.25413 14.22004 14.20164 14.19645 14.19292 14.20054 14.20909 14.22654 14.239 14.25384 14.26616
0 0 0 0 0 0 0 0 0 0 0 0 0 0 0 0 0 0 0 0 0 0 0 0 0 0 0 0 0 0 0 0 0 0 0 0 0 0 0 0 0 0 0 0 0 0 0 0 0 16.14302 15.27485 15.01576 14.71062 14.57054 14.6262 14.45132 14.5 14.53669 14.57903 14.61961 14.65573 14.67012 14.67863 14.67993 14.685 14.49734 14.33913 14.50522 14.51058 14.52224 14.53648 14.36696 14.37538 14.38739 14.39835 14.40925 14.42304 14.44235 14.46358 14.48849 14.5156 14.54904 14.57592 14.60395 14.63785 14.65187 15.78359 16.01105 15.57157 14.64266 14.63304 14.59319 14.53569 14.46357 14.39928 14.34011 14.29083 14.24983 14.21768 14.19784 14.19537 14.19936 14.21214 14.22601 14.237 14.25031 14.26125 14.27527 14.2867
0 0 0 0 0 0 0 0 0 0 0 0 0 0 0 0 0 0 0 0 0 0 0 0 0 0 0 0 0 0 0 0 0 0 0 0 0 0 0 0 0 0 0 0 0 0 0 0 0 15.8626 15.19235 14.89962 14.56312 14.63158 14.46309 14.51884 14.5721 14.61213 14.64147 14.67126 14.48543 14.50004 14.50301 14.5066 14.50153 14.31666 14.31517 14.3053 14.28679 14.28527 14.29126 14.29677 14.30683 14.31848 14.32059 14.32933 14.33592 14.34081 14.35444 14.37762 14.40688 14.43852 14.47123 14.50444 14.5353 14.55917 14.57436 14.57719 14.57185 14.54853 14.51087 14.4549 14.38957 14.32731 14.27727 14.2433 14.21221 14.20536 14.19774 14.19988 14.20938 14.2249 14.2361 14.24579 14.25813 14.27446 14.29091 14.30367 14.31517
0 0 0 0 0 0 0 0 0 0 0 0 0 0 0 0 0 0 0 0 0 0 0 0 0 0 0 0 0 0 0 0 0 0 0 0 0 0 0 0 0 0 0 0 0 0 0 0 0 15.7621 15.05395 14.74572 14.60822 14.46111 14.53556 14.59699 14.44548 14.47144 14.28878 14.29474 14.30139 14.29913 14.29615 14.29624 14.28889 14.27525 14.26068 14.24486 14.22598 14.2091 14.2126 14.21103 14.21155 14.20955 14.20445 14.20894 14.22088 14.2385 14.25445 14.27551 14.30012 14.32481 14.34998 14.37017 14.38977 14.40779 14.41373 14.40785 14.39594 14.37358 14.34319 14.30415 14.25977 14.23201 14.20598 14.18977 14.17814 14.18134 14.18811 14.20284 14.21966 14.24079 14.25768 14.27425 14.28769 14.30145 14.3154 14.32308 14.33693
0 0 0 0 0 0 0 0 0 0 0 0 0 0 0 0 0 0 0 0 0 0 0 0 0 0 0 0 0 0 0 0 0 0 0 0 0 0 0 0 0 0 0 0 0 0 0 0 0 15.62611 15.09631 14.77409 14.64358 14.49385 14.56857 14.41552 14.25638 14.27616 14.28143 14.27449 14.26644 14.25939 14.24658 14.23559 14.22433 14.20651 14.19417 14.17776 14.16171 14.15129 14.14422 14.13573 14.12727 14.11384 14.10364 14.09842 14.10412 14.11145 14.12715 14.13934 14.15906 14.18185 14.19907 14.22243 14.24826 14.26817 14.27804 14.2744 14.26067 14.23579 14.21346 14.18966 14.17057 14.15842 14.15781 14.16413 14.17269 14.18281 14.1992 14.21964 14.23757 14.25756 14.27536 14.29364 14.30228 14.31661 14.33193 14.3454 14.36197
0 0 0 0 0 0 0 0 0 0 0 0 0 0 0 0 0 0 0 0 0 0 0 0 0 0 0 0 0 0 0 0 0 0 0 0 0 0 0 0 0 0 0 0 0 0 0 0 0 15.67647 14.91015 14.56764 14.68232 14.5434 14.60713 14.42853 14.24732 14.25596 14.25643 14.24786 14.23312 14.2194 14.20782 14.19617 14.17962 14.16224 14.14074 14.12647 14.10623 14.0858 14.06809 14.04553 14.03405 14.02593 14.02079 14.0206 14.02604 14.03506 14.04476 14.05839 14.06872 14.07575 14.08612 14.09616 14.11263 14.12391 14.13275 14.13633 14.13798 14.13087 14.12397 14.12599 14.12558 14.13102 14.14114 14.15542 14.17368 14.19034 14.21052 14.22781 14.24756 14.26885 14.29337 14.31275 14.32544 14.33678 14.34566 14.36201 14.3775
0 0 0 0 0 0 0 0 0 0 0 0 0 0 0 0 0 0 0 0 0 0 0 0 0 0 0 0 0 0 0 0 0 0 0 0 0 0 0 0 0 0 0 0 0 0 0 0 0 15.18216 14.95986 14.60008 14.49629 14.38651 14.43016 14.24183 14.23976 14.23494 14.22126 14.20871 14.1915 14.17547 14.16204 14.15289 14.14129 14.12701 14.10997 14.09124 14.07401 14.05023 14.02122 13.99689 13.97705 13.97036 13.96607 13.96292 13.96266 13.9683 13.97396 13.98409 13.99474 14.00454 14.01349 14.02526 14.04 14.05209 14.05836 14.06458 14.06971 14.07526 14.08605 14.09561 14.10631 14.12204 14.13933 14.16098 14.18263 14.20154 14.21986 14.23607 14.25744 14.27952 14.30205 14.32291 14.33861 14.35367 14.36227 14.37444 14.39054
0 0 0 0 0 0 0 0 0 0 0 0 0 0 0 0 0 0 0 0 0 0 0 0 0 0 0 0 0 0 0 0 0 0 0 0 0 0 0 0 0 0 0 0 0 0 0 0 0 0 14.70913 14.65997 14.55179 14.23022 14.24945 14.23782 14.23059 14.21427 14.20126 14.184 14.16672 14.15623 14.13956 14.11458 14.10404 14.09616 14.08144 14.06673 14.04675 14.02456 13.99979 13.97756 13.95942 13.94916 13.9404 13.93891 13.94011 13.94109 13.943 13.94883 13.95579 13.96208 13.96541 13.97249 13.98612 13.99729 14.00807 14.02268 14.03888 14.05164 14.06886 14.08371 14.09704 14.11848 14.14254 14.16613 14.18663 14.20594 14.22895 14.252 14.27145 14.29408 14.31404 14.33237 14.34249 14.35477 14.36729 14.37889 14.39965
0 0 0 0 0 0 0 0 0 0 0 0 0 0 0 0 0 0 0 0 0 0 0 0 0 0 0 0 0 0 0 0 0 0 0 0 0 0 0 0 0 0 0 0 0 0 0 0 0 0 14.86457 14.46116 14.17532 14.22951 14.2347 14.22755 14.20895 14.19157 14.17574 14.15893 14.14663 14.12486 14.11359 14.10349 14.09348 14.08402 14.07609 14.06337 14.04521 14.02826 14.009 13.98773 13.9683 13.95022 13.93791 13.93329 13.92966 13.92744 13.93024 13.93751 13.9383 13.94199 13.95105 13.9568 13.969 13.98259 13.9929 14.00814 14.02339 14.04132 14.05959 14.08015 14.10221 14.1263 14.15435 14.17743 14.19796 14.216 14.23831 14.25686 14.27808 14.29824 14.31774 14.33562 14.34953 14.36544 14.37765 14.38986 14.40932
0 0 0 0 0 0 0 0 0 0 0 0 0 0 0 0 0 0 0 0 0 0 0 0 0 0 0 0 0 0 0 0 0 0 0 0 0 0 0 0 0 0 0 0 0 0 0 0 0 0 0 0 14.18524 14.21011 14.21623 14.20816 14.19383 14.17309 14.15969 14.14639 14.12542 14.11196 14.1066 14.10192 14.10179 14.09409 14.09613 14.09015 14.06618 14.05491 14.03875 14.01652 13.99783 13.97384 13.95006 13.94536 13.94212 13.93696 13.9393 13.94145 13.94146 13.94022 13.94709 13.95565 13.96884 13.98054 13.992 14.00476 14.02356 14.04177 14.06471 14.09054 14.11785 14.14445 14.1744 14.20364 14.22637 14.24401 14.25992 14.27488 14.28795 14.30772 14.32806 14.34498 14.3541 14.373 14.38595 14.39446 14.41572
0 0 0 0 0 0 0 0 0 0 0 0 0 0 0 0 0 0 0 0 0 0 0 0 0 0 0 0 0 0 0 0 0 0 0 0 0 0 0 0 0 0 0 0 0 0 0 0 0 0 16.45224 14.85465 14.41776 14.22329 14.21625 14.20573 14.17817 14.16036 14.14612 14.12578 14.11188 14.10949 14.1042 14.10729 14.11125 14.11562 14.11542 14.10586 14.09833 14.09065 14.0706 14.04882 14.02451 14.00017 13.98426 13.96736 13.9569 13.95419 13.95419 13.95389 13.94867 13.94684 13.95156 13.95936 13.96907 13.98442 14.00144 14.01441 14.03353 14.05895 14.08623 14.11562 14.14361 14.17788 14.2093 14.23621 14.26003 14.27587 14.28993 14.29991 14.31081 14.32623 14.34156 14.35799 14.37173 14.38418 14.39515 14.41337 14.43447
0 0 0 0 0 0 0 0 0 0 0 0 0 0 0 0 0 0 0 0 0 0 0 0 0 0 0 0 0 0 0 0 0 0 0 0 0 0 0 0 0 0 0 0 0 0 0 0 0 0 15.79518 14.87607 14.66215 14.24082 14.22743 14.20585 14.17882 14.15256 14.13822 14.12285 14.1191 14.11734 14.11705 14.12559 14.13786 14.14636 14.14471 14.13548 14.12796 14.12001 14.10477 14.08005 14.0515 14.02971 14.00607 13.98921 13.97588 13.97238 13.96603 13.96402 13.9603 13.96545 13.97033 13.98161 13.98981 13.99627 14.01388 14.02784 14.05126 14.08061 14.11369 14.14713 14.18581 14.22296 14.25365 14.28239 14.30527 14.32308 14.33355 14.34105 14.34587 14.35289 14.36375 14.37678 14.38804 14.39828 14.40885 14.42826 14.4539
0 0 0 0 0 0 0 0 0 0 0 0 0 0 0 0 0 0 0 0 0 0 0 0 0 0 0 0 0 0 0 0 0 0 0 0 0 0 0 0 0 0 0 0 0 0 0 0 0 0 0 14.92323 14.46212 14.25396 14.2397 14.21122 14.18328 14.15826 14.14554 14.14126 14.13861 14.14173 14.15027 14.16452 14.17768 14.18997 14.19508 14.19154 14.18212 14.17036 14.15178 14.1242 14.09199 14.06036 14.03608 14.01764 13.99656 13.98775 13.98194 13.9761 13.97529 13.98372 13.98793 13.9933 14.00531 14.01985 14.04066 14.05996 14.08838 14.12322 14.16568 14.20558 14.23979 14.26938 14.29615 14.3213 14.34454 14.35805 14.369 14.37657 14.37975 14.38378 14.39421 14.40666 14.41578 14.4243 14.43558 14.45367 14.4761
0 0 0 0 0 0 0 0 0 0 0 0 0 0 0 0 0 0 0 0 0 0 0 0 0 0 0 0 0 0 0 0 0 0 0 0 0 0 0 0 0 0 0 0 0 0 0 0 0 0 0 14.70174 14.27678 14.27121 14.24976 14.22035 14.19694 14.17231 14.16218 14.16007 14.1685 14.19153 14.20416 14.21654 14.23003 14.24193 14.24627 14.24269 14.23776 14.22063 14.20034 14.16772 14.13579 14.10389 14.07526 14.05277 14.03268 14.01808 14.00654 14.00688 14.00843 14.01256 14.01991 14.02416 14.03048 14.04196 14.0638 14.09573 14.13111 14.17497 14.21782 14.2572 14.28936 14.3153 14.34416 14.37012 14.3861 14.40413 14.40888 14.40879 14.40978 14.41402 14.41955 14.42857 14.44163 14.44909 14.46417 14.48363 14.50309
0 0 0 0 0 0 0 0 0 0 0 0 0 0 0 0 0 0 0 0 0 0 0 0 0 0 0 0 0 0 0 0 0 0 0 0 0 0 0 0 0 0 0 0 0 0 0 0 0 0 0 14.31949 14.30875 14.29283 14.26152 14.23361 14.20673 14.19067 14.19305 14.1956 14.20981 14.22869 14.24845 14.26429 14.27856 14.29622 14.30972 14.30728 14.29834 14.27812 14.25457 14.22056 14.18063 14.13937 14.10412 14.07252 14.05464 14.03811 14.03159 14.03219 14.04013 14.05066 14.05861 14.06988 14.07638 14.09418 14.12376 14.16135 14.20233 14.23717 14.27534 14.3081 14.33373 14.36207 14.38764 14.41502 14.43096 14.4431 14.44742 14.44954 14.44974 14.44806 14.4539 14.45993 14.46775 14.48053 14.49039 14.50406 14.52363
0 0 0 0 0 0 0 0 0 0 0 0 0 0 0 0 0 0 0 0 0 0 0 0 0 0 0 0 0 0 0 0 0 0 0 0 0 0 0 0 0 0 0 0 0 0 0 0 0 16.33707 15.3467 14.35504 14.33683 14.30304 14.28136 14.24878 14.22793 14.21102 14.22343 14.24185 14.26223 14.27767 14.29623 14.31539 14.32762 14.34926 14.35723 14.36251 14.34901 14.32981 14.30714 14.27348 14.23532 14.18365 14.15008 14.11524 14.09356 14.07022 14.06767 14.07178 14.08827 14.09648 14.10505 14.10856 14.12393 14.14449 14.1801 14.22148 14.26617 14.30771 14.34826 14.3805 14.39534 14.41319 14.44005 14.46634 14.4783 14.48955 14.49205 14.49067 14.49023 14.4844 14.48693 14.49062 14.49487 14.50406 14.51365 14.52746 14.5431
0 0 0 0 0 0 0 0 0 0 0 0 0 0 0 0 0 0 0 0 0 0 0 0 0 0 0 0 0 0 0 0 0 0 0 0 0 0 0 0 0 0 0 0 0 0 0 0 15.42193 14.8792 14.63155 14.39318 14.36099 14.32679 14.2924 14.26872 14.24966 14.24132 14.24117 14.26778 14.29674 14.31871 14.3489 14.36277 14.3845 14.39935 14.408 14.40516 14.39803 14.37057 14.34521 14.30724 14.26455 14.22331 14.1856 14.15387 14.13137 14.11596 14.11552 14.12992 14.14321 14.15687 14.16825 14.18229 14.19676 14.21843 14.25201 14.28426 14.31544 14.35458 14.38689 14.41455 14.43445 14.45596 14.48236 14.51074 14.52811 14.53763 14.53997 14.53626 14.53796 14.53301 14.52963 14.52957 14.52738 14.52978 14.539 14.54886 14.56037
0 0 0 0 0 0 0 0 0 0 0 0 0 0 0 0 0 0 0 0 0 0 0 0 0 0 0 0 0 0 0 0 0 0 0 0 0 0 0 0 0 0 0 0 0 15.10486 14.96708 15.49995 14.95496 14.96992 14.69935 14.44196 14.40466 14.36625 14.3299 14.29957 14.27886 14.2677 14.27821 14.29662 14.3261 14.35162 14.38179 14.39499 14.41926 14.42754 14.4479 14.45226 14.44258 14.42113 14.38799 14.34959 14.31103 14.2735 14.23609 14.20179 14.17574 14.17083 14.17479 14.18905 14.19882 14.21259 14.22513 14.23911 14.26426 14.28715 14.31364 14.3435 14.37157 14.40614 14.43687 14.45877 14.48395 14.50689 14.52623 14.54948 14.56552 14.56981 14.57096 14.57262 14.579 14.57944 14.57043 14.56935 14.56479 14.5656 14.56625 14.57157 14.58432
0 0 0 0 0 0 0 0 0 0 0 0 0 0 0 0 0 0 0 0 0 0 0 0 0 0 0 0 0 0 0 0 0 0 0 0 0 0 0 0 0 0 17.19737 16.88676 15.89102 15.04199 14.51935 14.52784 15.05222 14.76767 14.50427 14.47576 14.43872 14.39936 14.36285 14.33739 14.3147 14.31328 14.32664 14.34671 14.37326 14.39534 14.41629 14.44057 14.46258 14.48177 14.48939 14.48554 14.47199 14.45274 14.42229 14.38823 14.35101 14.31663 14.28466 14.26096 14.24139 14.2374 14.24389 14.2541 14.26575 14.28042 14.28965 14.30194 14.32043 14.34052 14.36696 14.38882 14.41868 14.44893 14.47298 14.50001 14.52321 14.54799 14.56752 14.58661 14.60501 14.61586 14.62392 14.62664 14.62724 14.62447 14.61282 14.60481 14.59796 14.59472 14.59281 14.59625 14.60572
0 0 0 0 0 0 0 0 0 0 0 0 0 0 0 0 0 0 0 0 0 0 0 0 0 0 0 0 0 0 0 0 0 0 0 0 0 0 0 0 16.29586 16.69201 16.94809 15.99852 15.1135 14.58338 14.5972 14.60903 14.59953 14.57798 14.55636 14.51694 14.47202 14.43197 14.3955 14.3711 14.36063 14.35665 14.36912 14.38976 14.40812 14.42887 14.45599 14.49014 14.5111 14.52221 14.51948 14.5216 14.51716 14.50309 14.46968 14.44209 14.4088 14.36871 14.33511 14.31421 14.29624 14.28547 14.29307 14.30434 14.31822 14.33102 14.34931 14.36643 14.38324 14.40096 14.42781 14.4506 14.47058 14.48936 14.51469 14.53492 14.55875 14.57998 14.60102 14.61645 14.63512 14.64839 14.65804 14.66337 14.66847 14.66455 14.65616 14.64714 14.63983 14.63314 14.63304 14.63516 14.64258
0 0 0 0 0 0 0 0 0 0 0 0 0 0 0 0 0 0 0 0 0 0 0 0 0 0 0 0 0 0 0 0 0 0 0 0 0 0 0 16.52207 16.26627 15.70307 15.43797 14.60433 14.61945 14.63616 14.64991 14.65433 14.64639 14.62825 14.6019 14.55943 14.5114 14.47253 14.44409 14.4316 14.41756 14.42415 14.43004 14.44666 14.46139 14.47844 14.50705 14.53529 14.5584 14.56407 14.5666 14.56427 14.55365 14.5424 14.52163 14.49893 14.47311 14.44029 14.40552 14.3867 14.36944 14.35454 14.35053 14.36004 14.37019 14.37975 14.39306 14.40588 14.42396 14.44074 14.46493 14.49353 14.50964 14.52749 14.54572 14.57056 14.59363 14.61852 14.63772 14.65627 14.67131 14.67913 14.68888 14.69336 14.69473 14.69379 14.69141 14.68434 14.67791 14.67121 14.67072 14.67406 14.67588
0 0 0 0 0 0 0 0 0 0 0 0 0 0 0 0 0 0 0 0 0 0 0 0 0 0 0 0 0 0 0 0 0 0 0 0 0 0 15.72461 15.42454 15.15811 14.61896 14.64454 14.6616 14.68064 14.69216 14.69739 14.69676 14.68486 14.66561 14.63457 14.59931 14.56485 14.52117 14.49904 14.48596 14.48085 14.48556 14.49379 14.51178 14.53188 14.54125 14.56644 14.59469 14.60953 14.62405 14.62858 14.62611 14.61449 14.6013 14.58586 14.56229 14.53117 14.50161 14.46703 14.44572 14.42725 14.41499 14.41075 14.41517 14.42621 14.43947 14.44737 14.46144 14.47721 14.49523 14.51944 14.5365 14.55281 14.56795 14.57953 14.60046 14.62159 14.64397 14.6643 14.68582 14.70353 14.70941 14.71506 14.72681 14.72996 14.72722 14.72358 14.72012 14.71407 14.71051 14.7074 14.71069 14.71038
0 0 0 0 0 0 0 0 0 0 0 0 0 0 0 0 0 0 0 0 0 0 0 0 0 0 0 0 0 0 0 0 0 0 17.40752 18.02911 17.15566 15.45155 14.60398 14.62566 14.64687 14.66033 14.67331 14.69009 14.71192 14.72382 14.7216 14.71882 14.70807 14.696 14.67537 14.65177 14.62458 14.60012 14.57996 14.56158 14.55482 14.55508 14.56875 14.57721 14.59479 14.59735 14.61451 14.63711 14.65505 14.67325 14.67782 14.68359 14.67857 14.66749 14.65693 14.63297 14.60842 14.58181 14.55277 14.5249 14.50489 14.48845 14.47506 14.47361 14.47721 14.48645 14.49765 14.50761 14.52768 14.54392 14.56538 14.58089 14.6001 14.61138 14.62671 14.64824 14.66613 14.68581 14.70564 14.72102 14.73384 14.74109 14.74237 14.74726 14.74996 14.74812 14.74268 14.73845 14.73964 14.74006 14.74511 14.75543 14.75333
0 0 0 0 0 0 0 0 0 0 0 0 0 0 0 0 0 0 0 0 0 0 0 0 0 0 0 0 0 17.8869 17.4795 17.25136 17.24177 17.01103 16.71686 16.12882 14.63758 14.64337 14.64915 14.66368 14.67527 14.69218 14.70914 14.7229 14.72977 14.73076 14.73078 14.72092 14.71118 14.70394 14.69372 14.68503 14.67108 14.65728 14.64015 14.6299 14.61708 14.61884 14.63055 14.64548 14.65713 14.66367 14.67473 14.69393 14.71216 14.72561 14.73157 14.73614 14.72768 14.72016 14.71079 14.6923 14.6695 14.65095 14.62643 14.60305 14.58253 14.56708 14.55921 14.55403 14.55274 14.55976 14.56764 14.57813 14.58971 14.60133 14.61433 14.62662 14.64092 14.65214 14.66817 14.6847 14.70725 14.72342 14.74007 14.7509 14.76107 14.7741 14.77714 14.77833 14.78252 14.7783 14.76972 14.76879 14.76807 14.77288 14.77536 14.7824 14.76661
0 0 0 0 0 0 0 0 0 0 0 0 0 0 0 0 0 0 0 0 0 0 0 0 0 17.67922 16.95389 16.94501 15.98664 15.31523 14.99377 14.69656 14.69102 14.68397 14.67671 14.66783 14.66341 14.66133 14.66982 14.68397 14.70084 14.71372 14.7234 14.73263 14.73748 14.73916 14.74306 14.74145 14.74479 14.74823 14.74319 14.7364 14.72695 14.71296 14.69889 14.68379 14.67452 14.67359 14.68082 14.69425 14.70391 14.71441 14.72904 14.75121 14.772 14.7833 14.78786 14.79037 14.79069 14.78757 14.77616 14.75569 14.73433 14.7165 14.6951 14.67611 14.65887 14.6417 14.63428 14.62957 14.62889 14.63066 14.63953 14.64621 14.65532 14.66597 14.67627 14.68364 14.69267 14.70468 14.72033 14.73514 14.74879 14.7642 14.77116 14.77959 14.78928 14.79958 14.80259 14.80439 14.80725 14.80066 14.79696 14.79428 14.80234 14.80923 14.81761 14.80644 14.76744
0 0 0 0 0 0 0 0 0 0 0 0 0 0 0 0 0 0 0 0 0 0 0 17.88692 17.00771 16.40977 16.07098 15.73257 14.76803 14.75463 14.74194 14.72765 14.71156 14.69998 14.68666 14.67906 14.67628 14.68103 14.68739 14.69718 14.70926 14.7201 14.73165 14.73515 14.74249 14.746 14.75856 14.77028 14.78099 14.78771 14.79164 14.78754 14.77824 14.76546 14.75182 14.74395 14.73657 14.73573 14.7444 14.7477 14.75587 14.76391 14.77751 14.7948 14.81044 14.82235 14.82565 14.82729 14.8287 14.83076 14.826 14.81334 14.80093 14.78365 14.77268 14.76192 14.74684 14.73558 14.72961 14.71826 14.71418 14.7076 14.70613 14.7124 14.71473 14.72026 14.72272 14.7319 14.73665 14.7517 14.76503 14.78028 14.79142 14.80284 14.81285 14.82445 14.82941 14.83571 14.83335 14.83419 14.83216 14.82614 14.82786 14.82682 14.83222 14.83721 14.83341 14.81179 14.75624
0 0 0 0 0 0 0 0 0 0 0 0 0 0 0 0 0 0 0 0 0 0 17.34999 16.46855 16.12296 16.10263 15.76308 15.41692 14.76986 14.75256 14.73305 14.71625 14.70212 14.69172 14.68264 14.67683 14.67651 14.68091 14.68884 14.7014 14.7131 14.7234 14.73222 14.7435 14.75058 14.76372 14.78313 14.79624 14.80395 14.81278 14.81765 14.81684 14.80973 14.79604 14.78409 14.78625 14.78493 14.78497 14.78833 14.79208 14.79779 14.81127 14.82787 14.84209 14.85083 14.8583 14.8655 14.87217 14.87418 14.87118 14.86856 14.8618 14.85521 14.84375 14.83177 14.82132 14.81523 14.80923 14.80052 14.79273 14.78902 14.7894 14.78845 14.78871 14.78845 14.79232 14.79481 14.80242 14.80714 14.80879 14.81443 14.82399 14.82975 14.83767 14.84803 14.85303 14.85927 14.85965 14.86051 14.86018 14.85786 14.85439 14.85937 14.866 14.86884 14.87236 14.8543 14.81492 14.74639
0 0 0 0 0 0 0 0 0 0 0 0 0 0 0 0 0 0 0 0 0 18.60662 17.56892 16.47248 15.81534 15.78168 15.42623 15.41314 14.76355 14.74583 14.72487 14.71049 14.6962 14.68834 14.68199 14.67604 14.6748 14.67639 14.68184 14.69441 14.70676 14.72106 14.73399 14.74813 14.76343 14.78059 14.80215 14.815 14.82336 14.83149 14.838 14.83745 14.83533 14.82579 14.82076 14.8178 14.81894 14.82223 14.8222 14.82269 14.83268 14.84182 14.85477 14.87161 14.88155 14.89342 14.90709 14.91959 14.92174 14.92505 14.93076 14.92654 14.92145 14.91665 14.90743 14.90331 14.89302 14.88709 14.87537 14.86633 14.8552 14.85075 14.84867 14.84991 14.8527 14.85796 14.86654 14.87363 14.87591 14.87698 14.88019 14.88502 14.88662 14.88695 14.89034 14.89608 14.89166 14.89324 14.89071 14.88572 14.88168 14.88196 14.88569 14.89298 14.89859 14.8937 14.86268 14.80529 14.72921
0 0 0 0 0 0 0 0 0 0 0 0 0 0 0 0 0 0 0 0 0 0 0 17.09637 16.17099 15.80953 15.4482 15.09588 14.75616 14.73436 14.72062 14.71159 14.69714 14.6856 14.67842 14.67668 14.67157 14.67324 14.67832 14.69049 14.70709 14.72222 14.73854 14.75404 14.77134 14.78913 14.80934 14.82316 14.83014 14.83924 14.84669 14.85701 14.86237 14.85942 14.85529 14.8492 14.84394 14.85224 14.85834 14.86743 14.87648 14.88236 14.89521 14.90649 14.91454 14.92625 14.94279 14.95557 14.95879 14.96605 14.96987 14.97283 14.97433 14.97283 14.97525 14.97518 14.96947 14.96306 14.95666 14.94367 14.93577 14.93562 14.93237 14.92925 14.92786 14.93617 14.94054 14.93674 14.93369 14.93179 14.9301 14.93132 14.92819 14.92811 14.92842 14.93336 14.93424 14.93166 14.92824 14.91967 14.9214 14.92205 14.9246 14.9308 14.9275 14.90903 14.86604 14.80001 14.71729
0 0 0 0 0 0 0 0 0 0 0 0 0 0 0 0 0 0 0 0 0 19.05822 18.74752 17.74049 16.23252 15.85348 15.47614 15.4298 15.06263 14.73315 14.71831 14.70549 14.6965 14.68956 14.68348 14.67778 14.67466 14.67806 14.6855 14.69781 14.71279 14.73239 14.74963 14.76535 14.784 14.80031 14.81358 14.82387 14.83936 14.85163 14.86563 14.87653 14.88522 14.89051 14.88775 14.88321 14.8799 14.88063 14.8898 14.90295 14.91217 14.91932 14.93098 14.94195 14.9539 14.96855 14.98133 14.99177 14.99772 15.00273 15.01402 15.01861 15.02463 15.03247 15.03067 15.03259 15.03061 15.02001 15.01016 15.00006 14.99586 14.99751 15.00206 15.00352 15.00557 15.00679 15.00682 15.00692 15.0009 14.99809 14.99198 14.98699 14.98038 14.97736 14.97544 14.9737 14.97361 14.97059 14.96341 14.95905 14.95652 14.95513 14.96163 14.96251 14.94771 14.92013 14.87252 14.80355 14.71248
0 0 0 0 0 0 0 0 0 0 0 0 0 0 0 0 0 0 0 19.09846 19.03859 18.93655 18.0859 16.96143 16.27632 15.88913 15.50163 15.79255 14.76845 14.73364 14.7196 14.7081 14.69945 14.69251 14.69024 14.68451 14.68562 14.69146 14.6996 14.71076 14.72484 14.74377 14.7608 14.77503 14.79013 14.80689 14.82504 14.83995 14.85968 14.87675 14.89421 14.90968 14.92585 14.92977 14.93222 14.9338 14.93497 14.9362 14.94064 14.94635 14.95046 14.95453 14.962 14.97628 14.98948 15.00278 15.01264 15.02217 15.03184 15.03943 15.0517 15.06088 15.074 15.08112 15.09048 15.09559 15.09302 15.08717 15.07997 15.07386 15.06977 15.0719 15.07561 15.07725 15.07115 15.06725 15.05848 15.05404 15.04969 15.04471 15.04445 15.03988 15.03396 15.03096 15.03057 15.02893 15.02888 15.02585 15.01746 15.01221 15.00603 14.99991 14.99876 14.99242 14.97136 14.93406 14.88226 14.81074 14.71954
0 0 0 0 0 0 0 0 0 0 0 0 0 0 0 0 0 0 18.60246 18.47516 18.12293 17.66435 17.037 16.34753 15.97547 15.90955 15.5145 15.12841 14.77897 14.74271 14.72475 14.71327 14.7092 14.70282 14.70011 14.70037 14.70432 14.7105 14.72095 14.73294 14.74593 14.76269 14.77782 14.7939 14.81025 14.82566 14.84068 14.86152 14.88365 14.9043 14.92625 14.94258 14.95694 14.96441 14.97441 14.97936 14.98128 14.98887 14.99138 14.99369 14.99848 14.99901 15.00601 15.01464 15.03093 15.0436 15.04906 15.05351 15.05753 15.0645 15.07739 15.09341 15.10786 15.11986 15.13458 15.14536 15.14664 15.14752 15.14268 15.14007 15.14659 15.14955 15.1562 15.15549 15.14763 15.13865 15.12468 15.11552 15.10539 15.09851 15.09571 15.08999 15.08228 15.07339 15.0713 15.06922 15.07093 15.0669 15.05891 15.04951 15.04548 15.04326 15.04373 15.02649 15.00034 14.96049 14.9076 14.83649 14.74877
0 0 0 0 0 0 0 0 0 0 0 0 0 0 0 0 0 19.05946 18.50366 17.87556 17.36529 16.72956 16.38752 16.36712 16.34395 15.93145 15.52604 14.81913 14.77838 14.74486 14.72734 14.71657 14.70987 14.70587 14.70681 14.71123 14.71765 14.72608 14.73801 14.74766 14.76631 14.78427 14.79939 14.81915 14.83757 14.85482 14.8729 14.89225 14.91374 14.9419 14.96295 14.98397 14.99874 15.00912 15.01925 15.02081 15.02008 15.02036 15.02333 15.03157 15.03495 15.03474 15.03788 15.04489 15.05296 15.06804 15.07475 15.08078 15.08542 15.09587 15.11224 15.12894 15.14864 15.16413 15.1749 15.18711 15.19461 15.19841 15.19977 15.19992 15.20799 15.20989 15.21508 15.21025 15.20334 15.19171 15.17583 15.16492 15.15663 15.14853 15.14327 15.13509 15.13071 15.12231 15.11866 15.11353 15.11083 15.10529 15.09846 15.08594 15.07737 15.07181 15.06873 15.05227 15.02579 14.9841 14.93323 14.8673 14.7892
0 0 0 0 0 0 0 0 0 0 0 0 0 0 0 0 18.5792 18.54704 17.69004 17.08434 16.75306 16.40872 16.39222 16.3743 16.34276 15.93564 15.52177 14.8213 14.77512 14.74693 14.7302 14.71771 14.71324 14.71545 14.71796 14.72661 14.73686 14.74441 14.7538 14.76756 14.78637 14.80621 14.82697 14.84662 14.86769 14.88738 14.90839 14.93034 14.94936 14.97121 14.99787 15.02119 15.04365 15.05253 15.06015 15.06618 15.06705 15.06995 15.07325 15.076 15.07388 15.07215 15.07507 15.07488 15.08055 15.08577 15.0933 15.09885 15.108 15.11904 15.13393 15.15446 15.17605 15.19295 15.21289 15.22831 15.2416 15.24929 15.26066 15.2706 15.27642 15.28151 15.27929 15.27679 15.26479 15.24726 15.22762 15.21241 15.19462 15.18393 15.17122 15.16175 15.15684 15.15397 15.15068 15.1477 15.14597 15.13988 15.13333 15.1238 15.1156 15.11022 15.10272 15.08249 15.05504 15.01972 14.96889 14.90284 14.8299
0 0 0 0 0 0 0 0 0 0 0 0 0 0 0 19.15591 18.41966 17.71392 17.09995 16.76337 16.41594 16.40666 16.39792 16.01951 15.97603 15.58201 14.86208 14.81177 14.77053 14.74941 14.73211 14.72448 14.72277 14.72679 14.73463 14.74617 14.75963 14.77385 14.78627 14.80251 14.82288 14.8471 14.87274 14.89697 14.92351 14.94447 14.96201 14.98173 15.0026 15.02691 15.04797 15.0657 15.08014 15.09274 15.10006 15.10626 15.1143 15.12013 15.1257 15.13458 15.13488 15.13603 15.13355 15.12549 15.11925 15.11884 15.11983 15.1275 15.13298 15.14365 15.15649 15.17609 15.20115 15.22102 15.24422 15.26306 15.27856 15.29398 15.30331 15.31358 15.32307 15.33091 15.33394 15.33375 15.32257 15.30716 15.28659 15.26784 15.25135 15.2305 15.21382 15.20269 15.19523 15.1894 15.18364 15.1801 15.17472 15.16452 15.15594 15.14551 15.13817 15.13276 15.12385 15.10695 15.08455 15.05246 15.0047 14.94504 14.8757
0 0 0 0 0 0 0 0 0 0 0 0 0 0 18.50565 18.50268 17.78319 17.13187 16.77528 16.41899 16.40933 16.04468 16.01541 15.98561 15.60327 15.20894 14.84599 14.80023 14.77079 14.75299 14.7441 14.74013 14.74073 14.74746 14.75746 14.77023 14.78408 14.79907 14.81818 14.8407 14.86756 14.89499 14.92783 14.96048 14.99041 15.01364 15.03379 15.0552 15.07746 15.09418 15.10889 15.1253 15.13672 15.14525 15.15428 15.15845 15.1652 15.17318 15.18461 15.19474 15.20032 15.19958 15.19896 15.1901 15.17186 15.15549 15.1523 15.1547 15.15764 15.16032 15.17328 15.19271 15.22082 15.25034 15.27693 15.29962 15.32681 15.34269 15.35455 15.36134 15.36824 15.37439 15.37642 15.3706 15.36345 15.35397 15.33391 15.31388 15.29049 15.27039 15.25402 15.24253 15.23253 15.22531 15.21869 15.2085 15.20087 15.19424 15.1845 15.17391 15.16327 15.15843 15.14855 15.12928 15.10473 15.07216 15.02535 14.9668 14.90042
0 0 0 0 0 0 0 0 0 0 0 0 0 18.38445 18.5589 17.80513 17.15371 16.79762 16.43019 16.41334 16.04445 16.01956 15.99354 15.97216 15.58199 14.86934 14.83117 14.79626 14.77573 14.7633 14.76074 14.76707 14.77246 14.77871 14.78972 14.80625 14.82184 14.83931 14.86664 14.89414 14.9267 14.95926 14.99256 15.0252 15.05703 15.07712 15.10258 15.12668 15.14792 15.16276 15.1735 15.18711 15.19509 15.19797 15.20376 15.20432 15.20791 15.22117 0 0 0 15.19962 15.21393 15.2671 15.24658 15.21499 15.1954 15.18681 15.17991 15.17465 15.18413 15.20539 15.23762 15.26868 15.30005 15.33481 15.36071 15.38621 15.40061 15.4095 15.41844 15.42369 15.42504 15.42139 15.41686 15.40746 15.38869 15.36927 15.3426 15.31724 15.2992 15.27992 15.26874 15.25552 15.24864 15.23663 15.22497 15.21723 15.20833 15.19719 15.18803 15.18682 15.17757 15.16147 15.13292 15.10118 15.05696 14.99611 14.92426
0 0 0 0 0 0 0 0 0 0 0 0 0 18.77031 17.82413 17.16766 16.78782 16.41449 16.40226 16.01623 16.01574 15.99624 15.97898 14.91152 14.88612 14.85369 14.82254 14.7941 14.78152 14.77578 14.78161 14.78779 14.79695 14.8056 14.82357 14.84361 14.86437 14.88945 14.92032 14.95594 14.99486 15.03479 15.07253 15.10353 15.13274 15.16588 15.19271 15.21099 15.21857 15.22708 15.23685 16.02535 15.2531 15.24204 15.23674 15.60249 16.39256 17.20438 0 0 0 0 0 15.69014 15.29568 15.26638 15.23531 15.21487 15.19772 15.19137 15.20534 15.22453 15.25217 15.29018 15.33057 15.36612 15.39642 15.42085 15.43941 15.44737 15.45107 15.45514 15.45896 15.4592 15.4558 15.44865 15.43564 15.4187 15.3966 15.37405 15.3553 15.33816 15.3184 15.30256 15.28985 15.27657 15.2655 15.25305 15.24018 15.22633 15.21496 15.20939 15.19957 15.1829 15.15623 15.12428 15.07941 15.01547 14.93839
0 0 0 0 0 0 0 0 0 0 0 0 18.93295 18.12269 17.16331 16.78008 16.39147 16.0088 16.00106 16.00345 15.99542 15.98814 15.60929 14.90341 14.87514 14.84338 14.81486 14.79399 14.78986 14.79358 14.79957 14.81091 14.8261 14.84362 14.85906 14.87727 14.89979 14.92792 14.96717 15.00971 15.05633 15.10064 15.13396 15.17185 15.20944 15.23251 15.24091 0 0 15.2275 0 16.92462 16.08807 15.65914 16.04342 16.01832 16.8121 17.2497 18.22861 16.01113 15.27621 0 0 0 16.95118 15.283 15.25316 15.23003 15.21686 15.2115 15.22128 15.24325 15.27194 15.31348 15.35635 15.39477 15.42841 15.45875 15.47512 15.48168 15.48601 15.49095 15.49355 15.48889 15.48588 15.47966 15.46829 15.45234 15.43502 15.41336 15.3931 15.37808 15.36121 15.34335 15.32833 15.316 15.30336 15.29108 15.27919 15.265 15.25313 15.24418 15.23171 15.21201 15.18284 15.14941 15.10299 15.03705 14.95247
0 0 0 0 0 0 0 0 0 0 0 18.21604 18.16622 17.16702 16.77668 15.99577 16.00153 16.00477 16.00752 16.00775 16.01541 15.28971 14.93344 14.9034 14.87198 14.84292 14.8219 14.80901 14.81045 14.81678 14.82699 14.83923 14.85419 14.8673 14.88706 14.91236 14.94522 14.98468 15.03252 15.08407 15.13713 15.18035 15.2101 15.23495 16.04789 0 0 0 0 0 17.73104 18.53746 18.28656 17.67626 17.29298 16.8514 16.83194 15.63501 15.26355 15.27445 15.27792 15.27625 15.2732 17.32335 17.69147 15.28517 15.2604 15.24328 15.23708 15.23221 15.2448 15.26423 15.29445 15.3323 15.37625 15.41747 15.45282 15.47866 15.49361 15.50331 15.51181 15.51886 15.52089 15.51682 15.51663 15.51 15.50533 15.4926 15.47897 15.46271 15.44381 15.41979 15.40092 15.38443 15.36723 15.35063 15.33676 15.32107 15.30704 15.29436 15.28375 15.27373 15.25823 15.23445 15.20644 15.17528 15.13259 15.06458 14.97579
0 0 0 0 0 0 0 0 0 0 18.96506 18.22814 17.18182 16.40033 16.01633 15.64145 15.65127 15.65835 15.66351 15.67021 15.67157 14.96897 14.94108 14.91583 14.88608 14.85873 14.8412 14.83261 14.83409 14.8404 14.85037 14.86319 14.87303 14.89 14.91376 14.94577 14.99027 15.03976 15.09495 15.15965 15.21827 15.25207 15.6538 0 0 0 0 0 0 0 0 0 0 0 17.67696 17.30471 16.46987 15.27562 15.28528 15.29553 15.30069 15.29901 15.29668 15.29614 15.29577 15.29195 15.27769 15.2669 15.26637 15.26447 15.27335 15.29248 15.32266 15.35778 15.39595 15.43216 15.46672 15.49401 15.51336 15.52466 15.53289 15.53667 15.535 15.53423 15.53379 15.53189 15.52442 15.51688 15.5081 15.50035 15.48346 15.46373 15.44277 15.42795 15.41092 15.39464 15.378 15.36477 15.35016 15.33745 15.32544 15.30836 15.28908 15.25779 15.22702 15.19228 15.14804 15.08043 14.99156
0 0 0 0 0 0 0 0 0 0 18.53641 17.21085 16.43056 16.02074 15.30133 15.30395 14.97728 14.98457 14.99869 14.99916 14.99362 14.98652 14.96319 14.93647 14.91232 14.88869 14.87364 14.86709 14.8731 14.87731 14.89013 14.89923 14.9091 14.92584 14.95568 14.99226 15.03587 15.0873 15.14498 15.20885 16.46119 0 0 0 0 0 0 0 0 0 0 0 0 0 18.35358 16.94217 15.3059 15.3097 15.32032 15.33759 15.34496 15.34257 15.33705 15.32731 15.31891 15.30596 15.29893 15.29815 15.2995 15.2978 15.30602 15.32667 15.35082 15.38484 15.41975 15.45297 15.48559 15.51428 15.53304 15.55034 15.55548 15.55571 15.553 15.55315 15.54976 15.54562 15.54265 15.54116 15.53426 15.5222 15.50788 15.49228 15.47614 15.45951 15.44386 15.42773 15.41183 15.39848 15.388 15.37589 15.36437 15.34622 15.32286 15.28988 15.25603 15.21501 15.16553 15.09765 15.0102
0 0 0 0 0 0 0 0 0 18.62864 17.98205 16.82732 16.03165 15.29686 14.96556 14.9688 14.976 14.98199 14.98917 14.99333 14.99642 14.99686 14.9801 14.9602 14.94003 14.92202 14.90839 14.90405 14.91257 14.92024 14.93433 14.94136 14.95037 14.97124 15.00372 15.04154 15.08658 15.13685 15.19258 16.02517 16.26032 0 0 0 0 0 0 0 0 0 0 0 0 17.63064 17.38899 16.12687 15.32368 15.33468 15.3571 15.3769 15.38737 15.38825 15.37966 15.36691 15.35464 15.34411 15.34305 15.34415 15.34302 15.33791 15.34537 15.3603 15.38341 15.41138 15.44318 15.47068 15.50363 15.53107 15.55116 15.56496 15.57516 15.57286 15.57084 15.56858 15.56721 15.5666 15.56736 15.56857 15.56252 15.55201 15.54006 15.52534 15.51349 15.49787 15.47936 15.46299 15.44856 15.43228 15.4207 15.40793 15.39354 15.37308 15.34483 15.31263 15.27371 15.22856 15.17611 15.10638 15.02322
0 0 0 0 0 0 0 0 19.42327 18.35242 16.86263 16.02355 15.63856 14.94812 14.94505 14.95189 14.95591 14.9665 14.97787 14.98699 14.99543 14.99932 14.99132 14.98186 14.97039 14.95694 14.95586 14.95202 14.95941 14.9683 14.97801 14.98434 14.99597 15.015 15.04557 15.08085 15.12536 15.16622 15.58088 16.02896 16.49269 17.34506 0 18.20601 18.79446 0 0 0 0 0 0 0 18.43298 17.40326 16.57437 15.33213 15.34503 15.3694 15.39341 15.41312 15.41835 15.41855 15.40937 15.39798 15.38863 15.38123 15.37705 15.37681 15.37406 15.37457 15.38331 15.3967 15.42328 15.44323 15.47265 15.49742 15.52453 15.54858 15.56939 15.58575 15.59455 15.59124 15.58687 15.58428 15.58285 15.5843 15.58296 15.58582 15.57966 15.5751 15.56177 15.54448 15.53386 15.52508 15.51298 15.49639 15.48439 15.47238 15.46012 15.442 15.42475 15.40243 15.36936 15.33227 15.28923 15.23855 15.17899 15.10706 15.02748
0 0 0 0 0 0 0 0 19.44281 18.35788 16.86254 16.01196 14.94361 14.92811 14.92257 14.92612 14.93352 14.94581 14.96278 14.97944 14.9958 15.00623 15.00389 15.00264 15.00201 15.00185 15.00998 15.01765 15.03036 15.0408 15.05009 15.05424 15.05878 15.07561 15.09622 15.12574 15.16004 15.18906 15.21487 15.63096 16.06167 16.50854 16.96018 17.40711 18.19821 0 0 0 0 0 0 17.82932 17.00871 17.00291 15.34011 15.36046 15.38411 15.41621 15.43875 15.45209 15.45558 15.45052 15.4401 15.42888 15.41868 15.41064 15.40454 15.39869 15.39767 15.4033 15.40829 15.42446 15.44331 15.46484 15.49539 15.52137 15.54702 15.57312 15.59722 15.61197 15.61752 15.61209 15.6091 15.6086 15.6103 15.61189 15.61144 15.61049 15.60523 15.59494 15.5812 15.56708 15.55517 15.545 15.53366 15.52086 15.51026 15.50003 15.48255 15.4678 15.44947 15.42094 15.38621 15.34227 15.29676 15.24 15.17588 15.1042 15.02964
0 0 0 0 0 0 0 0 0 18.39005 16.86992 16.02202 14.93045 14.91053 14.90247 14.90416 14.91631 14.93192 14.94987 14.977 14.99567 15.0125 15.01652 15.02307 15.03095 15.0456 15.0628 15.07806 15.09849 15.11963 15.12906 15.12983 15.13095 15.13635 15.15416 15.1781 15.1982 15.21827 15.23755 15.25484 15.26762 15.28405 15.30197 15.70195 16.55746 17.40718 18.22254 18.55468 0 0 18.1675 17.00609 16.15511 15.34712 15.36385 15.3974 15.42729 15.45573 15.4748 15.48305 15.48359 15.47702 15.46891 15.45834 15.45072 15.44087 15.43539 15.43219 15.43196 15.43688 15.44112 15.45186 15.46569 15.49113 15.51753 15.54507 15.57278 15.59623 15.61755 15.63027 15.63345 15.62838 15.62685 15.6285 15.62543 15.62956 15.63527 15.63646 15.632 15.62172 15.60838 15.59476 15.58076 15.5682 15.55857 15.5466 15.53478 15.51899 15.50256 15.48292 15.46039 15.42796 15.39307 15.34888 15.29733 15.23671 15.17209 15.09753 15.02375
0 0 0 0 0 0 0 0 0 19.3413 17.70476 16.44671 15.26441 14.90653 14.88941 14.88464 14.90061 14.92033 14.94152 14.97499 14.99831 15.01956 15.03408 15.04754 15.07123 15.09642 15.1235 15.14827 15.17204 15.18944 15.19544 15.19154 15.18431 15.19181 15.20084 15.21681 15.23232 15.24734 15.26005 15.27334 15.28233 15.28763 15.29884 15.30952 15.71201 16.13582 16.56747 16.98858 18.18657 17.00968 15.71329 15.334 15.35361 15.3755 15.40816 15.43564 15.46245 15.4824 15.49593 15.50583 15.50549 15.50087 15.49219 15.48048 15.46978 15.465 15.46367 15.46244 15.46002 15.46375 15.4675 15.48109 15.50055 15.52317 15.54693 15.57331 15.5996 15.62167 15.6403 15.65023 15.65262 15.64968 15.64424 15.64091 15.64119 15.65005 15.65464 15.65587 15.65001 15.64115 15.62621 15.61271 15.60114 15.58927 15.57569 15.56689 15.55774 15.54083 15.52413 15.50455 15.47471 15.44499 15.40652 15.35837 15.30503 15.23988 15.16754 15.09021 15.01169
0 0 0 0 0 0 0 0 0 19.4823 18.73037 16.89405 15.64028 14.91065 14.88428 14.87532 14.8905 14.9067 14.93081 14.95915 14.99415 15.02736 15.04972 15.07635 15.1107 15.14851 15.19205 15.23041 15.26636 15.27359 15.27145 15.26478 15.25289 15.24568 15.24869 15.25731 15.26841 15.27733 15.2839 15.28793 15.29338 15.2992 15.30647 15.31855 15.33045 15.33713 15.73912 0 17.01816 15.73823 15.35215 15.37282 15.39756 15.42665 15.45749 15.48254 15.50371 15.51587 15.5243 15.52414 15.52015 15.52041 15.51658 15.50661 15.49893 15.49391 15.48712 15.48296 15.48376 15.48442 15.49033 15.50419 15.52434 15.54688 15.57159 15.59454 15.62024 15.64321 15.65572 15.66054 15.66311 15.66062 15.65694 15.65366 15.65901 15.66689 15.66981 15.67601 15.67433 15.66307 15.65089 15.6357 15.62013 15.60739 15.59309 15.57886 15.56835 15.55937 15.54058 15.51774 15.4879 15.45443 15.41371 15.36539 15.31031 15.24149 15.16517 15.08349 14.99475
0 0 0 0 0 0 0 0 0 0 19.21832 17.75182 16.04907 15.25892 14.88923 14.87281 14.87384 14.89006 14.91528 14.94723 14.98582 15.02708 15.06047 15.09489 15.13829 15.1848 15.23833 15.28728 0 0 0 15.51102 15.29176 15.28766 15.28723 15.29351 15.30098 15.30495 15.303 15.30288 15.30314 15.30745 15.31185 15.32471 15.34206 15.35419 15.37139 15.78027 15.37886 15.38015 15.39449 15.41941 15.44844 15.47534 15.49561 15.51186 15.52372 15.53169 15.53684 15.5359 15.53786 15.53829 15.53603 15.53575 15.5272 15.52096 15.52016 15.51512 15.51186 15.51679 15.51825 15.53274 15.55065 15.57421 15.59377 15.60939 15.62963 15.64909 15.65598 15.6618 15.66183 15.65997 15.65966 15.66075 15.66944 15.68037 15.68463 15.69 15.6848 15.68034 15.67081 15.65795 15.64458 15.62935 15.61606 15.59945 15.58777 15.57418 15.55423 15.52882 15.50104 15.46683 15.42412 15.37124 15.31666 15.24419 15.16235 15.07869 14.98383
0 0 0 0 0 0 0 0 0 0 0 19.0893 17.7106 16.02661 15.24857 14.89408 14.8633 14.87696 14.89964 14.94067 14.98634 15.03703 15.07701 15.11373 15.15622 15.21103 15.63222 16.04663 0 0 0 16.19028 16.4742 15.30204 15.30381 15.30893 15.32189 15.32665 15.32532 15.32157 15.31448 15.31327 15.32237 15.34187 15.36607 15.38271 15.39639 15.41299 15.4176 15.42758 15.44847 15.47169 15.49572 15.5187 15.53105 15.53941 15.54195 15.54744 15.55106 15.55399 15.55785 15.55833 15.56124 15.55854 15.55536 15.54908 15.54368 15.54337 15.53911 15.54023 15.54967 15.55816 15.5754 15.59267 15.60985 15.6243 15.63944 15.65016 15.66138 15.66394 15.66459 15.66168 15.66427 15.67297 15.67995 15.68595 15.69199 15.69529 15.69005 15.68578 15.67681 15.66897 15.65398 15.64175 15.62851 15.61607 15.60089 15.58376 15.56008 15.53619 15.50535 15.47105 15.42905 15.38025 15.32336 15.25395 15.17136 15.08659 14.99061
0 0 0 0 0 0 0 0 0 0 0 0 19.1998 18.04696 15.9827 15.23664 14.86054 14.86673 14.89253 14.93556 14.98923 15.05176 15.08932 15.12659 15.16187 15.22135 16.02053 0 0 17.6552 17.74441 16.11725 15.3238 15.30845 15.3087 15.31852 15.32949 15.33651 15.33992 15.33839 15.32876 15.32763 15.33948 15.36189 15.38661 15.40764 15.42573 15.43952 15.45167 15.46809 15.48891 15.51172 15.53537 15.55268 15.56342 15.56922 15.57731 15.57806 15.57833 15.57833 15.58555 15.58827 15.58748 15.58348 15.58116 15.57412 15.57191 15.56786 15.5613 15.56145 15.57003 15.57695 15.58715 15.60517 15.62205 15.63697 15.65064 15.66247 15.66781 15.67091 15.67038 15.67376 15.67912 15.68714 15.68914 15.6914 15.69399 15.69804 15.69571 15.69165 15.6857 15.67729 15.66732 15.65313 15.6402 15.6284 15.61276 15.59199 15.56738 15.53833 15.5115 15.47461 15.43258 15.38384 15.32857 15.26311 15.18536 15.10335 15.01995
0 0 0 0 0 0 0 0 0 0 0 0 0 0 0 15.93509 15.18072 14.86224 14.89404 14.93817 15.00267 15.06508 15.10199 15.13185 15.15757 15.57132 15.63425 16.04815 16.45622 18.67671 17.74345 16.10657 15.32283 15.31199 15.30922 15.31958 15.33744 15.34923 15.35213 15.35083 15.35122 15.35701 15.36676 15.38218 15.401 15.42015 15.43899 15.4542 15.47168 15.49762 15.52484 15.5487 15.56911 15.58349 15.59344 15.59971 15.60712 15.60561 15.60389 15.60177 15.60647 15.61138 15.60353 15.59836 15.59896 15.59835 15.59447 15.59109 15.5917 15.5938 15.59678 15.60075 15.61417 15.62726 15.64248 15.65341 15.66149 15.67029 15.67679 15.68168 15.68351 15.68607 15.69252 15.69723 15.69989 15.70022 15.70097 15.701 15.70297 15.69804 15.69007 15.6809 15.66923 15.66077 15.65168 15.64178 15.62291 15.60175 15.58028 15.55347 15.52137 15.4871 15.44941 15.40171 15.34593 15.28248 15.20917 15.13083 15.0542
0 0 0 0 0 0 0 0 0 0 0 0 0 0 0 16.71802 15.90461 14.87157 14.91192 14.952 15.01805 15.08365 15.12291 15.14548 15.1683 15.21092 16.01324 16.06192 16.47942 0 17.79069 15.33763 15.32465 15.31226 15.32865 15.32886 15.34465 15.35705 15.36617 15.37418 15.37908 15.38279 15.39385 15.40734 15.42102 15.43704 15.45648 15.47247 15.50115 15.53013 15.56291 15.58401 15.6023 15.61388 15.62386 15.63296 15.63093 15.63035 15.62763 15.62636 15.62268 15.6211 15.62127 15.61635 15.61237 15.60946 15.60666 15.60724 15.61099 15.61066 15.6181 15.62757 15.63683 15.64684 15.66064 15.674 15.68226 15.69253 15.69884 15.70146 15.70555 15.71062 15.71409 15.71534 15.71572 15.71353 15.71273 15.70973 15.70264 15.69666 15.68949 15.67824 15.67342 15.66737 15.65941 15.64624 15.63007 15.61099 15.58998 15.5686 15.53963 15.50869 15.47472 15.43328 15.38165 15.32072 15.2534 15.18241 15.11089
0 0 0 0 0 0 0 0 0 0 0 0 0 17.96458 17.56978 16.71376 15.93905 14.89288 14.92721 14.98277 15.04836 15.11625 15.15152 15.17565 15.19687 15.22729 16.41129 16.8591 17.30696 17.21278 18.19414 15.71032 15.32269 15.31935 15.33412 15.34714 15.36579 15.37817 15.38728 15.39467 15.40103 15.40782 15.4155 15.43055 15.44407 15.46015 15.47994 15.5018 15.53095 15.5651 15.59691 15.61446 15.62597 15.63718 15.64473 15.64897 15.64996 15.6484 15.64974 15.64584 15.6427 15.6443 15.64169 15.63535 15.62833 15.62672 15.62714 15.62706 15.6291 15.63122 15.639 15.64698 15.65413 15.66597 15.682 15.69399 15.70348 15.71058 15.71769 15.71846 15.72547 15.73156 15.731 15.73006 15.7262 15.7249 15.72104 15.71753 15.70604 15.69495 15.68663 15.68256 15.67892 15.67353 15.66425 15.65151 15.63574 15.62317 15.60538 15.58306 15.55385 15.52522 15.49201 15.45296 15.40803 15.3533 15.29148 15.22912 15.16886
0 0 0 0 0 0 0 0 0 0 0 0 17.15738 16.74326 16.74523 16.34931 15.60696 14.93303 14.96519 15.02357 15.08349 15.14846 15.18197 15.20793 15.2258 15.25505 16.05441 16.08829 16.90073 17.72253 16.09498 15.30808 15.32216 15.33932 15.364 15.38437 15.40086 15.41314 15.41818 15.41716 15.42157 15.4297 15.44158 15.4559 15.47193 15.48862 15.50869 15.52748 15.55084 15.57952 15.60694 15.62632 15.64 15.65248 15.65917 15.65948 15.66055 15.66305 15.66297 15.65847 15.65796 15.6569 15.6495 15.64285 15.63869 15.63665 15.63722 15.64206 15.64609 15.65126 15.66164 15.66982 15.68182 15.69437 15.70511 15.71135 15.7226 15.73267 15.73451 15.73281 15.73663 15.73868 15.73823 15.72915 15.72676 15.72369 15.7225 15.7159 15.70765 15.69614 15.69047 15.68454 15.68057 15.67536 15.67033 15.65864 15.65061 15.63804 15.62451 15.60365 15.57894 15.55183 15.51689 15.48233 15.4405 15.38889 15.32999 15.27131 15.21583
0 0 0 0 0 0 0 0 18.95718 18.34835 17.16792 16.32975 16.31358 16.31558 15.97015 16.01225 15.67016 14.99259 15.0305 15.08217 15.14112 15.19882 15.22777 15.24883 15.26918 15.29025 15.31136 15.32109 15.33031 15.32945 15.32373 15.33187 15.3524 15.37391 15.39214 15.41286 15.42255 15.43285 15.43663 15.43286 15.43621 15.44904 15.45885 15.47498 15.4947 15.51522 15.53974 15.55668 15.57405 15.5946 15.60975 15.62876 15.64383 15.65954 15.66813 15.67227 15.67522 15.67511 15.6744 15.67028 15.66978 15.66447 15.66032 15.65542 15.64944 15.64525 15.64973 15.65324 15.65684 15.66898 15.68212 15.69697 15.71318 15.72603 15.73052 15.72999 15.73455 15.74372 15.74753 15.74695 15.74758 15.74379 15.73878 15.735 15.72834 15.7239 15.71442 15.71099 15.70311 15.6969 15.68903 15.68395 15.6791 15.67334 15.66992 15.66648 15.65606 15.64725 15.63457 15.62164 15.60383 15.58001 15.55318 15.51591 15.47915 15.43023 15.3774 15.32421 15.27065
0 0 0 0 0 0 0 17.94749 18.02986 16.35015 15.93679 15.91732 15.93632 15.95023 16.0022 15.70053 15.03163 15.0564 15.09802 15.14776 15.20136 15.25373 15.2789 15.29469 15.31188 15.32964 15.3481 15.36009 15.3664 15.37368 15.37804 15.38817 15.40043 15.40945 15.41904 15.42712 15.43656 15.44421 15.4458 15.44523 15.45157 15.46301 15.47324 15.49028 15.51391 15.53448 15.55631 15.57418 15.58761 15.6052 15.61953 15.63049 15.6436 15.65843 15.67098 15.67997 15.68349 15.68591 15.68714 15.68489 15.68595 15.68101 15.67426 15.66664 15.66359 15.6665 15.67053 15.67404 15.67779 15.69433 15.70484 15.72147 15.7318 15.74407 15.74881 15.74728 15.75025 15.75854 15.75607 15.75621 15.75711 15.74513 15.73901 15.73258 15.72303 15.71465 15.70787 15.69932 15.69169 15.68704 15.68596 15.67957 15.67547 15.67311 15.6701 15.6729 15.66746 15.65907 15.6528 15.6426 15.62735 15.60752 15.57943 15.54788 15.50975 15.46516 15.41938 15.36906 15.31522
0 0 0 0 0 0 18.45394 18.44381 16.35911 15.91303 15.88721 15.90148 15.94515 15.64257 15.35682 15.06992 15.08383 15.11312 15.15926 15.20369 15.25478 15.29819 15.31913 15.32897 15.3446 15.36217 15.37557 15.39114 15.40895 15.41718 15.42172 15.42929 15.43462 15.43668 15.44572 15.44932 15.45613 15.46079 15.46558 15.46785 15.47463 15.48232 15.49222 15.50988 15.53115 15.54488 15.55812 15.57041 15.58893 15.60701 15.61939 15.63525 15.64777 15.6573 15.66295 15.67583 15.68158 15.68303 15.68564 15.68992 15.69268 15.69151 15.68567 15.68102 15.68065 15.68535 15.69114 15.6989 15.70659 15.72434 15.73295 15.74326 15.75513 15.76367 15.76517 15.76595 15.77213 15.77435 15.77103 15.76304 15.75745 15.74933 15.74084 15.72498 15.71331 15.70351 15.69097 15.68278 15.68008 15.67727 15.6773 15.67781 15.67328 15.67318 15.67508 15.68116 15.6791 15.67269 15.66844 15.66311 15.65385 15.63686 15.61586 15.58732 15.55256 15.51748 15.47332 15.42553 15.37244
0 0 0 0 0 0 19.28746 17.63055 16.31457 15.87713 15.52884 15.57502 15.3009 15.03446 15.09019 15.12987 15.158 15.19203 15.23123 15.26754 15.30461 15.34146 15.3522 15.36293 15.37305 15.38672 15.39989 15.41923 15.43486 15.44422 15.45184 15.45459 15.45467 15.45729 15.45976 15.46399 15.46905 15.4712 15.48031 15.48757 15.49589 15.50282 15.51435 15.52673 15.53426 15.54536 15.5558 15.57008 15.58352 15.6006 15.61657 15.63205 15.64312 15.65539 15.65912 15.66744 15.67377 15.67741 15.68284 15.68843 15.68769 15.68843 15.69032 15.68752 15.69262 15.69954 15.70418 15.71926 15.73259 15.74289 15.74995 15.76018 15.7706 15.77574 15.78207 15.78347 15.79143 15.78836 15.78843 15.77643 15.76516 15.75745 15.74042 15.72198 15.70716 15.69 15.67969 15.6728 15.66931 15.67278 15.67441 15.67574 15.67742 15.67921 15.68266 15.68491 15.68361 15.68355 15.68295 15.68017 15.6715 15.6625 15.64529 15.62475 15.59757 15.56352 15.52605 15.48334 15.43839
0 0 0 0 0 19.3682 18.93343 17.60047 16.29384 15.90231 15.24113 14.97031 15.03373 15.09176 15.14184 15.18163 15.21427 15.24659 15.28054 15.31 15.34056 15.36811 15.37812 15.38808 15.39926 15.41667 15.42514 15.44175 15.45182 15.46431 15.47098 15.47185 15.47076 15.46803 15.46698 15.4655 15.46711 15.4737 15.48106 15.49025 15.50089 15.50922 15.51958 15.52432 15.5305 15.54208 15.55022 15.5619 15.57562 15.59175 15.6062 15.61912 15.63078 15.64363 15.64818 15.65798 15.66511 15.67025 15.67911 15.67906 15.68256 15.6849 15.68974 15.70004 15.71052 15.71941 15.72921 15.73901 15.75163 15.76272 15.77091 15.77913 15.7878 15.79175 15.80154 15.80393 15.80853 15.80997 15.803 15.79161 15.77789 15.76455 15.74385 15.72805 15.71004 15.68891 15.67948 15.67598 15.67679 15.68056 15.68301 15.68218 15.6888 15.698 15.70488 15.70501 15.70352 15.70432 15.70684 15.70346 15.69865 15.69311 15.67871 15.6608 15.63832 15.60716 15.57553 15.53754 15.49661
0 0 0 0 18.41553 18.04847 16.33928 15.91381 15.54955 14.92033 14.97329 15.02895 15.08612 15.13123 15.17147 15.21001 15.24143 15.27278 15.30394 15.33513 15.36226 15.38773 15.39849 15.41034 15.42584 15.43445 15.44567 15.45564 15.46588 15.47438 15.47377 15.47342 15.47419 15.47427 15.46941 15.47317 15.47392 15.47668 15.48323 15.49257 15.49593 15.50354 15.51135 15.51833 15.52494 15.53042 15.53907 15.54816 15.56246 15.57514 15.5904 15.60547 15.61643 15.62799 15.63751 15.64857 15.6571 15.66764 15.67277 15.67769 15.68485 15.69271 15.69764 15.71036 15.72405 15.73615 15.7481 15.76192 15.77503 15.78551 15.79751 15.8071 15.81345 15.8149 15.81803 15.82314 15.82777 15.82446 15.81682 15.80451 15.79148 15.77646 15.75699 15.73842 15.72235 15.70675 15.69608 15.6949 15.693 15.69558 15.69845 15.70428 15.71009 15.71756 15.72751 15.7304 15.7317 15.73475 15.73657 15.73836 15.73856 15.72916 15.7203 15.71084 15.6918 15.66687 15.63936 15.60466 15.56979
0 0 0 0 19.47024 16.77521 14.93192 14.91278 14.92574 14.96969 15.0327 15.09003 15.13395 15.17288 15.20406 15.24056 15.26582 15.29193 15.32655 15.35585 15.38216 15.40225 15.41326 15.42305 15.4365 15.4477 15.45563 15.46061 15.46702 15.47143 15.47235 15.47531 15.47631 15.47527 15.4735 15.47635 15.47329 15.47468 15.47861 15.4843 15.49504 15.50034 15.50355 15.50701 15.51125 15.51489 15.52331 15.52964 15.54524 15.55996 15.57699 15.59036 15.59986 15.61075 15.62013 15.6312 15.64618 15.65787 15.66894 15.67514 15.68615 15.69251 15.70427 15.71745 15.73304 15.74905 15.76202 15.77708 15.79173 15.80516 15.81932 15.82325 15.82736 15.83253 15.83627 15.837 15.83854 15.83274 15.82429 15.81326 15.80041 15.78705 15.77144 15.75615 15.73605 15.72254 15.72236 15.72524 15.72524 15.72469 15.72615 15.73326 15.73761 15.7449 15.75269 15.75345 15.75338 15.75566 15.76317 15.76882 15.76918 15.76734 15.76297 15.75227 15.74052 15.72454 15.70628 15.67882 15.64491
0 0 0 18.5534 18.11802 16.34942 14.91279 14.9195 14.96224 15.01844 15.08801 15.14023 15.17957 15.21227 15.24277 15.2684 15.29335 15.32179 15.34932 15.37625 15.39614 15.41487 15.42294 15.43185 15.44034 15.44701 15.45525 15.45733 15.45979 15.46274 15.46522 15.46757 15.47 15.47202 15.4779 15.47904 15.47052 15.47171 15.47589 15.48173 15.48719 15.48931 15.49158 15.49141 15.49389 15.50066 15.51224 15.5244 15.53245 15.54308 15.55729 15.57076 15.5823 15.59221 15.60358 15.61796 15.63202 15.64144 15.65676 15.67139 15.68318 15.69597 15.71183 15.72648 15.73859 15.75351 15.77192 15.78669 15.80406 15.81816 15.82875 15.83435 15.84205 15.84074 15.84312 15.84171 15.84442 15.83788 15.8266 15.81681 15.80826 15.79952 15.78481 15.77004 15.7578 15.75029 15.75443 15.76147 15.76418 15.76241 15.76822 15.77487 15.77601 15.7809 15.78244 15.78594 15.78945 15.78809 15.79575 15.80373 15.80616 15.80516 15.80107 15.79294 15.78856 15.77771 15.75724 15.7352 15.70658
0 0 0 18.52258 18.10277 16.32611 15.55028 14.93004 15.00206 15.08094 15.136 15.18274 15.21481 15.24252 15.2661 15.28737 15.31036 15.33937 15.36405 15.38513 15.39915 15.41645 15.42425 15.42798 15.43009 15.43478 15.44271 15.44399 15.44842 15.45 15.45468 15.46119 15.46698 15.4717 15.47552 15.47161 15.46423 15.46707 15.47127 15.46978 15.47169 15.47216 15.47338 15.47602 15.47668 15.48854 15.5013 15.51454 15.5221 15.53262 15.5428 15.55401 15.5686 15.57956 15.5939 15.60628 15.61729 15.63558 15.65036 15.66195 15.67836 15.69428 15.71278 15.72535 15.73825 15.75715 15.77403 15.79509 15.80948 15.82253 15.83679 15.84384 15.84784 15.84477 15.84541 15.84296 15.84267 15.8381 15.83315 15.82323 15.81801 15.80725 15.80485 15.79254 15.78151 15.78348 15.78522 15.78948 15.79576 15.80178 15.80904 15.81419 15.82055 15.82896 15.82931 15.83191 15.83585 15.83782 15.83908 15.84483 15.85126 15.85287 15.85541 15.85335 15.84781 15.83763 15.82331 15.8001 15.7735
0 0 0 19.3545 18.37845 16.29963 15.20302 14.94759 15.02559 15.11002 15.1779 15.21065 15.23925 15.26645 15.28863 15.30323 15.32467 15.34774 15.36857 15.38495 15.39802 15.41036 15.41432 15.41556 15.42235 15.42859 15.43235 15.43564 15.4372 15.4427 15.44712 15.45457 15.46322 15.4691 15.47331 15.46749 15.46379 15.46554 15.46456 15.46332 15.45934 15.45681 15.45613 15.45989 15.46508 15.4778 15.48842 15.49768 15.50768 15.52071 15.53098 15.54688 15.5604 15.57164 15.58501 15.59942 15.61674 15.63303 15.64762 15.66587 15.68151 15.69772 15.71789 15.73241 15.74703 15.76019 15.77745 15.79748 15.81201 15.83134 15.84179 15.85137 15.85527 15.8538 15.84937 15.84714 15.84537 15.83748 15.83151 15.82498 15.82195 15.8197 15.81648 15.81655 15.81998 15.81954 15.82584 15.83151 15.84025 15.84685 15.85537 15.85872 15.86445 15.87059 15.87188 15.87125 15.87162 15.87461 15.88412 15.8916 15.89577 15.89678 15.90252 15.90159 15.90241 15.89034 15.87778 15.85564 15.83541
0 0 0 19.37388 17.08021 15.5101 14.90788 14.98492 15.06179 15.13901 15.19668 15.22895 15.25966 15.28642 15.30882 15.32533 15.34165 15.35698 15.37041 15.3777 15.38752 15.39793 15.39956 15.40139 15.40821 15.41485 15.41825 15.42188 15.4302 15.43561 15.441 15.44986 15.46186 15.47103 15.47507 15.4684 15.46545 15.46575 15.46182 15.45774 15.45363 15.45202 15.45077 15.4564 15.46216 15.47046 15.4811 15.49294 15.5081 15.52214 15.53962 15.55324 15.56512 15.58127 15.59204 15.60653 15.62661 15.64565 15.66534 15.67786 15.69247 15.71391 15.73149 15.74849 15.76719 15.7731 15.78924 15.80833 15.82855 15.84361 15.85764 15.86257 15.86884 15.86795 15.86151 15.85195 15.85045 15.84365 15.84042 15.83598 15.83451 15.83307 15.83105 15.83733 15.84749 15.85682 15.86753 15.87752 15.88334 15.88932 15.90033 15.90765 15.91671 15.91954 15.91926 15.91886 15.92039 15.92809 15.9373 15.95166 15.95574 15.96165 15.95893 15.95554 15.95114 15.93961 15.92561 15.91306 15.89203
14.89196 14.89202 16.22316 17.05193 15.13706 14.87043 14.94171 15.02077 15.09912 15.16786 15.2183 15.24925 15.27773 15.30162 15.31912 15.33524 15.35141 15.36553 15.36972 15.37102 15.37342 15.37978 15.38356 15.38449 15.38491 15.3956 15.40724 15.41613 15.42473 15.4407 15.45088 15.45899 15.4652 15.47145 15.4738 15.47099 15.47015 15.46758 15.46243 15.46068 15.45726 15.45588 15.45408 15.46194 15.46504 15.47251 15.48101 15.49244 15.51154 15.52858 15.54967 15.56526 15.58121 15.59296 15.60358 15.62229 15.64393 15.66611 15.68132 15.69919 15.71055 15.72853 15.74627 15.7692 15.78633 15.79886 15.8126 15.82438 15.84305 15.858 15.8703 15.87747 15.88058 15.87897 15.87184 15.86498 15.86172 15.85659 15.85104 15.84617 15.84702 15.84738 15.85036 15.85676 15.87182 15.88329 15.899 15.9085 15.9215 15.93224 15.94456 15.95825 15.96553 15.97274 15.97403 15.9767 15.98345 15.99062 16.00679 16.01714 16.02261 16.02285 16.02684 16.0204 16.01404 16.00444 15.9922 15.97371 15.9586
14.89798 14.88594 14.89213 14.9119 14.91313 14.95538 15.01811 15.08992 15.15439 15.21001 15.24913 15.2751 15.29786 15.31509 15.32986 15.34473 15.35622 15.36223 15.36083 15.35927 15.35589 15.35978 15.36119 15.36386 15.36712 15.38221 15.39595 15.41327 15.4239 15.43984 15.4541 15.46232 15.47087 15.47203 15.47144 15.47152 15.4719 15.47103 15.47338 15.47009 15.46798 15.46989 15.47371 15.47914 15.48109 15.48542 15.49164 15.50299 15.51769 15.53932 15.5634 15.58498 15.59862 15.61564 15.63014 15.6478 15.6661 15.68054 15.69954 15.71872 15.73651 15.75078 15.76947 15.78954 15.80753 15.82209 15.83409 15.84455 15.85804 15.8696 15.8804 15.88966 15.89957 15.89986 15.89166 15.88595 15.87978 15.87243 15.86386 15.86099 15.86317 15.86851 15.87657 15.88588 15.90234 15.91966 15.93943 15.95064 15.96977 15.98623 16.00706 16.01329 16.02107 16.02528 16.02451 16.02955 16.03206 16.04053 16.05325 16.06815 16.07453 16.0867 16.08858 16.08592 16.07965 16.07379 16.06504 16.04856 16.03413
14.98301 14.99347 15.00791 15.02414 15.03856 15.07933 15.12524 15.16619 15.20744 15.24746 15.27763 15.29507 15.31058 15.32743 15.33719 15.34757 15.35536 15.35742 15.35041 15.34445 15.33565 15.33396 15.33379 15.34805 15.35517 15.36996 15.39106 15.40983 15.42233 15.43922 15.45369 15.46358 15.47254 15.48064 15.4771 15.47576 15.47735 15.48232 15.48481 15.48091 15.48171 15.48521 15.49096 15.49532 15.50062 15.50323 15.51074 15.52302 15.53801 15.55626 15.58211 15.60294 15.61985 15.63579 15.65564 15.67634 15.69562 15.71706 15.73672 15.75733 15.77243 15.7873 15.80611 15.82104 15.83614 15.84942 15.8591 15.87074 15.88146 15.8918 15.89988 15.9104 15.91644 15.92078 15.91999 15.91353 15.90199 15.89175 15.89126 15.88578 15.89085 15.88651 15.90244 15.91551 15.93718 15.96123 15.98274 16.00213 16.02488 16.05117 16.07094 16.08237 16.08627 16.09038 16.08935 16.09375 16.1005 16.11401 16.12176 16.14003 16.15239 16.16172 16.16227 16.15508 16.14643 16.1398 16.12866 16.11552 16.10855
15.05798 15.07394 15.09614 15.12426 15.14492 15.16782 15.19251 15.21685 15.24194 15.26576 15.28265 15.29676 15.31483 15.32555 15.33436 15.34617 15.3542 15.35595 15.34636 15.33422 15.32321 15.31801 15.32195 15.33543 15.3483 15.36752 15.38794 15.40856 15.42123 15.43901 15.4527 15.46351 15.47528 15.48818 15.49145 15.48969 15.49538 15.49661 15.50452 15.50632 15.50254 15.50728 15.51078 15.5148 15.5198 15.52385 15.5346 15.54951 15.56463 15.58523 15.60889 15.62732 15.64621 15.66495 15.68777 15.71131 15.73371 15.75204 15.77234 15.79567 15.81262 15.8296 15.84588 15.85707 15.86786 15.87959 15.89051 15.90394 15.91625 15.9283 15.93234 15.93647 15.9405 15.94744 15.94278 15.93617 15.92868 15.92152 15.91519 15.91029 15.91642 15.92244 15.93191 15.94958 15.9736 16.0008 16.02923 16.0576 16.08681 16.11087 16.13119 16.14948 16.15616 16.15943 16.16397 16.17619 16.18523 16.20255 16.21792 16.24128 16.262 16.26606 16.25975 16.24951 16.23977 16.22843 16.21708 16.20669 16.19453
15.13559 15.15354 15.16766 15.1789 15.18887 15.1997 15.21164 15.22508 15.23991 15.25419 15.26795 15.28311 15.28983 15.30558 15.31858 15.33662 15.3401 15.34344 15.33761 15.33091 15.31923 15.31724 15.3226 15.33472 15.34988 15.37223 15.39115 15.40927 15.42309 15.44181 15.45708 15.47362 15.48791 15.50088 15.51248 15.51726 15.52008 15.52511 15.53064 15.52981 15.53351 15.53755 15.54022 15.54752 15.55472 15.56359 15.57624 15.59076 15.60608 15.62191 15.64347 15.66352 15.68322 15.70257 15.72441 15.74825 15.7673 15.78675 15.80757 15.82598 15.84248 15.85858 15.8759 15.88799 15.89701 15.90403 15.91106 15.91832 15.92783 15.93633 15.93922 15.94679 15.95033 15.96082 15.96271 15.95706 15.95086 15.94278 15.94402 15.94373 15.94469 15.95394 15.96695 15.98872 16.01593 16.0459 16.0765 16.10647 16.13847 16.16895 16.1922 16.20424 16.20745 16.21031 16.21584 16.22978 16.24187 16.25593 16.27776 16.30565 16.33345 16.34609 16.34177 16.32725 16.31801 16.31019 16.30243 16.29201 16.28448
15.17971 15.18749 15.18796 15.19027 15.19456 15.19715 15.2013 15.21067 15.22453 15.23698 15.24876 15.25906 15.27252 15.28859 15.30541 15.32156 15.32736 15.33109 15.32836 15.32434 15.32091 15.32026 15.32621 15.34141 15.35562 15.37712 15.39924 15.42021 15.43963 15.45791 15.47437 15.49314 15.50997 15.52664 15.53857 15.54308 15.55065 15.55803 15.56587 15.56744 15.5735 15.57869 15.58577 15.59665 15.61156 15.6231 15.63953 15.65549 15.66573 15.68523 15.70546 15.72502 15.74479 15.7693 15.79284 15.81335 15.83242 15.85564 15.8718 15.88267 15.90005 15.91393 15.92524 15.93561 15.94092 15.94257 15.9438 15.94828 15.95288 15.95638 15.96364 15.96759 15.97424 15.98093 15.98751 15.98633 15.98221 15.97876 15.98059 15.9902 15.99216 16.00541 16.02423 16.0483 16.08046 16.11427 16.15148 16.18746 16.2191 16.24724 16.26543 16.27424 16.2815 16.28717 16.29299 16.29367 16.29748 16.31107 16.33423 16.36479 16.39056 16.39982 16.40407 16.40227 16.39698 16.38993 16.38622 16.37652 16.36813
15.18185 15.17947 15.17677 15.17206 15.17038 15.17498 15.17963 15.18548 15.19698 15.21282 15.22403 15.2361 15.24802 15.27193 15.2905 15.30859 15.31838 15.33012 15.32763 15.3275 15.32702 15.33492 15.3459 15.3614 15.37912 15.39868 15.41886 15.44221 15.46741 15.48631 15.50526 15.52421 15.54141 15.55846 15.57554 15.58404 15.5934 15.60293 15.60904 15.61594 15.62205 15.62687 15.6418 15.65546 15.67467 15.69589 15.71215 15.73078 15.74903 15.76174 15.78338 15.80325 15.82208 15.84487 15.86927 15.89062 15.90175 15.92381 15.93945 15.95053 15.97289 15.98633 15.99581 16.00106 15.99985 15.99625 16.00184 16.0094 16.01456 16.01987 16.02352 16.02747 16.03173 16.03575 16.04073 16.0336 16.03266 16.03017 16.03618 16.05061 16.05926 16.07554 16.09282 16.10923 16.13637 16.16979 16.20632 16.231 0 0 16.30022 16.33594 16.33984 16.34416 16.34866 16.34888 16.3543 16.37017 16.37683 0 0 16.41393 16.46127 16.46381 16.46547 16.46882 16.47905 16.48071 16.47041
