ncols        109
nrows        82
xllcorner    -1.041666666667
yllcorner    37.041665395101
cellsize     0.083333333333
NODATA_value -9999
0.0 0 0 0 0 0 0 0 0 0 0 0 0 0 0 0 0 0 0 0 0 0 0 0 0 0 0 0 0 0 0 0 0 0 0 0 0 0 0 0 0 0 0 0 0 0 0 0 0 0 0 0 0 0 0 0 0 0 0 0 0 0 0 0 0 0 0 0 0 0 0 0 0 0 0 0 0 0 0 0 0 0 0 0 0 0 0 0 0 0 0 0 0 0 0 0 0 0 0 0 0 0 0 0 0 19.32009 17.9613 16.4156 16.39789
0 0 0 0 0 0 0 0 0 0 0 0 0 0 0 0 0 0 0 0 0 0 0 0 0 0 0 0 0 0 0 0 0 0 0 0 0 0 0 0 0 0 0 0 0 0 0 0 0 0 0 0 0 0 0 0 0 0 0 0 0 0 0 0 0 0 0 0 0 0 0 0 0 0 0 0 0 0 0 0 0 0 0 0 0 0 0 0 0 0 0 0 0 0 0 0 0 0 0 0 0 16.6196 16.63798 16.39228 16.39167 16.38547 16.36958 16.34336 16.30173
0 0 0 0 0 0 0 0 0 0 0 0 0 0 0 0 0 0 0 0 0 0 0 0 0 0 0 0 0 0 0 0 0 0 0 0 0 0 0 0 0 0 0 0 0 0 0 0 0 0 0 0 0 0 0 0 0 0 0 0 0 0 0 0 0 0 0 0 0 0 0 0 0 0 0 0 0 0 0 0 0 0 0 0 0 0 0 0 0 0 0 0 0 0 0 0 0 0 16.41757 16.40287 16.3855 16.35703 16.32667 16.30377 16.27898 16.24753 16.2039 16.16267 16.13017
0 0 0 0 0 0 0 0 0 0 0 0 0 0 0 0 0 0 0 0 0 0 0 0 0 0 0 0 0 0 0 0 0 0 0 0 0 0 0 0 0 0 0 0 0 0 0 0 0 0 0 0 0 0 0 0 0 0 0 0 0 0 0 0 0 0 0 0 0 0 0 0 0 0 0 0 0 0 0 0 0 0 0 0 0 0 0 0 0 0 0 0 0 0 0 0 0 18.29698 16.39593 16.35422 16.29485 16.23831 16.19882 16.17704 16.14351 16.10989 16.07378 16.04113 16.01351
0 0 0 0 0 0 0 0 0 0 0 0 0 0 0 0 0 0 0 0 0 0 0 0 0 0 0 0 0 0 0 0 0 0 0 0 0 0 0 0 0 0 0 0 0 0 0 0 0 0 0 0 0 0 0 0 0 0 18.2166 17.84964 17.56032 17.68935 0 0 0 0 0 0 0 0 0 0 0 0 0 0 0 0 0 0 0 0 0 0 0 0 0 0 0 0 0 0 0 0 0 16.96506 16.44874 16.41103 16.34484 16.28161 16.21321 16.15292 16.09799 16.0465 16.00316 15.96724 15.94096 15.92316 15.90507
0 0 0 0 0 0 0 0 0 0 0 0 0 0 0 0 0 0 0 0 0 0 0 0 0 0 0 0 0 0 0 0 0 0 0 0 0 0 0 0 0 0 0 0 0 0 0 0 0 0 0 0 0 0 0 0 17.75555 17.78178 17.47959 17.23685 17.1295 17.12488 17.24122 17.47037 17.68798 17.80124 17.80034 0 0 0 0 18.14258 0 0 0 0 0 0 0 0 0 0 0 0 0 0 0 0 0 0 0 0 0 17.65625 16.42974 16.44445 16.39612 16.32465 16.24241 16.16796 16.1016 16.04029 15.99228 15.93786 15.91153 15.8885 15.87206 15.85799 15.84994
0 0 0 0 0 0 0 0 0 0 0 0 0 0 0 0 0 0 0 0 0 0 0 0 0 0 0 0 0 0 0 0 0 0 0 0 0 0 0 0 0 0 0 0 0 0 0 0 0 0 0 0 0 0 0 17.88039 17.47407 17.1176 16.88187 16.55705 16.61488 16.64209 16.84867 17.00797 17.17011 17.30287 17.40579 17.62221 17.84409 17.80614 17.74782 17.4609 17.20678 17.26218 17.45866 17.15416 17.16781 0 0 0 0 0 0 0 0 0 0 0 0 0 0 0 16.85699 16.46003 16.42846 16.378 16.30928 16.23341 16.15348 16.08506 16.01648 15.94939 15.90149 15.84792 15.83296 15.82568 15.82043 15.82171 15.82497
0 0 0 0 0 0 0 0 0 0 0 0 0 0 0 0 0 0 0 0 0 0 0 0 0 0 0 0 0 0 0 0 0 0 0 0 0 0 0 0 0 0 0 0 0 0 0 0 0 0 0 17.49006 17.69276 17.83049 17.56693 17.12609 16.86158 16.54084 16.39117 16.45221 16.49657 16.52427 16.53836 16.75057 16.74723 16.95677 16.93608 16.93596 16.96491 16.83885 16.7 16.72886 16.54742 16.77201 16.80767 17.04036 0 0 0 0 0 0 0 0 0 0 0 0 0 0 0 0 16.45692 16.45469 16.36813 16.27385 16.19595 16.11276 16.03974 15.97487 15.91621 15.86883 15.8401 15.81373 15.80768 15.80831 15.81212 15.81627 15.82327
0 0 0 0 0 0 0 0 0 0 0 0 0 0 0 0 0 0 0 0 0 0 0 0 0 0 0 0 0 0 0 0 0 0 0 0 0 0 0 0 0 0 0 0 0 0 0 0 0 0 17.63109 17.51562 17.26179 17.19502 17.07947 16.74838 16.36591 16.43137 16.25933 16.31082 16.34889 16.37226 16.3879 16.60691 16.59977 16.82276 16.81652 16.81896 16.64287 16.47623 16.50722 16.54272 16.36599 16.59087 16.61366 16.86696 16.89064 16.68516 16.7222 17.20139 17.76436 18.69242 0 0 0 0 0 0 0 17.63876 16.96007 16.48735 16.47375 16.4088 16.28546 16.18103 16.09736 16.02394 15.95328 15.89129 15.84951 15.82274 15.80784 15.80649 15.80829 15.81425 15.82307 15.82986 15.84275
0 0 0 0 0 0 0 0 0 0 0 0 0 0 0 0 0 0 0 0 0 0 0 0 0 0 0 0 0 0 0 0 0 0 0 0 0 0 0 0 0 0 0 0 0 0 0 0 0 18.47081 17.32798 17.20994 17.14103 16.81273 16.62771 16.43427 16.45812 16.27199 16.31068 16.35686 16.39323 16.41307 16.42951 16.65943 16.6639 16.66678 16.66392 16.66773 16.67136 16.48836 16.51166 16.33343 16.14731 16.16328 16.18026 16.20397 16.22487 16.2568 16.28931 16.30702 16.78199 17.45698 0 17.28442 17.9518 18.56401 18.90027 18.59853 18.0308 16.48774 16.50509 16.49617 16.42531 16.31704 16.18972 16.1015 16.01004 15.9546 15.89929 15.85951 15.83843 15.83039 15.82637 15.83281 15.84003 15.85042 15.86058 15.87166 15.88288
0 0 0 0 0 0 0 0 0 0 0 0 0 0 0 0 0 0 0 0 0 0 0 0 0 0 0 0 0 0 0 0 0 0 0 0 0 0 0 0 0 0 0 0 0 0 0 0 0 18.16615 17.26132 16.9564 16.62249 16.45425 16.49083 16.29016 16.30908 16.34499 16.39193 16.42321 16.45468 16.46468 16.4724 16.47529 16.47972 16.28692 16.09924 16.2763 16.27463 16.27616 16.27993 16.08828 16.08915 16.09433 16.11478 16.13475 16.16008 16.18116 16.20981 16.23783 16.27021 16.30961 16.34984 16.38066 16.42317 16.44004 17.63292 17.86938 17.43759 16.44174 16.42222 16.36673 16.29507 16.19886 16.12132 16.04812 15.97937 15.92765 15.88397 15.86302 15.86057 15.8628 15.86895 15.87811 15.88856 15.89914 15.90947 15.91994 15.9296
0 0 0 0 0 0 0 0 0 0 0 0 0 0 0 0 0 0 0 0 0 0 0 0 0 0 0 0 0 0 0 0 0 0 0 0 0 0 0 0 0 0 0 0 0 0 0 0 0 17.89346 17.1775 16.84836 16.47244 16.51607 16.31756 16.35374 16.38045 16.41599 16.44535 16.47581 16.27376 16.28934 16.28958 16.2822 16.26864 16.06845 16.06429 16.05641 16.03532 16.0262 16.02496 16.02137 16.02253 16.02742 16.05342 16.06236 16.07695 16.08407 16.09573 16.11745 16.14748 16.19172 16.23528 16.26728 16.30106 16.32846 16.35188 16.37397 16.37374 16.33944 16.29416 16.23767 16.1669 16.10461 16.0446 15.99255 15.95205 15.9042 15.8909 15.89121 15.89389 15.90389 15.9128 15.92378 15.93691 15.95001 15.95741 15.96804 15.97599
0 0 0 0 0 0 0 0 0 0 0 0 0 0 0 0 0 0 0 0 0 0 0 0 0 0 0 0 0 0 0 0 0 0 0 0 0 0 0 0 0 0 0 0 0 0 0 0 0 17.80183 17.04872 16.69509 16.51877 16.32951 16.37179 16.42186 16.22682 16.25043 16.044 16.04803 16.05074 16.05084 16.04424 16.04093 16.03158 16.0179 16.00489 15.99158 15.96863 15.94597 15.94399 15.93855 15.93256 15.92963 15.93978 15.94969 15.96095 15.97444 15.98258 15.99741 16.02506 16.06803 16.10938 16.13898 16.14881 16.1587 16.17603 16.18396 16.17754 16.16063 16.12955 16.09543 16.05535 16.01597 15.98026 15.95027 15.93817 15.91112 15.91713 15.92402 15.93004 15.94436 15.95936 15.97579 15.98836 15.99894 16.00629 16.0153 16.02882
0 0 0 0 0 0 0 0 0 0 0 0 0 0 0 0 0 0 0 0 0 0 0 0 0 0 0 0 0 0 0 0 0 0 0 0 0 0 0 0 0 0 0 0 0 0 0 0 0 17.66247 17.0953 16.72362 16.54628 16.36003 16.40315 16.20532 16.02493 16.03142 16.03003 16.02114 16.01285 16.00001 15.98351 15.97592 15.96276 15.94551 15.93151 15.9169 15.89978 15.88941 15.87978 15.86408 15.85362 15.84079 15.83471 15.83933 15.85041 15.84835 15.84451 15.84819 15.87269 15.9159 15.95694 15.98124 15.9946 16.01082 16.02898 16.04511 16.04935 16.03062 16.00798 15.98193 15.96047 15.94759 15.93193 15.92851 15.93591 15.94269 15.95386 15.96392 15.97222 15.98497 15.99522 16.0138 16.02781 16.04293 16.05384 16.06481 16.08033
0 0 0 0 0 0 0 0 0 0 0 0 0 0 0 0 0 0 0 0 0 0 0 0 0 0 0 0 0 0 0 0 0 0 0 0 0 0 0 0 0 0 0 0 0 0 0 0 0 17.71713 16.89108 16.48765 16.5768 16.40384 16.4382 16.2267 16.02841 16.03146 16.02953 16.01388 15.99847 15.97742 15.96393 15.95211 15.93693 15.92247 15.90575 15.8886 15.87043 15.84644 15.81964 15.79741 15.78238 15.77355 15.76814 15.76555 15.7677 15.77463 15.78101 15.78567 15.80157 15.8154 15.83382 15.85055 15.87703 15.88993 15.9029 15.91832 15.92843 15.92986 15.934 15.93496 15.93134 15.93246 15.93453 15.94424 15.96105 15.97583 15.99274 16.00183 16.01176 16.01489 16.03171 16.05002 16.06692 16.08091 16.09194 16.09931 16.11576
0 0 0 0 0 0 0 0 0 0 0 0 0 0 0 0 0 0 0 0 0 0 0 0 0 0 0 0 0 0 0 0 0 0 0 0 0 0 0 0 0 0 0 0 0 0 0 0 0 17.1836 16.94259 16.51483 16.3766 16.22361 16.25516 16.03625 16.03067 16.02524 16.01014 15.98972 15.96814 15.95344 15.93991 15.93236 15.92026 15.90922 15.89297 15.87341 15.85086 15.82621 15.79623 15.76619 15.74355 15.73287 15.72828 15.72772 15.72957 15.73301 15.73653 15.7404 15.75435 15.7654 15.77963 15.80069 15.82268 15.84241 15.8617 15.87295 15.88293 15.89389 15.90967 15.92068 15.93036 15.94308 15.95904 15.97888 15.99963 16.0155 16.02376 16.03304 16.04246 16.05026 16.06587 16.08451 16.10344 16.11791 16.13108 16.1444 16.16262
0 0 0 0 0 0 0 0 0 0 0 0 0 0 0 0 0 0 0 0 0 0 0 0 0 0 0 0 0 0 0 0 0 0 0 0 0 0 0 0 0 0 0 0 0 0 0 0 0 0 16.65418 16.58213 16.44137 16.06909 16.0724 16.05788 16.02894 16.0144 15.99472 15.97902 15.95928 15.94535 15.92879 15.91183 15.90224 15.89445 15.88401 15.8699 15.85198 15.82815 15.80082 15.77346 15.75201 15.73994 15.72991 15.73033 15.73309 15.73607 15.73285 15.73287 15.74043 15.74578 15.75518 15.77762 15.79682 15.81569 15.83665 15.85631 15.87489 15.8909 15.91449 15.93008 15.94245 15.96668 15.98755 16.01389 16.03643 16.04413 16.05185 16.06888 16.08466 16.09581 16.10848 16.12604 16.13825 16.14981 16.16104 16.17583 16.19864
0 0 0 0 0 0 0 0 0 0 0 0 0 0 0 0 0 0 0 0 0 0 0 0 0 0 0 0 0 0 0 0 0 0 0 0 0 0 0 0 0 0 0 0 0 0 0 0 0 0 16.84941 16.38196 16.05357 16.09164 16.07985 16.0651 16.0224 15.99947 15.97981 15.96558 15.95749 15.93567 15.92711 15.92471 15.92064 15.91438 15.90873 15.89779 15.88558 15.86732 15.84527 15.81939 15.79315 15.77107 15.75785 15.75491 15.75333 15.75069 15.74829 15.74827 15.74978 15.75527 15.76591 15.77816 15.79556 15.81764 15.84143 15.86684 15.88441 15.9038 15.9316 15.95792 15.97328 15.99497 16.01888 16.04223 16.0645 16.07368 16.08219 16.10247 16.11973 16.13137 16.14254 16.15767 16.17031 16.17996 16.19396 16.21172 16.23017
0 0 0 0 0 0 0 0 0 0 0 0 0 0 0 0 0 0 0 0 0 0 0 0 0 0 0 0 0 0 0 0 0 0 0 0 0 0 0 0 0 0 0 0 0 0 0 0 0 0 0 0 16.07816 16.09019 16.07257 16.0477 16.02363 16.0033 15.98771 15.97938 15.96212 15.9482 15.94314 15.94881 15.9549 15.95156 15.95571 15.95344 15.93465 15.92593 15.91171 15.887 15.86602 15.83566 15.8053 15.8052 15.79732 15.78762 15.7839 15.78122 15.78098 15.78105 15.78698 15.79439 15.80923 15.82815 15.8561 15.88046 15.90424 15.93346 15.95939 15.99087 16.01508 16.04442 16.07237 16.09867 16.12022 16.12845 16.14257 16.15236 16.16881 16.17623 16.17903 16.18908 16.20247 16.20901 16.21972 16.23258 16.25644
0 0 0 0 0 0 0 0 0 0 0 0 0 0 0 0 0 0 0 0 0 0 0 0 0 0 0 0 0 0 0 0 0 0 0 0 0 0 0 0 0 0 0 0 0 0 0 0 0 0 18.54334 16.84242 16.35401 16.11208 16.08029 16.05014 16.02384 16.01227 15.99917 15.98011 15.96811 15.96441 15.96865 15.97811 15.98766 15.99679 16.00019 15.99161 15.99517 15.99372 15.97606 15.95383 15.93057 15.90238 15.87993 15.85476 15.83412 15.82642 15.82278 15.81698 15.81513 15.81466 15.8209 15.82831 15.84333 15.86583 15.88846 15.91922 15.9431 15.97587 16.00814 16.04313 16.07505 16.10228 16.12845 16.15332 16.16993 16.18014 16.19069 16.19763 16.20868 16.21395 16.21549 16.22727 16.23971 16.24083 16.25239 16.26614 16.28331
0 0 0 0 0 0 0 0 0 0 0 0 0 0 0 0 0 0 0 0 0 0 0 0 0 0 0 0 0 0 0 0 0 0 0 0 0 0 0 0 0 0 0 0 0 0 0 0 0 0 17.86035 16.8655 16.6195 16.13356 16.09665 16.06106 16.04009 16.01328 16.00712 15.99883 16.00162 16.0095 16.01588 16.02972 16.04239 16.04649 16.05084 16.05287 16.05042 16.04914 16.03764 16.01448 15.97873 15.95821 15.92915 15.90645 15.88868 15.87604 15.86416 15.8631 15.86222 15.86728 15.86997 15.88474 15.90229 15.92108 15.94401 15.96318 15.99095 16.03048 16.07059 16.1086 16.14071 16.1681 16.19234 16.22356 16.24063 16.24896 16.25417 16.25642 16.25224 16.25334 16.2557 16.26366 16.27122 16.27817 16.28499 16.30297 16.32478
0 0 0 0 0 0 0 0 0 0 0 0 0 0 0 0 0 0 0 0 0 0 0 0 0 0 0 0 0 0 0 0 0 0 0 0 0 0 0 0 0 0 0 0 0 0 0 0 0 0 0 16.91067 16.39683 16.14562 16.11293 16.08173 16.05743 16.03879 16.03971 16.04602 16.04798 16.06176 16.07816 16.09716 16.10716 16.1182 16.12304 16.12869 16.13309 16.13321 16.11425 16.08432 16.04595 16.00315 15.97635 15.9524 15.92248 15.91189 15.90973 15.9064 15.90776 15.91338 15.92693 15.93984 15.95847 15.98297 16.00133 16.02466 16.0625 16.10675 16.15099 16.17906 16.20609 16.23253 16.24951 16.27155 16.28706 16.2983 16.30134 16.2984 16.29887 16.30345 16.30278 16.30982 16.30921 16.32073 16.33119 16.3454 16.37564
0 0 0 0 0 0 0 0 0 0 0 0 0 0 0 0 0 0 0 0 0 0 0 0 0 0 0 0 0 0 0 0 0 0 0 0 0 0 0 0 0 0 0 0 0 0 0 0 0 0 0 16.67373 16.19253 16.16936 16.14127 16.12348 16.08194 16.06863 16.07133 16.08136 16.10062 16.13571 16.15734 16.17149 16.18465 16.20417 16.20881 16.20727 16.21186 16.20768 16.1818 16.14457 16.11111 16.06425 16.03019 16.00499 15.97931 15.96923 15.95034 15.95191 15.96555 15.97328 15.98511 16.00111 16.0149 16.03484 16.05725 16.09075 16.13092 16.18624 16.22661 16.25237 16.275 16.29205 16.31399 16.32749 16.34601 16.35321 16.35571 16.34854 16.34686 16.34796 16.3478 16.35058 16.35847 16.3647 16.36833 16.38737 16.40859
0 0 0 0 0 0 0 0 0 0 0 0 0 0 0 0 0 0 0 0 0 0 0 0 0 0 0 0 0 0 0 0 0 0 0 0 0 0 0 0 0 0 0 0 0 0 0 0 0 0 0 16.2561 16.22163 16.19139 16.16408 16.1463 16.10367 16.10338 16.12157 16.14145 16.16551 16.19713 16.22933 16.24736 16.26434 16.29139 16.314 16.30196 16.2942 16.28052 16.26067 16.2185 16.17367 16.12538 16.0821 16.04792 16.02293 15.99495 15.98839 15.99681 16.02188 16.04729 16.06873 16.09107 16.10465 16.12325 16.14752 16.18512 16.22264 16.26545 16.29789 16.32767 16.34086 16.35584 16.36969 16.38694 16.40301 16.40707 16.40573 16.40681 16.40157 16.39318 16.39575 16.39629 16.40179 16.4135 16.4143 16.42552 16.44616
0 0 0 0 0 0 0 0 0 0 0 0 0 0 0 0 0 0 0 0 0 0 0 0 0 0 0 0 0 0 0 0 0 0 0 0 0 0 0 0 0 0 0 0 0 0 0 0 0 18.39254 17.35044 16.28134 16.24195 16.20802 16.18388 16.15314 16.14229 16.14201 16.17286 16.21146 16.24901 16.27986 16.31341 16.32956 16.35618 16.39556 16.40545 16.39895 16.37421 16.36213 16.34771 16.3099 16.26497 16.19144 16.15164 16.09692 16.0645 16.04307 16.04292 16.05197 16.08619 16.12056 16.14737 16.16293 16.18202 16.20414 16.2371 16.27397 16.31647 16.34238 16.37555 16.39909 16.41572 16.43027 16.44402 16.46099 16.46992 16.47213 16.46312 16.45765 16.44997 16.44219 16.43838 16.43994 16.44623 16.45776 16.46512 16.47332 16.48925
0 0 0 0 0 0 0 0 0 0 0 0 0 0 0 0 0 0 0 0 0 0 0 0 0 0 0 0 0 0 0 0 0 0 0 0 0 0 0 0 0 0 0 0 0 0 0 0 17.4402 16.85558 16.5783 16.30133 16.27144 16.23982 16.20579 16.19231 16.18537 16.19913 16.21769 16.26604 16.30623 16.34026 16.3818 16.41311 16.45029 16.4732 16.48456 16.47474 16.45479 16.40771 16.40091 16.36757 16.32222 16.25579 16.1982 16.14513 16.12016 16.10371 16.10067 16.1233 16.16429 16.20492 16.23325 16.25458 16.26893 16.28695 16.31773 16.35202 16.37826 16.4071 16.42547 16.44655 16.46234 16.48219 16.50348 16.52364 16.53302 16.53416 16.52497 16.51631 16.50929 16.5069 16.4947 16.49518 16.49818 16.49729 16.50289 16.50689 16.51873
0 0 0 0 0 0 0 0 0 0 0 0 0 0 0 0 0 0 0 0 0 0 0 0 0 0 0 0 0 0 0 0 0 0 0 0 0 0 0 0 0 0 0 0 0 17.0592 16.94743 17.50109 16.92418 16.92479 16.63401 16.35023 16.31894 16.29129 16.26553 16.24464 16.23726 16.25267 16.28159 16.31284 16.34871 16.38637 16.43539 16.46282 16.49779 16.50705 16.53798 16.55726 16.53048 16.49274 16.45785 16.41413 16.36767 16.31025 16.25328 16.20612 16.18577 16.17534 16.176 16.18994 16.22779 16.2654 16.29174 16.31637 16.34353 16.36364 16.39537 16.4245 16.45344 16.48017 16.49723 16.51155 16.52047 16.54306 16.5633 16.57284 16.58548 16.58449 16.57972 16.57564 16.56834 16.56013 16.55297 16.55442 16.55097 16.5483 16.54738 16.54653 16.55358
0 0 0 0 0 0 0 0 0 0 0 0 0 0 0 0 0 0 0 0 0 0 0 0 0 0 0 0 0 0 0 0 0 0 0 0 0 0 0 0 0 0 19.24764 18.91804 17.87365 16.98607 16.42965 16.43629 16.9974 16.70118 16.42661 16.39309 16.36908 16.34447 16.3193 16.31075 16.31268 16.32112 16.33805 16.37237 16.4037 16.43883 16.47723 16.50734 16.53448 16.57776 16.60724 16.60209 16.57097 16.52542 16.50856 16.47821 16.42718 16.38005 16.33267 16.29127 16.27404 16.26423 16.26967 16.28653 16.31625 16.34529 16.36798 16.38894 16.41609 16.43764 16.46146 16.49254 16.52066 16.54016 16.54916 16.55954 16.57454 16.59757 16.6125 16.63163 16.63659 16.64293 16.65124 16.64299 16.63406 16.62572 16.60777 16.60237 16.59612 16.58968 16.58688 16.58683 16.5907
0 0 0 0 0 0 0 0 0 0 0 0 0 0 0 0 0 0 0 0 0 0 0 0 0 0 0 0 0 0 0 0 0 0 0 0 0 0 0 0 18.3112 18.72573 18.96891 17.9643 17.02107 16.45538 16.47692 16.49759 16.49731 16.48685 16.473 16.44102 16.41143 16.38641 16.36542 16.36211 16.36513 16.36638 16.38464 16.41593 16.44944 16.48977 16.52086 16.55942 16.58101 16.61123 16.62505 16.62157 16.6031 16.5856 16.55666 16.54902 16.52357 16.46128 16.39814 16.36284 16.3466 16.33253 16.33932 16.35751 16.39095 16.41281 16.44434 16.46228 16.48782 16.51924 16.53732 16.56355 16.58867 16.60249 16.61194 16.61519 16.62716 16.6402 16.65751 16.67357 16.68639 16.6869 16.69761 16.69486 16.68878 16.6778 16.66275 16.65515 16.64839 16.64263 16.64133 16.6363 16.63464
0 0 0 0 0 0 0 0 0 0 0 0 0 0 0 0 0 0 0 0 0 0 0 0 0 0 0 0 0 0 0 0 0 0 0 0 0 0 0 18.55166 18.28521 17.68221 17.37806 16.47032 16.47246 16.4858 16.51563 16.53659 16.53404 16.52276 16.50173 16.47964 16.44812 16.42695 16.41879 16.41737 16.42522 16.43292 16.44642 16.46729 16.49921 16.53423 16.57528 16.60686 16.64404 16.6744 16.68283 16.67447 16.6618 16.65235 16.64212 16.63385 16.59547 16.53778 16.50425 16.46858 16.44447 16.43077 16.44003 16.44395 16.46635 16.48834 16.50581 16.51595 16.54409 16.57379 16.59675 16.62459 16.63976 16.65674 16.66958 16.67039 16.67764 16.69207 16.70816 16.72223 16.73332 16.73437 16.74066 16.7367 16.72499 16.71523 16.70331 16.69478 16.68984 16.68755 16.68904 16.68457 16.67904
0 0 0 0 0 0 0 0 0 0 0 0 0 0 0 0 0 0 0 0 0 0 0 0 0 0 0 0 0 0 0 0 0 0 0 0 0 0 17.69452 17.3815 17.09085 16.50239 16.51223 16.52659 16.53323 16.55624 16.56929 16.5798 16.57527 16.5621 16.54325 16.52827 16.5138 16.4848 16.47816 16.47816 16.48001 16.48588 16.50506 16.53427 16.56901 16.59284 16.64158 16.68453 16.69962 16.72626 16.74375 16.74438 16.7455 16.73961 16.72818 16.7141 16.67661 16.63569 16.58027 16.55707 16.54332 16.53389 16.5357 16.53293 16.54925 16.56748 16.58241 16.59532 16.61625 16.63887 16.66081 16.67385 16.68361 16.70377 16.7147 16.71932 16.73074 16.74003 16.75479 16.76589 16.77445 16.77556 16.77544 16.77922 16.77129 16.75978 16.75145 16.74543 16.74291 16.7448 16.74348 16.74199 16.72424
0 0 0 0 0 0 0 0 0 0 0 0 0 0 0 0 0 0 0 0 0 0 0 0 0 0 0 0 0 0 0 0 0 0 19.38155 20.0217 19.15555 17.39418 16.48273 16.49284 16.51752 16.54205 16.56044 16.57235 16.59193 16.60899 16.62151 16.63557 16.64329 16.64491 16.6332 16.62192 16.60955 16.59128 16.57212 16.56547 16.55596 16.55585 16.57504 16.59699 16.63257 16.66094 16.69002 16.71757 16.74601 16.78774 16.80216 16.80496 16.8127 16.81672 16.81414 16.79648 16.76116 16.75202 16.71415 16.66659 16.66288 16.6435 16.62786 16.61808 16.62659 16.63896 16.64915 16.65997 16.68684 16.70588 16.72425 16.73275 16.74486 16.75698 16.78147 16.79963 16.80432 16.80971 16.81 16.81074 16.81453 16.8111 16.80891 16.81174 16.80772 16.79717 16.78343 16.78522 16.7886 16.79378 16.7999 16.79893 16.77652
0 0 0 0 0 0 0 0 0 0 0 0 0 0 0 0 0 0 0 0 0 0 0 0 0 0 0 0 0 19.86999 19.45918 19.23193 19.21126 18.98311 18.69087 18.07918 16.48469 16.49778 16.50409 16.52225 16.54591 16.56998 16.59776 16.62107 16.64277 16.65773 16.68292 16.70051 16.71458 16.71431 16.70255 16.70192 16.69405 16.67592 16.64939 16.64583 16.64066 16.64459 16.67733 16.67509 16.70018 16.72459 16.74496 16.78047 16.81022 16.83534 16.84729 16.84955 16.85865 16.86695 16.8656 16.85766 16.83934 16.82503 16.80716 16.78689 16.76097 16.73914 16.73509 16.725 16.72735 16.73148 16.73184 16.74282 16.75929 16.77452 16.77474 16.78404 16.80148 16.82366 16.8418 16.85627 16.86615 16.86695 16.86343 16.85654 16.85149 16.85396 16.85498 16.85349 16.85495 16.84483 16.83705 16.83866 16.83915 16.84303 16.84332 16.83116 16.79771
0 0 0 0 0 0 0 0 0 0 0 0 0 0 0 0 0 0 0 0 0 0 0 0 0 19.63088 18.8793 18.86854 17.89816 17.19634 16.85794 16.53446 16.52756 16.51318 16.50013 16.50103 16.50152 16.50978 16.52242 16.53781 16.55439 16.58766 16.63423 16.67975 16.71437 16.744 16.77107 16.7834 16.79627 16.80768 16.80879 16.79705 16.78942 16.76791 16.72576 16.71805 16.70849 16.72129 16.7209 16.73055 16.76216 16.78516 16.80765 16.83808 16.85935 16.88585 16.89831 16.90123 16.91286 16.91918 16.91945 16.90967 16.89818 16.87799 16.86962 16.86497 16.85496 16.83339 16.81015 16.7994 16.80953 16.8213 16.83364 16.84462 16.85088 16.85838 16.8541 16.85861 16.87189 16.88826 16.90151 16.91342 16.91612 16.91591 16.90985 16.9027 16.89861 16.89363 16.89274 16.88707 16.88857 16.88502 16.88357 16.88659 16.89487 16.89686 16.88846 16.85993 16.8012
0 0 0 0 0 0 0 0 0 0 0 0 0 0 0 0 0 0 0 0 0 0 0 19.83443 18.94596 18.32738 17.96694 17.60958 16.58632 16.56888 16.55086 16.5387 16.52872 16.51647 16.50751 16.51211 16.51339 16.51531 16.51897 16.52655 16.55489 16.60087 16.66471 16.71794 16.75851 16.7891 16.81294 16.8396 16.8582 16.87311 16.8899 16.88285 16.8679 16.84622 16.8095 16.78162 16.78685 16.78357 16.77919 16.78347 16.81367 16.82597 16.84583 16.86317 16.88617 16.90725 16.92394 16.93272 16.93691 16.95903 16.97097 16.97907 16.97765 16.9702 16.9647 16.95847 16.96572 16.9444 16.92811 16.91503 16.91961 16.91473 16.91789 16.91888 16.92471 16.92274 16.91196 16.91795 16.91922 16.93719 16.95201 16.96626 16.9755 16.97564 16.97036 16.95994 16.94962 16.94421 16.93466 16.93207 16.92732 16.92622 16.92542 16.93278 16.93607 16.93408 16.91242 16.86951 16.79463
0 0 0 0 0 0 0 0 0 0 0 0 0 0 0 0 0 0 0 0 0 0 19.26488 18.39069 18.03531 18.00337 17.64274 17.26577 16.57374 16.54474 16.52929 16.52373 16.51692 16.50834 16.50148 16.49932 16.49738 16.50349 16.51351 16.5365 16.56456 16.60529 16.6592 16.71572 16.76676 16.81088 16.84089 16.87154 16.90002 16.91791 16.92397 16.91071 16.90274 16.88907 16.86756 16.8458 16.83088 16.82235 16.81472 16.82764 16.84246 16.8607 16.87754 16.89335 16.91538 16.94129 16.96422 16.97683 16.99227 17.00371 17.0229 17.02909 17.04309 17.04698 17.04128 17.04015 17.03734 17.03246 17.01783 17.01352 17.01259 17.02091 17.02404 17.02332 17.01358 17.00533 16.9909 16.99368 16.99425 17.00493 17.01341 17.02159 17.02128 17.01925 17.01331 17.00291 16.98921 16.97957 16.9775 16.96892 16.97376 16.97367 16.9729 16.97776 16.98303 16.97376 16.93871 16.87588 16.7927
0 0 0 0 0 0 0 0 0 0 0 0 0 0 0 0 0 0 0 0 0 20.51955 19.46741 18.38524 17.70372 17.66575 17.2795 17.23932 16.55141 16.53739 16.52681 16.51896 16.50872 16.50337 16.50162 16.5062 16.5098 16.51875 16.5289 16.55127 16.58197 16.62662 16.67665 16.71061 16.75965 16.81049 16.86115 16.89343 16.90604 16.9215 16.92277 16.91559 16.91651 16.90687 16.89697 16.87638 16.87171 16.8661 16.86327 16.87005 16.87967 16.88762 16.89816 16.92652 16.96269 16.98354 17.00628 17.01478 17.04151 17.06953 17.076 17.08583 17.10197 17.11286 17.12643 17.13617 17.1291 17.11452 17.10119 17.1015 17.09943 17.09988 17.10487 17.09785 17.09356 17.07776 17.06826 17.07323 17.07346 17.07407 17.07009 17.07128 17.06584 17.05579 17.0505 17.04851 17.03251 17.02149 17.01611 17.01142 17.00994 17.00873 17.00883 17.01462 17.01036 16.99566 16.95384 16.88055 16.78558
0 0 0 0 0 0 0 0 0 0 0 0 0 0 0 0 0 0 0 0 0 0 0 18.98162 18.05201 17.67778 17.28057 16.89852 16.53914 16.528 16.52168 16.51402 16.50658 16.50468 16.50592 16.51079 16.52374 16.53238 16.54277 16.56649 16.59968 16.64185 16.66291 16.70667 16.7647 16.82043 16.86264 16.87745 16.90083 16.91648 16.92484 16.93267 16.93757 16.92974 16.91306 16.91179 16.92945 16.92982 16.91988 16.92722 16.93 16.93801 16.94133 16.96796 17.00816 17.0205 17.03815 17.0444 17.06333 17.09473 17.11422 17.1303 17.13776 17.15225 17.18556 17.20293 17.19113 17.2039 17.19372 17.19368 17.19741 17.1961 17.19665 17.18729 17.18026 17.17169 17.1565 17.14384 17.13564 17.12909 17.12257 17.1149 17.10597 17.10079 17.10414 17.092 17.0777 17.0672 17.06163 17.06042 17.05972 17.05611 17.05685 17.05702 17.04389 17.0169 16.96599 16.88122 16.78103
0 0 0 0 0 0 0 0 0 0 0 0 0 0 0 0 0 0 0 0 0 20.90583 20.5868 19.58552 18.09311 17.70009 17.29444 17.24043 16.86875 16.5252 16.51864 16.51031 16.51299 16.51438 16.51395 16.52545 16.54404 16.55555 16.56837 16.58534 16.60738 16.64013 16.66323 16.71375 16.75362 16.78464 16.82161 16.85936 16.88562 16.91121 16.93558 16.94113 16.94551 16.94965 16.93332 16.95364 16.97056 16.97499 16.97526 16.97983 16.98554 16.9876 16.99869 17.0127 17.04519 17.06948 17.08731 17.10109 17.10802 17.12232 17.14933 17.15155 17.17045 17.20214 17.2333 17.25496 17.26905 17.27032 17.27994 17.28591 17.27953 17.27465 17.28012 17.28456 17.27497 17.25752 17.24636 17.22378 17.21062 17.19933 17.18898 17.17303 17.1636 17.16089 17.15017 17.13371 17.11836 17.10914 17.10487 17.1014 17.09577 17.09451 17.09474 17.09449 17.07427 17.04053 16.98106 16.8934 16.78143
0 0 0 0 0 0 0 0 0 0 0 0 0 0 0 0 0 0 0 20.93485 20.8446 20.73936 19.88076 18.78468 18.10739 17.71682 17.30017 17.60273 16.54365 16.5223 16.51236 16.50802 16.51476 16.52251 16.52251 16.52978 16.54798 16.56909 16.58325 16.59863 16.62078 16.64366 16.67349 16.70381 16.73393 16.76568 16.79629 16.83252 16.86688 16.89496 16.92472 16.94076 16.9548 16.9757 16.98317 16.99579 17.00912 17.01539 17.02702 17.03629 17.04084 17.04521 17.05043 17.05178 17.06729 17.0951 17.10123 17.12289 17.14698 17.17272 17.18611 17.18291 17.21744 17.26179 17.28881 17.31471 17.3373 17.36002 17.37541 17.3811 17.3677 17.35864 17.35826 17.35437 17.34478 17.32764 17.31156 17.28888 17.26847 17.25463 17.24311 17.23735 17.22908 17.22042 17.2134 17.19034 17.17913 17.16946 17.15885 17.15558 17.14859 17.14058 17.13476 17.12858 17.10512 17.05922 16.99584 16.90132 16.79188
0 0 0 0 0 0 0 0 0 0 0 0 0 0 0 0 0 0 20.40474 20.271 19.90854 19.43676 18.81726 18.14219 17.78105 17.71766 17.30746 16.90588 16.54811 16.52223 16.51282 16.5077 16.51909 16.52517 16.53361 16.54395 16.56369 16.58622 16.61157 16.62906 16.64922 16.66976 16.69764 16.73917 16.75415 16.77611 16.80653 16.83656 16.87524 16.90771 16.94302 16.96239 16.9774 17.00002 17.02725 17.02043 17.03956 17.06339 17.06535 17.068 17.07555 17.0826 17.09681 17.10495 17.11231 17.12322 17.13177 17.14462 17.16818 17.19443 17.21377 17.22314 17.26872 17.30272 17.32878 17.36649 17.39424 17.42352 17.43218 17.46351 17.455 17.4478 17.44119 17.4372 17.42239 17.41064 17.3849 17.36061 17.33965 17.31859 17.304 17.28772 17.27402 17.25902 17.2513 17.23975 17.2301 17.21578 17.20489 17.19996 17.1965 17.18599 17.17899 17.16533 17.14048 17.09604 17.01966 16.9253 16.82846
0 0 0 0 0 0 0 0 0 0 0 0 0 0 0 0 0 20.86541 20.29136 19.66107 19.13887 18.50759 18.16127 18.13824 18.11883 17.70812 17.30983 16.5806 16.54588 16.52757 16.5202 16.51665 16.53186 16.53808 16.54859 16.56177 16.58111 16.60322 16.62337 16.64973 16.67811 16.71306 16.74109 16.77157 16.7973 16.81528 16.8402 16.86968 16.90599 16.95461 16.99886 17.02224 17.02374 17.0513 17.05093 17.06721 17.07077 17.08023 17.10097 17.12592 17.13169 17.1392 17.13552 17.14045 17.14495 17.16037 17.17677 17.1792 17.20196 17.23038 17.25195 17.27125 17.32265 17.34872 17.37752 17.41376 17.43802 17.46869 17.48986 17.52675 17.5246 17.51519 17.50964 17.50095 17.48823 17.46405 17.43573 17.41641 17.39839 17.37478 17.35553 17.33856 17.32927 17.31834 17.30327 17.29458 17.28455 17.26093 17.24703 17.23615 17.23025 17.21819 17.20988 17.19665 17.17143 17.12093 17.051 16.966 16.88171
0 0 0 0 0 0 0 0 0 0 0 0 0 0 0 0 20.36689 20.33921 19.47558 18.87093 18.53741 18.18896 18.14908 18.13083 18.11565 17.717 17.31164 16.58229 16.54514 16.53428 16.5278 16.52873 16.54567 16.55768 16.57464 16.59053 16.62028 16.63745 16.65401 16.67355 16.70824 16.73785 16.76769 16.79956 16.83797 16.86728 16.8946 16.92426 16.95341 16.99071 17.03804 17.06717 17.09162 17.09936 17.10719 17.11752 17.13049 17.14386 17.15534 17.1639 17.18225 17.18235 17.19176 17.18567 17.1781 17.19346 17.19772 17.20665 17.22384 17.24898 17.27233 17.3168 17.35066 17.38935 17.43212 17.46889 17.49772 17.52393 17.54507 17.58777 17.59711 17.59516 17.5891 17.56953 17.5478 17.51846 17.48581 17.46067 17.44079 17.42178 17.39769 17.37806 17.3653 17.35616 17.34833 17.33411 17.31483 17.30222 17.28808 17.27983 17.27382 17.26221 17.24563 17.23497 17.21092 17.17151 17.10597 17.02488 16.93388
0 0 0 0 0 0 0 0 0 0 0 0 0 0 0 20.94464 20.19281 19.49237 18.87333 18.54204 18.18512 18.16575 18.13915 17.76129 17.73821 17.34782 16.61785 16.57297 16.54875 16.54151 16.53509 16.54036 16.5608 16.58125 16.60194 16.62901 16.65783 16.67705 16.69532 16.72243 16.75074 16.78365 16.81314 16.84922 16.88722 16.92144 16.94916 16.98404 17.01442 17.0424 17.07901 17.11396 17.1333 17.15254 17.16458 17.18048 17.2051 17.21248 17.22254 17.24227 17.24215 17.24374 17.25428 17.24436 17.24503 17.24326 17.23463 17.23697 17.24569 17.27094 17.30191 17.34568 17.37999 17.41943 17.46649 17.50444 17.53831 17.56421 17.59683 17.62629 17.64735 17.65673 17.65134 17.64621 17.62498 17.59146 17.55128 17.51722 17.49516 17.47404 17.44732 17.42211 17.40797 17.3938 17.38367 17.37284 17.35022 17.33638 17.32092 17.30922 17.29872 17.29034 17.27693 17.2689 17.2529 17.21671 17.1579 17.07924 16.99551
0 0 0 0 0 0 0 0 0 0 0 0 0 0 20.27233 20.26645 19.55403 18.90076 18.54257 18.16886 18.14441 17.76596 17.73856 17.73651 17.36691 16.9654 16.60187 16.57294 16.56053 16.55118 16.54768 16.56228 16.58167 16.60494 16.63296 16.66248 16.68836 16.71592 16.74778 16.77183 16.80912 16.84197 16.88364 16.92687 16.95948 16.99889 17.03155 17.0632 17.0957 17.13073 17.15784 17.18323 17.20222 17.21882 17.22825 17.24007 17.25439 17.27392 17.2836 17.29594 17.31127 17.31645 17.3252 17.32634 17.30407 17.29006 17.28956 17.27754 17.25962 17.27927 17.3227 17.35574 17.40486 17.44394 17.48636 17.54311 17.58735 17.62558 17.65775 17.67612 17.69298 17.69511 17.69453 17.68975 17.67063 17.63705 17.60549 17.56699 17.53356 17.50798 17.48225 17.45999 17.43896 17.42033 17.41239 17.39945 17.3834 17.36569 17.35345 17.34405 17.334 17.32128 17.30751 17.29865 17.27838 17.24455 17.18658 17.11132 17.02181
0 0 0 0 0 0 0 0 0 0 0 0 0 20.13791 20.31157 19.56667 18.91002 18.55796 18.17288 18.13366 17.75677 17.73055 17.72523 17.72891 17.34158 16.61044 16.58522 16.56971 16.57203 16.56675 16.57337 16.59389 16.61761 16.63979 16.66498 16.6972 16.72532 16.75731 16.78898 16.82513 16.87879 16.9182 16.95261 16.99195 17.03417 17.069 17.10707 17.14885 17.17653 17.20684 17.22893 17.24241 17.25798 17.2689 17.26839 17.27905 17.29075 17.30979 0 0 0 17.31764 17.34416 17.40867 17.38805 17.36538 17.3388 17.31174 17.28508 17.29746 17.3222 17.36391 17.41142 17.45829 17.51895 17.57894 17.62736 17.66773 17.70533 17.72094 17.74213 17.74336 17.74279 17.73855 17.72062 17.69047 17.64934 17.61492 17.57992 17.54233 17.51482 17.49177 17.46779 17.45127 17.43716 17.42016 17.40465 17.39256 17.3791 17.37038 17.36723 17.35672 17.34277 17.33215 17.31949 17.28315 17.2251 17.14512 17.05168
0 0 0 0 0 0 0 0 0 0 0 0 0 20.51773 19.58443 18.92661 18.53725 18.13925 18.12294 17.727 17.71672 17.71067 17.71466 16.62755 16.61154 16.59453 16.57545 16.56777 16.56915 16.57355 16.59633 16.61828 16.64506 16.67278 16.7 16.73615 16.76999 16.80808 16.8519 16.88924 16.93578 16.98141 17.02697 17.07736 17.12746 17.1583 17.18998 17.22455 17.25151 17.2768 17.29529 18.15971 17.30635 17.30066 17.30166 17.71498 18.6219 19.49195 0 0 0 0 0 17.8888 17.4439 17.41015 17.37255 17.32265 17.31633 17.31701 17.348 17.38 17.42093 17.49124 17.55668 17.60599 17.66096 17.70865 17.73939 17.75163 17.76395 17.76525 17.76721 17.76685 17.75502 17.72293 17.6905 17.65531 17.62657 17.58298 17.55749 17.53141 17.51976 17.49219 17.47352 17.45532 17.43125 17.41805 17.40647 17.40035 17.39616 17.38577 17.37247 17.36368 17.35031 17.31396 17.25422 17.16817 17.06917
0 0 0 0 0 0 0 0 0 0 0 0 20.67518 19.87679 18.91828 18.53044 18.11643 17.72902 17.71887 17.71461 17.7089 17.70639 17.33103 16.61418 16.59615 16.58385 16.57817 16.57067 16.57749 16.59212 16.62026 16.64459 16.672 16.70788 16.74004 16.7697 16.80518 16.84731 16.90171 16.94391 16.99521 17.04461 17.09989 17.14535 17.19396 17.22424 17.24264 0 0 17.27454 0 19.11799 18.22754 17.76685 18.19121 18.17175 19.05271 19.53434 20.60363 18.17526 17.37506 0 0 0 19.31458 17.43496 17.38185 17.35511 17.34788 17.36091 17.37943 17.41327 17.45682 17.51809 17.5913 17.64538 17.69642 17.74783 17.77774 17.79482 17.79296 17.78819 17.79289 17.77986 17.77724 17.74876 17.71758 17.69082 17.66117 17.62901 17.60105 17.57712 17.56409 17.53542 17.51813 17.49414 17.47312 17.4631 17.45009 17.44207 17.43794 17.43041 17.41568 17.40435 17.38236 17.34545 17.2853 17.19456 17.08127
0 0 0 0 0 0 0 0 0 0 0 19.96323 19.91102 18.92154 18.51581 17.72319 17.72098 17.71719 17.71107 17.7098 17.71915 16.98462 16.62742 16.61599 16.59516 16.59334 16.58836 16.58429 16.59664 16.61903 16.64595 16.68195 16.71454 16.74737 16.77661 16.81117 16.8554 16.90564 16.96725 17.01039 17.07287 17.12292 17.16141 17.19513 18.09289 0 0 0 0 0 19.98122 20.84445 20.57517 19.93966 19.53518 19.05847 19.05765 17.73783 17.35022 17.37108 17.37612 17.37799 17.3858 19.63904 20.03526 17.41852 17.40523 17.37643 17.38487 17.3892 17.39902 17.43604 17.49308 17.53367 17.60868 17.68055 17.73561 17.77987 17.80684 17.81366 17.82662 17.82111 17.8117 17.80506 17.78968 17.77116 17.74341 17.73229 17.71012 17.68147 17.65358 17.63221 17.60637 17.58317 17.55961 17.53712 17.51271 17.50196 17.49265 17.48428 17.47772 17.46739 17.44868 17.43488 17.41223 17.37366 17.31796 17.23041 17.11095
0 0 0 0 0 0 0 0 0 0 20.6895 19.96214 18.93871 18.14371 17.73482 17.35022 17.34878 17.35599 17.36218 17.36559 17.36328 16.64342 16.63826 16.62588 16.60645 16.60581 16.60641 16.61224 16.62847 16.64602 16.67532 16.70443 16.73807 16.76841 16.80563 16.85095 16.899 16.96916 17.02688 17.0832 17.14621 17.19074 17.63176 0 0 0 0 0 0 0 0 0 0 0 19.92973 19.52802 18.6345 17.33598 17.3578 17.3774 17.389 17.39057 17.39233 17.4051 17.41243 17.42201 17.4099 17.40614 17.39979 17.41677 17.43775 17.48322 17.53691 17.58861 17.63345 17.69118 17.74444 17.78784 17.82368 17.84349 17.84241 17.83261 17.82168 17.81448 17.79758 17.77501 17.76205 17.76108 17.74738 17.72798 17.70805 17.68533 17.65714 17.63273 17.61035 17.58571 17.56866 17.55476 17.54476 17.53071 17.5252 17.50962 17.4878 17.46301 17.43697 17.39427 17.34021 17.25328 17.13803
0 0 0 0 0 0 0 0 0 0 20.25855 18.96612 18.17252 17.74815 16.99938 16.98437 16.6479 16.65418 16.67931 16.67568 16.66371 16.64997 16.64695 16.64478 16.63774 16.63193 16.63652 16.65119 16.67082 16.68914 16.71269 16.74159 16.7696 16.80108 16.84245 16.88833 16.94287 17.00798 17.07783 17.13741 18.48395 0 0 0 0 0 0 0 0 0 0 0 0 0 20.60563 19.13617 17.35451 17.3632 17.38884 17.41571 17.43399 17.43549 17.43416 17.42918 17.42968 17.43123 17.43285 17.43638 17.43767 17.46155 17.4875 17.54335 17.58286 17.62768 17.66594 17.70865 17.75833 17.80271 17.83376 17.8396 17.8412 17.83405 17.82841 17.81614 17.81014 17.79717 17.79056 17.78555 17.77495 17.76059 17.7427 17.7197 17.69358 17.66315 17.64182 17.62319 17.61094 17.60184 17.59132 17.58301 17.57459 17.55719 17.52978 17.49895 17.46499 17.41847 17.35976 17.2821 17.17397
0 0 0 0 0 0 0 0 0 20.35264 19.71313 18.58033 17.75841 16.99248 16.63937 16.63448 16.64027 16.65128 16.6603 16.66059 16.66071 16.65762 16.65578 16.6605 16.66359 16.66214 16.66383 16.68195 16.71462 16.7272 16.74901 16.7755 16.80868 16.84067 16.88661 16.94027 16.9935 17.05724 17.12195 18.01043 18.26205 0 0 0 0 0 0 0 0 0 0 0 0 19.84344 19.60171 18.26474 17.37508 17.39283 17.42361 17.44612 17.46177 17.47046 17.47008 17.47171 17.47213 17.47944 17.47421 17.47297 17.49265 17.49789 17.53956 17.59293 17.63813 17.67406 17.70222 17.73121 17.76873 17.80197 17.82877 17.83767 17.83854 17.83305 17.82053 17.819 17.81855 17.81917 17.81706 17.81073 17.80424 17.79021 17.77323 17.74776 17.72303 17.69931 17.67989 17.66409 17.6493 17.64274 17.63114 17.62246 17.60839 17.58928 17.56044 17.52188 17.48333 17.43588 17.37263 17.29492 17.19857
0 0 0 0 0 0 0 0 21.15397 20.07723 18.61406 17.75867 17.32964 16.61933 16.60748 16.61297 16.62332 16.64192 16.65361 16.65978 16.66556 16.67035 16.67523 16.6746 16.68002 16.68417 16.70164 16.72084 16.74645 16.76946 16.78889 16.81063 16.843 16.87652 16.91924 16.96884 17.0205 17.0805 17.53071 18.00946 18.50409 19.42694 0 20.34695 21.00428 0 0 0 0 0 0 0 20.67446 19.61312 18.72228 17.38609 17.3893 17.4194 17.45227 17.47942 17.49078 17.4939 17.49697 17.49467 17.50183 17.50353 17.50459 17.51239 17.52016 17.55432 17.6052 17.65378 17.69942 17.72472 17.75267 17.77244 17.78681 17.81678 17.83593 17.85001 17.85196 17.84171 17.83023 17.83271 17.83538 17.83665 17.8388 17.83498 17.82608 17.8123 17.79206 17.77024 17.7515 17.73518 17.72078 17.70452 17.69832 17.69131 17.68306 17.66449 17.64954 17.6193 17.59261 17.55136 17.50537 17.44836 17.38428 17.30248 17.20927
0 0 0 0 0 0 0 0 21.17519 20.09338 18.6143 17.74247 16.61822 16.59318 16.58541 16.58847 16.60716 16.62408 16.64574 16.66531 16.67902 16.68713 16.68803 16.69301 16.7008 16.71761 16.73897 16.76229 16.79368 16.82301 16.84957 16.87225 16.89759 16.9277 16.96263 17.00485 17.05542 17.09455 17.12749 17.58762 18.04467 18.5215 19.00616 19.49492 20.35885 0 0 0 0 0 0 20.0618 19.20305 19.17995 17.38589 17.40541 17.42954 17.45622 17.49134 17.51911 17.52876 17.53277 17.52238 17.51734 17.52435 17.52977 17.52986 17.53256 17.54537 17.58615 17.63345 17.6781 17.71636 17.74809 17.77457 17.79767 17.81029 17.82968 17.84842 17.85783 17.86017 17.86114 17.86057 17.85704 17.85642 17.85458 17.85978 17.85643 17.84351 17.82868 17.80952 17.79474 17.77939 17.7665 17.75508 17.74318 17.73556 17.72741 17.7186 17.69964 17.68061 17.65387 17.61886 17.57727 17.52436 17.46097 17.39213 17.30969 17.21067
0 0 0 0 0 0 0 0 0 20.12928 18.62673 17.75617 16.60613 16.57552 16.56213 16.56851 16.58885 16.60558 16.63484 16.662 16.68181 16.69519 16.70178 16.71151 16.72524 16.75201 16.77663 16.80834 16.84835 16.88807 16.91951 16.93692 16.95716 16.97706 17.01554 17.05299 17.08736 17.11738 17.14357 17.16336 17.18786 17.2117 17.23609 17.67033 18.59345 19.523 20.39388 20.76072 0 0 20.36388 19.18399 18.27424 17.38532 17.40474 17.43633 17.46664 17.49621 17.52711 17.54473 17.56114 17.57009 17.56184 17.55307 17.54795 17.55163 17.55412 17.56063 17.57573 17.60962 17.65021 17.69121 17.72499 17.76023 17.7881 17.81306 17.82231 17.84013 17.86372 17.87267 17.88322 17.89764 17.89084 17.88493 17.87655 17.87007 17.8682 17.87822 17.87222 17.86075 17.85047 17.84013 17.82235 17.80824 17.79768 17.78194 17.76918 17.7544 17.74882 17.72974 17.70559 17.67531 17.63431 17.58841 17.53108 17.46191 17.38689 17.30293 17.21277
0 0 0 0 0 0 0 0 0 21.05797 19.44746 18.20956 16.96003 16.57315 16.55118 16.54362 16.56095 16.58971 16.62059 16.65517 16.68367 16.70532 16.71823 16.73767 16.76305 16.79518 16.83188 16.87798 16.91736 16.95396 16.97777 16.99028 16.99642 17.01705 17.04917 17.07971 17.11002 17.13667 17.15937 17.1796 17.20068 17.2232 17.2543 17.26894 17.70767 18.16857 18.63354 19.08143 20.37223 19.15528 17.77036 17.35368 17.37186 17.41018 17.44741 17.468 17.50028 17.52671 17.54135 17.55456 17.57729 17.58438 17.57858 17.57892 17.5759 17.56906 17.57427 17.58312 17.59828 17.62604 17.65988 17.6948 17.73361 17.76796 17.79461 17.8279 17.84163 17.87352 17.88591 17.89045 17.90374 17.91859 17.92414 17.90925 17.90048 17.89183 17.88962 17.88572 17.88699 17.87693 17.87492 17.867 17.84606 17.84261 17.8304 17.81123 17.79578 17.77891 17.7694 17.75577 17.72047 17.68687 17.64802 17.59529 17.53516 17.46334 17.38632 17.29062 17.2004
0 0 0 0 0 0 0 0 0 21.18965 20.42653 18.65723 17.35374 16.58514 16.55041 16.53255 16.54327 16.57153 16.60704 16.64075 16.67614 16.71329 16.74105 16.7707 16.80718 16.8527 16.9064 16.95474 17.00289 17.02374 17.04176 17.04779 17.04761 17.05305 17.07414 17.10529 17.12765 17.15443 17.17775 17.18773 17.20909 17.24118 17.26707 17.29824 17.3051 17.30496 17.74747 0 19.1397 17.7901 17.36656 17.38302 17.41786 17.45855 17.49786 17.51885 17.5474 17.56967 17.58177 17.58914 17.59698 17.59324 17.59571 17.5975 17.5961 17.58954 17.58683 17.59181 17.60761 17.63472 17.66555 17.69464 17.73625 17.77592 17.81194 17.84495 17.87466 17.89396 17.89623 17.90826 17.92038 17.92775 17.93247 17.92787 17.91238 17.90972 17.90088 17.89566 17.8897 17.89085 17.88715 17.87429 17.86801 17.85559 17.84538 17.82536 17.81186 17.80046 17.78149 17.76349 17.73238 17.69087 17.64746 17.60021 17.54022 17.46451 17.38279 17.28205 17.17993
0 0 0 0 0 0 0 0 0 0 20.91342 19.5043 17.81927 16.98386 16.57476 16.53742 16.54077 16.56049 16.59454 16.63048 16.67495 16.72551 16.7625 16.80086 16.8488 16.89941 16.9622 17.01447 0 0 0 17.30639 17.08434 17.09137 17.10533 17.13098 17.15024 17.17653 17.19718 17.22011 17.24174 17.2628 17.2872 17.30499 17.33061 17.34199 17.36318 17.81292 17.37892 17.38883 17.40734 17.44001 17.47261 17.50885 17.53304 17.56385 17.58963 17.60771 17.62122 17.62351 17.61455 17.6204 17.61725 17.62059 17.62674 17.61458 17.60904 17.61621 17.63119 17.657 17.68947 17.71786 17.76342 17.79651 17.83174 17.8638 17.8782 17.89761 17.90377 17.91759 17.93021 17.93305 17.93799 17.93107 17.91057 17.90853 17.91141 17.90731 17.90331 17.90682 17.89937 17.89291 17.88597 17.87377 17.85862 17.8455 17.8336 17.82985 17.80697 17.78041 17.74401 17.70177 17.65762 17.60302 17.53724 17.46273 17.38381 17.28526 17.16847
0 0 0 0 0 0 0 0 0 0 0 20.82118 19.50478 17.83165 16.98187 16.58806 16.55314 16.565 16.59319 16.63316 16.68158 16.74292 16.79043 16.83594 16.8798 16.93595 17.377 17.80926 0 0 0 18.01315 18.31047 17.10885 17.12602 17.14992 17.17091 17.19435 17.21974 17.24465 17.26674 17.29012 17.30511 17.32582 17.35179 17.37859 17.39663 17.41184 17.42206 17.4314 17.45791 17.49442 17.52471 17.55627 17.57531 17.59581 17.61894 17.63735 17.64571 17.65199 17.65305 17.64539 17.64763 17.64679 17.65296 17.64088 17.63181 17.63761 17.64883 17.67697 17.72144 17.76402 17.79138 17.83121 17.86291 17.88659 17.90455 17.91756 17.9274 17.93266 17.93666 17.94129 17.93845 17.93431 17.93087 17.92345 17.91836 17.91481 17.91815 17.91597 17.91328 17.9009 17.89944 17.88426 17.87529 17.86406 17.85611 17.84557 17.83113 17.8052 17.76881 17.71919 17.67643 17.62294 17.55379 17.48291 17.395 17.2958 17.18009
0 0 0 0 0 0 0 0 0 0 0 0 20.97224 19.87759 17.79288 16.98747 16.57149 16.56886 16.59786 16.63905 16.6966 16.76716 16.81827 16.86198 16.9016 16.96003 17.7802 0 0 19.51727 19.60645 17.94388 17.12062 17.11769 17.12675 17.15077 17.17868 17.20299 17.23455 17.26912 17.29129 17.31299 17.33599 17.3596 17.38626 17.41457 17.42473 17.43628 17.44687 17.46677 17.49247 17.5263 17.56966 17.58964 17.60538 17.62551 17.64979 17.66031 17.66816 17.67296 17.67616 17.67771 17.67142 17.67229 17.67353 17.67286 17.6624 17.66652 17.67256 17.7002 17.74219 17.78434 17.82427 17.86492 17.88318 17.90218 17.92549 17.93962 17.94131 17.94398 17.95508 17.95323 17.94302 17.9388 17.94044 17.94219 17.93872 17.92857 17.92537 17.92485 17.91106 17.91211 17.90991 17.90899 17.89396 17.88489 17.86412 17.85603 17.84415 17.82071 17.77993 17.73796 17.69512 17.64098 17.57778 17.51154 17.42686 17.33576 17.22423
0 0 0 0 0 0 0 0 0 0 0 0 0 0 0 17.76556 16.93488 16.57789 16.60791 16.65019 16.72052 16.78997 16.83958 16.87839 16.91074 17.3404 17.40218 17.83644 18.27265 20.57653 19.61345 17.93671 17.12383 17.12189 17.1313 17.15755 17.19361 17.22083 17.25058 17.28331 17.30879 17.34278 17.37269 17.39576 17.41792 17.43362 17.44037 17.45144 17.47239 17.48822 17.5171 17.55395 17.59743 17.6091 17.624 17.63978 17.64934 17.67072 17.68953 17.69767 17.69952 17.69466 17.69269 17.69487 17.70349 17.70889 17.70588 17.70732 17.71885 17.7448 17.78001 17.81995 17.86224 17.89581 17.91683 17.9336 17.94321 17.94838 17.95674 17.97299 17.98065 17.97836 17.96892 17.96589 17.95329 17.95259 17.95429 17.94535 17.93857 17.92366 17.91543 17.92213 17.92663 17.92096 17.91407 17.89599 17.87883 17.86357 17.85222 17.8356 17.81252 17.77279 17.72489 17.6729 17.61659 17.54287 17.46564 17.37496 17.27031
0 0 0 0 0 0 0 0 0 0 0 0 0 0 0 18.60659 17.7212 16.59237 16.62423 16.66965 16.74358 16.81314 16.86411 16.90015 16.94165 16.99142 17.81049 17.86352 18.30082 0 19.66142 17.13802 17.12656 17.1214 17.16085 17.17256 17.20514 17.23315 17.26608 17.29564 17.3257 17.36033 17.38436 17.41593 17.43181 17.44986 17.46552 17.47608 17.49979 17.5244 17.54771 17.57298 17.59908 17.62006 17.6319 17.6529 17.66848 17.68986 17.70205 17.70836 17.71269 17.70966 17.70395 17.70347 17.71149 17.71641 17.71877 17.72318 17.74383 17.77005 17.81457 17.85878 17.89947 17.9219 17.94827 17.96528 17.97718 17.9766 17.98182 18.00794 18.01885 18.01367 18.002 17.98396 17.97174 17.9721 17.97457 17.96724 17.96032 17.9432 17.95235 17.94616 17.9417 17.92565 17.91232 17.89907 17.8937 17.87106 17.86337 17.85056 17.83749 17.81107 17.76717 17.71886 17.6717 17.59604 17.5228 17.441 17.34683
0 0 0 0 0 0 0 0 0 0 0 0 0 19.8649 19.47361 18.58938 17.75524 16.62325 16.64729 16.70335 16.77461 16.8498 16.90401 16.94816 16.98154 17.02403 18.25538 18.71809 19.17542 19.08925 20.09086 17.54382 17.12948 17.13578 17.16194 17.19287 17.22445 17.2561 17.28055 17.30511 17.32889 17.37075 17.40286 17.41786 17.44209 17.46551 17.48472 17.49924 17.51589 17.544 17.57763 17.59036 17.6049 17.63073 17.64654 17.66693 17.68966 17.71041 17.7187 17.72345 17.728 17.72915 17.72122 17.72038 17.72485 17.73303 17.73405 17.75377 17.77404 17.80954 17.85281 17.89964 17.92737 17.94316 17.97418 17.98523 18.00512 17.99721 18.01189 18.04047 18.05289 18.04507 18.03705 18.02042 18.01589 18.01375 17.99754 17.98238 17.96798 17.95965 17.95644 17.9484 17.93469 17.92416 17.91377 17.90836 17.9101 17.89086 17.88144 17.87507 17.86346 17.83859 17.80279 17.76122 17.71363 17.65198 17.58565 17.50683 17.42694
0 0 0 0 0 0 0 0 0 0 0 0 19.06229 18.62572 18.63258 18.19991 17.3964 16.66159 16.68541 16.74425 16.80975 16.88648 16.94045 16.98989 17.02667 17.07146 17.93637 17.9604 18.78635 19.64711 17.96274 17.13457 17.14891 17.17092 17.20578 17.24161 17.26956 17.28537 17.30489 17.33174 17.35018 17.37369 17.39819 17.4229 17.45513 17.47925 17.50096 17.51231 17.53288 17.54619 17.56688 17.59356 17.61371 17.63025 17.65443 17.67725 17.69549 17.71633 17.72746 17.73398 17.73913 17.73738 17.73892 17.73797 17.74545 17.75585 17.7714 17.78521 17.80987 17.85027 17.90628 17.955 17.97738 18.00628 18.02649 18.03227 18.0332 18.02633 18.04079 18.07532 18.08247 18.0694 18.06076 18.04589 18.0359 18.03819 18.0284 17.99343 17.98803 17.97141 17.95518 17.94518 17.9399 17.93714 17.91998 17.92344 17.93763 17.91708 17.90927 17.90199 17.8929 17.87592 17.85009 17.81906 17.76832 17.7098 17.65152 17.59038 17.51274
0 0 0 0 0 0 0 0 20.80273 20.24066 19.08342 18.19962 18.18693 18.17412 17.78994 17.82017 17.44026 16.71106 16.74488 16.80566 16.87631 16.94241 17.00051 17.04435 17.08225 17.1277 17.15137 17.15657 17.15353 17.15689 17.15116 17.17439 17.19601 17.21799 17.24619 17.27625 17.29857 17.31016 17.32598 17.34028 17.35891 17.38545 17.40746 17.42444 17.45057 17.47754 17.50218 17.51443 17.52862 17.54318 17.55734 17.58896 17.60471 17.6303 17.63795 17.65903 17.68814 17.70894 17.72031 17.73204 17.73832 17.74049 17.74234 17.74799 17.75809 17.77636 17.7941 17.81203 17.83155 17.87082 17.9425 17.99019 18.0262 18.05249 18.07 18.06655 18.07175 18.06834 18.08902 18.10793 18.10739 18.11733 18.11782 18.09071 18.06832 18.04981 18.03316 18.01399 17.99479 17.98535 17.97329 17.96082 17.94613 17.93967 17.9365 17.94873 17.95439 17.95854 17.96678 17.95436 17.9329 17.90758 17.88388 17.86062 17.82518 17.77744 17.7244 17.67063 17.60932
0 0 0 0 0 0 0 19.81258 19.91739 18.2205 17.78155 17.76889 17.76525 17.77838 17.81739 17.46539 16.73609 16.76309 16.81909 16.87737 16.94251 16.99959 17.05663 17.10149 17.13943 17.17037 17.19452 17.20535 17.2034 17.20797 17.21604 17.23084 17.25282 17.26476 17.28917 17.30874 17.32315 17.32552 17.33751 17.34521 17.3663 17.39638 17.40205 17.42644 17.44904 17.46745 17.48835 17.51204 17.53323 17.54452 17.55955 17.57767 17.59756 17.62248 17.63645 17.65781 17.67337 17.69663 17.71945 17.73491 17.73908 17.74553 17.75235 17.76758 17.78199 17.79361 17.80794 17.8453 17.86893 17.9111 17.96076 18.01155 18.03967 18.06243 18.08753 18.09385 18.09194 18.09959 18.11288 18.11785 18.13507 18.1398 18.13905 18.13697 18.11996 18.10056 18.07773 18.05821 18.03611 18.02636 18.003 17.97282 17.95579 17.96757 17.9639 17.96808 17.97691 17.99904 18.00416 17.99419 17.97726 17.96402 17.9337 17.90623 17.87258 17.83516 17.77982 17.72823 17.6817
0 0 0 0 0 0 20.30056 20.30399 18.2262 17.74037 17.69984 17.70291 17.75744 17.40673 17.0912 16.77767 16.78134 16.83851 16.89337 16.94501 17.00172 17.04809 17.09517 17.13867 17.18214 17.20658 17.22949 17.24876 17.26058 17.27049 17.28046 17.29652 17.30363 17.3077 17.3252 17.33534 17.34191 17.35251 17.35859 17.36914 17.38267 17.40084 17.41397 17.42911 17.44102 17.45788 17.47965 17.50127 17.51975 17.5425 17.55276 17.5772 17.59486 17.61526 17.63642 17.65777 17.6746 17.68928 17.70507 17.71872 17.7293 17.7379 17.75612 17.78019 17.80103 17.81837 17.8424 17.8845 17.89949 17.93325 17.98571 18.02346 18.05078 18.0709 18.09481 18.11627 18.12626 18.12927 18.1343 18.1388 18.14541 18.14542 18.15272 18.15022 18.14948 18.13597 18.11105 18.08408 18.05989 18.03858 18.01342 17.98978 17.97327 17.98497 17.98057 18.01063 18.00975 18.0307 18.03575 18.02807 18.01874 18.00556 17.97529 17.95108 17.92289 17.89131 17.86007 17.81544 17.76329
0 0 0 0 0 0 21.09803 19.49966 18.17029 17.68085 17.27372 17.30903 16.99836 16.71403 16.78255 16.83302 16.8796 16.92675 16.97023 17.01643 17.05818 17.08817 17.13208 17.17992 17.21632 17.23808 17.25664 17.2802 17.29619 17.30178 17.31234 17.33251 17.32996 17.34003 17.35204 17.35701 17.36374 17.36412 17.37173 17.37742 17.40971 17.42812 17.43665 17.44998 17.46148 17.47406 17.48236 17.4964 17.5142 17.53231 17.54062 17.55873 17.58366 17.60846 17.62575 17.64952 17.67267 17.68254 17.69845 17.71241 17.72002 17.73743 17.75657 17.78471 17.81503 17.84259 17.86414 17.90782 17.92478 17.96633 18.00528 18.0419 18.07051 18.10781 18.13901 18.15681 18.16864 18.16072 18.16499 18.16611 18.16998 18.16805 18.16378 18.15533 18.14662 18.14417 18.13871 18.11347 18.09257 18.06579 18.04282 18.01599 18.00794 18.00186 18.02055 18.05148 18.04274 18.05264 18.05711 18.05523 18.05243 18.03998 18.00693 17.98139 17.9574 17.94076 17.91762 17.8843 17.84953
0 0 0 0 0 21.16551 20.74179 19.46076 18.13841 17.68753 16.9231 16.61788 16.68606 16.76772 16.84121 16.91044 16.9655 17.00455 17.04192 17.07363 17.11111 17.13558 17.17273 17.21317 17.24724 17.26941 17.28641 17.30681 17.31754 17.3262 17.33969 17.35269 17.35994 17.36476 17.36695 17.37 17.37139 17.36726 17.37591 17.39495 17.42355 17.44119 17.45732 17.45942 17.46332 17.47796 17.49052 17.49558 17.50604 17.52966 17.54149 17.55909 17.58109 17.60479 17.62527 17.64537 17.66496 17.68303 17.70057 17.71518 17.72963 17.74619 17.77133 17.80417 17.83313 17.86194 17.89071 17.92649 17.95876 17.99401 18.03526 18.07189 18.10433 18.14432 18.1693 18.17884 18.1869 18.17901 18.188 18.19505 18.19155 18.18689 18.17367 18.16079 18.15044 18.14852 18.14659 18.13936 18.12134 18.10556 18.08262 18.05854 18.05566 18.03413 18.06837 18.09481 18.09548 18.07714 18.07932 18.08596 18.08249 18.06698 18.02523 18.00385 17.98868 17.96547 17.95152 17.92624 17.9012
0 0 0 0 20.23273 19.94264 18.1531 17.69352 17.27825 16.57702 16.59713 16.66156 16.74822 16.81617 16.89193 16.95354 17.00505 17.04326 17.07948 17.11568 17.14578 17.16848 17.20649 17.24385 17.2688 17.28775 17.3051 17.3215 17.33105 17.34412 17.3544 17.35889 17.36684 17.36329 17.3792 17.38155 17.38599 17.38946 17.40435 17.41905 17.42836 17.44864 17.46178 17.46171 17.47548 17.47969 17.49414 17.50348 17.50447 17.52534 17.54045 17.56082 17.58512 17.60764 17.63262 17.64914 17.65113 17.67208 17.69896 17.72238 17.73911 17.76347 17.79035 17.82055 17.85089 17.88333 17.91433 17.96276 17.9883 18.02309 18.06933 18.10586 18.13696 18.17099 18.19447 18.20834 18.20584 18.19919 18.20107 18.2136 18.21398 18.20744 18.19435 18.17958 18.16205 18.16295 18.16046 18.14541 18.13688 18.12484 18.11186 18.10062 18.082 18.07449 18.09345 18.10902 18.10938 18.09609 18.11174 18.11334 18.11363 18.09588 18.06996 18.05681 18.03076 18.00483 17.99139 17.97346 17.94739
0 0 0 0 21.22901 18.59378 16.60672 16.57844 16.56807 16.59429 16.64846 16.73452 16.80969 16.87899 16.94091 17.00026 17.0296 17.06534 17.11067 17.13675 17.16294 17.19562 17.23273 17.25425 17.2747 17.29156 17.30623 17.32331 17.33366 17.34718 17.35107 17.35621 17.36468 17.37027 17.38706 17.38451 17.39886 17.41668 17.42427 17.434 17.44509 17.4519 17.46501 17.47289 17.48862 17.48199 17.49036 17.50481 17.51292 17.53271 17.55389 17.57009 17.58468 17.6069 17.62491 17.64163 17.66099 17.67134 17.69046 17.71719 17.75021 17.78203 17.80695 17.83406 17.86301 17.89801 17.9274 17.96801 17.99995 18.04225 18.08971 18.12219 18.15154 18.18781 18.21383 18.22334 18.22686 18.21417 18.2135 18.22439 18.23783 18.22676 18.21276 18.19914 18.1878 18.1771 18.17143 18.15172 18.13351 18.12808 18.12779 18.12053 18.10326 18.09843 18.12085 18.12793 18.12634 18.12816 18.14109 18.14161 18.13315 18.10792 18.08346 18.08624 18.05429 18.03678 18.03203 18.01189 17.98482
0 0 0 20.36343 19.96728 18.11193 16.5667 16.55282 16.57614 16.63885 16.70627 16.78664 16.86342 16.93191 16.98833 17.03726 17.06652 17.08443 17.11207 17.14383 17.17885 17.20209 17.23556 17.25153 17.26899 17.27733 17.29629 17.31344 17.33541 17.34152 17.33538 17.34488 17.36109 17.37914 17.38965 17.39966 17.40347 17.41293 17.42498 17.42774 17.43185 17.43594 17.45133 17.46327 17.47616 17.48172 17.49747 17.51144 17.516 17.53556 17.55296 17.57042 17.5982 17.60521 17.63432 17.66486 17.68125 17.68994 17.70802 17.73485 17.7605 17.79123 17.81638 17.84535 17.87158 17.90193 17.93406 17.96135 17.99951 18.04249 18.08429 18.12437 18.15247 18.1889 18.20904 18.2205 18.22549 18.21994 18.2212 18.22756 18.23567 18.24451 18.2233 18.21405 18.19876 18.19297 18.16946 18.14376 18.16161 18.14561 18.14444 18.15749 18.14193 18.13935 18.14977 18.15247 18.15239 18.15438 18.14754 18.15555 18.15438 18.12645 18.10995 18.09535 18.09358 18.06979 18.0569 18.0291 18.00839
0 0 0 20.3231 19.93433 18.0633 17.23192 16.54925 16.60434 16.68019 16.74186 16.82185 16.89374 16.96125 17.02176 17.05536 17.08412 17.10126 17.12731 17.15024 17.16303 17.18091 17.21692 17.23173 17.24615 17.26582 17.2822 17.31061 17.32451 17.31051 17.32635 17.35358 17.37567 17.37488 17.39646 17.40207 17.40697 17.40589 17.41467 17.42018 17.41611 17.4091 17.40846 17.41481 17.44004 17.46597 17.48481 17.49808 17.50231 17.52778 17.5418 17.57666 17.59614 17.62051 17.64523 17.65802 17.6721 17.69811 17.72596 17.74524 17.78286 17.79112 17.82992 17.86066 17.87487 17.90599 17.93372 17.96469 17.98838 18.0224 18.06488 18.10742 18.14408 18.17307 18.19061 18.20544 18.21426 18.22404 18.22934 18.23051 18.23577 18.23849 18.23776 18.22651 18.22362 18.19625 18.18255 18.18143 18.17496 18.17864 18.1756 18.17943 18.16887 18.17001 18.1778 18.1821 18.17997 18.18202 18.17271 18.16164 18.16253 18.14489 18.13048 18.12947 18.12769 18.10585 18.10408 18.077 18.03923
0 0 0 21.09627 20.1747 18.02213 16.83846 16.54351 16.62014 16.69907 16.77457 16.84929 16.91364 16.98309 17.04668 17.07275 17.09031 17.11049 17.13497 17.15282 17.16154 17.17272 17.19318 17.21307 17.235 17.24578 17.26879 17.30615 17.30369 17.30377 17.315 17.34523 17.36199 17.38421 17.3998 17.40586 17.40478 17.40467 17.39897 17.40666 17.40241 17.38901 17.37972 17.39135 17.40055 17.43539 17.46309 17.48323 17.48159 17.4981 17.53263 17.5653 17.58806 17.60073 17.61899 17.6418 17.67497 17.709 17.72074 17.7469 17.77907 17.80833 17.82319 17.86907 17.8836 17.91056 17.92899 17.95366 17.97477 18.00346 18.05191 18.0886 18.12215 18.14746 18.16583 18.17908 18.19545 18.20894 18.22822 18.23483 18.23686 18.24351 18.25232 18.25148 18.24125 18.23142 18.21886 18.19994 18.17975 18.17601 18.18927 18.19088 18.18178 18.19268 18.19348 18.19866 18.19802 18.20213 18.19794 18.18301 18.16763 18.15209 18.14815 18.16097 18.15575 18.15229 18.13903 18.12887 18.1189
0 0 0 21.1097 18.85732 17.17577 16.50071 16.56712 16.64727 16.72344 16.79865 16.86923 16.93112 16.99019 17.04586 17.07893 17.0926 17.1096 17.12331 17.1243 17.13248 17.14961 17.15767 17.16257 17.1997 17.22781 17.24286 17.27498 17.2895 17.29863 17.31714 17.33988 17.37526 17.39419 17.40893 17.40731 17.40079 17.39622 17.40576 17.41186 17.40563 17.39193 17.37317 17.37824 17.38466 17.39993 17.43634 17.45211 17.45642 17.48396 17.52782 17.55723 17.57501 17.58911 17.60568 17.63451 17.6673 17.70073 17.71717 17.74941 17.78189 17.80613 17.83401 17.86564 17.89303 17.90347 17.92231 17.9388 17.9669 18.00074 18.03659 18.07075 18.10045 18.12363 18.13802 18.16064 18.18434 18.19716 18.21476 18.23442 18.23698 18.23978 18.23163 18.24556 18.25158 18.25215 18.24152 18.22043 18.19439 18.17856 18.18751 18.19689 18.21278 18.21843 18.22423 18.22752 18.22374 18.23262 18.23214 18.21591 18.18968 18.18783 18.18743 18.19478 18.19467 18.20131 18.18547 18.17521 18.16109
16.46572 16.47123 17.88059 18.8469 16.78192 16.46323 16.51483 16.59266 16.67902 16.75361 16.82049 16.88468 16.94177 16.98647 17.02716 17.0707 17.08574 17.10065 17.11882 17.11883 17.1199 17.1179 17.11925 17.12045 17.15591 17.18854 17.22213 17.23259 17.2713 17.29866 17.31119 17.32837 17.36219 17.37962 17.39761 17.40281 17.40011 17.39467 17.40728 17.41485 17.41004 17.39715 17.36802 17.35387 17.36348 17.37731 17.4015 17.4142 17.43602 17.4751 17.51195 17.54184 17.55982 17.57896 17.60416 17.63166 17.66108 17.68918 17.71927 17.749 17.77613 17.80072 17.82144 17.84827 17.87199 17.8847 17.90958 17.93458 17.95966 17.98756 18.01358 18.039 18.06822 18.09645 18.11831 18.14548 18.16454 18.1855 18.19937 18.22007 18.22529 18.22425 18.22868 18.23946 18.24443 18.23744 18.23168 18.21774 18.20445 18.19086 18.19224 18.20771 18.22081 18.23142 18.2417 18.24941 18.25625 18.24487 18.24399 18.23414 18.22752 18.23752 18.24101 18.23224 18.23965 18.25188 18.22855 18.20758 18.20816
16.46641 16.46503 16.48226 16.49906 16.49179 16.51548 16.57336 16.65395 16.72767 16.79541 16.85271 16.89926 16.94766 16.98842 17.02524 17.0536 17.0749 17.08141 17.08156 17.08222 17.09154 17.09618 17.10168 17.11026 17.11919 17.15251 17.17889 17.22272 17.24347 17.27287 17.28973 17.32432 17.35502 17.37272 17.38733 17.41118 17.4175 17.4143 17.42536 17.42867 17.42264 17.40628 17.39501 17.37274 17.37085 17.38309 17.38947 17.39122 17.42383 17.4446 17.46289 17.51229 17.53739 17.56771 17.59135 17.61793 17.66502 17.70044 17.7186 17.73349 17.7624 17.78953 17.81305 17.8392 17.86188 17.89045 17.91701 17.93067 17.95057 17.97525 18.00208 18.02417 18.0383 18.07159 18.09723 18.118 18.135 18.14976 18.17001 18.18265 18.19628 18.20421 18.23453 18.25333 18.24711 18.24634 18.23541 18.21314 18.20337 18.20058 18.20585 18.21623 18.23731 18.24699 18.25303 18.26161 18.26874 18.2626 18.25435 18.24765 18.25844 18.25165 18.26035 18.27354 18.29948 18.2925 18.26967 18.27903 18.29146
16.51691 16.53309 16.55249 16.56718 16.58449 16.61653 16.66776 16.72643 16.77523 16.8296 16.8763 16.91611 16.95534 16.9898 17.01623 17.03494 17.05065 17.06972 17.06339 17.05444 17.05719 17.05756 17.07567 17.08436 17.08754 17.13154 17.15049 17.19478 17.23284 17.26358 17.30021 17.32746 17.34026 17.35134 17.36605 17.39508 17.40663 17.40805 17.41485 17.41372 17.40863 17.40109 17.37743 17.36412 17.36435 17.36829 17.36537 17.37572 17.39769 17.42262 17.44321 17.47975 17.50744 17.52945 17.57709 17.62619 17.66893 17.70638 17.73258 17.74949 17.76427 17.77797 17.79628 17.82653 17.848 17.87749 17.90312 17.92859 17.93458 17.95866 17.98607 18.01358 18.02094 18.04866 18.06762 18.08592 18.10533 18.12087 18.14587 18.15267 18.17125 18.17239 18.2092 18.22156 18.21623 18.23492 18.24255 18.2446 18.23846 18.23694 18.24769 18.25616 18.26405 18.26594 18.27187 18.27232 18.2784 18.2797 18.27262 18.28526 18.28753 18.30561 18.32421 18.33876 18.34961 18.34917 18.33765 18.34968 18.34775
16.57926 16.60553 16.63085 16.65518 16.67395 16.69852 16.7354 16.76961 16.80523 16.8346 16.87134 16.90885 16.94027 16.96576 16.98598 17.00368 17.02167 17.03988 17.04762 17.04908 17.04255 17.03546 17.047 17.0643 17.08163 17.11772 17.13385 17.16572 17.19468 17.23338 17.27008 17.3099 17.34138 17.34907 17.34777 17.37782 17.37976 17.38333 17.3902 17.38937 17.38478 17.37762 17.37001 17.35783 17.34704 17.34411 17.34042 17.34685 17.36679 17.39203 17.40308 17.45096 17.49477 17.53234 17.56297 17.59713 17.63653 17.67591 17.70839 17.73593 17.75504 17.77203 17.79474 17.81393 17.83068 17.85593 17.88864 17.91025 17.93695 17.96192 17.97394 17.99183 18.01209 18.02719 18.04764 18.07377 18.09188 18.1118 18.12214 18.13458 18.14486 18.14676 18.15748 18.17994 18.19645 18.23227 18.26087 18.27571 18.27569 18.27708 18.29452 18.2853 18.29617 18.31313 18.31996 18.31418 18.31796 18.35087 18.3519 18.35227 18.36458 18.38026 18.40987 18.40813 18.39552 18.38461 18.371 18.37198 18.38044
16.65856 16.67598 16.69627 16.71437 16.73116 16.74793 16.76733 16.78692 16.81593 16.83246 16.87108 16.90277 16.92069 16.94029 16.96154 16.98625 16.99334 17.02074 17.01641 17.03123 17.02723 17.0236 17.02543 17.04233 17.06858 17.10991 17.13554 17.14814 17.16977 17.2 17.24136 17.28217 17.31194 17.33168 17.35073 17.36183 17.35968 17.35966 17.36497 17.36694 17.36112 17.35693 17.35012 17.34882 17.33922 17.33417 17.33497 17.3485 17.37324 17.38782 17.41241 17.45863 17.49197 17.54265 17.57388 17.61224 17.65621 17.68485 17.72089 17.75195 17.7781 17.80036 17.8244 17.83994 17.86128 17.89324 17.91671 17.93133 17.95362 17.97184 17.9899 18.00178 18.00487 18.01791 18.02915 18.05488 18.07984 18.09068 18.10312 18.11692 18.14206 18.15918 18.17719 18.19446 18.21562 18.25789 18.3037 18.31755 18.33326 18.33236 18.33668 18.35238 18.36994 18.38637 18.39821 18.3952 18.39539 18.4067 18.42468 18.43825 18.45869 18.49292 18.48558 18.47199 18.46609 18.45689 18.45099 18.44404 18.43321
16.71082 16.7272 16.73286 16.7307 16.74013 16.75225 16.76915 16.78583 16.80885 16.83503 16.86354 16.8857 16.90349 16.91876 16.95071 16.96707 16.97636 16.98985 16.98924 17.01158 17.01008 17.00154 17.00841 17.0301 17.05239 17.09271 17.11838 17.142 17.16067 17.18477 17.22054 17.25794 17.28315 17.30304 17.31491 17.33343 17.34156 17.34824 17.36674 17.35121 17.35609 17.34878 17.35649 17.34166 17.34208 17.34345 17.35313 17.38118 17.40361 17.42029 17.45247 17.494 17.54183 17.57521 17.61548 17.65639 17.71146 17.74489 17.7769 17.79833 17.83526 17.85393 17.87028 17.88531 17.91166 17.92378 17.9417 17.96134 17.98288 17.99714 18.01741 18.02502 18.02795 18.03356 18.0301 18.05073 18.0656 18.08075 18.09412 18.11061 18.14361 18.16724 18.19993 18.23753 18.27576 18.31797 18.36294 18.40964 18.43833 18.459 18.46593 18.48156 18.47562 18.47573 18.4736 18.46402 18.46355 18.46876 18.50485 18.5572 18.59004 18.60492 18.59929 18.56255 18.54031 18.53368 18.54724 18.54311 18.54245
16.71467 16.72091 16.7306 16.73818 16.73676 16.74019 16.7531 16.76673 16.78919 16.81378 16.83891 16.85713 16.8724 16.89544 16.92512 16.95133 16.96781 16.9805 16.99178 16.99592 16.99723 16.9982 17.00693 17.04293 17.0761 17.10483 17.12359 17.14492 17.17398 17.17852 17.21223 17.24244 17.2591 17.27055 17.286 17.30429 17.327 17.33708 17.34543 17.34597 17.34953 17.35084 17.35154 17.35827 17.35759 17.37483 17.40258 17.42596 17.44775 17.47054 17.51228 17.56088 17.6059 17.64509 17.68363 17.71357 17.7506 17.77961 17.82205 17.86653 17.90844 17.91905 17.94689 17.96297 17.98719 17.99547 18.00386 18.01917 18.02853 18.05005 18.07456 18.0755 18.07731 18.07282 18.06196 18.07054 18.0767 18.08805 18.1129 18.13442 18.15609 18.18857 18.23619 18.27449 18.32141 18.38085 18.44366 18.4996 0 0 18.57562 18.60599 18.57856 18.55824 18.55243 18.54952 18.56701 18.60343 18.62053 0 0 18.63113 18.73029 18.71337 18.68736 18.67421 18.68363 18.67715 18.66044
