ncols        109
nrows        82
xllcorner    -1.041666666667
yllcorner    37.041665395101
cellsize     0.083333333333
NODATA_value -9999
0.0 0 0 0 0 0 0 0 0 0 0 0 0 0 0 0 0 0 0 0 0 0 0 0 0 0 0 0 0 0 0 0 0 0 0 0 0 0 0 0 0 0 0 0 0 0 0 0 0 0 0 0 0 0 0 0 0 0 0 0 0 0 0 0 0 0 0 0 0 0 0 0 0 0 0 0 0 0 0 0 0 0 0 0 0 0 0 0 0 0 0 0 0 0 0 0 0 0 0 0 0 0 0 0 0 17.99468 16.66334 15.29035 15.28169
0 0 0 0 0 0 0 0 0 0 0 0 0 0 0 0 0 0 0 0 0 0 0 0 0 0 0 0 0 0 0 0 0 0 0 0 0 0 0 0 0 0 0 0 0 0 0 0 0 0 0 0 0 0 0 0 0 0 0 0 0 0 0 0 0 0 0 0 0 0 0 0 0 0 0 0 0 0 0 0 0 0 0 0 0 0 0 0 0 0 0 0 0 0 0 0 0 0 0 0 0 15.4744 15.49276 15.27997 15.28659 15.28423 15.27053 15.25295 15.22437
0 0 0 0 0 0 0 0 0 0 0 0 0 0 0 0 0 0 0 0 0 0 0 0 0 0 0 0 0 0 0 0 0 0 0 0 0 0 0 0 0 0 0 0 0 0 0 0 0 0 0 0 0 0 0 0 0 0 0 0 0 0 0 0 0 0 0 0 0 0 0 0 0 0 0 0 0 0 0 0 0 0 0 0 0 0 0 0 0 0 0 0 0 0 0 0 0 0 15.28863 15.28254 15.27483 15.26191 15.24053 15.22819 15.21206 15.18398 15.14603 15.10911 15.0773
0 0 0 0 0 0 0 0 0 0 0 0 0 0 0 0 0 0 0 0 0 0 0 0 0 0 0 0 0 0 0 0 0 0 0 0 0 0 0 0 0 0 0 0 0 0 0 0 0 0 0 0 0 0 0 0 0 0 0 0 0 0 0 0 0 0 0 0 0 0 0 0 0 0 0 0 0 0 0 0 0 0 0 0 0 0 0 0 0 0 0 0 0 0 0 0 0 16.96834 15.27905 15.25737 15.21592 15.17507 15.14123 15.12233 15.08755 15.05743 15.02333 14.99263 14.95741
0 0 0 0 0 0 0 0 0 0 0 0 0 0 0 0 0 0 0 0 0 0 0 0 0 0 0 0 0 0 0 0 0 0 0 0 0 0 0 0 0 0 0 0 0 0 0 0 0 0 0 0 0 0 0 0 0 0 16.56526 16.20475 15.9037 16.02715 0 0 0 0 0 0 0 0 0 0 0 0 0 0 0 0 0 0 0 0 0 0 0 0 0 0 0 0 0 0 0 0 0 15.77022 15.31098 15.29491 15.24295 15.19605 15.1463 15.08616 15.03191 14.98937 14.94852 14.91534 14.88655 14.86529 14.84698
0 0 0 0 0 0 0 0 0 0 0 0 0 0 0 0 0 0 0 0 0 0 0 0 0 0 0 0 0 0 0 0 0 0 0 0 0 0 0 0 0 0 0 0 0 0 0 0 0 0 0 0 0 0 0 0 16.08377 16.12125 15.84956 15.63455 15.54938 15.52984 15.6136 15.81601 16.01821 16.12146 16.11171 0 0 0 0 16.43361 0 0 0 0 0 0 0 0 0 0 0 0 0 0 0 0 0 0 0 0 0 16.37696 15.27864 15.30345 15.27331 15.21864 15.15483 15.08992 15.02593 14.97166 14.92071 14.87742 14.85453 14.83308 14.81508 14.79502 14.78097
0 0 0 0 0 0 0 0 0 0 0 0 0 0 0 0 0 0 0 0 0 0 0 0 0 0 0 0 0 0 0 0 0 0 0 0 0 0 0 0 0 0 0 0 0 0 0 0 0 0 0 0 0 0 0 16.22651 15.84239 15.53471 15.35363 15.09462 15.15593 15.17843 15.34766 15.47006 15.60482 15.70143 15.77645 15.95565 16.15462 16.12972 16.08286 15.85807 15.64868 15.70263 15.86464 15.61358 15.63544 0 0 0 0 0 0 0 0 0 0 0 0 0 0 0 15.65676 15.3008 15.2852 15.24709 15.19943 15.13577 15.07071 15.00443 14.9426 14.87563 14.83242 14.78975 14.78293 14.77042 14.76404 14.76141 14.75959
0 0 0 0 0 0 0 0 0 0 0 0 0 0 0 0 0 0 0 0 0 0 0 0 0 0 0 0 0 0 0 0 0 0 0 0 0 0 0 0 0 0 0 0 0 0 0 0 0 0 0 15.89049 16.039 16.20244 15.96399 15.55509 15.3367 15.0744 14.96449 15.03507 15.08371 15.10248 15.09394 15.28358 15.26887 15.44119 15.41385 15.4019 15.42027 15.33311 15.24137 15.2805 15.1439 15.33932 15.36815 15.56053 0 0 0 0 0 0 0 0 0 0 0 0 0 0 0 0 15.28912 15.29253 15.23191 15.1657 15.09435 15.01906 14.95476 14.89461 14.84698 14.80671 14.78413 14.75858 14.75166 14.74737 14.74865 14.75382 14.75209
0 0 0 0 0 0 0 0 0 0 0 0 0 0 0 0 0 0 0 0 0 0 0 0 0 0 0 0 0 0 0 0 0 0 0 0 0 0 0 0 0 0 0 0 0 0 0 0 0 0 16.09876 15.934 15.69847 15.65172 15.54908 15.25793 14.93287 15.00893 14.8647 14.92258 14.96639 14.98731 14.99406 15.18477 15.17123 15.36087 15.35195 15.35376 15.20731 15.08172 15.12185 15.16376 15.02817 15.22847 15.24824 15.47002 15.49908 15.33708 15.37219 15.78348 16.28311 17.11624 0 0 0 0 0 0 0 16.31788 15.71818 15.2998 15.2979 15.25457 15.16073 15.07828 14.99259 14.93232 14.87545 14.82275 14.78843 14.76425 14.75247 14.74981 14.75045 14.7548 14.75766 14.76033 14.76902
0 0 0 0 0 0 0 0 0 0 0 0 0 0 0 0 0 0 0 0 0 0 0 0 0 0 0 0 0 0 0 0 0 0 0 0 0 0 0 0 0 0 0 0 0 0 0 0 0 16.94307 15.80641 15.71158 15.65684 15.34874 15.1805 15.00801 15.05887 14.90267 14.94707 14.99258 15.03213 15.05534 15.07051 15.27457 15.28722 15.28828 15.29688 15.29774 15.29956 15.13963 15.16616 15.02763 14.88675 14.90229 14.91839 14.94341 14.97107 15.00995 15.05096 15.07493 15.48647 16.07468 0 15.93564 16.54844 17.09926 17.43034 17.14973 16.66561 15.28562 15.30578 15.30611 15.26103 15.17047 15.06766 14.97965 14.90809 14.86447 14.81648 14.78757 14.76979 14.76422 14.75855 14.75819 14.76005 14.77274 14.77988 14.78626 14.79217
0 0 0 0 0 0 0 0 0 0 0 0 0 0 0 0 0 0 0 0 0 0 0 0 0 0 0 0 0 0 0 0 0 0 0 0 0 0 0 0 0 0 0 0 0 0 0 0 0 16.63383 15.7741 15.50151 15.20472 15.06142 15.10529 14.93615 14.96667 15.01711 15.06041 15.09251 15.12543 15.14445 15.15451 15.15799 15.16602 15.00653 14.85761 15.01185 15.00912 15.01209 15.02199 14.86873 14.87015 14.87666 14.90088 14.91944 14.94895 14.98498 15.02314 15.05372 15.08418 15.11886 15.15691 15.1951 15.23884 15.25679 16.32097 16.53675 16.14449 15.26773 15.24534 15.19315 15.13831 15.0578 14.98338 14.92704 14.87553 14.83208 14.79714 14.78135 14.78535 14.78955 14.79393 14.79422 14.79902 14.80951 14.81345 14.81691 14.81781
0 0 0 0 0 0 0 0 0 0 0 0 0 0 0 0 0 0 0 0 0 0 0 0 0 0 0 0 0 0 0 0 0 0 0 0 0 0 0 0 0 0 0 0 0 0 0 0 0 16.38831 15.72135 15.42586 15.09437 15.16099 14.99283 15.04389 15.07315 15.12305 15.1587 15.18648 15.01454 15.03484 15.04275 15.04649 15.04067 14.86636 14.86814 14.86159 14.84098 14.83443 14.83444 14.83438 14.83487 14.84351 14.87233 14.87924 14.89577 14.91681 14.94421 14.97605 15.00407 15.03947 15.07927 15.11977 15.15843 15.19088 15.21084 15.22288 15.20814 15.17397 15.1351 15.08423 15.02746 14.95725 14.90706 14.86787 14.83453 14.78991 14.78627 14.79879 14.80625 14.81163 14.81936 14.82356 14.83296 14.83976 14.84186 14.8429 14.84457
0 0 0 0 0 0 0 0 0 0 0 0 0 0 0 0 0 0 0 0 0 0 0 0 0 0 0 0 0 0 0 0 0 0 0 0 0 0 0 0 0 0 0 0 0 0 0 0 0 16.31105 15.60656 15.29931 15.16265 15.01718 15.08996 15.1633 15.00028 15.03246 14.85797 14.86701 14.87722 14.88409 14.88645 14.88341 14.87322 14.8618 14.85305 14.84226 14.82061 14.79732 14.79262 14.78233 14.76756 14.76391 14.78524 14.78811 14.80456 14.82674 14.8556 14.88057 14.90455 14.93344 14.96521 15.00665 15.03698 15.0552 15.06238 15.05419 15.03783 15.01904 14.99413 14.96794 14.92539 14.88604 14.85334 14.81944 14.8013 14.79737 14.80128 14.8094 14.8251 14.84086 14.8489 14.85741 14.86755 14.87282 14.87673 14.87353 14.87964
0 0 0 0 0 0 0 0 0 0 0 0 0 0 0 0 0 0 0 0 0 0 0 0 0 0 0 0 0 0 0 0 0 0 0 0 0 0 0 0 0 0 0 0 0 0 0 0 0 16.18058 15.65379 15.33741 15.20789 15.06967 15.14442 15.00205 14.85384 14.87376 14.88606 14.88995 14.88997 14.88415 14.8776 14.86724 14.85415 14.84215 14.83247 14.81473 14.79685 14.77764 14.76385 14.74679 14.7291 14.71435 14.70115 14.68663 14.69298 14.71269 14.74271 14.76368 14.77884 14.79822 14.82538 14.86317 14.89768 14.92326 14.92892 14.92676 14.91433 14.89592 14.88702 14.86426 14.83544 14.82297 14.80523 14.79781 14.80668 14.81178 14.82082 14.8297 14.84285 14.86475 14.87202 14.88541 14.89672 14.90645 14.9143 14.91717 14.91707
0 0 0 0 0 0 0 0 0 0 0 0 0 0 0 0 0 0 0 0 0 0 0 0 0 0 0 0 0 0 0 0 0 0 0 0 0 0 0 0 0 0 0 0 0 0 0 0 0 16.2229 15.45774 15.13517 15.25488 15.12903 15.20357 15.02771 14.86258 14.87705 14.88133 14.87658 14.86815 14.86306 14.85401 14.84345 14.82894 14.81406 14.79414 14.77597 14.75042 14.72758 14.70132 14.67728 14.65572 14.64366 14.63199 14.62876 14.63251 14.64051 14.65877 14.67228 14.68776 14.7045 14.72041 14.73712 14.76232 14.78891 14.79095 14.79332 14.80074 14.79568 14.799 14.79942 14.79341 14.80057 14.80599 14.81262 14.82275 14.82886 14.83896 14.84215 14.85356 14.8712 14.89248 14.90363 14.9146 14.92184 14.9291 14.93843 14.94237
0 0 0 0 0 0 0 0 0 0 0 0 0 0 0 0 0 0 0 0 0 0 0 0 0 0 0 0 0 0 0 0 0 0 0 0 0 0 0 0 0 0 0 0 0 0 0 0 0 15.73212 15.51571 15.1765 15.08922 14.99119 15.04707 14.86611 14.86981 14.87138 14.86721 14.85623 14.84542 14.83646 14.827 14.81387 14.80158 14.78746 14.76774 14.74809 14.72372 14.69383 14.65915 14.62518 14.60159 14.58044 14.57195 14.56596 14.55954 14.56572 14.57984 14.59348 14.60795 14.62451 14.64321 14.66341 14.68691 14.70449 14.71618 14.71926 14.72076 14.72376 14.73619 14.75632 14.76434 14.78032 14.79424 14.81295 14.83369 14.84316 14.8507 14.85419 14.86103 14.87907 14.89547 14.91544 14.92305 14.93135 14.93732 14.95189 14.97478
0 0 0 0 0 0 0 0 0 0 0 0 0 0 0 0 0 0 0 0 0 0 0 0 0 0 0 0 0 0 0 0 0 0 0 0 0 0 0 0 0 0 0 0 0 0 0 0 0 0 15.29882 15.25435 15.16401 14.85931 14.88685 14.88574 14.87295 14.8665 14.8525 14.84407 14.83351 14.82374 14.81037 14.79218 14.7783 14.76817 14.75033 14.7317 14.70644 14.67672 14.64088 14.61007 14.58772 14.56685 14.54788 14.53885 14.53464 14.53636 14.53981 14.54824 14.5603 14.56824 14.5769 14.60176 14.62352 14.63909 14.65387 14.67061 14.68528 14.69996 14.71532 14.73413 14.75306 14.77592 14.80035 14.82002 14.83748 14.84955 14.86394 14.87141 14.88318 14.89477 14.90684 14.92068 14.92429 14.92968 14.94585 14.96557 14.98879
0 0 0 0 0 0 0 0 0 0 0 0 0 0 0 0 0 0 0 0 0 0 0 0 0 0 0 0 0 0 0 0 0 0 0 0 0 0 0 0 0 0 0 0 0 0 0 0 0 0 15.4684 15.07917 14.81949 14.8765 14.89147 14.89468 14.87282 14.85614 14.84287 14.83156 14.82126 14.80793 14.79641 14.78657 14.77833 14.76705 14.75297 14.73283 14.70845 14.67988 14.64723 14.61569 14.59445 14.56783 14.5464 14.53481 14.52661 14.52289 14.52354 14.52854 14.53608 14.55101 14.5653 14.57988 14.59251 14.61021 14.63106 14.65287 14.67438 14.68204 14.70491 14.73123 14.74405 14.76826 14.80269 14.82251 14.84314 14.85858 14.87417 14.8896 14.89984 14.90964 14.91472 14.92268 14.93033 14.93817 14.95599 14.98006 15.00732
0 0 0 0 0 0 0 0 0 0 0 0 0 0 0 0 0 0 0 0 0 0 0 0 0 0 0 0 0 0 0 0 0 0 0 0 0 0 0 0 0 0 0 0 0 0 0 0 0 0 0 0 14.84067 14.87159 14.88581 14.88694 14.87138 14.85303 14.83859 14.82915 14.81615 14.80669 14.80023 14.79573 14.791 14.78004 14.77277 14.7572 14.73157 14.70392 14.67384 14.6407 14.61037 14.58593 14.55868 14.54674 14.53218 14.52471 14.52105 14.52235 14.53221 14.54494 14.55491 14.56613 14.58703 14.60246 14.62407 14.63969 14.6574 14.68393 14.70707 14.7303 14.74422 14.77893 14.80617 14.83472 14.86097 14.87141 14.8825 14.89884 14.91209 14.91891 14.92817 14.93045 14.9407 14.94645 14.96453 14.98961 15.01647
0 0 0 0 0 0 0 0 0 0 0 0 0 0 0 0 0 0 0 0 0 0 0 0 0 0 0 0 0 0 0 0 0 0 0 0 0 0 0 0 0 0 0 0 0 0 0 0 0 0 17.09416 15.51826 15.09119 14.90442 14.90073 14.88511 14.86415 14.8449 14.83469 14.82411 14.8144 14.81418 14.81132 14.80908 14.80715 14.80301 14.79769 14.78045 14.76586 14.74523 14.71315 14.67589 14.6424 14.61218 14.59268 14.56684 14.54536 14.53405 14.5271 14.52666 14.53535 14.54164 14.55893 14.56809 14.58378 14.60019 14.62179 14.63944 14.65969 14.68329 14.71441 14.74445 14.77208 14.79878 14.81841 14.84839 14.86733 14.87661 14.89887 14.90659 14.91759 14.92981 14.93994 14.94888 14.95912 14.96566 14.98209 15.01074 15.03932
0 0 0 0 0 0 0 0 0 0 0 0 0 0 0 0 0 0 0 0 0 0 0 0 0 0 0 0 0 0 0 0 0 0 0 0 0 0 0 0 0 0 0 0 0 0 0 0 0 0 16.48724 15.56728 15.35436 14.93475 14.91804 14.89242 14.87297 14.84852 14.83834 14.83057 14.83128 14.83006 14.8319 14.83069 14.83227 14.83469 14.82589 14.81073 14.79712 14.7705 14.73735 14.70269 14.66879 14.63783 14.61099 14.58465 14.57158 14.55464 14.54173 14.53725 14.54128 14.55328 14.56122 14.57478 14.59059 14.60913 14.62897 14.6472 14.66469 14.69237 14.72761 14.77094 14.79797 14.82057 14.8374 14.86295 14.88443 14.89774 14.90823 14.92238 14.93732 14.95437 14.97057 14.98329 14.98299 14.98851 15.00219 15.03039 15.06446
0 0 0 0 0 0 0 0 0 0 0 0 0 0 0 0 0 0 0 0 0 0 0 0 0 0 0 0 0 0 0 0 0 0 0 0 0 0 0 0 0 0 0 0 0 0 0 0 0 0 0 15.63467 15.17718 14.96503 14.94595 14.91429 14.89023 14.87093 14.85952 14.85718 14.85376 14.85483 14.8608 14.86453 14.8683 14.87406 14.87071 14.86146 14.84463 14.81937 14.78415 14.74544 14.70683 14.67032 14.63795 14.61002 14.58862 14.57243 14.5647 14.56037 14.56093 14.56972 14.58016 14.5865 14.60318 14.62088 14.64246 14.66351 14.69565 14.73199 14.77491 14.80501 14.82805 14.85148 14.87067 14.89198 14.90979 14.91982 14.93254 14.94998 14.967 14.98419 14.99962 15.01981 15.01851 15.02135 15.03112 15.05869 15.09418
0 0 0 0 0 0 0 0 0 0 0 0 0 0 0 0 0 0 0 0 0 0 0 0 0 0 0 0 0 0 0 0 0 0 0 0 0 0 0 0 0 0 0 0 0 0 0 0 0 0 0 15.43406 15.00634 14.99763 14.97217 14.94653 14.9144 14.89425 14.88451 14.88308 14.88757 14.89856 14.90685 14.91164 14.91988 14.92305 14.92177 14.91292 14.89729 14.86531 14.8278 14.78437 14.74544 14.70434 14.67347 14.64101 14.61985 14.60151 14.59269 14.58904 14.59519 14.60771 14.61232 14.62487 14.63529 14.65036 14.66856 14.6966 14.73546 14.77833 14.81972 14.85027 14.87558 14.89984 14.92325 14.93982 14.95748 14.96743 14.9813 14.98868 14.99676 15.00725 15.02307 15.04091 15.04808 15.05093 15.0645 15.09377 15.1231
0 0 0 0 0 0 0 0 0 0 0 0 0 0 0 0 0 0 0 0 0 0 0 0 0 0 0 0 0 0 0 0 0 0 0 0 0 0 0 0 0 0 0 0 0 0 0 0 0 0 0 15.06714 15.04839 15.03122 14.99689 14.97323 14.93742 14.92082 14.91821 14.91664 14.9235 14.93709 14.95398 14.96625 14.97366 14.98379 14.98515 14.97386 14.95528 14.92665 14.88589 14.8376 14.79381 14.7476 14.71217 14.67724 14.6513 14.6308 14.62058 14.62065 14.63244 14.64781 14.65994 14.67172 14.6832 14.70238 14.72293 14.7556 14.79271 14.83877 14.87387 14.90455 14.92384 14.94602 14.96313 14.98263 15.00477 15.01638 15.02223 15.02857 15.03596 15.03841 15.04971 15.06891 15.0813 15.0933 15.10449 15.12484 15.14771
0 0 0 0 0 0 0 0 0 0 0 0 0 0 0 0 0 0 0 0 0 0 0 0 0 0 0 0 0 0 0 0 0 0 0 0 0 0 0 0 0 0 0 0 0 0 0 0 0 17.09598 16.10655 15.10972 15.08629 15.04987 15.02405 14.98976 14.96846 14.95277 14.95457 14.9555 14.96783 14.98287 15.00052 15.01368 15.02391 15.03339 15.03375 15.02646 15.004 14.97348 14.93902 14.89642 14.8554 14.80836 14.76312 14.73091 14.69989 14.67914 14.66949 14.66959 14.68467 14.69528 14.70728 14.71687 14.72925 14.74804 14.77298 14.80508 14.84668 14.88224 14.92038 14.95486 14.97803 14.9965 15.01178 15.03235 15.0492 15.0582 15.05901 15.06346 15.06979 15.07499 15.08281 15.09838 15.11415 15.12866 15.14312 15.15965 15.17738
0 0 0 0 0 0 0 0 0 0 0 0 0 0 0 0 0 0 0 0 0 0 0 0 0 0 0 0 0 0 0 0 0 0 0 0 0 0 0 0 0 0 0 0 0 0 0 0 16.17454 15.63394 15.3822 15.13843 15.10479 15.06915 15.0305 15.00557 14.98417 14.97046 14.96818 14.98257 15.00442 15.02591 15.05125 15.06176 15.0789 15.08498 15.08313 15.07508 15.05659 15.02074 14.98858 14.9392 14.89608 14.84948 14.80654 14.77185 14.74912 14.73054 14.72508 14.72561 14.73801 14.75483 14.76496 14.77772 14.79377 14.81065 14.83138 14.85784 14.8849 14.92145 14.95505 14.9864 15.00958 15.03324 15.04966 15.06947 15.08551 15.09748 15.10741 15.10993 15.1118 15.12101 15.12866 15.13847 15.14856 15.15762 15.17469 15.18929 15.20478
0 0 0 0 0 0 0 0 0 0 0 0 0 0 0 0 0 0 0 0 0 0 0 0 0 0 0 0 0 0 0 0 0 0 0 0 0 0 0 0 0 0 0 0 0 15.80848 15.69038 16.22998 15.69262 15.71177 15.43932 15.18151 15.14418 15.09902 15.05556 15.02681 15.01022 14.991 14.99606 15.01413 15.03965 15.06271 15.08787 15.10084 15.11811 15.12528 15.13553 15.13135 15.11107 15.07681 15.04069 15.00143 14.94948 14.90642 14.86248 14.82554 14.80021 14.78429 14.77908 14.77707 14.78425 14.79627 14.80953 14.82924 14.84745 14.86958 14.89206 14.91249 14.94213 14.97233 15.00425 15.0369 15.05714 15.07923 15.1025 15.11728 15.13384 15.14652 15.15492 15.16242 15.16493 15.17001 15.17575 15.18556 15.18747 15.19692 15.20842 15.22269 15.24129
0 0 0 0 0 0 0 0 0 0 0 0 0 0 0 0 0 0 0 0 0 0 0 0 0 0 0 0 0 0 0 0 0 0 0 0 0 0 0 0 0 0 17.89228 17.58175 16.5792 15.73818 15.22614 15.2427 15.77176 15.48988 15.22999 15.20809 15.16565 15.12525 15.09034 15.06582 15.03988 15.03644 15.04381 15.06372 15.09104 15.11053 15.12761 15.14712 15.16803 15.17663 15.18356 15.17424 15.1545 15.12175 15.0854 15.04875 15.00343 14.96033 14.92134 14.88719 14.85994 14.84778 14.83772 14.83898 14.8463 14.8579 14.8721 14.88878 14.90033 14.92018 14.93816 14.96249 14.99216 15.01668 15.0421 15.07527 15.10409 15.13195 15.15356 15.18062 15.19978 15.21537 15.2284 15.23268 15.23283 15.22794 15.22929 15.22981 15.23085 15.23554 15.24135 15.25507 15.27007
0 0 0 0 0 0 0 0 0 0 0 0 0 0 0 0 0 0 0 0 0 0 0 0 0 0 0 0 0 0 0 0 0 0 0 0 0 0 0 0 16.98769 17.38156 17.63302 16.6746 15.79335 15.26964 15.29052 15.30953 15.30713 15.29093 15.26713 15.2357 15.19178 15.15139 15.11892 15.09443 15.07871 15.07633 15.08887 15.10716 15.13358 15.14874 15.16893 15.20124 15.22017 15.23078 15.23034 15.22038 15.20151 15.17823 15.14149 15.10436 15.06781 15.02328 14.97648 14.94226 14.91549 14.89231 14.89018 14.88861 14.89896 14.91241 14.93091 14.94281 14.95728 14.97613 14.99316 15.01852 15.04538 15.06772 15.09223 15.11684 15.14216 15.16454 15.18925 15.21613 15.23827 15.25837 15.27351 15.27888 15.28581 15.28526 15.27989 15.2782 15.27944 15.28182 15.28593 15.29579 15.30931
0 0 0 0 0 0 0 0 0 0 0 0 0 0 0 0 0 0 0 0 0 0 0 0 0 0 0 0 0 0 0 0 0 0 0 0 0 0 0 17.21618 16.96111 16.39191 16.12101 15.28357 15.2923 15.30765 15.3289 15.34889 15.34613 15.3284 15.29996 15.26471 15.22183 15.18549 15.16073 15.14556 15.13856 15.14304 15.15383 15.17405 15.18964 15.2039 15.22219 15.24996 15.2662 15.27345 15.27107 15.2644 15.24515 15.22611 15.20371 15.16975 15.13109 15.08988 15.04962 15.01625 14.9917 14.96847 14.95491 14.95156 14.95707 14.96644 14.97889 14.99039 15.00127 15.02133 15.04387 15.07033 15.09258 15.11634 15.13717 15.16268 15.1874 15.21372 15.23585 15.26038 15.28299 15.29823 15.31055 15.32107 15.32466 15.32392 15.31472 15.31565 15.31724 15.31912 15.32786 15.34056 15.3519
0 0 0 0 0 0 0 0 0 0 0 0 0 0 0 0 0 0 0 0 0 0 0 0 0 0 0 0 0 0 0 0 0 0 0 0 0 0 16.42824 16.12136 15.85301 15.31522 15.3328 15.33802 15.34821 15.36651 15.37515 15.37846 15.37251 15.35882 15.3343 15.30004 15.27068 15.23363 15.21249 15.20026 15.19463 15.20128 15.2191 15.23713 15.25222 15.2643 15.28472 15.30523 15.31546 15.32499 15.32856 15.32307 15.31221 15.29413 15.26935 15.23589 15.19536 15.1565 15.11182 15.07924 15.05504 15.03208 15.01998 15.01218 15.01873 15.02968 15.03991 15.0555 15.06639 15.08075 15.10235 15.12269 15.14529 15.16757 15.18751 15.20714 15.22693 15.25224 15.27163 15.29447 15.31471 15.33338 15.3401 15.3517 15.35647 15.35472 15.35561 15.35675 15.36015 15.36937 15.37791 15.39115 15.39383
0 0 0 0 0 0 0 0 0 0 0 0 0 0 0 0 0 0 0 0 0 0 0 0 0 0 0 0 0 0 0 0 0 0 18.11344 18.73659 17.85874 16.1578 15.30246 15.31715 15.33988 15.35384 15.36532 15.3794 15.39344 15.40156 15.40661 15.40959 15.40445 15.39463 15.37656 15.35677 15.33506 15.30999 15.29222 15.27583 15.26849 15.26743 15.28533 15.29724 15.306 15.31537 15.32831 15.34262 15.35919 15.37443 15.3793 15.37628 15.37123 15.36003 15.3406 15.30879 15.27244 15.24221 15.20322 15.16254 15.13377 15.10885 15.0905 15.07812 15.07871 15.0881 15.09821 15.10823 15.11926 15.13323 15.15577 15.17647 15.19228 15.21545 15.23735 15.25882 15.27982 15.29986 15.32038 15.33596 15.35024 15.36616 15.37494 15.37853 15.3866 15.38593 15.38411 15.39104 15.40131 15.4138 15.43086 15.44523 15.44535
0 0 0 0 0 0 0 0 0 0 0 0 0 0 0 0 0 0 0 0 0 0 0 0 0 0 0 0 0 18.6104 18.19924 17.97702 17.96155 17.73755 17.4462 16.84643 15.34036 15.34253 15.34722 15.35788 15.36968 15.38438 15.39795 15.40988 15.42744 15.42268 15.42973 15.43105 15.43165 15.42457 15.41314 15.40531 15.38935 15.36782 15.35404 15.34488 15.34177 15.34299 15.35669 15.36119 15.3657 15.3693 15.38041 15.39613 15.41042 15.41972 15.42397 15.42273 15.41695 15.40526 15.388 15.36483 15.33467 15.31155 15.2785 15.24339 15.21288 15.1889 15.17371 15.16359 15.16304 15.17106 15.17673 15.17861 15.18472 15.19333 15.20721 15.22582 15.23682 15.25669 15.28045 15.30019 15.32271 15.34426 15.36484 15.38031 15.3909 15.40233 15.41513 15.41775 15.4233 15.42732 15.43082 15.43646 15.44409 15.46043 15.47331 15.48111 15.4704
0 0 0 0 0 0 0 0 0 0 0 0 0 0 0 0 0 0 0 0 0 0 0 0 0 18.39888 17.67084 17.66982 16.71244 16.04005 15.71431 15.4126 15.40834 15.40036 15.3895 15.37724 15.36718 15.3633 15.36893 15.38117 15.39278 15.4041 15.41813 15.43379 15.4458 15.45384 15.46607 15.47194 15.47758 15.48066 15.47362 15.46458 15.44939 15.4297 15.41038 15.4 15.39341 15.39446 15.39514 15.40031 15.4093 15.41589 15.42802 15.44173 15.45591 15.46725 15.47156 15.4739 15.47404 15.46189 15.44543 15.42187 15.39624 15.37548 15.34939 15.32089 15.28824 15.26412 15.24726 15.2409 15.23775 15.24159 15.24732 15.25012 15.2526 15.2624 15.27415 15.28929 15.29938 15.31358 15.3337 15.35383 15.37184 15.39069 15.40832 15.4208 15.42962 15.43825 15.44612 15.45512 15.46365 15.46541 15.47384 15.48305 15.49859 15.51048 15.52121 15.51675 15.48153
0 0 0 0 0 0 0 0 0 0 0 0 0 0 0 0 0 0 0 0 0 0 0 18.57251 17.71483 17.13208 16.79616 16.46245 15.48421 15.46657 15.45049 15.43947 15.43103 15.42163 15.40542 15.39493 15.3833 15.37811 15.38281 15.3926 15.40234 15.4151 15.43061 15.44399 15.45945 15.47409 15.49166 15.5045 15.51443 15.52332 15.52231 15.51617 15.50246 15.4827 15.46192 15.44827 15.44434 15.44138 15.44452 15.44542 15.45032 15.45147 15.46078 15.4726 15.48637 15.49843 15.50359 15.5104 15.51079 15.50424 15.49492 15.47694 15.46215 15.44612 15.42862 15.40655 15.38465 15.3644 15.34982 15.33502 15.32822 15.32387 15.32119 15.31831 15.31938 15.32303 15.32932 15.33952 15.35118 15.3656 15.38306 15.40085 15.4198 15.43564 15.45338 15.46555 15.47299 15.48311 15.48801 15.49973 15.5076 15.51161 15.52086 15.5319 15.54211 15.55207 15.55207 15.53316 15.48269
0 0 0 0 0 0 0 0 0 0 0 0 0 0 0 0 0 0 0 0 0 0 17.98674 17.14478 16.83068 16.82205 16.4861 16.13725 15.486 15.46605 15.44915 15.4376 15.42943 15.42157 15.40787 15.39486 15.38905 15.38661 15.38646 15.39424 15.40491 15.41705 15.43326 15.45114 15.46591 15.49269 15.51272 15.53009 15.54684 15.55095 15.54322 15.53666 15.5281 15.51285 15.49664 15.484 15.4778 15.4763 15.47901 15.48152 15.48187 15.48526 15.49593 15.50536 15.52129 15.5351 15.54426 15.54821 15.54979 15.54637 15.53995 15.53057 15.51993 15.50984 15.49335 15.47479 15.4576 15.44353 15.42893 15.41867 15.41104 15.40731 15.4021 15.39787 15.39419 15.39491 15.40183 15.40991 15.41823 15.42692 15.43623 15.45187 15.46387 15.47761 15.48883 15.49904 15.50822 15.51532 15.52672 15.53615 15.54946 15.55879 15.57054 15.58168 15.59083 15.5953 15.58386 15.54445 15.4821
0 0 0 0 0 0 0 0 0 0 0 0 0 0 0 0 0 0 0 0 0 19.19243 18.18729 17.12622 16.49474 16.48235 16.13474 16.12133 15.46669 15.44999 15.43534 15.4286 15.42185 15.41236 15.40115 15.39165 15.38384 15.38315 15.38384 15.39061 15.40064 15.41495 15.43218 15.4478 15.46928 15.49761 15.52862 15.54863 15.55623 15.55726 15.55059 15.54793 15.54193 15.53345 15.52119 15.51205 15.5044 15.50419 15.50719 15.50667 15.50691 15.51145 15.52141 15.53358 15.5503 15.56195 15.57017 15.57669 15.58329 15.5863 15.58904 15.58727 15.58583 15.58035 15.5692 15.55358 15.53741 15.52023 15.50078 15.48743 15.47803 15.46871 15.45959 15.45668 15.45687 15.45915 15.46728 15.47537 15.48364 15.49147 15.497 15.50832 15.51655 15.5249 15.53292 15.54533 15.55528 15.55995 15.56752 15.57463 15.58304 15.59734 15.60572 15.61845 15.62462 15.62213 15.6006 15.54473 15.4708
0 0 0 0 0 0 0 0 0 0 0 0 0 0 0 0 0 0 0 0 0 0 0 17.70412 16.81849 16.48196 16.1301 15.79121 15.45148 15.43449 15.42462 15.42138 15.41297 15.40589 15.39583 15.38923 15.38068 15.37958 15.38137 15.38845 15.39932 15.41874 15.43132 15.44691 15.46901 15.49977 15.5244 15.53921 15.54759 15.55356 15.5574 15.56272 15.56136 15.5551 15.54749 15.53798 15.53905 15.54011 15.53936 15.54136 15.54138 15.54515 15.5493 15.56351 15.57658 15.58147 15.59053 15.59971 15.60767 15.61613 15.62317 15.62663 15.63112 15.6328 15.62945 15.62197 15.60602 15.59565 15.58003 15.56779 15.55682 15.5491 15.54435 15.53369 15.52979 15.53323 15.53494 15.53896 15.54184 15.5413 15.54534 15.55293 15.55802 15.56724 15.57872 15.59349 15.60421 15.60808 15.61564 15.62403 15.63445 15.6451 15.65729 15.66495 15.66422 15.6493 15.60978 15.54426 15.46398
0 0 0 0 0 0 0 0 0 0 0 0 0 0 0 0 0 0 0 0 0 19.583 19.29251 18.31484 16.84605 16.49523 16.13586 16.11809 15.75581 15.42647 15.41743 15.41144 15.40673 15.40001 15.38847 15.38374 15.38035 15.38336 15.38358 15.39024 15.40197 15.42093 15.43195 15.45132 15.468 15.48475 15.50053 15.52348 15.54154 15.55743 15.56843 15.57496 15.57923 15.58005 15.57234 15.57215 15.57452 15.57344 15.57141 15.56939 15.56575 15.57108 15.57587 15.58357 15.59504 15.6059 15.61636 15.62887 15.63758 15.64389 15.6544 15.66287 15.6726 15.68056 15.68009 15.67704 15.66751 15.65376 15.64044 15.62785 15.61995 15.61562 15.61169 15.60768 15.6043 15.60182 15.60691 15.60498 15.60619 15.60778 15.61021 15.61077 15.61262 15.62014 15.62857 15.63864 15.64812 15.65302 15.66036 15.66888 15.67638 15.68945 15.69806 15.70292 15.69239 15.66691 15.62193 15.5531 15.46378
0 0 0 0 0 0 0 0 0 0 0 0 0 0 0 0 0 0 0 19.58562 19.52515 19.43273 18.60824 17.51458 16.87421 16.52209 16.15097 16.46663 15.44967 15.42022 15.41074 15.40413 15.39841 15.3936 15.38819 15.38362 15.38191 15.38487 15.38854 15.39423 15.40811 15.42167 15.43606 15.44985 15.46248 15.48072 15.49744 15.52327 15.54517 15.56319 15.58041 15.5964 15.60592 15.61272 15.6142 15.61637 15.6182 15.6118 15.60838 15.60289 15.59583 15.59449 15.59923 15.60791 15.6146 15.62259 15.63465 15.64633 15.65873 15.67037 15.6842 15.6944 15.71185 15.72998 15.73472 15.73587 15.73406 15.72645 15.71485 15.70454 15.69779 15.69118 15.68212 15.67741 15.6715 15.66657 15.66225 15.6608 15.6613 15.66122 15.66048 15.66499 15.67124 15.67648 15.68603 15.69588 15.70993 15.71725 15.72206 15.73056 15.73511 15.7372 15.73982 15.73809 15.72054 15.68581 15.63825 15.56386 15.47274
0 0 0 0 0 0 0 0 0 0 0 0 0 0 0 0 0 0 19.06809 18.95737 18.61156 18.1546 17.54692 16.89931 16.56858 16.5447 16.16918 15.8003 15.45153 15.42087 15.40596 15.39909 15.3979 15.39319 15.3909 15.39283 15.39087 15.39665 15.40373 15.41208 15.42489 15.43965 15.45468 15.46754 15.47667 15.49193 15.51091 15.53368 15.55919 15.57993 15.60342 15.61978 15.63351 15.64242 15.65209 15.65791 15.65679 15.6527 15.64347 15.63874 15.63399 15.63496 15.63166 15.63463 15.64281 15.65334 15.66163 15.67037 15.67988 15.69201 15.70814 15.72466 15.74452 15.76199 15.772 15.77923 15.78261 15.77904 15.77339 15.77291 15.77226 15.76811 15.76218 15.75511 15.74764 15.73699 15.72703 15.72181 15.71897 15.71467 15.71579 15.71268 15.71875 15.72508 15.73029 15.74411 15.75945 15.76795 15.77226 15.77899 15.78366 15.78584 15.78776 15.77668 15.75602 15.71719 15.66541 15.59435 15.50916
0 0 0 0 0 0 0 0 0 0 0 0 0 0 0 0 0 19.48901 18.95796 18.35048 17.85499 17.24303 16.92139 16.92147 16.91783 16.53745 16.16201 15.48159 15.4436 15.41321 15.40007 15.39322 15.39107 15.38716 15.3873 15.39392 15.39884 15.40761 15.41479 15.42697 15.43985 15.45717 15.47085 15.48751 15.49979 15.51611 15.53544 15.55793 15.58042 15.60545 15.63104 15.65226 15.66574 15.677 15.68352 15.68669 15.69096 15.6879 15.68149 15.66972 15.66757 15.66438 15.66429 15.66338 15.67295 15.67963 15.68755 15.696 15.70529 15.72029 15.73995 15.75888 15.78235 15.80017 15.81417 15.82503 15.82956 15.83051 15.82923 15.83106 15.83223 15.82846 15.82098 15.81136 15.80145 15.79257 15.78195 15.77259 15.77092 15.76744 15.76815 15.76679 15.77555 15.78249 15.78571 15.79668 15.80904 15.81298 15.81702 15.8181 15.82083 15.82225 15.82201 15.80857 15.78525 15.74628 15.69798 15.63324 15.55788
0 0 0 0 0 0 0 0 0 0 0 0 0 0 0 0 18.96126 18.95196 18.11765 17.56528 17.25713 16.9292 16.91712 16.92039 16.90708 16.53046 16.14874 15.47423 15.43151 15.41011 15.39635 15.39033 15.38882 15.39494 15.4001 15.40987 15.41416 15.41821 15.42721 15.43792 15.45581 15.4731 15.49049 15.50899 15.52675 15.54544 15.56496 15.58823 15.60907 15.63096 15.66104 15.68343 15.70187 15.71236 15.71782 15.7209 15.72815 15.72886 15.72239 15.72198 15.71745 15.71051 15.70371 15.69941 15.6975 15.70306 15.71056 15.71856 15.72309 15.73958 15.76039 15.78262 15.80871 15.83142 15.85051 15.86516 15.87628 15.88246 15.88922 15.89973 15.90018 15.89923 15.89036 15.87742 15.8654 15.84842 15.83534 15.82134 15.81114 15.80686 15.80476 15.80667 15.81717 15.82579 15.83318 15.84063 15.84702 15.85305 15.85942 15.85967 15.86139 15.86461 15.86369 15.84769 15.82317 15.79388 15.74642 15.68303 15.60678
0 0 0 0 0 0 0 0 0 0 0 0 0 0 0 19.49856 18.77228 18.0945 17.52915 17.23547 16.90784 16.90508 16.90851 16.55665 16.53498 16.17311 15.48897 15.45214 15.42089 15.40545 15.3905 15.38949 15.39583 15.40039 15.40396 15.41724 15.42603 15.43856 15.44854 15.46143 15.48378 15.50529 15.52793 15.54906 15.5719 15.59083 15.6106 15.63017 15.65214 15.67638 15.6961 15.71366 15.72641 15.74027 15.74855 15.75592 15.76056 15.76555 15.77277 15.77614 15.77634 15.77351 15.76098 15.74586 15.73414 15.72941 15.73141 15.73899 15.7446 15.75809 15.77928 15.80495 15.83318 15.8569 15.88128 15.89958 15.91206 15.92233 15.93677 15.94315 15.95059 15.95213 15.94772 15.93923 15.92956 15.91414 15.89842 15.88567 15.87128 15.86394 15.85663 15.85715 15.8633 15.86917 15.87075 15.87515 15.87611 15.88178 15.8862 15.88972 15.89031 15.89792 15.89176 15.88101 15.86778 15.83773 15.79597 15.73636 15.6648
0 0 0 0 0 0 0 0 0 0 0 0 0 0 18.80976 18.80451 18.10581 17.50534 17.19573 16.86626 16.88038 16.52896 16.52378 16.51737 16.16635 15.79952 15.4646 15.43774 15.41551 15.40101 15.39557 15.39337 15.40091 15.40994 15.41779 15.42891 15.4412 15.45454 15.47117 15.48811 15.51392 15.54187 15.57114 15.59719 15.62096 15.64653 15.67165 15.69908 15.72122 15.73551 15.74886 15.76344 15.77682 15.78626 15.79479 15.8027 15.80452 15.81236 15.82422 15.83205 15.83508 15.83395 15.82401 15.80378 15.78222 15.76448 15.75833 15.75929 15.7639 15.77296 15.79505 15.82027 15.8551 15.88716 15.9167 15.94091 15.95904 15.9723 15.98548 15.99027 15.99585 15.9978 15.99283 15.98592 15.97985 15.96882 15.95361 15.94092 15.9264 15.91387 15.90871 15.90661 15.90665 15.9094 15.90972 15.91134 15.91589 15.91732 15.91945 15.92064 15.92205 15.92473 15.92263 15.91089 15.89725 15.86684 15.82658 15.769 15.69826
0 0 0 0 0 0 0 0 0 0 0 0 0 18.66676 18.84237 18.09358 17.4768 17.16767 16.83631 16.84481 16.50706 16.49762 16.49988 16.49808 16.13553 15.467 15.44226 15.42209 15.40898 15.40392 15.40446 15.41239 15.4243 15.43495 15.44199 15.45538 15.46889 15.48768 15.50661 15.53126 15.56084 15.59468 15.62471 15.65171 15.67974 15.70388 15.73339 15.7585 15.77919 15.7927 15.80311 15.81454 15.82508 15.83041 15.83577 15.84088 15.84264 15.85376 0 0 0 15.83101 15.8359 15.88187 15.8577 15.8234 15.79718 15.78299 15.7787 15.78431 15.80396 15.83241 15.86868 15.9063 15.94009 15.97241 15.99564 16.01594 16.02935 16.03537 16.04443 16.04635 16.04569 16.04256 16.03887 16.02762 16.01391 16.00435 15.98966 15.97185 15.96406 15.95523 15.95165 15.94914 15.94756 15.94745 15.94586 15.94638 15.94991 15.94976 15.95537 15.95963 15.95859 15.94883 15.93545 15.91011 15.86457 15.80265 15.72711
0 0 0 0 0 0 0 0 0 0 0 0 0 19.04067 18.11724 17.48563 17.13461 16.79255 16.803 16.45806 16.46747 16.47517 16.47938 15.46773 15.45709 15.43927 15.42201 15.41081 15.40494 15.40354 15.41385 15.42397 15.43819 15.4487 15.46154 15.47579 15.49665 15.51564 15.54554 15.58438 15.62939 15.66791 15.69824 15.72792 15.75617 15.79034 15.82229 15.8434 15.84996 15.85394 15.85911 16.64119 15.88344 15.87303 15.86844 16.23381 17.01436 17.80405 0 0 0 0 0 16.29402 15.90519 15.87222 15.83621 15.81039 15.79694 15.79783 15.81966 15.85173 15.88684 15.92943 15.9685 16.00293 16.0298 16.04996 16.06561 16.07555 16.08092 16.0845 16.08616 16.08761 16.08599 16.07621 16.07089 16.0614 16.05227 16.03778 16.02903 16.02276 16.01603 16.01059 16.00556 16.00007 15.99309 15.9888 15.98744 15.98866 15.98953 15.9921 15.98992 15.98432 15.97075 15.94275 15.89719 15.83127 15.74913
0 0 0 0 0 0 0 0 0 0 0 0 19.18346 18.38883 17.46693 17.11774 16.75236 16.41627 16.42559 16.44077 16.44898 16.46358 16.11151 15.44794 15.43601 15.4188 15.40688 15.40165 15.3988 15.4039 15.41506 15.42913 15.44618 15.46197 15.47348 15.48941 15.50779 15.53567 15.5742 15.63582 15.68109 15.7247 15.75944 15.79758 15.83291 15.85717 15.86801 0 0 15.85434 0 17.54185 16.71251 16.28644 16.66792 16.64631 17.4272 17.85477 18.82413 16.6222 15.89328 0 0 0 17.53132 15.89058 15.85751 15.83013 15.81595 15.816 15.8352 15.8677 15.90893 15.95438 15.99613 16.03428 16.06481 16.08975 16.1087 16.12097 16.12549 16.12639 16.13118 16.12709 16.12711 16.12143 16.11589 16.10855 16.09981 16.09139 16.08334 16.0759 16.07094 16.06232 16.05771 16.05033 16.04316 16.04154 16.03973 16.03607 16.03621 16.03915 16.03489 16.0269 16.00986 15.97645 15.92906 15.86051 15.77083
0 0 0 0 0 0 0 0 0 0 0 18.41177 18.39135 17.45539 17.10152 16.38497 16.39974 16.41657 16.42436 16.43539 16.45605 15.77658 15.45134 15.43964 15.42185 15.40899 15.40312 15.40154 15.40564 15.41486 15.42607 15.43999 15.45272 15.46852 15.48558 15.50699 15.5381 15.58121 15.62976 15.69559 15.74124 15.78628 15.81845 15.84821 16.65166 0 0 0 0 0 18.33125 19.12066 18.87438 18.27807 17.9011 17.46246 17.44233 16.25105 15.87917 15.8902 15.89528 15.89436 15.89079 17.91128 18.26876 15.89342 15.86832 15.84888 15.83587 15.83703 15.85709 15.88754 15.92822 15.97399 16.02092 16.06092 16.09427 16.12334 16.14039 16.15456 16.16531 16.16795 16.16824 16.16513 16.16526 16.16285 16.16372 16.16439 16.16154 16.15491 16.14586 16.1341 16.12338 16.11386 16.10542 16.09879 16.08763 16.08772 16.08297 16.08065 16.08128 16.07932 16.07222 16.06176 16.04147 16.01128 15.96635 15.89457 15.80413
0 0 0 0 0 0 0 0 0 0 19.12158 18.40448 17.44756 16.73018 16.38904 16.0592 16.07593 16.09022 16.10125 16.10965 16.1181 15.46516 15.45245 15.43663 15.42041 15.4115 15.40713 15.41217 15.4175 15.42679 15.44025 15.44766 15.45891 15.47614 15.49478 15.52591 15.56945 15.6263 15.68153 15.73471 15.79196 15.83439 16.23681 0 0 0 0 0 0 0 0 0 0 0 18.27305 17.9027 17.07646 15.88196 15.89412 15.90514 15.90916 15.90811 15.9063 15.90836 15.9057 15.90034 15.88233 15.87163 15.86521 15.8665 15.88452 15.91473 15.95472 16.00016 16.04541 16.08524 16.12117 16.1479 16.17053 16.18439 16.1952 16.19931 16.1993 16.19642 16.19264 16.19403 16.20139 16.20431 16.20598 16.20457 16.19839 16.19025 16.17798 16.17083 16.16212 16.15216 16.14543 16.14449 16.13812 16.1327 16.1333 16.12455 16.11331 16.09403 16.07305 16.03986 15.99342 15.92251 15.83154
0 0 0 0 0 0 0 0 0 0 18.6741 17.43074 16.72474 16.38049 15.73588 15.74626 15.44702 15.45369 15.4667 15.465 15.46349 15.45678 15.45141 15.44512 15.43364 15.4254 15.42802 15.43638 15.44405 15.45592 15.46366 15.47201 15.47987 15.49534 15.51918 15.55615 15.60535 15.65721 15.71387 15.76628 16.9901 0 0 0 0 0 0 0 0 0 0 0 0 0 18.92899 17.53936 15.9122 15.91641 15.92622 15.93996 15.9498 15.94746 15.94054 15.93298 15.92575 15.91686 15.90672 15.89551 15.89354 15.9011 15.91558 15.94544 15.98391 16.03067 16.07235 16.1121 16.14697 16.1778 16.20085 16.21331 16.22437 16.2267 16.22492 16.22508 16.22493 16.22547 16.23324 16.24064 16.24382 16.24123 16.23785 16.22953 16.2218 16.214 16.20308 16.19419 16.18943 16.19013 16.19083 16.18936 16.18646 16.17384 16.15937 16.13586 16.10618 16.07268 16.02075 15.95283 15.86346
0 0 0 0 0 0 0 0 0 18.7571 18.13089 17.07611 16.36108 15.71063 15.42839 15.43411 15.43493 15.44088 15.44952 15.45418 15.45644 15.45244 15.45206 15.45093 15.44427 15.43799 15.43955 15.45011 15.46348 15.47482 15.48528 15.49502 15.50321 15.52295 15.55029 15.59163 15.63747 15.69232 15.74824 16.55877 16.78755 0 0 0 0 0 0 0 0 0 0 0 0 18.2021 17.97068 16.72054 15.92517 15.94175 15.96187 15.98083 15.98956 15.99198 15.98356 15.97284 15.95968 15.94971 15.94176 15.93045 15.93086 15.93849 15.95427 15.98205 16.02075 16.06117 16.09902 16.13263 16.16746 16.19768 16.22054 16.23541 16.24812 16.25003 16.24843 16.24871 16.25348 16.25949 16.26978 16.27908 16.28421 16.28395 16.2783 16.27279 16.26284 16.25398 16.24801 16.239 16.23383 16.23373 16.23151 16.23286 16.22755 16.21254 16.1926 16.16089 16.12949 16.09012 16.0393 15.97089 15.88766
0 0 0 0 0 0 0 0 19.62195 18.47964 17.06671 16.33556 15.98941 15.3838 15.3934 15.40769 15.41367 15.41926 15.42396 15.431 15.44005 15.44705 15.45289 15.45085 15.44573 15.4531 15.46193 15.47474 15.48508 15.4965 15.50411 15.51236 15.52438 15.54486 15.57606 15.61885 15.66087 15.7074 16.12072 16.56173 17.00862 17.8398 0 18.66946 19.25785 0 0 0 0 0 0 0 18.98404 17.97197 17.15481 15.93423 15.94782 15.97128 15.9952 16.01317 16.01974 16.02029 16.01335 16.0011 15.98978 15.97571 15.96983 15.96492 15.96625 15.97898 15.99927 16.02316 16.05888 16.09489 16.1316 16.16258 16.19449 16.22474 16.24801 16.26585 16.27595 16.2765 16.27633 16.27733 16.2811 16.28823 16.30087 16.31054 16.31584 16.31778 16.31179 16.30656 16.30133 16.29555 16.29055 16.28285 16.27971 16.28019 16.28137 16.2775 16.2695 16.24974 16.22471 16.19145 16.15199 16.10594 16.05107 15.98101 15.90136
0 0 0 0 0 0 0 0 19.62834 18.48027 17.05752 16.31713 15.3563 15.36197 15.37093 15.38128 15.38858 15.39576 15.40695 15.41825 15.43057 15.44066 15.44576 15.45359 15.45876 15.47377 15.49281 15.5064 15.52421 15.53705 15.54885 15.55536 15.56515 15.5831 15.61004 15.64837 15.68362 15.7174 15.75281 16.16522 16.57885 17.00245 17.43999 17.87902 18.66088 0 0 0 0 0 0 18.36094 17.55258 17.55692 15.92613 15.9495 15.97903 16.01146 16.0366 16.04786 16.05355 16.0486 16.04174 16.03179 16.01927 16.00608 15.99705 15.99439 16.00084 16.01267 16.02932 16.05412 16.08523 16.12059 16.15854 16.19367 16.22418 16.25538 16.28115 16.30192 16.30952 16.3112 16.31455 16.31643 16.32122 16.32638 16.33661 16.34644 16.3515 16.35151 16.34602 16.34213 16.33731 16.3324 16.3279 16.32253 16.31875 16.31733 16.31675 16.31087 16.30158 16.28472 16.25761 16.21914 16.17136 16.11766 16.06018 15.98888 15.90908
0 0 0 0 0 0 0 0 0 18.48285 17.05558 16.31624 15.34262 15.34277 15.34895 15.36265 15.36722 15.3748 15.39278 15.40901 15.42256 15.4323 15.44431 15.45766 15.47017 15.49429 15.51713 15.54785 15.57501 15.593 15.60534 15.61385 15.61915 15.6281 15.65158 15.68422 15.70974 15.73422 15.76141 15.76944 15.78745 15.80257 15.81888 16.2039 17.03561 17.86674 18.66752 19.00322 0 0 18.64444 17.52282 16.69775 15.91853 15.94185 15.97691 16.01551 16.04374 16.06203 16.0721 16.07406 16.07368 16.06771 16.05936 16.04899 16.03946 16.03483 16.03316 16.03682 16.04972 16.06654 16.08726 16.11563 16.15035 16.18363 16.21783 16.24811 16.28006 16.30957 16.32863 16.34098 16.34365 16.34683 16.35194 16.35611 16.36226 16.37398 16.38716 16.39237 16.39104 16.38892 16.38689 16.38116 16.37879 16.37307 16.36646 16.35969 16.35023 16.34659 16.34038 16.32547 16.30201 16.26857 16.231 16.18619 16.12666 16.06595 15.99215 15.91436
0 0 0 0 0 0 0 0 0 19.47455 17.81455 16.69134 15.63838 15.33717 15.33474 15.34252 15.34597 15.35841 15.37975 15.39823 15.41489 15.43034 15.44439 15.46673 15.48915 15.5207 15.5646 15.60245 15.6334 15.6533 15.66696 15.66777 15.67105 15.67746 15.69365 15.71421 15.73361 15.74836 15.76614 15.76668 15.77749 15.78677 15.8046 15.82022 16.20549 16.6225 17.04321 17.45224 18.63793 17.49114 16.24931 15.88636 15.90877 15.94082 15.97551 16.00907 16.04163 16.06341 16.07944 16.08953 16.08973 16.08989 16.08483 16.07717 16.0711 16.06917 16.06765 16.06616 16.06912 16.08311 16.10039 16.12432 16.15173 16.1836 16.21559 16.25282 16.28275 16.31368 16.34028 16.36051 16.37037 16.37458 16.37869 16.38698 16.39178 16.39902 16.41135 16.41912 16.42414 16.42362 16.42408 16.42385 16.41909 16.41691 16.41011 16.40473 16.3954 16.38473 16.37404 16.36564 16.34702 16.32083 16.28805 16.24645 16.19746 16.13531 16.06939 15.98811 15.90695
0 0 0 0 0 0 0 0 0 19.6172 18.77514 17.07454 15.96687 15.33531 15.33402 15.34279 15.33727 15.34863 15.37102 15.3909 15.4048 15.42668 15.4479 15.46991 15.51007 15.56196 15.61722 15.66684 15.70542 15.72079 15.72857 15.72968 15.7271 15.72711 15.73357 15.74856 15.76008 15.76331 15.77084 15.76794 15.77499 15.78578 15.80185 15.81843 15.83269 15.8474 16.24067 0 17.49596 16.26787 15.90174 15.92459 15.95366 15.98327 16.01742 16.0452 16.06949 16.08706 16.10056 16.109 16.11226 16.11145 16.10836 16.10369 16.10009 16.10082 16.09893 16.09543 16.09896 16.11062 16.12816 16.14915 16.17857 16.20867 16.24267 16.27633 16.31335 16.34366 16.36412 16.38305 16.39434 16.40102 16.40769 16.41728 16.42641 16.43688 16.44443 16.45075 16.45505 16.4576 16.4613 16.45908 16.4549 16.44766 16.44124 16.43186 16.42394 16.41219 16.39776 16.38499 16.36289 16.33138 16.29787 16.25679 16.20654 16.1404 16.06852 15.98293 15.8931
0 0 0 0 0 0 0 0 0 0 19.30258 17.85471 16.32853 15.65549 15.35668 15.35213 15.33708 15.33986 15.35365 15.37073 15.3984 15.42347 15.45075 15.4824 15.52942 15.58949 15.6531 15.70164 0 0 0 15.96489 15.75509 15.75901 15.76207 15.76449 15.77556 15.78428 15.78426 15.78156 15.78444 15.79616 15.8059 15.82247 15.84067 15.86206 15.88289 16.28714 15.90732 15.92192 15.94563 15.97387 15.99959 16.02923 16.05288 16.07605 16.09317 16.10987 16.1208 16.12882 16.13622 16.14264 16.14035 16.13917 16.13802 16.13601 16.13578 16.13457 16.1383 16.15005 16.16383 16.18356 16.21105 16.24259 16.2737 16.3057 16.33725 16.36569 16.38312 16.40166 16.41228 16.41901 16.43127 16.438 16.44813 16.46011 16.47036 16.47865 16.48451 16.48727 16.49175 16.4907 16.48705 16.47903 16.46963 16.45879 16.44878 16.4408 16.42431 16.40306 16.37575 16.34329 16.30745 16.26028 16.20911 16.14247 16.07166 15.98355 15.88366
0 0 0 0 0 0 0 0 0 0 0 19.20024 17.87248 16.34719 15.6631 15.35191 15.33437 15.33532 15.34402 15.35886 15.3874 15.42045 15.45692 15.4941 15.54145 15.60657 16.01916 16.42744 0 0 0 16.5968 16.88401 15.76342 15.77057 15.76928 15.78254 15.79279 15.79588 15.797 15.79567 15.8017 15.81612 15.8333 15.85847 15.88274 15.89952 15.91984 15.93677 15.95606 15.98667 16.01417 16.04181 16.06881 16.08775 16.10688 16.12184 16.13045 16.14188 16.14712 16.15646 16.1614 16.16339 16.16304 16.16617 16.1687 16.16923 16.17326 16.17622 16.18536 16.20393 16.22647 16.25272 16.28074 16.31011 16.33739 16.3637 16.38764 16.40755 16.42139 16.43037 16.44236 16.45153 16.46325 16.47263 16.48518 16.4925 16.50101 16.50616 16.50949 16.51072 16.50695 16.50353 16.49618 16.49148 16.48394 16.47238 16.45945 16.44206 16.42177 16.39248 16.35891 16.32055 16.27651 16.22231 16.15908 16.0825 15.9957 15.8953
0 0 0 0 0 0 0 0 0 0 0 0 19.40328 18.21461 16.31897 15.6459 15.32811 15.32011 15.33434 15.35414 15.38113 15.41941 15.46064 15.49855 15.54319 15.60909 16.38012 0 0 17.96685 18.08112 16.50476 15.75902 15.75988 15.75779 15.77856 15.78874 15.80145 15.8074 15.80836 15.80824 15.81492 15.82436 15.8449 15.8732 15.90057 15.92197 15.94155 15.95845 15.98567 16.01386 16.0427 16.07617 16.10111 16.12083 16.13778 16.15241 16.16206 16.17024 16.17358 16.17743 16.18399 16.18877 16.18874 16.1924 16.1964 16.19966 16.20491 16.20774 16.2197 16.23795 16.26001 16.28643 16.31559 16.34092 16.36684 16.39247 16.41417 16.42938 16.44286 16.4561 16.46722 16.47487 16.48799 16.49951 16.51244 16.51939 16.52233 16.52438 16.52705 16.52691 16.52591 16.52208 16.51828 16.51078 16.50511 16.4913 16.4784 16.46093 16.43697 16.40625 16.37532 16.33624 16.29101 16.23783 16.17735 16.103 16.02345 15.92947
0 0 0 0 0 0 0 0 0 0 0 0 0 0 0 16.27816 15.60756 15.30845 15.32559 15.34332 15.38073 15.42085 15.45699 15.49145 15.52794 15.93136 16.00132 16.41074 16.81045 18.90448 18.07136 16.48215 15.75399 15.75258 15.75546 15.77778 15.79424 15.80887 15.81618 15.82274 15.82119 15.82588 15.84264 15.86297 15.88641 15.91024 15.93272 15.95198 15.97428 16.002 16.03002 16.0665 16.10095 16.12651 16.15012 16.16751 16.17617 16.1864 16.19611 16.1992 16.20393 16.20522 16.20496 16.20573 16.21417 16.21847 16.22526 16.23579 16.24724 16.26283 16.27864 16.29956 16.32457 16.35258 16.37766 16.40457 16.42409 16.43977 16.45281 16.46893 16.48125 16.49334 16.5016 16.51482 16.52432 16.53143 16.53729 16.53936 16.54081 16.54125 16.54148 16.54037 16.53828 16.53419 16.53457 16.52429 16.51091 16.49653 16.47688 16.45664 16.43303 16.39928 16.35844 16.31761 16.26546 16.20022 16.13552 16.05644 15.97164
0 0 0 0 0 0 0 0 0 0 0 0 0 0 0 16.98046 16.2632 15.30253 15.32703 15.34855 15.38708 15.42268 15.45564 15.49382 15.52124 15.57498 16.34997 16.41089 16.82624 0 18.11253 15.74613 15.75017 15.74748 15.77357 15.77926 15.79634 15.81439 15.82468 15.83047 15.8369 15.84549 15.8608 15.87908 15.90202 15.92204 15.94233 15.96259 15.99203 16.02224 16.06066 16.09376 16.12621 16.15648 16.17788 16.19099 16.20301 16.21085 16.21683 16.2215 16.22085 16.21778 16.21731 16.22266 16.23063 16.24021 16.253 16.26474 16.28011 16.29524 16.31443 16.33542 16.36095 16.38865 16.41538 16.44101 16.46058 16.47773 16.49169 16.50587 16.519 16.52822 16.53666 16.54413 16.55066 16.55787 16.56248 16.56199 16.55922 16.5567 16.56026 16.55463 16.55252 16.54658 16.54395 16.53615 16.52776 16.50955 16.49149 16.47716 16.45702 16.42998 16.39036 16.35051 16.30987 16.24858 16.18517 16.11512 16.03718
0 0 0 0 0 0 0 0 0 0 0 0 0 18.13087 17.78635 16.9971 16.28796 15.32145 15.3475 15.37155 15.40356 15.43388 15.46943 15.51098 15.53863 15.57574 16.71354 17.15512 17.61271 17.53662 18.50747 16.09076 15.74085 15.74954 15.77388 15.78971 15.80916 15.82172 15.83291 15.83994 15.8463 15.85573 15.87372 15.89697 15.91928 15.93781 15.95638 15.98203 16.01481 16.04607 16.07903 16.11304 16.14041 16.16843 16.18504 16.20565 16.22304 16.23443 16.23971 16.23989 16.23799 16.24312 16.24757 16.25413 16.25702 16.26716 16.27991 16.29283 16.30934 16.32589 16.34707 16.36856 16.39271 16.42023 16.44919 16.47215 16.49339 16.50997 16.52458 16.54218 16.55316 16.55974 16.56709 16.5738 16.58119 16.58844 16.58621 16.5816 16.57594 16.57141 16.56738 16.56586 16.56142 16.55874 16.55136 16.54522 16.5414 16.53162 16.5153 16.50209 16.47962 16.45246 16.41844 16.38229 16.34142 16.28893 16.23715 16.17397 16.11097
0 0 0 0 0 0 0 0 0 0 0 0 17.36204 16.9854 17.01481 16.6733 15.98651 15.35282 15.37696 15.40402 15.42996 15.46676 15.50108 15.53495 15.56328 15.60332 16.36864 16.41218 17.2127 18.03052 16.4542 15.72279 15.74449 15.77543 15.79974 15.81649 15.82953 15.84006 15.85088 15.85789 15.86776 15.88062 15.89644 15.91499 15.93755 15.95739 15.98356 16.01058 16.03887 16.06773 16.09527 16.1248 16.15243 16.17724 16.19776 16.21753 16.23681 16.25179 16.25419 16.25379 16.25909 16.26842 16.27389 16.2812 16.28773 16.29605 16.3096 16.32262 16.33972 16.36049 16.38601 16.41033 16.43744 16.46946 16.4933 16.51388 16.53153 16.54371 16.55489 16.57168 16.58242 16.58591 16.59016 16.59652 16.60296 16.60571 16.60208 16.59381 16.58974 16.58248 16.57457 16.57326 16.57044 16.56781 16.56256 16.55972 16.56047 16.54939 16.54184 16.52566 16.50844 16.48788 16.45833 16.42858 16.39116 16.34332 16.29666 16.24171 16.182
0 0 0 0 0 0 0 0 19.02304 18.40516 17.33883 16.58644 16.59753 16.60735 16.29452 16.34283 16.04995 15.40352 15.4287 15.45863 15.48758 15.52049 15.55306 15.58364 15.60694 15.64026 15.67456 15.68953 15.70863 15.72459 15.72994 15.74788 15.77225 15.80223 15.81965 15.83506 15.84899 15.86263 15.86679 15.87375 15.8874 15.90335 15.91996 15.93641 15.95946 15.98702 16.00955 16.03231 16.05662 16.08855 16.11392 16.13945 16.16249 16.18536 16.20632 16.22842 16.24575 16.25947 16.26721 16.27359 16.28064 16.28685 16.29238 16.29959 16.31099 16.32138 16.33545 16.35179 16.37243 16.39704 16.42252 16.45369 16.48397 16.51341 16.5365 16.55348 16.56998 16.58275 16.5932 16.6043 16.60885 16.616 16.62439 16.62468 16.62181 16.62258 16.61854 16.61084 16.59962 16.59292 16.58714 16.58313 16.57797 16.57624 16.57559 16.57692 16.57143 16.56812 16.5678 16.55453 16.53902 16.52206 16.49547 16.47376 16.44487 16.40713 16.36439 16.31689 16.26418
0 0 0 0 0 0 0 18.04474 18.09073 16.58451 16.2405 16.24132 16.24782 16.27538 16.33658 16.05499 15.42893 15.45224 15.47788 15.50717 15.54464 15.56617 15.59791 15.62855 15.65372 15.67677 15.70242 15.72535 15.75111 15.76562 15.78048 15.80025 15.82159 15.83669 15.85141 15.86236 15.87322 15.88035 15.88528 15.89141 15.90245 15.91766 15.93662 15.95071 15.97804 16.00515 16.0285 16.05004 16.06925 16.08739 16.10832 16.13253 16.15851 16.18087 16.20873 16.22915 16.2474 16.26315 16.27808 16.28861 16.2956 16.30212 16.30932 16.31977 16.33284 16.34742 16.3659 16.38864 16.41027 16.43684 16.4622 16.49435 16.52186 16.54656 16.56829 16.58654 16.60098 16.61143 16.61991 16.62797 16.63738 16.64343 16.64884 16.65187 16.65099 16.64653 16.63674 16.6276 16.61966 16.61104 16.60099 16.59221 16.5891 16.5932 16.59266 16.59415 16.5925 16.59331 16.59205 16.58746 16.57427 16.56052 16.53736 16.51767 16.48794 16.45726 16.41693 16.37385 16.32714
0 0 0 0 0 0 18.5387 18.46833 16.59686 16.22894 16.21519 16.23207 16.27864 15.99785 15.7249 15.44456 15.47429 15.50663 15.53389 15.56578 15.58835 15.60721 15.64315 15.66413 15.68677 15.70213 15.72514 15.76356 15.79126 15.80245 15.81853 15.84352 15.85929 15.87152 15.87617 15.87958 15.88798 15.89814 15.90719 15.91453 15.92141 15.93143 15.94481 15.96676 15.99201 16.01188 16.03152 16.05132 16.07173 16.08974 16.1117 16.12935 16.15214 16.17364 16.19922 16.2223 16.24412 16.25935 16.27605 16.29132 16.30383 16.31524 16.32472 16.33946 16.35525 16.37519 16.39613 16.42271 16.44595 16.47471 16.50615 16.53625 16.56153 16.5828 16.60195 16.61828 16.63368 16.64397 16.6472 16.65418 16.658 16.66101 16.66582 16.66228 16.66446 16.66223 16.6501 16.63597 16.62691 16.61777 16.60811 16.60184 16.59788 16.60536 16.60435 16.61506 16.61591 16.61999 16.62021 16.61728 16.61157 16.59828 16.57843 16.5591 16.53437 16.50751 16.4796 16.44276 16.39768
0 0 0 0 0 0 19.43664 17.71115 16.57654 16.20572 15.89183 15.9457 15.67908 15.41519 15.44675 15.48883 15.5265 15.55073 15.57979 15.60549 15.63311 15.65657 15.68329 15.69829 15.72393 15.73221 15.75744 15.79431 15.81653 15.82534 15.84235 15.86452 15.87562 15.88203 15.88486 15.8895 15.89639 15.90292 15.91333 15.9194 15.92981 15.94063 15.96189 15.98188 15.99805 16.01517 16.03094 16.05035 16.06973 16.08864 16.10532 16.12599 16.14854 16.16756 16.19432 16.21582 16.23444 16.25479 16.27304 16.29115 16.30473 16.31966 16.33182 16.35117 16.37645 16.39922 16.42403 16.45143 16.47629 16.50923 16.5388 16.56768 16.59359 16.61828 16.63894 16.65392 16.66891 16.67283 16.67677 16.67754 16.67909 16.67905 16.67612 16.67238 16.66861 16.6688 16.66347 16.64888 16.63979 16.62735 16.6223 16.61502 16.61339 16.61657 16.62534 16.63704 16.63293 16.63667 16.63839 16.63932 16.6392 16.63024 16.613 16.5945 16.57763 16.5557 16.5316 16.50274 16.47068
0 0 0 0 0 19.47783 18.94208 17.67927 16.57225 16.23466 15.62563 15.36672 15.41455 15.4673 15.51036 15.53589 15.56278 15.59322 15.62375 15.64801 15.67424 15.69337 15.7243 15.74724 15.76716 15.77824 15.79817 15.83134 15.83995 15.85229 15.86807 15.87631 15.8871 15.88968 15.89187 15.89799 15.9059 15.90932 15.91737 15.92778 15.93853 15.95117 15.96919 15.98318 15.99877 16.01469 16.02784 16.04759 16.06695 16.08758 16.10621 16.1279 16.14562 16.16836 16.19021 16.20816 16.23115 16.25439 16.27584 16.29541 16.3116 16.32619 16.34859 16.37867 16.40533 16.43187 16.45585 16.48277 16.51452 16.54345 16.5688 16.59621 16.62439 16.64591 16.66402 16.67779 16.69094 16.69206 16.69233 16.69249 16.6936 16.68981 16.68479 16.68144 16.67689 16.66998 16.66433 16.65936 16.64942 16.64329 16.63943 16.63423 16.63911 16.63451 16.64886 16.65952 16.66102 16.65699 16.66202 16.66715 16.66716 16.66097 16.64155 16.62659 16.61089 16.58973 16.57228 16.54709 16.51876
0 0 0 0 18.48289 18.03811 16.50788 16.17058 15.87164 15.31298 15.35845 15.40552 15.46271 15.51005 15.54578 15.57434 15.59651 15.61994 15.64875 15.675 15.69368 15.7248 15.75556 15.77888 15.80471 15.81916 15.84015 15.85847 15.86865 15.88211 15.88808 15.89389 15.89626 15.8961 15.89948 15.90592 15.90839 15.9177 15.92604 15.93509 15.94577 15.95915 15.97018 15.979 15.99388 16.0092 16.02622 16.04124 16.06619 16.08962 16.11098 16.13223 16.14923 16.17036 16.19568 16.21821 16.23495 16.25093 16.27285 16.29219 16.3117 16.3312 16.35658 16.39348 16.42624 16.45312 16.48041 16.51321 16.54595 16.57359 16.59895 16.62482 16.64691 16.66969 16.6895 16.70213 16.70815 16.70534 16.70199 16.70695 16.7047 16.69996 16.69471 16.68905 16.68258 16.678 16.67314 16.66876 16.66259 16.66104 16.65783 16.65902 16.65527 16.65549 16.66654 16.67429 16.67569 16.67381 16.68812 16.69392 16.69817 16.68776 16.67798 16.67292 16.6555 16.63433 16.6159 16.59794 16.57361
0 0 0 0 19.55671 16.85888 15.25327 15.25646 15.29617 15.33925 15.41024 15.46971 15.51181 15.55637 15.59154 15.62177 15.64692 15.65989 15.67892 15.69964 15.72338 15.75143 15.77938 15.80895 15.82227 15.83617 15.8601 15.87553 15.88671 15.89504 15.90077 15.90303 15.90467 15.90187 15.90523 15.91153 15.92317 15.92978 15.93298 15.94494 15.95427 15.96016 15.96616 15.9761 15.98929 16.0064 16.02421 16.04318 16.06465 16.08458 16.10454 16.12248 16.14301 16.1703 16.19315 16.21483 16.23383 16.25222 16.27098 16.29396 16.31361 16.33686 16.36825 16.40603 16.44302 16.4752 16.50525 16.54245 16.57217 16.59711 16.62296 16.6457 16.66736 16.6871 16.70287 16.71477 16.71992 16.71605 16.71334 16.71612 16.71861 16.71223 16.70336 16.69891 16.69315 16.68716 16.68498 16.67946 16.67516 16.67447 16.67573 16.67493 16.6717 16.67318 16.68816 16.69504 16.69772 16.70198 16.71429 16.71679 16.71764 16.71082 16.70158 16.70445 16.68989 16.67764 16.66633 16.64716 16.62166
0 0 0 18.51948 18.05285 16.46763 15.23622 15.26709 15.31569 15.3866 15.46265 15.50907 15.55421 15.59459 15.63086 15.65451 15.66961 15.68113 15.70224 15.72957 15.75935 15.78318 15.79949 15.82208 15.83456 15.85122 15.86868 15.88738 15.898 15.90443 15.91281 15.91649 15.91376 15.91124 15.91426 15.92107 15.92984 15.93397 15.93996 15.95201 15.95595 15.95971 15.96779 15.97625 15.988 16.00691 16.02638 16.04644 16.06577 16.08233 16.10152 16.12053 16.14247 16.16155 16.184 16.20672 16.23014 16.25274 16.27789 16.30268 16.32441 16.35001 16.38253 16.42054 16.45384 16.49081 16.52389 16.55387 16.58621 16.61563 16.64218 16.66109 16.68267 16.69669 16.71248 16.72537 16.72693 16.72704 16.72331 16.72633 16.72421 16.7215 16.71227 16.70976 16.70316 16.70213 16.69803 16.69051 16.69919 16.69862 16.70303 16.71297 16.71058 16.71367 16.72084 16.72731 16.73141 16.73436 16.73889 16.74595 16.74751 16.73877 16.7339 16.73105 16.72905 16.71341 16.6969 16.67407 16.65482
0 0 0 18.44171 18.02664 16.44282 15.79714 15.27926 15.36088 15.43208 15.4956 15.54285 15.58225 15.6191 15.65359 15.6685 15.691 15.7007 15.71655 15.74127 15.76948 15.79115 15.81302 15.82892 15.84587 15.86131 15.87329 15.88844 15.89871 15.90582 15.91576 15.91528 15.91518 15.91481 15.91493 15.91902 15.92448 15.93519 15.94436 15.94454 15.95037 15.95943 15.96533 15.97268 15.98577 16.00792 16.02942 16.05074 16.06862 16.08312 16.09823 16.11806 16.14088 16.16009 16.18129 16.20538 16.23036 16.2571 16.27915 16.30527 16.33437 16.36172 16.39284 16.43398 16.46922 16.49873 16.52696 16.56632 16.60023 16.62934 16.6596 16.68171 16.69247 16.70692 16.72166 16.732 16.72974 16.73193 16.73425 16.73474 16.73037 16.72598 16.72533 16.72042 16.71896 16.71452 16.71432 16.71356 16.72083 16.72972 16.7386 16.7455 16.74608 16.751 16.7575 16.76553 16.76986 16.77536 16.7795 16.77862 16.78397 16.7827 16.77958 16.7795 16.77283 16.75569 16.74443 16.72483 16.69638
0 0 0 19.39067 18.27644 16.42071 15.49738 15.29206 15.38276 15.46235 15.53642 15.57078 15.60547 15.64052 15.67291 15.68821 15.70774 15.72104 15.73837 15.76256 15.78048 15.79358 15.80698 15.81879 15.83445 15.84822 15.86438 15.88219 15.8924 15.90174 15.904 15.90807 15.91764 15.91701 15.91527 15.91805 15.92724 15.93454 15.94238 15.94712 15.94685 15.95119 15.95986 15.97131 15.98331 16.00504 16.02318 16.04065 16.06192 16.07802 16.0968 16.11943 16.1426 16.16179 16.1829 16.20326 16.2332 16.2598 16.27998 16.30727 16.34139 16.37328 16.40885 16.44621 16.47451 16.50144 16.53813 16.57499 16.60206 16.63639 16.66555 16.6872 16.69942 16.71048 16.72021 16.72686 16.72642 16.72866 16.73531 16.73846 16.7357 16.73479 16.73744 16.73677 16.73767 16.73967 16.74378 16.74141 16.74394 16.75204 16.76489 16.7731 16.77571 16.78481 16.79385 16.80065 16.80739 16.81241 16.81724 16.81417 16.8135 16.81009 16.81256 16.81574 16.81021 16.80203 16.78835 16.77517 16.76047
0 0 0 19.41724 17.09127 15.75521 15.2458 15.33674 15.42992 15.50172 15.55784 15.59227 15.62668 15.65428 15.68073 15.70331 15.71942 15.73734 15.75128 15.75816 15.77086 15.77962 15.78972 15.80596 15.81451 15.8271 15.84894 15.87245 15.88538 15.89168 15.89761 15.90691 15.91902 15.92682 15.92418 15.92384 15.92532 15.93303 15.94101 15.94636 15.94878 15.95351 15.95984 15.97161 15.98294 15.99843 16.01543 16.03693 16.05612 16.07277 16.10164 16.12104 16.13905 16.16074 16.1795 16.20166 16.22177 16.25171 16.27627 16.30721 16.34606 16.38138 16.41805 16.44832 16.48203 16.50665 16.53373 16.56578 16.59351 16.62241 16.6504 16.6734 16.69017 16.70086 16.70606 16.71219 16.71979 16.72199 16.72851 16.73176 16.73281 16.73623 16.73399 16.74273 16.75525 16.76531 16.77185 16.77495 16.77722 16.78169 16.79302 16.80509 16.81859 16.82837 16.83823 16.84648 16.85422 16.86454 16.86745 16.86503 16.85694 16.85754 16.85416 16.85642 16.85223 16.85045 16.83807 16.82311 16.80738
15.25157 15.25306 16.4582 17.09693 15.42185 15.21065 15.2969 15.39588 15.47818 15.5405 15.58009 15.61523 15.64151 15.66541 15.68329 15.70612 15.71681 15.73324 15.74214 15.74722 15.7548 15.75505 15.77198 15.78396 15.80039 15.81272 15.83445 15.85429 15.87463 15.89359 15.90713 15.91453 15.9226 15.92772 15.93186 15.9331 15.93478 15.94002 15.9535 15.96083 15.96104 15.96303 15.96751 15.97901 15.98992 16.00277 16.01764 16.03297 16.05526 16.07703 16.10616 16.1245 16.1452 16.16982 16.18562 16.20759 16.2281 16.25989 16.28669 16.31742 16.34827 16.38531 16.42423 16.45615 16.48318 16.50637 16.53325 16.56227 16.59074 16.6154 16.64199 16.65861 16.67774 16.68974 16.70035 16.70679 16.71424 16.71972 16.72127 16.72477 16.73045 16.73425 16.745 16.75775 16.77046 16.77837 16.78895 16.7978 16.8022 16.81303 16.82457 16.83722 16.85168 16.86539 16.87768 16.88835 16.90087 16.90513 16.91048 16.91167 16.91162 16.91378 16.91545 16.90955 16.90733 16.90454 16.88514 16.86935 16.8583
15.25566 15.24748 15.25603 15.27334 15.28448 15.33801 15.40911 15.48359 15.54306 15.58835 15.6188 15.64022 15.65366 15.66581 15.68195 15.69783 15.70531 15.71169 15.71935 15.73026 15.73152 15.73887 15.75072 15.76181 15.77306 15.79221 15.81332 15.83985 15.86018 15.87837 15.89743 15.91264 15.92397 15.93802 15.94637 15.94981 15.95447 15.96196 15.96928 15.97758 15.97766 15.97887 15.98435 15.99059 15.99855 16.01028 16.02032 16.03815 16.05565 16.08416 16.10972 16.13631 16.16085 16.18431 16.20502 16.22376 16.2436 16.27089 16.29835 16.32751 16.3573 16.39311 16.42619 16.45674 16.48018 16.50437 16.5333 16.55823 16.58213 16.60756 16.63349 16.65286 16.66716 16.68456 16.69213 16.7012 16.70652 16.71092 16.71594 16.71824 16.72694 16.73769 16.75927 16.77931 16.78897 16.80145 16.81624 16.82342 16.8316 16.84818 16.86123 16.87171 16.88633 16.90088 16.91316 16.92499 16.9372 16.9408 16.9418 16.94441 16.95444 16.95113 16.95364 16.95672 16.96331 16.95555 16.93849 16.93266 16.92778
15.36259 15.3764 15.39405 15.4127 15.4344 15.47563 15.51891 15.56253 15.59608 15.62863 15.64814 15.65215 15.66115 15.67293 15.68093 15.69808 15.7126 15.71488 15.7066 15.70407 15.70574 15.71246 15.71664 15.72835 15.74238 15.77019 15.7991 15.82836 15.84936 15.86968 15.89317 15.91041 15.92604 15.94361 15.9512 15.95974 15.96975 15.97441 15.9787 15.98755 15.9967 15.99809 16.00048 16.00458 16.01134 16.02357 16.03634 16.04896 16.07378 16.09787 16.13103 16.15506 16.1818 16.20604 16.22203 16.24267 16.26402 16.29152 16.31893 16.3439 16.37137 16.4 16.43192 16.45877 16.48052 16.50183 16.52843 16.55365 16.57984 16.6035 16.62418 16.64664 16.65983 16.67859 16.69205 16.69303 16.69913 16.70644 16.71247 16.71726 16.73328 16.75003 16.77013 16.78762 16.80479 16.82731 16.84705 16.8624 16.87807 16.89493 16.91501 16.92606 16.93846 16.94496 16.95535 16.96424 16.97714 16.98538 16.98772 16.99831 17.00031 17.00743 17.012 17.01778 17.01806 17.01235 16.99776 16.99262 16.98813
15.44362 15.46567 15.48837 15.50737 15.52982 15.54966 15.57594 15.59697 15.61673 15.63374 15.64327 15.64762 15.65294 15.66055 15.67361 15.68218 15.69086 15.6888 15.68727 15.68725 15.69218 15.69118 15.68569 15.70145 15.72476 15.75801 15.77805 15.80983 15.83496 15.86615 15.89107 15.92069 15.9398 15.95573 15.96963 15.98437 15.99526 15.99879 16.00122 16.00207 16.00788 16.02144 16.02253 16.02577 16.03289 16.04493 16.05494 16.0686 16.0921 16.12136 16.15344 16.17943 16.20378 16.23062 16.24741 16.26719 16.29008 16.3168 16.34115 16.37419 16.39307 16.41877 16.44439 16.46608 16.49045 16.51478 16.54113 16.56442 16.58769 16.6121 16.62893 16.64472 16.66241 16.6837 16.69477 16.70157 16.70527 16.7117 16.71476 16.72313 16.73837 16.75367 16.77748 16.79886 16.82062 16.85318 16.87972 16.90583 16.93081 16.95519 16.97109 16.98329 16.99412 17.0044 17.01312 17.0236 17.03667 17.06222 17.07207 17.08008 17.08725 17.09103 17.09946 17.09338 17.08419 17.07236 17.06148 17.05517 17.0533
15.5231 15.53803 15.54825 15.55607 15.5655 15.57577 15.59073 15.6034 15.61164 15.61696 15.62675 15.63377 15.63673 15.64235 15.65271 15.663 15.67298 15.68067 15.68142 15.68061 15.68155 15.68462 15.6856 15.7072 15.73397 15.77205 15.78804 15.80855 15.83474 15.86519 15.89793 15.92855 15.95005 15.97186 15.98464 15.99834 16.01247 16.02228 16.02868 16.03184 16.03203 16.0377 16.0431 16.05001 16.06453 16.07758 16.09041 16.10744 16.12599 16.15149 16.18062 16.20756 16.23311 16.25565 16.27079 16.29216 16.32512 16.34898 16.37964 16.40874 16.43646 16.45831 16.47796 16.50503 16.53095 16.55649 16.57637 16.59144 16.61109 16.63169 16.649 16.66822 16.68361 16.69636 16.70314 16.71157 16.71724 16.71638 16.72253 16.73186 16.75023 16.77096 16.79768 16.82796 16.85947 16.89303 16.92619 16.95666 16.99142 17.01609 17.03348 17.04338 17.05281 17.06372 17.0804 17.09192 17.104 17.1173 17.13245 17.15045 17.16941 17.19107 17.18439 17.16753 17.15749 17.14452 17.13705 17.13366 17.12781
15.56191 15.56495 15.56581 15.56783 15.57356 15.57786 15.58596 15.59226 15.59618 15.6012 15.60731 15.61005 15.61507 15.62749 15.63535 15.64785 15.66128 15.67413 15.6707 15.68011 15.67498 15.69062 15.69635 15.73009 15.75279 15.78831 15.8107 15.83102 15.85793 15.8884 15.92096 15.95126 15.97 15.98772 16.00776 16.02296 16.03396 16.04377 16.05357 16.06076 16.062 16.06605 16.07021 16.0804 16.10653 16.12084 16.14072 16.16361 16.18369 16.21209 16.23799 16.26326 16.28447 16.30606 16.32822 16.34778 16.38394 16.4115 16.43814 16.46175 16.49709 16.51582 16.53623 16.55508 16.57862 16.59638 16.61437 16.63096 16.6456 16.66033 16.68059 16.69347 16.70387 16.71244 16.71191 16.71931 16.72459 16.73002 16.74012 16.7572 16.78901 16.81348 16.8425 16.87388 16.9118 16.94771 16.98895 17.03647 17.07413 17.10006 17.11608 17.12936 17.13587 17.14154 17.15135 17.15212 17.15981 17.16902 17.19858 17.23198 17.25745 17.26654 17.26464 17.24515 17.2292 17.21809 17.21441 17.20889 17.20437
15.56915 15.56834 15.56474 15.56134 15.5611 15.56451 15.57015 15.57462 15.58149 15.58594 15.60074 15.60099 15.60083 15.61492 15.62529 15.63826 15.65412 15.66576 15.67272 15.68129 15.68539 15.69595 15.72376 15.75563 15.78838 15.81686 15.84528 15.87255 15.90236 15.93295 15.9563 15.97445 15.99692 16.02158 16.03844 16.05361 16.06457 16.0766 16.08488 16.09024 16.10067 16.10863 16.12039 16.14328 16.16162 16.18272 16.20808 16.23083 16.25806 16.27529 16.30426 16.3246 16.35315 16.3846 16.40936 16.42819 16.45542 16.48096 16.51094 16.53415 16.56278 16.5828 16.60906 16.62782 16.64948 16.66112 16.6778 16.69034 16.70357 16.71523 16.73107 16.74063 16.75235 16.75193 16.74793 16.75147 16.75614 16.76491 16.77994 16.80089 16.82925 16.85316 16.88882 16.92023 16.95977 17.00126 17.04691 17.0916 0 0 17.17105 17.20883 17.2066 17.208 17.21447 17.21674 17.22791 17.25324 17.26127 0 0 17.28133 17.3367 17.32985 17.31272 17.30373 17.3061 17.29896 17.28246
