ncols        109
nrows        82
xllcorner    -1.041666666667
yllcorner    37.041665395101
cellsize     0.083333333333
NODATA_value -9999
0.0 0 0 0 0 0 0 0 0 0 0 0 0 0 0 0 0 0 0 0 0 0 0 0 0 0 0 0 0 0 0 0 0 0 0 0 0 0 0 0 0 0 0 0 0 0 0 0 0 0 0 0 0 0 0 0 0 0 0 0 0 0 0 0 0 0 0 0 0 0 0 0 0 0 0 0 0 0 0 0 0 0 0 0 0 0 0 0 0 0 0 0 0 0 0 0 0 0 0 0 0 0 0 0 0 17.39078 16.15391 15.1354 15.14377
0 0 0 0 0 0 0 0 0 0 0 0 0 0 0 0 0 0 0 0 0 0 0 0 0 0 0 0 0 0 0 0 0 0 0 0 0 0 0 0 0 0 0 0 0 0 0 0 0 0 0 0 0 0 0 0 0 0 0 0 0 0 0 0 0 0 0 0 0 0 0 0 0 0 0 0 0 0 0 0 0 0 0 0 0 0 0 0 0 0 0 0 0 0 0 0 0 0 0 0 0 15.25669 15.28122 15.12237 15.1362 15.14094 15.13543 15.14131 15.13824
0 0 0 0 0 0 0 0 0 0 0 0 0 0 0 0 0 0 0 0 0 0 0 0 0 0 0 0 0 0 0 0 0 0 0 0 0 0 0 0 0 0 0 0 0 0 0 0 0 0 0 0 0 0 0 0 0 0 0 0 0 0 0 0 0 0 0 0 0 0 0 0 0 0 0 0 0 0 0 0 0 0 0 0 0 0 0 0 0 0 0 0 0 0 0 0 0 0 15.10207 15.11496 15.12301 15.12403 15.11684 15.12188 15.11579 15.09046 15.06715 15.04618 15.02541
0 0 0 0 0 0 0 0 0 0 0 0 0 0 0 0 0 0 0 0 0 0 0 0 0 0 0 0 0 0 0 0 0 0 0 0 0 0 0 0 0 0 0 0 0 0 0 0 0 0 0 0 0 0 0 0 0 0 0 0 0 0 0 0 0 0 0 0 0 0 0 0 0 0 0 0 0 0 0 0 0 0 0 0 0 0 0 0 0 0 0 0 0 0 0 0 0 16.34794 15.11344 15.12195 15.10509 15.08204 15.05726 15.04183 15.01011 14.9834 14.95381 14.93099 14.89788
0 0 0 0 0 0 0 0 0 0 0 0 0 0 0 0 0 0 0 0 0 0 0 0 0 0 0 0 0 0 0 0 0 0 0 0 0 0 0 0 0 0 0 0 0 0 0 0 0 0 0 0 0 0 0 0 0 0 16.55739 16.19516 15.88825 16.00829 0 0 0 0 0 0 0 0 0 0 0 0 0 0 0 0 0 0 0 0 0 0 0 0 0 0 0 0 0 0 0 0 0 15.43056 15.11256 15.12478 15.09995 15.07774 15.03977 14.98815 14.93372 14.89815 14.86033 14.828 14.80809 14.78388 14.75129
0 0 0 0 0 0 0 0 0 0 0 0 0 0 0 0 0 0 0 0 0 0 0 0 0 0 0 0 0 0 0 0 0 0 0 0 0 0 0 0 0 0 0 0 0 0 0 0 0 0 0 0 0 0 0 0 16.07132 16.1146 15.87166 15.6624 15.58681 15.55808 15.63374 15.81837 16.01739 16.13713 16.1293 0 0 0 0 16.35497 0 0 0 0 0 0 0 0 0 0 0 0 0 0 0 0 0 0 0 0 0 15.8217 15.05714 15.09856 15.10322 15.0747 15.0296 14.97582 14.91067 14.85509 14.80067 14.7672 14.7499 14.73481 14.7228 14.69586 14.67208
0 0 0 0 0 0 0 0 0 0 0 0 0 0 0 0 0 0 0 0 0 0 0 0 0 0 0 0 0 0 0 0 0 0 0 0 0 0 0 0 0 0 0 0 0 0 0 0 0 0 0 0 0 0 0 16.23863 15.87813 15.58606 15.41022 15.16507 15.22666 15.24838 15.40594 15.52787 15.65633 15.75039 15.81366 15.98368 16.16552 16.12056 16.05654 15.80031 15.61034 15.65589 15.78993 15.56821 15.57676 0 0 0 0 0 0 0 0 0 0 0 0 0 0 0 15.32432 15.07466 15.08455 15.08381 15.06464 15.00895 14.94661 14.87539 14.81404 14.74793 14.69603 14.67412 14.67621 14.66729 14.66291 14.6597 14.65563
0 0 0 0 0 0 0 0 0 0 0 0 0 0 0 0 0 0 0 0 0 0 0 0 0 0 0 0 0 0 0 0 0 0 0 0 0 0 0 0 0 0 0 0 0 0 0 0 0 0 0 15.87855 16.01267 16.21365 16.01443 15.62186 15.4139 15.17274 15.06574 15.1384 15.19552 15.21604 15.20589 15.36737 15.34244 15.5169 15.50123 15.4943 15.51335 15.41992 15.32418 15.3528 15.22892 15.40442 15.42067 15.57143 0 0 0 0 0 0 0 0 0 0 0 0 0 0 0 0 15.07221 15.0766 15.06181 15.03906 14.98966 14.91579 14.84155 14.76746 14.72088 14.67378 14.64762 14.63425 14.63718 14.64075 14.63688 14.63897 14.63561
0 0 0 0 0 0 0 0 0 0 0 0 0 0 0 0 0 0 0 0 0 0 0 0 0 0 0 0 0 0 0 0 0 0 0 0 0 0 0 0 0 0 0 0 0 0 0 0 0 0 16.08895 15.91148 15.71151 15.69502 15.61978 15.35635 15.05286 15.13189 15.001 15.06439 15.10442 15.12557 15.13576 15.30695 15.29329 15.47404 15.46756 15.47685 15.3369 15.21823 15.25109 15.28931 15.16469 15.33513 15.35598 15.53873 15.54334 15.37889 15.38033 15.6847 16.07166 16.70429 0 0 0 0 0 0 0 15.77465 15.35735 15.06352 15.08271 15.06356 15.02116 14.96747 14.90384 14.83285 14.76897 14.71706 14.67566 14.64289 14.62677 14.6229 14.63351 14.64314 14.65173 14.65458 14.65885
0 0 0 0 0 0 0 0 0 0 0 0 0 0 0 0 0 0 0 0 0 0 0 0 0 0 0 0 0 0 0 0 0 0 0 0 0 0 0 0 0 0 0 0 0 0 0 0 0 16.92668 15.79222 15.72542 15.68934 15.40706 15.25856 15.11585 15.17912 15.03154 15.08028 15.12863 15.16677 15.18648 15.1999 15.39354 15.40437 15.41722 15.43789 15.44093 15.43405 15.27749 15.30187 15.17141 15.05135 15.05814 15.07216 15.08829 15.09931 15.11249 15.13553 15.13781 15.45223 15.9065 0 15.68525 16.1553 16.57915 16.83127 16.59601 16.11657 15.05158 15.06764 15.08153 15.06556 15.01242 14.93774 14.86085 14.79634 14.7487 14.69872 14.67063 14.64705 14.64239 14.63598 14.64164 14.63761 14.65404 14.66987 14.66843 14.66524
0 0 0 0 0 0 0 0 0 0 0 0 0 0 0 0 0 0 0 0 0 0 0 0 0 0 0 0 0 0 0 0 0 0 0 0 0 0 0 0 0 0 0 0 0 0 0 0 0 16.60285 15.76745 15.51566 15.24973 15.13503 15.18915 15.0418 15.09597 15.1456 15.18352 15.2215 15.25529 15.27125 15.28108 15.29113 15.30226 15.16446 15.04497 15.18742 15.17734 15.17354 15.1817 15.04451 15.04158 15.04006 15.05116 15.06246 15.07808 15.09571 15.12246 15.1349 15.14537 15.16022 15.14764 15.1533 15.17168 15.16893 15.98702 16.13563 15.76235 15.07508 15.05186 15.00031 14.97447 14.91329 14.84318 14.78654 14.73698 14.69939 14.66288 14.64851 14.65599 14.66043 14.66645 14.66744 14.67406 14.68212 14.68414 14.68349 14.68189
0 0 0 0 0 0 0 0 0 0 0 0 0 0 0 0 0 0 0 0 0 0 0 0 0 0 0 0 0 0 0 0 0 0 0 0 0 0 0 0 0 0 0 0 0 0 0 0 0 16.35515 15.71615 15.44647 15.14533 15.22141 15.0855 15.14553 15.2099 15.25663 15.29181 15.31486 15.15662 15.17355 15.18677 15.19745 15.20413 15.06011 15.06956 15.06892 15.04715 15.03762 15.03371 15.02955 15.02361 15.0252 15.03033 15.03321 15.03499 15.04604 15.06426 15.08398 15.09552 15.10335 15.10298 15.10387 15.11746 15.12685 15.13158 15.11228 15.06847 15.01079 14.96817 14.92534 14.88546 14.80401 14.75471 14.71663 14.68808 14.63871 14.64705 14.67113 14.68356 14.68736 14.70185 14.70155 14.70813 14.70151 14.70045 14.70293 14.70187
0 0 0 0 0 0 0 0 0 0 0 0 0 0 0 0 0 0 0 0 0 0 0 0 0 0 0 0 0 0 0 0 0 0 0 0 0 0 0 0 0 0 0 0 0 0 0 0 0 16.28641 15.61553 15.33152 15.22322 15.09916 15.18336 15.27232 15.14893 15.18339 15.02998 15.04085 15.05224 15.05911 15.05994 15.06337 15.06386 15.06331 15.06668 15.06163 15.04195 15.01311 15.00442 14.99039 14.96437 14.95622 14.96685 14.95535 14.95773 14.96583 14.9787 15.00206 15.01461 15.01132 14.99252 14.99397 15.00166 15.01504 15.01227 14.99159 14.94775 14.90438 14.86048 14.83445 14.79347 14.74949 14.72018 14.67816 14.64873 14.6498 14.66062 14.67635 14.70867 14.72458 14.73713 14.73575 14.73911 14.7374 14.73506 14.72366 14.71775
0 0 0 0 0 0 0 0 0 0 0 0 0 0 0 0 0 0 0 0 0 0 0 0 0 0 0 0 0 0 0 0 0 0 0 0 0 0 0 0 0 0 0 0 0 0 0 0 0 16.1625 15.6692 15.37955 15.27423 15.15592 15.2487 15.15037 15.02848 15.05737 15.07144 15.0761 15.08017 15.07594 15.0707 15.06711 15.05758 15.05483 15.05531 15.0482 15.03186 15.00249 14.98339 14.96057 14.93507 14.9174 14.89848 14.86883 14.85354 14.86028 14.88595 14.90816 14.91196 14.89782 14.8704 14.86263 14.86861 14.89343 14.90149 14.88955 14.84098 14.79251 14.76379 14.74205 14.71732 14.70806 14.68505 14.67363 14.67363 14.67179 14.68031 14.69714 14.72192 14.7557 14.75846 14.7623 14.7671 14.77037 14.76857 14.77044 14.74859
0 0 0 0 0 0 0 0 0 0 0 0 0 0 0 0 0 0 0 0 0 0 0 0 0 0 0 0 0 0 0 0 0 0 0 0 0 0 0 0 0 0 0 0 0 0 0 0 0 16.20202 15.48187 15.201 15.32967 15.21863 15.3072 15.17709 15.047 15.05847 15.06349 15.05587 15.04806 15.04086 15.03188 15.02228 15.01813 15.00968 14.99361 14.9832 14.95554 14.92999 14.90425 14.87759 14.85696 14.84517 14.82569 14.81445 14.80866 14.80823 14.81271 14.81636 14.80897 14.80532 14.79462 14.78568 14.7826 14.79479 14.78082 14.76246 14.74823 14.7228 14.70779 14.69441 14.68257 14.68718 14.69237 14.69447 14.7004 14.70748 14.71933 14.72555 14.74617 14.77187 14.7884 14.79702 14.79466 14.79544 14.7904 14.79534 14.78703
0 0 0 0 0 0 0 0 0 0 0 0 0 0 0 0 0 0 0 0 0 0 0 0 0 0 0 0 0 0 0 0 0 0 0 0 0 0 0 0 0 0 0 0 0 0 0 0 0 15.73659 15.52589 15.23116 15.16752 15.09854 15.17331 15.03471 15.0518 15.05223 15.0469 15.03473 15.01545 14.99643 14.98169 14.97327 14.96458 14.95384 14.94089 14.92629 14.90214 14.87349 14.84302 14.81252 14.79298 14.77114 14.7566 14.74037 14.72555 14.72053 14.72991 14.74001 14.73532 14.73841 14.73917 14.73753 14.73649 14.73058 14.72602 14.70803 14.68435 14.66059 14.64703 14.66075 14.66835 14.68351 14.6921 14.70267 14.72359 14.73623 14.74868 14.75733 14.76654 14.78852 14.80076 14.82245 14.81296 14.81326 14.81039 14.81536 14.83013
0 0 0 0 0 0 0 0 0 0 0 0 0 0 0 0 0 0 0 0 0 0 0 0 0 0 0 0 0 0 0 0 0 0 0 0 0 0 0 0 0 0 0 0 0 0 0 0 0 0 15.31593 15.28785 15.23336 14.98658 15.03148 15.03343 15.05537 15.04405 15.02673 15.00826 14.98143 14.95678 14.94324 14.93212 14.91599 14.90504 14.897 14.88059 14.85553 14.83218 14.80213 14.77939 14.76322 14.74734 14.72132 14.70305 14.68844 14.68288 14.68767 14.69975 14.69762 14.69313 14.68805 14.69031 14.69034 14.68395 14.67659 14.67194 14.661 14.64967 14.64167 14.65185 14.66944 14.68812 14.71161 14.73162 14.74795 14.76417 14.78182 14.7866 14.79758 14.81492 14.82361 14.83624 14.83255 14.82405 14.83336 14.84637 14.8496
0 0 0 0 0 0 0 0 0 0 0 0 0 0 0 0 0 0 0 0 0 0 0 0 0 0 0 0 0 0 0 0 0 0 0 0 0 0 0 0 0 0 0 0 0 0 0 0 0 0 15.42289 15.11184 14.90618 14.99346 15.02811 15.04295 15.05436 15.03072 15.00729 14.97682 14.94639 14.92585 14.90563 14.89637 14.88677 14.87713 14.86779 14.85359 14.83635 14.81366 14.7923 14.76807 14.75794 14.7368 14.71211 14.69243 14.67681 14.67016 14.67547 14.67876 14.67488 14.67905 14.67993 14.67664 14.66711 14.66354 14.66514 14.66548 14.66491 14.64271 14.64625 14.66606 14.68184 14.7045 14.74463 14.75918 14.77891 14.79823 14.82033 14.83771 14.84341 14.85161 14.85516 14.85598 14.85576 14.85027 14.85868 14.87302 14.8882
0 0 0 0 0 0 0 0 0 0 0 0 0 0 0 0 0 0 0 0 0 0 0 0 0 0 0 0 0 0 0 0 0 0 0 0 0 0 0 0 0 0 0 0 0 0 0 0 0 0 0 0 14.91369 14.97429 15.01705 15.04239 15.05025 15.02035 14.98752 14.95283 14.92125 14.89187 14.87794 14.86792 14.85579 14.84857 14.85094 14.83787 14.82405 14.80514 14.78568 14.76143 14.74214 14.72694 14.70531 14.68573 14.66885 14.66543 14.66516 14.67084 14.67296 14.67094 14.6692 14.66466 14.66726 14.66477 14.66755 14.66346 14.65861 14.66142 14.67188 14.67641 14.68407 14.72257 14.74966 14.77905 14.81255 14.82529 14.83197 14.8571 14.86598 14.87113 14.88259 14.87506 14.88104 14.87215 14.88051 14.89803 14.91472
0 0 0 0 0 0 0 0 0 0 0 0 0 0 0 0 0 0 0 0 0 0 0 0 0 0 0 0 0 0 0 0 0 0 0 0 0 0 0 0 0 0 0 0 0 0 0 0 0 0 16.8112 15.43541 15.09411 14.97929 15.02542 15.04379 15.03322 14.99841 14.96369 14.92902 14.90331 14.87738 14.86617 14.85365 14.84687 14.84288 14.84246 14.82737 14.81667 14.8092 14.78912 14.7611 14.73832 14.71926 14.70736 14.68417 14.67333 14.66791 14.66608 14.67662 14.67711 14.67048 14.67891 14.6691 14.66881 14.66633 14.67168 14.66473 14.66183 14.66117 14.67365 14.68583 14.70931 14.74217 14.7602 14.79617 14.81671 14.82723 14.85329 14.86167 14.87044 14.88084 14.89791 14.90209 14.90369 14.90122 14.91086 14.93604 14.95468
0 0 0 0 0 0 0 0 0 0 0 0 0 0 0 0 0 0 0 0 0 0 0 0 0 0 0 0 0 0 0 0 0 0 0 0 0 0 0 0 0 0 0 0 0 0 0 0 0 0 16.19238 15.4301 15.29117 14.98244 15.0094 15.01805 15.00885 14.97197 14.94567 14.91977 14.9017 14.87283 14.85966 14.85082 14.84849 14.86167 14.85436 14.82869 14.83277 14.81495 14.78018 14.75614 14.73604 14.71792 14.6991 14.6786 14.67948 14.6736 14.67357 14.68015 14.68232 14.68722 14.68539 14.68498 14.68382 14.68918 14.68434 14.68444 14.67596 14.67703 14.6899 14.71848 14.73337 14.75337 14.76549 14.78596 14.81176 14.82924 14.8457 14.86301 14.8807 14.89935 14.9275 14.94033 14.93448 14.92968 14.93763 14.96329 14.98708
0 0 0 0 0 0 0 0 0 0 0 0 0 0 0 0 0 0 0 0 0 0 0 0 0 0 0 0 0 0 0 0 0 0 0 0 0 0 0 0 0 0 0 0 0 0 0 0 0 0 0 15.43742 15.11302 14.98514 14.99717 14.99039 14.99284 14.96384 14.93778 14.9213 14.89885 14.87121 14.8621 14.85946 14.86239 14.8723 14.85637 14.85332 14.83451 14.81882 14.79024 14.76337 14.74654 14.7306 14.7043 14.68632 14.67935 14.67655 14.68288 14.6953 14.69594 14.70092 14.70869 14.70161 14.70932 14.71043 14.70838 14.70304 14.71512 14.7265 14.7471 14.76171 14.77518 14.79217 14.80745 14.82429 14.8392 14.84448 14.86754 14.88576 14.90737 14.92919 14.95538 14.98412 14.97354 14.96491 14.96768 14.99321 15.0244
0 0 0 0 0 0 0 0 0 0 0 0 0 0 0 0 0 0 0 0 0 0 0 0 0 0 0 0 0 0 0 0 0 0 0 0 0 0 0 0 0 0 0 0 0 0 0 0 0 0 0 15.25177 14.95377 14.99038 14.9795 14.95953 14.9743 14.95228 14.93591 14.92381 14.90543 14.89078 14.8898 14.89523 14.89432 14.88239 14.89047 14.88981 14.8639 14.82081 14.79946 14.77843 14.75671 14.74294 14.73745 14.70341 14.68888 14.67855 14.695 14.70893 14.7192 14.73267 14.73764 14.74934 14.74873 14.74917 14.75278 14.75644 14.76807 14.78574 14.80336 14.81886 14.83862 14.86085 14.87665 14.88685 14.89743 14.90418 14.92261 14.92947 14.94069 14.95192 14.977 15.00028 15.00403 14.99663 15.00294 15.03436 15.0636
0 0 0 0 0 0 0 0 0 0 0 0 0 0 0 0 0 0 0 0 0 0 0 0 0 0 0 0 0 0 0 0 0 0 0 0 0 0 0 0 0 0 0 0 0 0 0 0 0 0 0 14.96208 14.98568 15.00595 14.98705 14.95892 14.96289 14.94316 14.93116 14.92034 14.91143 14.91285 14.91312 14.91272 14.90981 14.93028 14.92625 14.91764 14.88972 14.86108 14.83468 14.80901 14.79198 14.77745 14.76495 14.72761 14.70228 14.70198 14.71243 14.7322 14.75265 14.78135 14.79137 14.79486 14.79823 14.80505 14.80552 14.82015 14.84495 14.87306 14.89039 14.89279 14.90563 14.92351 14.93057 14.94247 14.95648 14.96638 14.97662 14.97972 14.98842 14.98819 14.99976 15.02737 15.03323 15.0385 15.0498 15.07678 15.09279
0 0 0 0 0 0 0 0 0 0 0 0 0 0 0 0 0 0 0 0 0 0 0 0 0 0 0 0 0 0 0 0 0 0 0 0 0 0 0 0 0 0 0 0 0 0 0 0 0 16.68889 15.82857 15.01681 15.01947 15.0087 14.99176 14.97114 14.95927 14.93147 14.93499 14.92989 14.93357 14.94459 14.94796 14.95512 14.95167 14.9532 14.95608 14.95079 14.92497 14.90049 14.87767 14.85887 14.85511 14.83989 14.77704 14.78291 14.76327 14.75668 14.77598 14.79059 14.80633 14.82391 14.83487 14.84152 14.84556 14.85495 14.85667 14.87203 14.89842 14.91901 14.94003 14.96008 14.97112 14.98498 14.99371 15.00335 15.01355 15.0186 15.01786 15.01872 15.0262 15.02988 15.03623 15.05565 15.07193 15.0825 15.09934 15.11187 15.12092
0 0 0 0 0 0 0 0 0 0 0 0 0 0 0 0 0 0 0 0 0 0 0 0 0 0 0 0 0 0 0 0 0 0 0 0 0 0 0 0 0 0 0 0 0 0 0 0 15.88514 15.45254 15.23022 15.04859 15.03125 15.00622 14.98275 14.96669 14.96101 14.93786 14.93995 14.95462 14.97051 14.98517 14.99443 14.98268 14.98205 14.98219 14.99426 14.99353 14.97531 14.94461 14.92291 14.89963 14.88191 14.86796 14.83493 14.83964 14.84373 14.83652 14.84955 14.85722 14.86675 14.88803 14.88223 14.88638 14.89588 14.90486 14.90167 14.90869 14.92794 14.95875 14.98138 14.99726 15.01257 15.02882 15.02837 15.03326 15.04423 15.05584 15.07066 15.06919 15.06096 15.06755 15.0738 15.08174 15.09175 15.1029 15.12211 15.13439 15.14383
0 0 0 0 0 0 0 0 0 0 0 0 0 0 0 0 0 0 0 0 0 0 0 0 0 0 0 0 0 0 0 0 0 0 0 0 0 0 0 0 0 0 0 0 0 15.58715 15.43813 15.94907 15.51814 15.54424 15.30863 15.08326 15.04321 14.99951 14.97998 14.97497 14.97729 14.96321 14.95229 14.97138 15.00609 15.01269 15.02739 15.01768 15.02739 15.02566 15.03132 15.03126 15.00715 15.00008 14.97327 14.95261 14.92868 14.92199 14.91254 14.89397 14.88752 14.88693 14.89001 14.89568 14.89937 14.90457 14.90976 14.92219 14.93221 14.95194 14.9415 14.94389 14.97169 15.00364 15.03109 15.05742 15.06855 15.07798 15.08806 15.09243 15.10243 15.10725 15.11696 15.1192 15.11149 15.10905 15.11175 15.1178 15.11356 15.12596 15.14134 15.15775 15.17131
0 0 0 0 0 0 0 0 0 0 0 0 0 0 0 0 0 0 0 0 0 0 0 0 0 0 0 0 0 0 0 0 0 0 0 0 0 0 0 0 0 0 17.47157 17.20252 16.24967 15.54216 15.11862 15.1446 15.59621 15.36012 15.14503 15.10028 15.0572 15.01661 15.01113 15.00463 14.99447 14.98732 14.99491 15.01103 15.0503 15.06721 15.06781 15.07212 15.07628 15.07701 15.07702 15.07042 15.05129 15.02966 14.99787 14.97643 14.96754 14.96008 14.94592 14.93207 14.93111 14.93561 14.93046 14.94281 14.94022 14.93998 14.95388 14.96902 14.97676 14.9902 14.98448 14.98306 15.01047 15.039 15.06534 15.0996 15.12434 15.14114 15.146 15.16763 15.181 15.18561 15.1971 15.19625 15.17788 15.16082 15.16222 15.15881 15.15631 15.15929 15.16238 15.17876 15.19132
0 0 0 0 0 0 0 0 0 0 0 0 0 0 0 0 0 0 0 0 0 0 0 0 0 0 0 0 0 0 0 0 0 0 0 0 0 0 0 0 16.58899 16.95869 17.271 16.3349 15.63322 15.17286 15.20419 15.22148 15.20943 15.17417 15.1494 15.11829 15.07661 15.04291 15.03137 15.02143 15.02128 15.01812 15.03009 15.05337 15.09245 15.10649 15.12173 15.11918 15.12591 15.12456 15.11582 15.11578 15.10343 15.08035 15.04583 15.0261 15.02228 15.02633 14.99865 14.98349 14.97048 14.97133 14.98984 14.99184 14.99215 14.99066 15.01085 15.01246 15.01539 15.03043 15.03477 15.03807 15.06315 15.08433 15.11248 15.14036 15.16261 15.18066 15.18612 15.2001 15.21525 15.23343 15.23734 15.24013 15.23021 15.21812 15.20461 15.19873 15.1926 15.18943 15.19125 15.20678 15.22052
0 0 0 0 0 0 0 0 0 0 0 0 0 0 0 0 0 0 0 0 0 0 0 0 0 0 0 0 0 0 0 0 0 0 0 0 0 0 0 16.78323 16.55581 16.05824 15.88179 15.18294 15.21087 15.23089 15.2353 15.2468 15.22929 15.19619 15.1609 15.1217 15.10204 15.07735 15.06086 15.05848 15.05964 15.0741 15.07517 15.11431 15.14212 15.16474 15.19396 15.17924 15.17283 15.18159 15.1729 15.17705 15.16465 15.14452 15.11801 15.0904 15.08386 15.0877 15.0824 15.06399 15.05159 15.04732 15.05024 15.06285 15.06179 15.06252 15.05758 15.05814 15.05608 15.06747 15.08044 15.0986 15.11258 15.12904 15.15001 15.18906 15.21473 15.23185 15.23431 15.24425 15.2634 15.2714 15.2746 15.27422 15.26856 15.24899 15.23112 15.22501 15.2251 15.22182 15.22159 15.23852 15.24982
0 0 0 0 0 0 0 0 0 0 0 0 0 0 0 0 0 0 0 0 0 0 0 0 0 0 0 0 0 0 0 0 0 0 0 0 0 0 16.0694 15.82776 15.63115 15.20157 15.23454 15.25345 15.26231 15.25987 15.25678 15.2574 15.23582 15.2124 15.18388 15.16439 15.14096 15.12036 15.10168 15.08679 15.09672 15.11609 15.13866 15.17433 15.19854 15.22171 15.23246 15.23339 15.23529 15.2384 15.23976 15.2514 15.2344 15.2118 15.1922 15.15708 15.1356 15.12758 15.11754 15.10019 15.09734 15.09681 15.10683 15.11429 15.12815 15.12926 15.12847 15.13583 15.13219 15.13475 15.15179 15.15293 15.17196 15.19705 15.21468 15.23481 15.24759 15.25743 15.25786 15.27472 15.28517 15.30252 15.29372 15.29651 15.28729 15.27311 15.2662 15.25653 15.25678 15.25871 15.26493 15.27513 15.29248
0 0 0 0 0 0 0 0 0 0 0 0 0 0 0 0 0 0 0 0 0 0 0 0 0 0 0 0 0 0 0 0 0 0 17.67696 18.26138 17.4273 15.86866 15.16854 15.20505 15.23628 15.24807 15.26262 15.26259 15.26725 15.25583 15.25941 15.2621 15.26179 15.25226 15.22825 15.22217 15.20051 15.18337 15.17124 15.16233 15.16942 15.18957 15.21748 15.2333 15.2568 15.2615 15.27874 15.28318 15.28246 15.28113 15.28956 15.30737 15.30879 15.30255 15.27272 15.2379 15.21322 15.18457 15.16095 15.15138 15.15295 15.15303 15.15616 15.16714 15.17602 15.18403 15.18303 15.19154 15.1878 15.19049 15.20046 15.21882 15.22269 15.24377 15.25884 15.27677 15.28883 15.30426 15.31166 15.31529 15.31878 15.33102 15.33411 15.31804 15.30282 15.28961 15.28334 15.28124 15.29094 15.29502 15.30902 15.3229 15.33943
0 0 0 0 0 0 0 0 0 0 0 0 0 0 0 0 0 0 0 0 0 0 0 0 0 0 0 0 0 18.13337 17.7421 17.54388 17.55518 17.34457 17.05843 16.50292 15.20307 15.22022 15.24413 15.26767 15.27603 15.26752 15.26642 15.26877 15.28742 15.28824 15.28255 15.27585 15.27452 15.26543 15.27601 15.26167 15.24951 15.24865 15.22937 15.23692 15.23171 15.23876 15.26798 15.29763 15.31461 15.33073 15.33407 15.31772 15.32002 15.32303 15.34195 15.34875 15.34865 15.34291 15.3286 15.30289 15.27772 15.27186 15.22625 15.22429 15.23248 15.21578 15.21863 15.24081 15.24491 15.25745 15.27356 15.26084 15.26393 15.25419 15.24453 15.26973 15.26869 15.28439 15.29767 15.3116 15.32376 15.33926 15.35041 15.3586 15.35604 15.35516 15.36112 15.3466 15.3299 15.31704 15.31347 15.31548 15.32623 15.34032 15.35226 15.36773 15.36973
0 0 0 0 0 0 0 0 0 0 0 0 0 0 0 0 0 0 0 0 0 0 0 0 0 17.94837 17.26772 17.29256 16.40738 15.82332 15.54457 15.28546 15.27735 15.28622 15.27424 15.25602 15.25207 15.25615 15.2711 15.28439 15.28907 15.29198 15.29614 15.29632 15.2903 15.28138 15.28288 15.29066 15.29118 15.29935 15.3096 15.31306 15.30183 15.28913 15.27339 15.29082 15.28857 15.2917 15.30865 15.34648 15.35996 15.35619 15.35503 15.35487 15.35543 15.36978 15.38162 15.38703 15.39456 15.39573 15.39275 15.36214 15.3367 15.33317 15.31673 15.28865 15.28133 15.27904 15.29263 15.31124 15.30409 15.31815 15.33594 15.33405 15.32677 15.33002 15.32503 15.32431 15.32964 15.33445 15.35673 15.36703 15.37369 15.38316 15.39633 15.40162 15.3945 15.3876 15.38091 15.37482 15.36178 15.34902 15.34778 15.36037 15.37587 15.38336 15.38587 15.39688 15.38376
0 0 0 0 0 0 0 0 0 0 0 0 0 0 0 0 0 0 0 0 0 0 0 18.1092 17.29101 16.76239 16.49278 16.21729 15.37685 15.36671 15.35154 15.33566 15.3276 15.31675 15.3037 15.28848 15.28871 15.2941 15.30819 15.31666 15.3085 15.30717 15.29288 15.28881 15.28566 15.28777 15.28668 15.2948 15.30546 15.32654 15.35719 15.34718 15.33626 15.33883 15.32454 15.31593 15.31821 15.33339 15.35349 15.38379 15.41886 15.41584 15.39449 15.38996 15.39364 15.41328 15.41818 15.42404 15.42982 15.43645 15.44219 15.41438 15.40449 15.38254 15.37074 15.35683 15.35209 15.36397 15.38242 15.39709 15.38264 15.37941 15.39966 15.39782 15.40028 15.39 15.38179 15.37524 15.37577 15.38965 15.40339 15.41332 15.42182 15.4363 15.43632 15.43549 15.43467 15.42992 15.42382 15.42169 15.4121 15.40498 15.40185 15.40669 15.40754 15.41175 15.41487 15.41284 15.39133
0 0 0 0 0 0 0 0 0 0 0 0 0 0 0 0 0 0 0 0 0 0 17.54747 16.72213 16.46605 16.50662 16.23514 15.94066 15.38738 15.37656 15.36683 15.35088 15.33641 15.32165 15.32678 15.32745 15.31887 15.30576 15.30179 15.31802 15.30794 15.30571 15.30505 15.30404 15.3018 15.31369 15.31431 15.32363 15.33818 15.35578 15.36633 15.36611 15.36496 15.36321 15.35941 15.3636 15.36074 15.36965 15.38388 15.40504 15.43568 15.43227 15.4343 15.42238 15.43025 15.4446 15.46513 15.47242 15.48013 15.47651 15.49119 15.46008 15.45176 15.43555 15.43036 15.42345 15.42949 15.43387 15.464 15.45126 15.45715 15.46388 15.46734 15.46369 15.46746 15.45251 15.44831 15.43922 15.43718 15.44121 15.44094 15.45662 15.46823 15.4717 15.47029 15.45777 15.45454 15.4563 15.45961 15.45829 15.45701 15.45061 15.45545 15.44416 15.44254 15.44905 15.44636 15.43266 15.39931
0 0 0 0 0 0 0 0 0 0 0 0 0 0 0 0 0 0 0 0 0 18.70913 17.75316 16.71711 16.16078 16.20131 15.93203 15.9505 15.3933 15.38063 15.36801 15.34581 15.33039 15.32785 15.32471 15.3133 15.3061 15.29685 15.30229 15.30721 15.30891 15.30937 15.30894 15.32186 15.32573 15.33856 15.34559 15.35588 15.36648 15.37222 15.37707 15.3848 15.39429 15.39726 15.41642 15.42671 15.40552 15.40148 15.41002 15.42811 15.43903 15.46026 15.45086 15.44573 15.44437 15.47812 15.4989 15.51379 15.52027 15.52928 15.54253 15.51769 15.50618 15.4983 15.49774 15.49925 15.50671 15.50799 15.52279 15.51456 15.51478 15.50859 15.4932 15.48948 15.49109 15.50905 15.49031 15.48658 15.49321 15.49711 15.49877 15.51398 15.51575 15.51047 15.49679 15.49294 15.49895 15.49829 15.4983 15.48924 15.48213 15.48367 15.4867 15.48918 15.49403 15.48838 15.48386 15.45191 15.39601
0 0 0 0 0 0 0 0 0 0 0 0 0 0 0 0 0 0 0 0 0 0 0 17.28873 16.46025 16.19329 15.92325 15.67168 15.37796 15.36935 15.35994 15.34647 15.3339 15.327 15.31369 15.30904 15.30364 15.30204 15.30264 15.31305 15.31707 15.32263 15.33517 15.34412 15.34793 15.35572 15.36642 15.37322 15.38069 15.38598 15.39409 15.40552 15.42177 15.43382 15.44171 15.44496 15.4519 15.45122 15.44395 15.44998 15.46567 15.4755 15.47964 15.47849 15.48035 15.51103 15.52836 15.54327 15.55424 15.57426 15.58464 15.57143 15.56587 15.57531 15.57127 15.56165 15.57 15.5751 15.58052 15.5806 15.57333 15.55294 15.54239 15.52933 15.55164 15.55748 15.54752 15.54902 15.54292 15.53711 15.54855 15.55507 15.54739 15.52984 15.52958 15.54253 15.54957 15.54608 15.5464 15.53126 15.52749 15.53251 15.54237 15.54502 15.53587 15.53073 15.50724 15.46163 15.39458
0 0 0 0 0 0 0 0 0 0 0 0 0 0 0 0 0 0 0 0 0 19.16159 18.87606 17.93952 16.50609 16.2256 15.92496 15.94777 15.64212 15.36555 15.35247 15.33929 15.33557 15.32415 15.31055 15.29922 15.30804 15.31132 15.31432 15.32389 15.33068 15.3355 15.34474 15.35113 15.35322 15.37647 15.37065 15.39304 15.4179 15.42988 15.43534 15.44458 15.44791 15.46218 15.46852 15.48193 15.47597 15.47407 15.46647 15.4826 15.48202 15.49984 15.51419 15.52259 15.53681 15.55168 15.58248 15.59564 15.60628 15.62579 15.63336 15.64243 15.65505 15.6472 15.63994 15.63431 15.64021 15.63246 15.62268 15.62063 15.61808 15.59791 15.59367 15.60926 15.60967 15.62277 15.61338 15.60932 15.60153 15.60764 15.6082 15.60165 15.59003 15.5849 15.58582 15.59071 15.59292 15.59079 15.58923 15.58165 15.57344 15.58102 15.58342 15.57939 15.5807 15.55837 15.53118 15.47812 15.40274
0 0 0 0 0 0 0 0 0 0 0 0 0 0 0 0 0 0 0 19.136 19.09512 19.02574 18.24754 17.1775 16.56608 16.27036 15.96842 16.2636 15.38936 15.35852 15.34709 15.33798 15.33509 15.32844 15.31145 15.30828 15.30579 15.31142 15.33239 15.3426 15.34252 15.34343 15.34539 15.3579 15.3652 15.38444 15.40123 15.41217 15.43589 15.44894 15.46276 15.47926 15.48666 15.49836 15.51348 15.5202 15.52426 15.52019 15.51591 15.49713 15.4952 15.50545 15.53257 15.54386 15.56059 15.5816 15.59464 15.61741 15.63983 15.66072 15.67116 15.67979 15.69889 15.69875 15.69924 15.69313 15.69511 15.67992 15.683 15.67319 15.66233 15.65341 15.65932 15.66667 15.6742 15.68164 15.67467 15.66291 15.65283 15.65417 15.64586 15.64451 15.64304 15.64494 15.64928 15.65701 15.65897 15.65891 15.6536 15.65125 15.63683 15.63405 15.62886 15.61859 15.61078 15.58758 15.55351 15.49414 15.41913
0 0 0 0 0 0 0 0 0 0 0 0 0 0 0 0 0 0 18.64479 18.54213 18.24212 17.82484 17.25407 16.62903 16.33371 16.32114 16.01521 15.70737 15.40495 15.36124 15.34366 15.33485 15.33304 15.32671 15.32082 15.32097 15.31782 15.32468 15.34591 15.3598 15.3702 15.36748 15.37834 15.38875 15.39058 15.40248 15.41696 15.44517 15.47101 15.4887 15.51477 15.53268 15.53744 15.55572 15.56381 15.56884 15.5725 15.57527 15.57817 15.56367 15.55135 15.54821 15.54956 15.56131 15.58331 15.61023 15.63425 15.64605 15.65823 15.67562 15.69501 15.71269 15.72375 15.72677 15.73001 15.73408 15.7241 15.7292 15.74209 15.72473 15.73083 15.72776 15.73162 15.73276 15.74285 15.74537 15.73073 15.72081 15.71854 15.70968 15.69205 15.68858 15.68617 15.68963 15.69501 15.70482 15.71572 15.7128 15.7186 15.70157 15.68694 15.67954 15.67567 15.66546 15.65097 15.61781 15.58506 15.52925 15.45853
0 0 0 0 0 0 0 0 0 0 0 0 0 0 0 0 0 19.04402 18.52182 17.98 17.5459 16.97034 16.68019 16.68306 16.69122 16.34628 16.01348 15.43641 15.39603 15.35842 15.34248 15.34735 15.33898 15.3243 15.32333 15.33232 15.3278 15.34259 15.35793 15.37251 15.38045 15.38167 15.38729 15.41135 15.42097 15.44508 15.45904 15.48314 15.50652 15.53359 15.56186 15.59114 15.60013 15.60729 15.61333 15.61478 15.62106 15.61872 15.61624 15.60759 15.6042 15.60304 15.59898 15.5977 15.60844 15.63596 15.66002 15.67153 15.67369 15.68927 15.71316 15.73106 15.75361 15.76075 15.76197 15.7582 15.77591 15.78106 15.76606 15.78183 15.78289 15.77541 15.76979 15.77326 15.77829 15.78035 15.77675 15.77647 15.77529 15.76571 15.74767 15.74124 15.73772 15.7414 15.74916 15.75595 15.75821 15.75891 15.75851 15.73696 15.72962 15.72694 15.71371 15.69625 15.67715 15.65401 15.62327 15.56495 15.49861
0 0 0 0 0 0 0 0 0 0 0 0 0 0 0 0 18.5348 18.50909 17.73575 17.2314 16.96635 16.67501 16.68621 16.68426 16.66583 16.35136 16.00666 15.4305 15.38195 15.35152 15.33661 15.33814 15.34169 15.34183 15.344 15.34847 15.35341 15.36568 15.36573 15.36686 15.38036 15.39791 15.4099 15.42463 15.44767 15.46815 15.4913 15.51114 15.53525 15.57145 15.60435 15.63339 15.65477 15.66599 15.67283 15.67837 15.68305 15.6749 15.67339 15.68018 15.67137 15.67189 15.65431 15.64617 15.64518 15.65921 15.69038 15.70403 15.712 15.72352 15.73163 15.74038 15.76731 15.79234 15.79853 15.81472 15.81987 15.81527 15.82402 15.84 15.84526 15.83753 15.82674 15.82117 15.82191 15.82512 15.82182 15.82069 15.81795 15.8062 15.78369 15.79006 15.77433 15.78137 15.7912 15.7889 15.79222 15.79355 15.78506 15.7754 15.77142 15.75741 15.76073 15.74251 15.71963 15.69617 15.66113 15.60723 15.5378
0 0 0 0 0 0 0 0 0 0 0 0 0 0 0 19.0702 18.35264 17.69807 17.18468 16.9385 16.65746 16.67327 16.68038 16.35814 16.36177 16.04563 15.44629 15.41121 15.37076 15.34628 15.3303 15.33692 15.34143 15.34359 15.34127 15.3547 15.35949 15.37919 15.38926 15.40069 15.42439 15.44367 15.4575 15.47445 15.49797 15.52081 15.54119 15.56404 15.5941 15.62789 15.64816 15.67041 15.68375 15.69635 15.7082 15.72181 15.72419 15.73203 15.73931 15.74665 15.74616 15.73869 15.73204 15.71111 15.70744 15.68841 15.7149 15.71926 15.73275 15.74168 15.75473 15.76378 15.78645 15.82105 15.84273 15.86018 15.85054 15.86462 15.8788 15.88769 15.88366 15.87313 15.8681 15.87164 15.87786 15.87729 15.87921 15.87931 15.86904 15.8512 15.84231 15.82922 15.8247 15.82402 15.81926 15.81557 15.81124 15.81498 15.81205 15.8031 15.79827 15.80491 15.78854 15.7763 15.75721 15.73555 15.71074 15.66575 15.59282
0 0 0 0 0 0 0 0 0 0 0 0 0 0 18.39246 18.39604 17.70661 17.16807 16.8896 16.60081 16.6201 16.32258 16.33617 16.32321 16.02832 15.72016 15.42609 15.39537 15.3638 15.35037 15.34045 15.34815 15.35046 15.35235 15.36712 15.37684 15.38866 15.40165 15.42026 15.44586 15.46703 15.48329 15.50388 15.53035 15.55718 15.58781 15.6193 15.65542 15.67896 15.69633 15.7065 15.71929 15.73112 15.74211 15.75687 15.77436 15.77367 15.77441 15.77806 15.78727 15.79289 15.7943 15.79692 15.78144 15.75723 15.74922 15.74122 15.74007 15.74929 15.75855 15.77621 15.79166 15.8104 15.83981 15.88292 15.8995 15.89126 15.90874 15.91818 15.92499 15.92345 15.91398 15.9152 15.92013 15.9248 15.92532 15.92944 15.92986 15.92643 15.90425 15.88125 15.86966 15.86451 15.8599 15.85221 15.84833 15.84293 15.84027 15.84275 15.83588 15.83289 15.83509 15.82821 15.80948 15.79735 15.77059 15.74125 15.6995 15.62739
0 0 0 0 0 0 0 0 0 0 0 0 0 18.26026 18.41594 17.68768 17.13302 16.86364 16.56993 16.58096 16.28699 16.29023 16.30123 16.3143 16.0087 15.42292 15.39808 15.37722 15.36103 15.36079 15.35978 15.36673 15.37832 15.39129 15.40567 15.419 15.42722 15.44642 15.47032 15.49063 15.51087 15.54194 15.57529 15.60677 15.64076 15.67413 15.70235 15.72374 15.73847 15.74709 15.75344 15.76589 15.78545 15.79928 15.8132 15.81884 15.81592 15.81587 0 0 0 15.7947 15.80634 15.85268 15.83631 15.81181 15.79785 15.79925 15.7832 15.78013 15.78731 15.80073 15.82549 15.85891 15.89883 15.92625 15.92459 15.95115 15.96042 15.97114 15.98391 15.988 15.98207 15.98218 15.99083 15.99055 15.99659 15.99203 15.98509 15.96451 15.94385 15.92093 15.9038 15.90139 15.89044 15.88009 15.86951 15.86118 15.8626 15.86583 15.86426 15.86232 15.85619 15.84847 15.83497 15.81519 15.78251 15.73594 15.66298
0 0 0 0 0 0 0 0 0 0 0 0 0 18.63213 17.7327 17.12261 16.83869 16.54237 16.55836 16.27504 16.2859 16.28833 16.30295 15.43051 15.41678 15.40466 15.38548 15.37194 15.36955 15.36913 15.38229 15.38682 15.40019 15.40567 15.41675 15.43503 15.46493 15.48269 15.51751 15.55251 15.59309 15.63351 15.66545 15.69767 15.73714 15.76266 15.78252 15.79126 15.7947 15.79813 15.80665 16.50326 15.82633 15.83405 15.8415 16.17655 16.87297 17.57354 0 0 0 0 0 16.23103 15.88314 15.86178 15.84137 15.83456 15.82311 15.8199 15.81553 15.83177 15.85413 15.88235 15.91801 15.94607 15.96534 15.98479 16.0007 16.01332 16.024 16.02213 16.02291 16.02824 16.03678 16.04604 16.04479 16.04632 16.03913 16.02519 16.01094 15.99372 15.97575 15.9626 15.94956 15.92471 15.91383 15.90345 15.89735 15.90109 15.89986 15.89062 15.88291 15.87528 15.86295 15.84839 15.81204 15.76029 15.68874
0 0 0 0 0 0 0 0 0 0 0 0 18.76447 17.97526 17.11136 16.81647 16.5258 16.263 16.27432 16.27974 16.28584 16.30672 16.00541 15.42319 15.41319 15.39037 15.38296 15.37919 15.38078 15.39032 15.39747 15.41014 15.42211 15.42761 15.44001 15.46383 15.47926 15.51863 15.5568 15.598 15.64873 15.69451 15.73258 15.76154 15.78638 15.81021 15.81583 0 0 15.79983 0 17.33195 16.57255 16.19906 16.56089 16.55269 17.26502 17.63842 18.52744 16.53626 15.8779 0 0 0 17.35197 15.88365 15.86151 15.84678 15.83949 15.83223 15.83549 15.84901 15.87586 15.90637 15.94291 15.96445 15.98527 16.00789 16.03502 16.05624 16.06629 16.06463 16.06014 16.07214 16.07147 16.07353 16.07382 16.0778 16.0869 16.07738 16.06892 16.04683 16.03115 16.02197 15.99998 15.98151 15.96552 15.95404 15.94582 15.94415 15.93752 15.92979 15.92127 15.90741 15.89734 15.88285 15.84147 15.78202 15.70934
0 0 0 0 0 0 0 0 0 0 0 17.99628 17.98398 17.12373 16.82282 16.23975 16.27517 16.28692 16.27846 16.28803 16.32058 15.71884 15.42493 15.41286 15.39853 15.38074 15.38229 15.38866 15.40197 15.40838 15.42134 15.43308 15.44445 15.45207 15.46752 15.49558 15.52799 15.58148 15.624 15.67305 15.71967 15.75747 15.78282 15.80717 16.52263 0 0 0 0 0 18.05025 18.76855 18.55913 18.04695 17.70307 17.30265 17.28901 16.20614 15.8666 15.87314 15.87787 15.8827 15.88323 17.70702 18.03911 15.88824 15.87298 15.85819 15.8536 15.84346 15.85662 15.87049 15.89294 15.92235 15.96095 15.98296 16.00423 16.03085 16.06095 16.08724 16.09354 16.09224 16.10423 16.0944 16.09029 16.09855 16.10327 16.10539 16.11843 16.13251 16.13173 16.11498 16.08979 16.07386 16.05831 16.03674 16.01632 16.00017 15.99047 15.97913 15.971 15.95979 15.95634 15.94109 15.93199 15.90893 15.87705 15.81485 15.73737
0 0 0 0 0 0 0 0 0 0 18.703 18.00139 17.13219 16.51162 16.26165 15.98361 15.99098 16.00568 16.01528 16.01834 16.02684 15.44367 15.43199 15.42487 15.40801 15.39034 15.38483 15.40503 15.41821 15.42961 15.44817 15.45872 15.46621 15.46897 15.48685 15.52486 15.57867 15.63896 15.68473 15.73378 15.78296 15.80897 16.15672 0 0 0 0 0 0 0 0 0 0 0 18.06785 17.72035 16.96273 15.87889 15.8836 15.89329 15.89839 15.89745 15.89529 15.89552 15.89069 15.89213 15.88018 15.87136 15.87456 15.86898 15.8702 15.88525 15.91136 15.94187 15.97858 16.01288 16.04038 16.06174 16.0872 16.11281 16.11895 16.12651 16.11858 16.1169 16.11814 16.12133 16.12669 16.13374 16.14433 16.1566 16.15827 16.15525 16.1396 16.13255 16.11881 16.09914 16.07775 16.06475 16.04914 16.03096 16.01809 16.00612 15.99282 15.97783 15.95936 15.93232 15.89713 15.83352 15.75603
0 0 0 0 0 0 0 0 0 0 18.25075 17.11178 16.49713 16.24658 15.70263 15.71865 15.45266 15.45173 15.44102 15.44186 15.45076 15.44503 15.43415 15.42799 15.41937 15.40386 15.41135 15.4272 15.43753 15.45995 15.47454 15.47648 15.48015 15.49499 15.52192 15.56981 15.62404 15.67061 15.7214 15.77264 16.86914 0 0 0 0 0 0 0 0 0 0 0 0 0 18.6903 17.39662 15.91264 15.9136 15.91592 15.9268 15.94677 15.94908 15.93776 15.92259 15.90819 15.89948 15.89811 15.89352 15.89396 15.88282 15.88681 15.89738 15.91845 15.95191 15.98856 16.02564 16.06818 16.08551 16.11745 16.14482 16.14497 16.14082 16.14379 16.1484 16.15836 16.16488 16.17053 16.17378 16.18318 16.19315 16.19077 16.18063 16.17383 16.17772 16.16728 16.15692 16.12908 16.11477 16.10277 16.09012 16.06834 16.05479 16.0419 16.0199 15.98749 15.9586 15.91497 15.84899 15.77529
0 0 0 0 0 0 0 0 0 18.3319 17.75869 16.79944 16.20569 15.66412 15.4374 15.44078 15.4259 15.42402 15.42944 15.44494 15.44424 15.44094 15.44223 15.43406 15.41874 15.41337 15.42281 15.43728 15.46051 15.47086 15.4847 15.49517 15.50044 15.52194 15.55773 15.61364 15.65923 15.71055 15.75864 16.4787 16.68626 0 0 0 0 0 0 0 0 0 0 0 0 18.00383 17.7861 16.63737 15.92824 15.93122 15.93943 15.95991 15.98178 15.98622 15.98331 15.96267 15.94052 15.93978 15.93158 15.92808 15.92057 15.91107 15.91405 15.92319 15.93672 15.97009 16.00263 16.03918 16.07641 16.11228 16.13962 16.14833 16.16022 16.17385 16.16711 16.17027 16.18756 16.20717 16.21541 16.22089 16.22893 16.23019 16.22952 16.21983 16.21015 16.2115 16.20402 16.19571 16.18066 16.16421 16.14909 16.12895 16.10811 16.09273 16.07432 16.04621 16.01227 15.97581 15.92876 15.8647 15.79062
0 0 0 0 0 0 0 0 19.31007 18.07886 16.76105 16.1711 15.88937 15.37847 15.37795 15.38384 15.39132 15.39584 15.40358 15.41397 15.43268 15.45131 15.45244 15.4386 15.42685 15.4421 15.46084 15.47145 15.48123 15.49044 15.4972 15.50298 15.5189 15.54806 15.59089 15.64495 15.68454 15.72506 16.0864 16.47274 16.87996 17.64438 0 18.43652 18.99227 0 0 0 0 0 0 0 18.72573 17.78721 17.02982 15.92006 15.93257 15.94972 15.974 15.99356 15.99665 15.99729 15.99066 15.97625 15.96155 15.95302 15.94866 15.94773 15.94801 15.94119 15.93846 15.94746 15.96416 15.9883 16.02614 16.07148 16.10308 16.13685 16.15933 16.17505 16.18815 16.1916 16.19736 16.20422 16.21671 16.24301 16.24539 16.25179 16.25181 16.2468 16.25171 16.25022 16.2442 16.23976 16.23727 16.2301 16.22893 16.20738 16.19053 16.17232 16.15135 16.13168 16.1049 16.07881 16.0413 15.9949 15.93779 15.87327 15.80232
0 0 0 0 0 0 0 0 19.30742 18.07897 16.76061 16.15857 15.33948 15.34774 15.34592 15.3461 15.35915 15.36772 15.38411 15.40836 15.42403 15.44202 15.4506 15.46107 15.45646 15.47914 15.49519 15.50678 15.52081 15.53395 15.55083 15.56102 15.57704 15.60401 15.64071 15.68158 15.71045 15.73304 15.76327 16.11401 16.4897 16.88133 17.29161 17.69063 18.42606 0 0 0 0 0 0 18.13965 17.40239 17.41089 15.90599 15.92324 15.95779 15.98947 16.00724 16.01395 16.01862 16.00987 16.00228 15.9953 15.98642 15.9727 15.95774 15.96 15.96826 15.9631 15.95634 15.96979 15.99376 16.01545 16.05058 16.09634 16.1276 16.1581 16.17715 16.18825 16.21014 16.22257 16.22599 16.23207 16.24963 16.27035 16.27725 16.26366 16.26308 16.26387 16.2656 16.27005 16.26794 16.26443 16.26325 16.26129 16.2618 16.24534 16.22091 16.20928 16.18983 16.1627 16.13322 16.09605 16.05259 16.00684 15.94671 15.8797 15.81403
0 0 0 0 0 0 0 0 0 18.08599 16.7627 16.15316 15.32855 15.32932 15.31984 15.33035 15.33188 15.34122 15.37242 15.40207 15.42789 15.44793 15.45644 15.47393 15.48834 15.51433 15.53385 15.57642 15.60298 15.61582 15.62608 15.63553 15.6458 15.66058 15.6861 15.7173 15.73558 15.75097 15.772 15.77736 15.79291 15.80804 15.82573 16.17637 16.94663 17.69695 18.44273 18.76902 0 0 18.41215 17.37007 16.61192 15.90643 15.92178 15.95065 15.99397 16.00895 16.02729 16.03402 16.031 16.02672 16.03028 16.02606 16.01385 15.99492 15.9834 15.98101 15.97994 15.98559 15.99315 16.01678 16.03594 16.05709 16.08882 16.12156 16.14993 16.17092 16.19549 16.21193 16.21995 16.23777 16.25004 16.26041 16.27507 16.28302 16.29426 16.30016 16.30007 16.29816 16.30461 16.30796 16.30511 16.3034 16.30167 16.29392 16.28624 16.2797 16.26548 16.23986 16.22354 16.18809 16.1536 16.11026 16.0666 16.02086 15.95813 15.89474 15.8333
0 0 0 0 0 0 0 0 0 19.20072 17.48254 16.47104 15.57874 15.32824 15.30454 15.3154 15.31007 15.33055 15.36604 15.39774 15.43985 15.46419 15.47581 15.50252 15.52135 15.54854 15.60554 15.64906 15.67599 15.69661 15.70829 15.70745 15.71105 15.71774 15.72822 15.74407 15.76265 15.77297 15.7844 15.78398 15.79146 15.80286 15.82281 15.8423 16.1888 16.56841 16.95735 17.3327 18.42359 17.35179 16.21116 15.889 15.90505 15.92518 15.95312 15.98631 16.01448 16.02992 16.0408 16.04457 16.04047 16.03652 16.03082 16.02495 16.01617 16.01781 16.01017 15.99868 15.99805 16.01006 16.03181 16.04507 16.06354 16.09172 16.12729 16.15253 16.17279 16.18787 16.21402 16.23302 16.24465 16.25825 16.2644 16.27943 16.28948 16.30366 16.31249 16.32655 16.33997 16.34052 16.34157 16.34207 16.34085 16.33614 16.32769 16.32204 16.31685 16.31069 16.29857 16.27504 16.25381 16.21522 16.17341 16.13051 16.09282 16.04009 15.97865 15.91836 15.84504
0 0 0 0 0 0 0 0 0 19.36632 18.42958 16.79975 15.8594 15.32619 15.3122 15.32008 15.30582 15.32935 15.36992 15.40905 15.43277 15.46994 15.48453 15.49934 15.54121 15.60443 15.66381 15.71623 15.7548 15.77395 15.77689 15.77647 15.77676 15.78137 15.7798 15.78505 15.79557 15.79734 15.7985 15.79893 15.80237 15.80471 15.8203 15.83958 15.85533 15.87258 16.224 0 17.3634 16.23155 15.91099 15.93025 15.94837 15.97029 15.99796 16.02434 16.05307 16.06383 16.06633 16.06497 16.05993 16.05071 16.05116 16.05054 16.0405 16.03463 16.0193 16.01297 16.01582 16.03303 16.04878 16.07287 16.09558 16.12217 16.14857 16.16063 16.18329 16.20256 16.22034 16.23919 16.2605 16.27668 16.28808 16.29855 16.31453 16.32507 16.34332 16.36001 16.37418 16.3773 16.37734 16.37579 16.37055 16.36349 16.35754 16.35227 16.35013 16.34565 16.32077 16.30134 16.27262 16.23276 16.19124 16.15916 16.11337 16.05735 15.99496 15.93495 15.85245
0 0 0 0 0 0 0 0 0 0 19.01305 17.53019 16.15573 15.57421 15.33765 15.32605 15.32264 15.33009 15.35923 15.38136 15.42535 15.45977 15.48062 15.50942 15.56129 15.63123 15.69931 15.75393 0 0 0 16.00138 15.80867 15.81437 15.81161 15.80943 15.81682 15.82056 15.81902 15.81356 15.80679 15.81553 15.8244 15.8408 15.85705 15.8765 15.89658 16.26254 15.91358 15.92796 15.95437 15.97674 16.00057 16.02203 16.03443 16.04807 16.06402 16.07982 16.08758 16.0862 16.08352 16.08985 16.0781 16.07682 16.06358 16.04959 16.04375 16.04394 16.04176 16.05731 16.07639 16.09208 16.10959 16.13092 16.15144 16.18226 16.20537 16.22316 16.23952 16.25981 16.27768 16.29043 16.30389 16.31921 16.33354 16.34536 16.3594 16.37664 16.38153 16.38988 16.39508 16.40131 16.39958 16.39503 16.38906 16.38283 16.37394 16.36659 16.34727 16.32194 16.28673 16.24831 16.21422 16.17749 16.13283 16.07944 16.01129 15.93962 15.85924
0 0 0 0 0 0 0 0 0 0 0 18.87837 17.52439 16.13781 15.58262 15.32591 15.31338 15.32861 15.34419 15.36205 15.40255 15.44484 15.48071 15.5123 15.56709 15.6445 16.04177 16.43271 0 0 0 16.58992 16.86809 15.81483 15.81656 15.81025 15.82314 15.82807 15.82919 15.82277 15.81273 15.81313 15.82762 15.85152 15.87452 15.89899 15.91623 15.93368 15.94341 15.9614 15.99138 16.01796 16.03871 16.05648 16.06911 16.09261 16.10443 16.1063 16.10567 16.10021 16.09807 16.09428 16.09535 16.07962 16.07457 16.07118 16.07579 16.07676 16.08329 16.09555 16.10305 16.11864 16.13996 16.15075 16.1715 16.1915 16.21464 16.24076 16.26566 16.28026 16.30005 16.31206 16.32876 16.34283 16.35043 16.36513 16.37617 16.40016 16.42105 16.42838 16.42859 16.43086 16.42348 16.41349 16.40776 16.3997 16.38737 16.3741 16.35614 16.32914 16.30063 16.26534 16.23045 16.19695 16.14474 16.08825 16.01609 15.94862 15.86476
0 0 0 0 0 0 0 0 0 0 0 0 19.09218 17.82786 16.11061 15.55869 15.29876 15.31016 15.33195 15.35687 15.37892 15.42589 15.47279 15.51437 15.56582 15.6408 16.37406 0 0 17.8764 17.9845 16.48874 15.79963 15.80364 15.7971 15.81571 15.82138 15.83261 15.83578 15.83139 15.81782 15.81967 15.83146 15.8596 15.89118 15.92106 15.9388 15.95293 15.96404 15.98343 16.00641 16.02985 16.0603 16.08119 16.10318 16.11598 16.13642 16.141 16.13471 16.1243 16.11708 16.11858 16.1234 16.10507 16.10059 16.09909 16.1012 16.10075 16.10125 16.11927 16.12658 16.1388 16.15973 16.18062 16.19385 16.21533 16.2429 16.27096 16.28734 16.31098 16.32524 16.3396 16.35431 16.37107 16.38358 16.40542 16.42696 16.42838 16.44895 16.4603 16.45894 16.45371 16.44069 16.43182 16.42356 16.41443 16.39887 16.379 16.36121 16.33818 16.31624 16.27831 16.24561 16.20468 16.15412 16.10932 16.04114 15.97596 15.90055
0 0 0 0 0 0 0 0 0 0 0 0 0 0 0 16.08088 15.52292 15.2951 15.32248 15.33944 15.37717 15.41758 15.46395 15.50707 15.55113 15.93878 16.01746 16.4093 16.79292 18.74764 17.98053 16.46678 15.78845 15.78878 15.78695 15.80964 15.82531 15.83325 15.83888 15.83911 15.83361 15.83141 15.84415 15.86653 15.89312 15.92041 15.93613 15.94663 15.96362 15.98965 16.01527 16.05188 16.08154 16.10689 16.13685 16.15125 16.16025 16.16201 16.16399 16.15548 16.14936 16.1467 16.13645 16.12131 16.11773 16.10853 16.11575 16.12485 16.1379 16.15713 16.15229 16.16323 16.17763 16.20223 16.22126 16.24418 16.2764 16.29877 16.31644 16.33755 16.35887 16.37585 16.38579 16.40048 16.41149 16.43156 16.44948 16.46251 16.46071 16.46913 16.47078 16.46985 16.45951 16.44873 16.44458 16.43724 16.41704 16.3914 16.37063 16.35657 16.33336 16.30384 16.26497 16.21999 16.1801 16.13275 16.07324 16.00616 15.93987
0 0 0 0 0 0 0 0 0 0 0 0 0 0 0 16.67103 16.08474 15.27531 15.31595 15.33583 15.38272 15.42849 15.46758 15.51251 15.54384 15.60357 16.33719 16.40648 16.80944 0 18.03195 15.77618 15.77855 15.77549 15.79266 15.80446 15.82047 15.83286 15.83895 15.84176 15.84459 15.84542 15.85916 15.87456 15.89383 15.90987 15.92563 15.93519 15.96814 15.99681 16.04168 16.06933 16.09082 16.1249 16.1544 16.17244 16.18355 16.17757 16.18114 16.18394 16.17401 16.16435 16.14622 16.13866 16.13507 16.13826 16.15231 16.1611 16.1677 16.17387 16.18221 16.18936 16.20793 16.23658 16.26094 16.27891 16.30299 16.33105 16.36108 16.39388 16.40562 16.41516 16.42411 16.43287 16.44274 16.44165 16.45446 16.46032 16.4672 16.47386 16.47404 16.47163 16.46691 16.45753 16.45404 16.44496 16.42706 16.40667 16.38684 16.37274 16.35155 16.32436 16.28866 16.25295 16.21787 16.1693 16.11479 16.05941 16.00391
0 0 0 0 0 0 0 0 0 0 0 0 0 17.75453 17.43529 16.71331 16.10875 15.29367 15.33452 15.36604 15.40657 15.44877 15.48431 15.52549 15.55875 15.60364 16.66297 17.09383 17.54339 17.47378 18.4117 16.0845 15.7616 15.76589 15.78976 15.80871 15.83074 15.84308 15.84575 15.84471 15.84584 15.85333 15.86713 15.89201 15.90955 15.91157 15.92251 15.94798 15.98432 16.02245 16.05501 16.07457 16.10394 16.12323 16.13467 16.16317 16.17982 16.19286 16.19043 16.1934 16.19243 16.18681 16.17672 16.1718 16.16447 16.16698 16.17449 16.17835 16.19245 16.19764 16.206 16.21916 16.23721 16.26617 16.29387 16.3118 16.331 16.36211 16.3981 16.42795 16.43527 16.44151 16.44933 16.45369 16.45166 16.4532 16.45559 16.45885 16.46592 16.4706 16.47255 16.47427 16.46981 16.46705 16.4601 16.45143 16.43664 16.42956 16.4105 16.39222 16.36881 16.34304 16.30944 16.26673 16.23265 16.18581 16.151 16.10959 16.06728
0 0 0 0 0 0 0 0 0 0 0 0 17.05858 16.7205 16.74989 16.45061 15.87162 15.32987 15.37444 15.40744 15.44621 15.48835 15.51822 15.55063 15.58595 15.62829 16.33268 16.38634 17.15639 17.92835 16.43524 15.74226 15.7613 15.78591 15.81475 15.83427 15.85115 15.85797 15.85709 15.85786 15.86106 15.87107 15.8773 15.89242 15.9155 15.93123 15.95397 15.97791 16.00932 16.04419 16.07167 16.08888 16.10215 16.12116 16.14688 16.16546 16.18146 16.18797 16.18696 16.18678 16.1894 16.1903 16.1863 16.18207 16.18485 16.18981 16.19668 16.20048 16.2066 16.21663 16.23393 16.24464 16.26802 16.29474 16.31789 16.33995 16.3677 16.3882 16.4065 16.42942 16.43804 16.44717 16.45082 16.45949 16.46486 16.45667 16.45411 16.45735 16.45663 16.45689 16.46017 16.46688 16.46349 16.46348 16.45982 16.46097 16.45185 16.43167 16.41536 16.40082 16.37907 16.35275 16.32394 16.28507 16.24871 16.21727 16.18702 16.15273 16.10467
0 0 0 0 0 0 0 0 18.71763 18.06499 17.04572 16.38009 16.39793 16.40835 16.15426 16.21328 15.95345 15.39627 15.43524 15.47286 15.51084 15.55158 15.57947 15.60112 15.62635 15.66553 15.69756 15.7197 15.74161 15.75228 15.75513 15.76463 15.78552 15.81885 15.83784 15.85665 15.86493 15.87215 15.86892 15.86683 15.86945 15.88745 15.89934 15.91198 15.94053 15.96983 15.99036 16.0115 16.03364 16.0709 16.08463 16.10768 16.12302 16.13579 16.15324 16.15621 16.1698 16.18217 16.18702 16.19026 16.1969 16.19289 16.18949 16.19267 16.19713 16.21062 16.22089 16.2247 16.23179 16.25249 16.25736 16.27531 16.30011 16.32936 16.34451 16.35349 16.38079 16.4051 16.42227 16.43634 16.44973 16.45774 16.46752 16.47197 16.46218 16.45746 16.45703 16.45152 16.44236 16.44155 16.44546 16.45523 16.45792 16.45816 16.46218 16.46268 16.45188 16.43885 16.41925 16.40108 16.3892 16.36474 16.33943 16.30562 16.2705 16.24517 16.21642 16.19045 16.15367
0 0 0 0 0 0 0 17.76645 17.77566 16.37871 16.08761 16.096 16.12494 16.1646 16.23045 15.98972 15.4334 15.45755 15.48922 15.52898 15.57271 15.60369 15.62604 15.65203 15.6757 15.70352 15.72744 15.74775 15.7712 15.78913 15.80044 15.81937 15.83455 15.84619 15.85472 15.86148 15.87457 15.88337 15.88167 15.87993 15.88278 15.89937 15.92094 15.93136 15.96349 15.99871 16.02161 16.03493 16.04744 16.0557 16.06246 16.08246 16.10209 16.12302 16.13844 16.15055 16.16379 16.18004 16.19509 16.1975 16.2001 16.20013 16.19371 16.19801 16.20768 16.2157 16.2334 16.24768 16.25914 16.27766 16.28642 16.30782 16.32985 16.34724 16.36696 16.38371 16.40454 16.42198 16.43014 16.44742 16.46329 16.46542 16.46748 16.46875 16.46988 16.45648 16.44111 16.43679 16.42382 16.43001 16.43542 16.44399 16.45352 16.45718 16.45365 16.45662 16.45622 16.45186 16.44326 16.41999 16.40165 16.37641 16.35957 16.32949 16.30351 16.2661 16.23475 16.21013 16.17286
0 0 0 0 0 0 18.27633 18.16756 16.40494 16.09937 16.10231 16.13505 16.19113 15.95427 15.72462 15.48565 15.49834 15.52965 15.55993 15.59929 15.62828 15.65156 15.6786 15.69275 15.71545 15.72583 15.74271 15.77222 15.80293 15.81897 15.83 15.85201 15.86448 15.87132 15.8729 15.87745 15.88896 15.8943 15.90319 15.90511 15.90755 15.9157 15.93049 15.95438 15.98148 15.9912 16.00443 16.01798 16.02787 16.03825 16.05618 16.06486 16.08309 16.09862 16.11577 16.12822 16.14804 16.15765 16.17206 16.18641 16.1992 16.20386 16.19864 16.20294 16.20541 16.2229 16.24538 16.26379 16.27256 16.29904 16.3222 16.34528 16.3575 16.37754 16.39673 16.41042 16.42477 16.43282 16.44661 16.46092 16.46131 16.46395 16.46779 16.46213 16.4566 16.44079 16.42464 16.4063 16.41023 16.41512 16.41681 16.43554 16.43815 16.44827 16.45482 16.45706 16.46049 16.46754 16.46655 16.44359 16.42052 16.40561 16.39507 16.37144 16.3429 16.30462 16.26441 16.23976 16.20251
0 0 0 0 0 0 19.21859 17.44285 16.41151 16.10993 15.8594 15.91458 15.69337 15.46744 15.50387 15.54455 15.57274 15.5879 15.61852 15.6491 15.67978 15.70822 15.72191 15.73127 15.74481 15.7485 15.76121 15.79729 15.82101 15.83559 15.85131 15.87189 15.88208 15.88584 15.88657 15.89 15.89752 15.89883 15.90835 15.91315 15.92056 15.92867 15.94622 15.96036 15.97175 15.97771 15.98054 15.98734 16.00582 16.02354 16.03759 16.04577 16.05622 16.06594 16.09729 16.1061 16.11411 16.12715 16.14946 16.16378 16.16782 16.17001 16.1754 16.19195 16.2087 16.22401 16.24949 16.2741 16.29028 16.31492 16.33448 16.35951 16.37627 16.39621 16.41608 16.42925 16.43496 16.44551 16.45538 16.46674 16.46259 16.46019 16.45607 16.44952 16.42938 16.41996 16.41102 16.39102 16.3966 16.39248 16.40213 16.41172 16.41909 16.44141 16.45578 16.46508 16.46766 16.47292 16.4722 16.44667 16.43191 16.42945 16.43179 16.41689 16.38441 16.35787 16.32835 16.28581 16.2562
0 0 0 0 0 19.25953 18.68988 17.41869 16.42786 16.15804 15.64268 15.43028 15.47896 15.52289 15.56536 15.58884 15.60982 15.63742 15.66363 15.69238 15.71583 15.73019 15.7461 15.75774 15.7699 15.7771 15.79098 15.82262 15.83446 15.85869 15.87106 15.88006 15.8894 15.89088 15.89382 15.89877 15.90831 15.90996 15.91096 15.92173 15.92933 15.93924 15.94427 15.94736 15.95882 15.96536 15.96454 15.98206 15.99583 16.01547 16.02973 16.03877 16.0358 16.04145 16.04747 16.05912 16.08075 16.10993 16.12957 16.14179 16.14853 16.15376 16.16873 16.20609 16.23074 16.24914 16.27231 16.29102 16.3134 16.33573 16.34773 16.35911 16.3861 16.39863 16.41534 16.42775 16.43979 16.45323 16.46849 16.46455 16.45302 16.44371 16.43199 16.42071 16.4073 16.38935 16.37387 16.37193 16.3535 16.35933 16.36932 16.38101 16.39866 16.42626 16.44621 16.46404 16.47037 16.47837 16.47046 16.46122 16.45544 16.44436 16.44101 16.42773 16.40588 16.38468 16.34786 16.32397 16.29187
0 0 0 0 18.26605 17.73552 16.35183 16.06769 15.83581 15.36178 15.43218 15.48206 15.52768 15.56576 15.60187 15.62306 15.64717 15.6687 15.6916 15.71194 15.72353 15.747 15.76989 15.78034 15.79806 15.81456 15.83161 15.84979 15.86549 15.88349 15.88522 15.89437 15.898 15.89969 15.9029 15.90896 15.91025 15.91844 15.92049 15.91917 15.92308 15.92918 15.93062 15.92771 15.93719 15.94515 15.95186 15.96343 15.98546 16.00385 16.01289 16.02382 16.02267 16.02894 16.03676 16.04934 16.05516 16.06135 16.09528 16.11141 16.12157 16.12681 16.14252 16.19423 16.22272 16.24837 16.27186 16.30146 16.33486 16.35625 16.3629 16.37228 16.39503 16.40871 16.42287 16.43417 16.44911 16.45765 16.45852 16.46016 16.45046 16.43534 16.41514 16.4015 16.38121 16.35733 16.35379 16.35159 16.34092 16.35497 16.3601 16.38448 16.40055 16.41649 16.42999 16.44577 16.45848 16.46786 16.4564 16.45082 16.46327 16.45794 16.45376 16.44574 16.4325 16.40941 16.38254 16.36134 16.33972
0 0 0 0 19.3931 16.67605 15.27745 15.30276 15.35553 15.41349 15.49491 15.54682 15.5867 15.61698 15.64778 15.67253 15.69395 15.70994 15.73356 15.74772 15.7612 15.77687 15.79329 15.81312 15.8252 15.8381 15.86007 15.87385 15.88633 15.89784 15.90274 15.90572 15.91189 15.90884 15.90953 15.91099 15.91968 15.92448 15.91497 15.92186 15.92735 15.91725 15.90741 15.90697 15.91339 15.92638 15.94298 15.95645 15.97613 15.98355 15.99193 15.99925 16.00498 16.01139 16.01988 16.03377 16.05012 16.06101 16.07399 16.08954 16.09871 16.10905 16.14378 16.19235 16.22617 16.25356 16.29059 16.3235 16.35111 16.37013 16.38164 16.39384 16.40927 16.4252 16.43241 16.43868 16.45115 16.46199 16.45142 16.43333 16.43184 16.42136 16.38883 16.36797 16.3542 16.33581 16.33052 16.33683 16.34945 16.36343 16.37018 16.38566 16.40099 16.42116 16.42911 16.4425 16.45213 16.45583 16.45272 16.44963 16.45237 16.46291 16.47039 16.46873 16.46209 16.45429 16.42429 16.41428 16.39122
0 0 0 18.30429 17.80512 16.35874 15.28225 15.33695 15.40637 15.47715 15.55537 15.59233 15.62799 15.65658 15.68839 15.71023 15.73176 15.75089 15.76157 15.77208 15.78992 15.81155 15.82338 15.84181 15.84763 15.86097 15.8813 15.88937 15.90012 15.90836 15.91584 15.92061 15.9205 15.91949 15.91903 15.92056 15.91817 15.92201 15.92207 15.92434 15.91273 15.9023 15.89722 15.89786 15.90381 15.91669 15.92719 15.93803 15.95033 15.95602 15.9666 15.97726 15.98781 15.99156 16.00721 16.02343 16.04393 16.05718 16.07085 16.08604 16.10014 16.11664 16.15377 16.18105 16.2127 16.26179 16.29977 16.32176 16.3542 16.38172 16.39589 16.40638 16.42062 16.43264 16.4501 16.45753 16.45082 16.44734 16.43945 16.42072 16.40331 16.38595 16.35771 16.34417 16.33231 16.33647 16.345 16.34799 16.35047 16.3647 16.38778 16.41567 16.42731 16.4293 16.43232 16.44137 16.45289 16.4582 16.46176 16.46397 16.46836 16.48508 16.48706 16.48624 16.49515 16.49466 16.45942 16.44989 16.43802
0 0 0 18.21624 17.80271 16.35738 15.79627 15.36515 15.45861 15.54086 15.59913 15.63595 15.65986 15.68775 15.71735 15.73282 15.75985 15.77547 15.7817 15.78696 15.80059 15.82685 15.85379 15.86953 15.86971 15.87812 15.88679 15.90003 15.905 15.91386 15.92736 15.92809 15.92926 15.92706 15.92031 15.90941 15.9091 15.91443 15.91948 15.90886 15.9 15.89191 15.89112 15.88782 15.89373 15.9074 15.91892 15.92683 15.93487 15.93981 15.94827 15.95389 15.97114 15.98235 15.99602 16.01717 16.04282 16.06151 16.06969 16.08341 16.10198 16.1274 16.14294 16.20139 16.24104 16.26937 16.2843 16.34038 16.37931 16.39957 16.42696 16.44507 16.44738 16.45645 16.47063 16.47063 16.4385 16.42648 16.41435 16.38996 16.38467 16.37051 16.35598 16.34255 16.33507 16.34539 16.3539 16.35138 16.37203 16.39189 16.40586 16.42146 16.44078 16.44998 16.45687 16.46806 16.47618 16.48146 16.48572 16.48388 16.49622 16.50336 16.50288 16.51003 16.514 16.51948 16.51099 16.48706 16.47826
0 0 0 19.25888 18.0446 16.35541 15.56234 15.40189 15.49462 15.57649 15.64459 15.66919 15.68882 15.71407 15.73625 15.75388 15.77116 15.78996 15.79621 15.80928 15.8273 15.83878 15.85151 15.85906 15.86415 15.87056 15.88719 15.89999 15.91074 15.9225 15.91955 15.9233 15.92664 15.92144 15.91049 15.90187 15.90347 15.90599 15.90148 15.89937 15.88222 15.87138 15.86899 15.87416 15.8831 15.89824 15.90735 15.91442 15.91825 15.91914 15.92672 15.93881 15.958 15.98248 15.99751 16.01752 16.0436 16.06057 16.07001 16.08945 16.11334 16.13502 16.17679 16.21605 16.24736 16.26639 16.31605 16.35772 16.37787 16.41428 16.4331 16.45709 16.46896 16.47707 16.46929 16.46398 16.42515 16.39548 16.38512 16.37548 16.37586 16.37318 16.35855 16.34459 16.35044 16.36157 16.38427 16.39047 16.40716 16.42996 16.43995 16.44965 16.46364 16.47517 16.48044 16.48878 16.49754 16.50215 16.50601 16.51819 16.52714 16.53137 16.53355 16.53451 16.53956 16.54229 16.54393 16.53545 16.52872
0 0 0 19.26018 16.92125 15.76835 15.3491 15.45083 15.54267 15.61404 15.66117 15.68286 15.70711 15.7255 15.74763 15.75758 15.77334 15.78798 15.79842 15.80399 15.81282 15.82433 15.82827 15.83615 15.84086 15.8528 15.87023 15.89097 15.90591 15.91659 15.91892 15.92181 15.92713 15.9248 15.91339 15.90543 15.90354 15.89899 15.89257 15.88619 15.87846 15.87341 15.86934 15.87161 15.87695 15.88525 15.89494 15.90771 15.9074 15.90904 15.93131 15.94996 15.96142 15.98474 16.00117 16.01907 16.03986 16.06297 16.0819 16.09811 16.12312 16.15814 16.19202 16.21748 16.25863 16.27897 16.31364 16.3587 16.37636 16.3924 16.42028 16.43702 16.46043 16.47 16.45469 16.44167 16.41656 16.39411 16.37817 16.36188 16.35813 16.37134 16.35908 16.35425 16.37042 16.37799 16.40424 16.43683 16.46181 16.4761 16.48744 16.50167 16.50988 16.51672 16.52794 16.53285 16.54128 16.53751 16.54075 16.56246 16.57994 16.58668 16.58521 16.5849 16.58626 16.59212 16.59497 16.59028 16.57948
15.33852 15.3399 16.44041 16.90858 15.46765 15.3046 15.40874 15.51287 15.58941 15.64534 15.68156 15.70073 15.71773 15.73484 15.74365 15.76055 15.76958 15.77814 15.78603 15.7857 15.78899 15.79224 15.80121 15.80863 15.8153 15.82451 15.84664 15.86916 15.88955 15.91081 15.91872 15.92651 15.93222 15.92581 15.92211 15.91138 15.9095 15.90314 15.90098 15.89384 15.88748 15.88412 15.88137 15.88011 15.88255 15.89101 15.89698 15.90192 15.90817 15.92395 15.94575 15.96094 15.9758 15.99244 16.0177 16.04192 16.05763 16.08182 16.09744 16.11469 16.13951 16.16383 16.21461 16.2358 16.26404 16.28591 16.31285 16.3497 16.38097 16.39127 16.41136 16.42975 16.44958 16.46156 16.45912 16.42954 16.4157 16.39115 16.36734 16.35128 16.35102 16.36206 16.37143 16.37796 16.3995 16.39732 16.42955 16.47131 16.49528 16.51376 16.53408 16.55016 16.55867 16.56569 16.57728 16.5752 16.58099 16.58791 16.60169 16.62178 16.63767 16.64772 16.65064 16.65145 16.64784 16.65373 16.65194 16.64299 16.64026
15.34368 15.33336 15.34267 15.35729 15.38958 15.45518 15.53623 15.60512 15.65654 15.69367 15.71336 15.72254 15.72618 15.72932 15.73981 15.75214 15.75671 15.75095 15.75252 15.76073 15.76092 15.76738 15.77477 15.78126 15.78292 15.79945 15.81804 15.84572 15.86684 15.89041 15.90625 15.92121 15.93248 15.93539 15.93203 15.92669 15.91912 15.91386 15.911 15.91034 15.9023 15.89805 15.89914 15.89586 15.8953 15.90201 15.90475 15.91043 15.91945 15.9422 15.96655 15.98021 15.9945 16.01721 16.04399 16.06874 16.09102 16.11348 16.13192 16.14054 16.15236 16.19157 16.22304 16.24452 16.26399 16.28778 16.31326 16.34276 16.36278 16.38811 16.40875 16.42298 16.44456 16.45487 16.45138 16.44256 16.41615 16.40565 16.38103 16.35985 16.35224 16.36674 16.39569 16.42103 16.42473 16.43934 16.48448 16.52222 16.55373 16.57756 16.59059 16.609 16.61059 16.61403 16.61496 16.63252 16.63476 16.64026 16.6521 16.67735 16.69889 16.70866 16.71912 16.72063 16.70981 16.70381 16.70563 16.70498 16.70706
15.47013 15.47954 15.49637 15.51695 15.55171 15.60089 15.64342 15.68248 15.70782 15.7309 15.73816 15.7291 15.72917 15.74099 15.74465 15.75557 15.75819 15.74691 15.7328 15.72193 15.71587 15.72511 15.73608 15.75128 15.76066 15.77926 15.81063 15.84044 15.86025 15.87821 15.89765 15.91213 15.9291 15.94547 15.9421 15.93342 15.9279 15.92386 15.9201 15.91854 15.92101 15.91796 15.91775 15.92256 15.91953 15.92213 15.92716 15.9333 15.95122 15.97025 15.99999 16.02173 16.03776 16.06119 16.07699 16.09888 16.12657 16.1532 16.16911 16.17033 16.18469 16.2078 16.23829 16.25965 16.27941 16.29932 16.3255 16.35217 16.38109 16.39849 16.41145 16.42449 16.44181 16.45811 16.4632 16.43039 16.42471 16.42764 16.40491 16.3888 16.39293 16.40784 16.42972 16.45639 16.48538 16.51686 16.53803 16.57814 16.61681 16.63023 16.66043 16.67549 16.67764 16.68804 16.69244 16.70074 16.71288 16.72877 16.73798 16.75295 16.76673 16.77569 16.78576 16.78943 16.77767 16.77388 16.77377 16.77675 16.7792
15.55382 15.57084 15.59393 15.61285 15.63787 15.65956 15.68693 15.70435 15.71836 15.73212 15.73032 15.72415 15.72094 15.72263 15.73467 15.73929 15.73198 15.71909 15.70371 15.69627 15.68997 15.68352 15.69946 15.7223 15.73933 15.76984 15.79634 15.83567 15.85625 15.88231 15.90237 15.92262 15.93839 15.95777 15.96285 15.95923 15.95193 15.9487 15.94252 15.94058 15.93928 15.9505 15.95021 15.94772 15.95089 15.95808 15.96016 15.9709 15.99502 16.01981 16.0515 16.07343 16.09081 16.11548 16.12319 16.14143 16.16944 16.18613 16.18685 16.21507 16.22511 16.24867 16.26723 16.28084 16.30427 16.32775 16.35492 16.38121 16.39855 16.41087 16.41817 16.43169 16.44196 16.46152 16.46704 16.45604 16.4546 16.44393 16.43414 16.43518 16.43141 16.43773 16.46381 16.47997 16.504 16.5449 16.58302 16.61734 16.66288 16.69041 16.71217 16.73609 16.75168 16.76073 16.75937 16.77523 16.79251 16.81108 16.82877 16.84992 16.88276 16.90119 16.89968 16.89116 16.88826 16.88425 16.88607 16.88553 16.88793
15.62381 15.63835 15.64545 15.64997 15.65922 15.6703 15.68773 15.70099 15.70388 15.70029 15.70435 15.7007 15.69477 15.6977 15.70656 15.71106 15.71152 15.70641 15.70125 15.68555 15.67136 15.67533 15.69057 15.7213 15.74455 15.77702 15.80612 15.83381 15.85706 15.87937 15.90373 15.92711 15.94979 15.96605 15.97495 15.98133 15.97903 15.98151 15.98075 15.97948 15.97889 15.98182 15.9864 15.99296 16.00078 16.00552 16.01494 16.03166 16.04873 16.06691 16.09863 16.12104 16.14204 16.15485 16.16536 16.18365 16.20837 16.22219 16.23842 16.25107 16.2712 16.29294 16.30955 16.3345 16.3548 16.37365 16.3905 16.40208 16.428 16.44666 16.44741 16.45934 16.47196 16.48198 16.48263 16.49472 16.48783 16.47754 16.46993 16.46504 16.46425 16.46945 16.48861 16.52318 16.56028 16.5944 16.6303 16.66196 16.71264 16.76124 16.78379 16.79611 16.79913 16.79975 16.81995 16.8418 16.85229 16.86512 16.89069 16.9291 16.97089 16.99121 16.99743 16.98937 16.98611 16.9858 16.99022 16.98975 16.98674
15.64641 15.64474 15.64361 15.64243 15.65154 15.66142 15.67217 15.67938 15.67917 15.67915 15.68207 15.67454 15.66466 15.67477 15.67795 15.68497 15.69118 15.69762 15.68602 15.6843 15.67984 15.68948 15.69893 15.73434 15.76183 15.79003 15.81899 15.85038 15.87916 15.9026 15.9236 15.95067 15.97231 15.9935 16.00401 16.00593 16.0071 16.00833 16.01268 16.0196 16.02218 16.02786 16.03101 16.03588 16.05992 16.06928 16.08532 16.10949 16.1256 16.14886 16.16592 16.18349 16.19654 16.21224 16.22502 16.241 16.26757 16.28986 16.29911 16.312 16.34163 16.35378 16.37206 16.38017 16.39736 16.41244 16.42233 16.44275 16.45595 16.47096 16.48861 16.48651 16.49536 16.50705 16.49609 16.50195 16.49734 16.49592 16.50099 16.51169 16.52046 16.53397 16.54475 16.57737 16.61641 16.64972 16.67996 16.72114 16.76762 16.80187 16.84072 16.87328 16.88299 16.88629 16.91067 16.92454 16.93092 16.93853 16.95246 16.97554 17.01667 17.04134 17.05987 17.06829 17.0717 17.07722 17.08431 17.07555 17.06962
15.64169 15.63733 15.63152 15.62458 15.62569 15.63654 15.64945 15.65524 15.65927 15.65912 15.67141 15.65532 15.64662 15.65455 15.65801 15.66115 15.67122 15.68154 15.68631 15.68967 15.69731 15.70679 15.73346 15.76195 15.79362 15.82807 15.85458 15.88764 15.91806 15.94383 15.96137 15.9822 16.00494 16.02635 16.03524 16.04269 16.04797 16.0519 16.05848 16.0659 16.07211 16.07929 16.08795 16.11239 16.13303 16.1452 16.1608 16.17811 16.2029 16.21261 16.23758 16.24631 16.26591 16.29134 16.30626 16.32233 16.33715 16.35873 16.37192 16.38564 16.40322 16.41461 16.43684 16.45385 16.4684 16.46688 16.48384 16.49055 16.49915 16.50114 16.50593 16.52322 16.53404 16.53593 16.53074 16.52848 16.53674 16.54286 16.56081 16.58443 16.58391 16.58669 16.61074 16.63325 16.66017 16.68852 16.7221 16.75394 0 0 16.83655 16.8799 16.90745 16.9259 16.94297 16.94331 16.95272 16.95712 16.95864 0 0 17.05406 17.09837 17.11378 17.12907 17.14074 17.16167 17.16828 17.16322
