ncols        109
nrows        82
xllcorner    -1.041666666667
yllcorner    37.041665395101
cellsize     0.083333333333
NODATA_value -9999
0.0 0 0 0 0 0 0 0 0 0 0 0 0 0 0 0 0 0 0 0 0 0 0 0 0 0 0 0 0 0 0 0 0 0 0 0 0 0 0 0 0 0 0 0 0 0 0 0 0 0 0 0 0 0 0 0 0 0 0 0 0 0 0 0 0 0 0 0 0 0 0 0 0 0 0 0 0 0 0 0 0 0 0 0 0 0 0 0 0 0 0 0 0 0 0 0 0 0 0 0 0 0 0 0 0 17.36712 16.06419 14.69595 14.68984
0 0 0 0 0 0 0 0 0 0 0 0 0 0 0 0 0 0 0 0 0 0 0 0 0 0 0 0 0 0 0 0 0 0 0 0 0 0 0 0 0 0 0 0 0 0 0 0 0 0 0 0 0 0 0 0 0 0 0 0 0 0 0 0 0 0 0 0 0 0 0 0 0 0 0 0 0 0 0 0 0 0 0 0 0 0 0 0 0 0 0 0 0 0 0 0 0 0 0 0 0 14.82683 14.85229 14.64457 14.66163 14.67064 14.66646 14.65617 14.62935
0 0 0 0 0 0 0 0 0 0 0 0 0 0 0 0 0 0 0 0 0 0 0 0 0 0 0 0 0 0 0 0 0 0 0 0 0 0 0 0 0 0 0 0 0 0 0 0 0 0 0 0 0 0 0 0 0 0 0 0 0 0 0 0 0 0 0 0 0 0 0 0 0 0 0 0 0 0 0 0 0 0 0 0 0 0 0 0 0 0 0 0 0 0 0 0 0 0 14.61273 14.62406 14.62499 14.6171 14.60037 14.58572 14.57063 14.55505 14.5322 14.51138 14.48167
0 0 0 0 0 0 0 0 0 0 0 0 0 0 0 0 0 0 0 0 0 0 0 0 0 0 0 0 0 0 0 0 0 0 0 0 0 0 0 0 0 0 0 0 0 0 0 0 0 0 0 0 0 0 0 0 0 0 0 0 0 0 0 0 0 0 0 0 0 0 0 0 0 0 0 0 0 0 0 0 0 0 0 0 0 0 0 0 0 0 0 0 0 0 0 0 0 16.26834 14.58879 14.58337 14.55276 14.52299 14.49328 14.47206 14.44466 14.41952 14.39232 14.36566 14.34821
0 0 0 0 0 0 0 0 0 0 0 0 0 0 0 0 0 0 0 0 0 0 0 0 0 0 0 0 0 0 0 0 0 0 0 0 0 0 0 0 0 0 0 0 0 0 0 0 0 0 0 0 0 0 0 0 0 0 15.80032 15.43305 15.13481 15.25237 0 0 0 0 0 0 0 0 0 0 0 0 0 0 0 0 0 0 0 0 0 0 0 0 0 0 0 0 0 0 0 0 0 15.01063 14.58004 14.57884 14.54125 14.50137 14.45789 14.40745 14.35991 14.31836 14.28543 14.25844 14.2394 14.22759 14.21428
0 0 0 0 0 0 0 0 0 0 0 0 0 0 0 0 0 0 0 0 0 0 0 0 0 0 0 0 0 0 0 0 0 0 0 0 0 0 0 0 0 0 0 0 0 0 0 0 0 0 0 0 0 0 0 0 15.34441 15.3798 15.10616 14.88037 14.79227 14.77864 14.86326 15.05872 15.25315 15.34715 15.33374 0 0 0 0 15.65989 0 0 0 0 0 0 0 0 0 0 0 0 0 0 0 0 0 0 0 0 0 15.56477 14.52932 14.56176 14.54316 14.49326 14.434 14.37302 14.3172 14.26154 14.21856 14.18742 14.17109 14.15834 14.14135 14.13542 14.13174
0 0 0 0 0 0 0 0 0 0 0 0 0 0 0 0 0 0 0 0 0 0 0 0 0 0 0 0 0 0 0 0 0 0 0 0 0 0 0 0 0 0 0 0 0 0 0 0 0 0 0 0 0 0 0 15.5 15.12194 14.80008 14.60137 14.33688 14.4011 14.42589 14.59937 14.71923 14.84616 14.93526 15.00664 15.18412 15.37974 15.34345 15.29992 15.0593 14.86474 14.92316 15.08454 14.8296 14.8327 0 0 0 0 0 0 0 0 0 0 0 0 0 0 0 14.87504 14.53701 14.53833 14.5176 14.47031 14.40144 14.33074 14.26876 14.2043 14.14912 14.11158 14.08775 14.07632 14.06898 14.07166 14.07427 14.08411
0 0 0 0 0 0 0 0 0 0 0 0 0 0 0 0 0 0 0 0 0 0 0 0 0 0 0 0 0 0 0 0 0 0 0 0 0 0 0 0 0 0 0 0 0 0 0 0 0 0 0 15.12233 15.28489 15.45841 15.23694 14.83698 14.61382 14.34269 14.22641 14.29364 14.34418 14.36844 14.36794 14.54143 14.52313 14.68813 14.65532 14.64843 14.67067 14.56516 14.48038 14.5211 14.3916 14.58481 14.61618 14.79271 0 0 0 0 0 0 0 0 0 0 0 0 0 0 0 0 14.50978 14.52334 14.49504 14.43835 14.3636 14.2831 14.21143 14.14988 14.10464 14.07165 14.05208 14.03751 14.0318 14.03366 14.0431 14.05321 14.06281
0 0 0 0 0 0 0 0 0 0 0 0 0 0 0 0 0 0 0 0 0 0 0 0 0 0 0 0 0 0 0 0 0 0 0 0 0 0 0 0 0 0 0 0 0 0 0 0 0 0 15.30948 15.15268 14.92944 14.89503 14.81892 14.53454 14.20948 14.28223 14.14455 14.19716 14.23932 14.26212 14.27018 14.45459 14.43841 14.61522 14.59648 14.59537 14.45034 14.3354 14.37603 14.4214 14.28901 14.47825 14.50305 14.70932 14.72048 14.55674 14.57255 14.93972 15.39229 16.16451 0 0 0 0 0 0 0 15.41871 14.87338 14.49395 14.50831 14.48629 14.40948 14.34275 14.27142 14.20097 14.13543 14.08029 14.04283 14.026 14.01257 14.01418 14.01879 14.02557 14.03386 14.04441 14.05865
0 0 0 0 0 0 0 0 0 0 0 0 0 0 0 0 0 0 0 0 0 0 0 0 0 0 0 0 0 0 0 0 0 0 0 0 0 0 0 0 0 0 0 0 0 0 0 0 0 16.16058 15.00524 14.91944 14.87469 14.59081 14.43285 14.27037 14.32436 14.16929 14.21227 14.25661 14.29372 14.31877 14.33178 14.52759 14.52297 14.51942 14.52235 14.51856 14.52599 14.37608 14.41268 14.27219 14.13717 14.15647 14.17858 14.19484 14.20591 14.22855 14.2513 14.25559 14.63688 15.18086 0 15.03017 15.60455 16.13757 16.43115 16.1987 15.73943 14.43237 14.46681 14.47807 14.45684 14.38862 14.29704 14.23034 14.15968 14.10086 14.05271 14.0146 14.00172 13.99908 13.99701 14.00733 14.01909 14.02724 14.03611 14.05089 14.06343
0 0 0 0 0 0 0 0 0 0 0 0 0 0 0 0 0 0 0 0 0 0 0 0 0 0 0 0 0 0 0 0 0 0 0 0 0 0 0 0 0 0 0 0 0 0 0 0 0 15.82896 14.96546 14.70786 14.42219 14.28776 14.34434 14.1875 14.23146 14.27155 14.30713 14.34133 14.37275 14.38894 14.39588 14.39276 14.39405 14.23126 14.09114 14.23578 14.23008 14.23956 14.25094 14.10194 14.10607 14.11505 14.13409 14.14589 14.16323 14.17975 14.20229 14.22078 14.2445 14.27584 14.30317 14.33462 14.37317 14.38918 15.39116 15.59931 15.23028 14.40129 14.39792 14.36507 14.31489 14.25201 14.19321 14.13853 14.08772 14.04091 14.00808 13.99341 13.99583 14.00224 14.01547 14.02375 14.03876 14.04774 14.05577 14.06443 14.07465
0 0 0 0 0 0 0 0 0 0 0 0 0 0 0 0 0 0 0 0 0 0 0 0 0 0 0 0 0 0 0 0 0 0 0 0 0 0 0 0 0 0 0 0 0 0 0 0 0 15.56623 14.903 14.62308 14.29719 14.37439 14.223 14.27839 14.32321 14.36428 14.39165 14.4174 14.24868 14.26406 14.26696 14.26655 14.26045 14.0911 14.08794 14.0794 14.05889 14.05511 14.05697 14.05883 14.06025 14.06601 14.07885 14.0863 14.09484 14.10351 14.11659 14.1347 14.15841 14.18949 14.22068 14.25422 14.28663 14.30965 14.32927 14.3385 14.33812 14.31749 14.284 14.23859 14.18298 14.12578 14.0789 14.04217 14.00922 13.99748 13.99206 13.99717 14.00778 14.02591 14.0407 14.05009 14.06163 14.07119 14.07812 14.08634 14.08979
0 0 0 0 0 0 0 0 0 0 0 0 0 0 0 0 0 0 0 0 0 0 0 0 0 0 0 0 0 0 0 0 0 0 0 0 0 0 0 0 0 0 0 0 0 0 0 0 0 15.4816 14.792 14.49407 14.36961 14.23515 14.30731 14.37642 14.23949 14.26709 14.09575 14.09946 14.10737 14.10701 14.10394 14.09873 14.08876 14.07305 14.0617 14.04647 14.02574 14.00256 13.99437 13.98773 13.9789 13.97429 13.97945 13.98493 13.99705 14.008 14.01549 14.03322 14.05489 14.08188 14.10687 14.13571 14.15786 14.17758 14.18948 14.19077 14.18053 14.16265 14.13758 14.10214 14.0648 14.03272 14.00438 13.98585 13.97685 13.98606 13.99683 14.01251 14.02902 14.04942 14.06542 14.07405 14.0808 14.0872 14.09754 14.09956 14.10607
0 0 0 0 0 0 0 0 0 0 0 0 0 0 0 0 0 0 0 0 0 0 0 0 0 0 0 0 0 0 0 0 0 0 0 0 0 0 0 0 0 0 0 0 0 0 0 0 0 15.3521 14.8382 14.52689 14.41775 14.28301 14.35882 14.2273 14.08791 14.10251 14.10969 14.10727 14.1044 14.09509 14.08227 14.06813 14.05654 14.04176 14.02663 14.00804 13.9852 13.96667 13.95079 13.93364 13.91424 13.89981 13.8912 13.8923 13.89514 13.89696 13.90058 13.90983 13.92678 13.95189 13.9755 14.00091 14.02784 14.05106 14.06461 14.06985 14.0614 14.04026 14.02112 13.9979 13.97738 13.96734 13.96267 13.96942 13.97991 13.99364 14.00922 14.02816 14.04182 14.05908 14.07725 14.09127 14.1009 14.10234 14.10924 14.11221 14.11905
0 0 0 0 0 0 0 0 0 0 0 0 0 0 0 0 0 0 0 0 0 0 0 0 0 0 0 0 0 0 0 0 0 0 0 0 0 0 0 0 0 0 0 0 0 0 0 0 0 15.40575 14.65696 14.34162 14.46508 14.33651 14.41073 14.25172 14.097 14.1064 14.10802 14.10109 14.09269 14.08569 14.0728 14.0567 14.0435 14.02471 14.00095 13.97727 13.95131 13.92462 13.90092 13.87924 13.8581 13.84484 13.83465 13.83003 13.82833 13.8324 13.8362 13.83976 13.85178 13.86254 13.8767 13.89192 13.91007 13.92714 13.93679 13.94489 13.94606 13.94281 13.93802 13.9395 13.93864 13.94239 13.94936 13.96311 13.98102 14.00369 14.02738 14.04288 14.05776 14.07383 14.09841 14.11331 14.12013 14.12369 14.12245 14.12341 14.1304
0 0 0 0 0 0 0 0 0 0 0 0 0 0 0 0 0 0 0 0 0 0 0 0 0 0 0 0 0 0 0 0 0 0 0 0 0 0 0 0 0 0 0 0 0 0 0 0 0 14.92591 14.71503 14.37979 14.30033 14.20217 14.2621 14.09759 14.09913 14.10053 14.09842 14.09239 14.08152 14.07135 14.05904 14.04442 14.02787 14.0091 13.98683 13.96138 13.93515 13.90478 13.87366 13.84615 13.82316 13.80633 13.79446 13.78376 13.77877 13.77802 13.78204 13.78684 13.79715 13.81022 13.82293 13.83766 13.8532 13.86403 13.87591 13.87943 13.88246 13.88286 13.88803 13.89735 13.91107 13.92749 13.94896 13.97212 13.99573 14.01386 14.03173 14.04912 14.06649 14.0834 14.10546 14.12248 14.13852 14.14186 14.14296 14.14658 14.15464
0 0 0 0 0 0 0 0 0 0 0 0 0 0 0 0 0 0 0 0 0 0 0 0 0 0 0 0 0 0 0 0 0 0 0 0 0 0 0 0 0 0 0 0 0 0 0 0 0 0 14.49982 14.45406 14.37197 14.0788 14.11562 14.1166 14.10059 14.09833 14.09099 14.0817 14.07039 14.06169 14.04829 14.03265 14.0134 13.99901 13.98011 13.95792 13.93059 13.90148 13.86912 13.84085 13.82011 13.80416 13.78817 13.77736 13.77164 13.76902 13.76919 13.77106 13.7759 13.78338 13.78818 13.79625 13.80526 13.81713 13.82804 13.83673 13.8443 13.85077 13.86384 13.87852 13.89682 13.92289 13.95038 13.97799 13.99979 14.01993 14.03935 14.0586 14.08082 14.10038 14.12163 14.1415 14.15489 14.1622 14.16522 14.17235 14.17891
0 0 0 0 0 0 0 0 0 0 0 0 0 0 0 0 0 0 0 0 0 0 0 0 0 0 0 0 0 0 0 0 0 0 0 0 0 0 0 0 0 0 0 0 0 0 0 0 0 0 14.66488 14.28535 14.03955 14.1039 14.12015 14.12171 14.10167 14.0923 14.08066 14.07028 14.05609 14.04799 14.04128 14.03052 14.01961 14.00963 13.99203 13.97139 13.94507 13.91536 13.88649 13.86228 13.83981 13.81896 13.80202 13.79018 13.78294 13.77761 13.77562 13.77408 13.7738 13.77788 13.78259 13.78611 13.78827 13.79592 13.80395 13.81098 13.81911 13.82832 13.84212 13.86464 13.88819 13.91675 13.94587 13.97571 14.00132 14.02129 14.0431 14.06388 14.08868 14.11049 14.13397 14.15232 14.16688 14.17862 14.18763 14.19816 14.20778
0 0 0 0 0 0 0 0 0 0 0 0 0 0 0 0 0 0 0 0 0 0 0 0 0 0 0 0 0 0 0 0 0 0 0 0 0 0 0 0 0 0 0 0 0 0 0 0 0 0 0 0 14.06437 14.09883 14.1068 14.10676 14.09451 14.08318 14.0761 14.06461 14.05573 14.05086 14.0445 14.03649 14.03371 14.03113 14.02116 14.00573 13.98153 13.95675 13.92815 13.89901 13.87719 13.85357 13.82932 13.81556 13.80584 13.79642 13.78982 13.78689 13.78369 13.77788 13.77675 13.77647 13.7788 13.78213 13.78987 13.79887 13.80664 13.82086 13.83655 13.86198 13.8897 13.92203 13.95298 13.98478 14.01623 14.04062 14.06216 14.08089 14.10203 14.12273 14.14349 14.1618 14.17669 14.18727 14.1989 14.21126 14.22584
0 0 0 0 0 0 0 0 0 0 0 0 0 0 0 0 0 0 0 0 0 0 0 0 0 0 0 0 0 0 0 0 0 0 0 0 0 0 0 0 0 0 0 0 0 0 0 0 0 0 16.30274 14.7365 14.31274 14.1335 14.12368 14.10711 14.09199 14.07917 14.07438 14.06557 14.06077 14.05934 14.05867 14.05691 14.05719 14.05425 14.0496 14.03892 14.02403 14.00336 13.97634 13.9465 13.91897 13.89166 13.86875 13.84764 13.83032 13.81859 13.80738 13.80184 13.79496 13.78501 13.7815 13.77861 13.78048 13.78176 13.78803 13.79693 13.808 13.8247 13.84352 13.86886 13.9019 13.93734 13.97227 14.00567 14.03358 14.05509 14.07595 14.09449 14.11329 14.12975 14.146 14.16548 14.18374 14.19221 14.20465 14.2225 14.24158
0 0 0 0 0 0 0 0 0 0 0 0 0 0 0 0 0 0 0 0 0 0 0 0 0 0 0 0 0 0 0 0 0 0 0 0 0 0 0 0 0 0 0 0 0 0 0 0 0 0 15.69107 14.77213 14.56537 14.16456 14.1511 14.12656 14.1052 14.09178 14.08058 14.0753 14.07613 14.08179 14.08787 14.09174 14.09297 14.09578 14.09415 14.08622 14.07039 14.04636 14.01707 13.98637 13.95136 13.92123 13.89494 13.87169 13.85685 13.84268 13.82904 13.81846 13.81063 13.80074 13.79366 13.79342 13.79334 13.7947 13.80071 13.80996 13.82186 13.83676 13.86106 13.89483 13.92913 13.96383 13.99856 14.03396 14.06343 14.08448 14.10152 14.1195 14.12879 14.13896 14.15715 14.17503 14.18277 14.19802 14.21248 14.23141 14.25598
0 0 0 0 0 0 0 0 0 0 0 0 0 0 0 0 0 0 0 0 0 0 0 0 0 0 0 0 0 0 0 0 0 0 0 0 0 0 0 0 0 0 0 0 0 0 0 0 0 0 0 14.83783 14.40035 14.19758 14.17993 14.15699 14.12763 14.11241 14.09855 14.09709 14.10146 14.1127 14.12229 14.13044 14.13828 14.14385 14.14963 14.14246 14.12731 14.10103 14.07052 14.03473 13.99647 13.96018 13.92834 13.9003 13.88023 13.86545 13.85148 13.83832 13.82816 13.82307 13.8177 13.81391 13.81406 13.81716 13.82257 13.83294 13.85147 13.87656 13.90805 13.93566 13.96681 14.00058 14.03294 14.06424 14.08977 14.10736 14.12342 14.13809 14.14832 14.15806 14.17114 14.18987 14.19854 14.21645 14.23139 14.25239 14.27809
0 0 0 0 0 0 0 0 0 0 0 0 0 0 0 0 0 0 0 0 0 0 0 0 0 0 0 0 0 0 0 0 0 0 0 0 0 0 0 0 0 0 0 0 0 0 0 0 0 0 0 14.63448 14.22952 14.22894 14.20763 14.18756 14.15201 14.1349 14.12604 14.13189 14.14223 14.15784 14.17548 14.18363 14.19431 14.20106 14.20337 14.1949 14.17969 14.15135 14.11604 14.07368 14.03972 13.99894 13.96677 13.93459 13.91219 13.89365 13.88183 13.87089 13.86017 13.85509 13.85157 13.84878 13.84646 13.84616 13.85433 13.87208 13.89183 13.92107 13.95531 13.9863 14.0186 14.04659 14.07785 14.10143 14.12808 14.14733 14.15946 14.16367 14.17184 14.17656 14.18323 14.20102 14.2172 14.23082 14.24794 14.26989 14.29294
0 0 0 0 0 0 0 0 0 0 0 0 0 0 0 0 0 0 0 0 0 0 0 0 0 0 0 0 0 0 0 0 0 0 0 0 0 0 0 0 0 0 0 0 0 0 0 0 0 0 0 14.27493 14.27226 14.26168 14.23949 14.20802 14.17262 14.15698 14.15599 14.16682 14.18203 14.20616 14.22668 14.24161 14.2534 14.26576 14.27239 14.26111 14.24441 14.21364 14.17392 14.12951 14.0854 14.04356 14.00673 13.97314 13.94362 13.92402 13.91018 13.90236 13.89667 13.89691 13.89576 13.89317 13.89198 13.89965 13.91386 13.93324 13.95522 13.98419 14.01471 14.03836 14.06412 14.08861 14.113 14.13698 14.16216 14.18048 14.18997 14.19655 14.19889 14.20265 14.20951 14.22303 14.23169 14.24992 14.26832 14.28755 14.30786
0 0 0 0 0 0 0 0 0 0 0 0 0 0 0 0 0 0 0 0 0 0 0 0 0 0 0 0 0 0 0 0 0 0 0 0 0 0 0 0 0 0 0 0 0 0 0 0 0 16.26159 15.28135 14.31447 14.30147 14.27595 14.25069 14.22419 14.20339 14.18911 14.19317 14.20921 14.23119 14.25724 14.27726 14.29683 14.3086 14.32664 14.32811 14.32133 14.29644 14.27168 14.23836 14.19412 14.14936 14.09998 14.0583 14.02313 13.98991 13.967 13.95465 13.94677 13.94442 13.94237 13.93975 13.93902 13.94113 13.95016 13.96744 13.99111 14.01817 14.04677 14.07586 14.10098 14.1218 14.14098 14.15974 14.18038 14.19879 14.21345 14.21989 14.22425 14.22552 14.22374 14.23239 14.24239 14.25524 14.2715 14.29061 14.30601 14.32056
0 0 0 0 0 0 0 0 0 0 0 0 0 0 0 0 0 0 0 0 0 0 0 0 0 0 0 0 0 0 0 0 0 0 0 0 0 0 0 0 0 0 0 0 0 0 0 0 15.39345 14.84551 14.59526 14.36778 14.3434 14.30584 14.26835 14.24512 14.2301 14.21452 14.22165 14.24122 14.27276 14.29984 14.32809 14.35126 14.36859 14.38542 14.3863 14.37292 14.35125 14.3107 14.28169 14.23875 14.189 14.14013 14.09452 14.05968 14.03062 14.01062 14.00158 13.99781 13.99715 14.00058 13.99657 13.99936 14.00589 14.01615 14.03049 14.05024 14.06962 14.09242 14.11509 14.13575 14.15796 14.17689 14.19289 14.20951 14.23014 14.24632 14.25973 14.26664 14.26686 14.26604 14.26671 14.27453 14.2814 14.28938 14.30482 14.31595 14.33246
0 0 0 0 0 0 0 0 0 0 0 0 0 0 0 0 0 0 0 0 0 0 0 0 0 0 0 0 0 0 0 0 0 0 0 0 0 0 0 0 0 0 0 0 0 15.11209 14.96019 15.48857 14.95028 14.9554 14.68838 14.43359 14.39266 14.34792 14.30845 14.28081 14.26713 14.253 14.25972 14.28021 14.30993 14.33952 14.37527 14.39434 14.41488 14.42312 14.4298 14.426 14.40047 14.36856 14.33138 14.28421 14.23652 14.1903 14.14766 14.10661 14.07404 14.05386 14.04626 14.04406 14.04096 14.04356 14.04534 14.05062 14.06181 14.07717 14.09209 14.1069 14.12374 14.14377 14.16407 14.18307 14.20109 14.22018 14.23416 14.24731 14.26283 14.27717 14.29214 14.30141 14.29908 14.2972 14.29951 14.30282 14.30697 14.3147 14.31973 14.33124 14.34289
0 0 0 0 0 0 0 0 0 0 0 0 0 0 0 0 0 0 0 0 0 0 0 0 0 0 0 0 0 0 0 0 0 0 0 0 0 0 0 0 0 0 17.21425 16.9048 15.90253 15.05755 14.52807 14.53427 15.05445 14.77601 14.51982 14.4774 14.43807 14.39132 14.35586 14.32982 14.31188 14.30742 14.32002 14.3434 14.37061 14.39621 14.42583 14.4482 14.46226 14.4752 14.48204 14.46914 14.43994 14.40074 14.36746 14.32404 14.27803 14.23611 14.19348 14.15839 14.12766 14.10927 14.09826 14.0969 14.09785 14.103 14.10749 14.11258 14.11912 14.13055 14.14251 14.15451 14.16897 14.18659 14.20229 14.22012 14.24269 14.25956 14.27168 14.29002 14.30093 14.31189 14.33094 14.34378 14.34185 14.33723 14.33253 14.32667 14.32889 14.33096 14.33574 14.3458 14.35311
0 0 0 0 0 0 0 0 0 0 0 0 0 0 0 0 0 0 0 0 0 0 0 0 0 0 0 0 0 0 0 0 0 0 0 0 0 0 0 0 16.27871 16.69657 16.96713 16.01009 15.12936 14.59612 14.61167 14.62021 14.61537 14.59893 14.57556 14.52571 14.47826 14.4383 14.40516 14.38057 14.36424 14.36115 14.37604 14.40108 14.42414 14.44541 14.47842 14.50493 14.51487 14.52181 14.51884 14.50624 14.48371 14.45414 14.41425 14.37905 14.34064 14.29345 14.24692 14.21188 14.17518 14.15016 14.14151 14.13863 14.14348 14.14852 14.16203 14.16998 14.17995 14.19354 14.20589 14.21576 14.22293 14.23614 14.24584 14.25909 14.27612 14.2919 14.30279 14.31395 14.32692 14.33965 14.35673 14.36961 14.37325 14.37277 14.36672 14.35896 14.35763 14.35671 14.36075 14.36981 14.37687
0 0 0 0 0 0 0 0 0 0 0 0 0 0 0 0 0 0 0 0 0 0 0 0 0 0 0 0 0 0 0 0 0 0 0 0 0 0 0 16.47714 16.23814 15.70298 15.44828 14.61716 14.63671 14.65227 14.6615 14.66533 14.65718 14.64304 14.61858 14.5734 14.52905 14.49187 14.46468 14.44744 14.43882 14.44338 14.45343 14.47252 14.49018 14.50994 14.53412 14.55341 14.56722 14.57005 14.56345 14.55101 14.53133 14.50545 14.47242 14.43803 14.40249 14.36252 14.31753 14.27693 14.24237 14.21485 14.19959 14.1919 14.19576 14.19901 14.20399 14.21483 14.22587 14.23738 14.24689 14.25981 14.26603 14.27304 14.27863 14.2962 14.31569 14.33219 14.34442 14.35516 14.36357 14.37431 14.38518 14.39346 14.39733 14.39493 14.38814 14.38476 14.38137 14.37779 14.38549 14.39456 14.4017
0 0 0 0 0 0 0 0 0 0 0 0 0 0 0 0 0 0 0 0 0 0 0 0 0 0 0 0 0 0 0 0 0 0 0 0 0 0 15.65962 15.37149 15.12281 14.61042 14.64334 14.67542 14.69435 14.70152 14.70856 14.7072 14.69436 14.67814 14.65006 14.61273 14.58062 14.54607 14.51849 14.50091 14.49436 14.50056 14.51635 14.53829 14.55003 14.56533 14.58853 14.60355 14.60805 14.61447 14.61304 14.6068 14.58691 14.55994 14.52797 14.48782 14.4447 14.40685 14.36361 14.32344 14.29044 14.26743 14.25303 14.24511 14.25004 14.2564 14.2643 14.27279 14.28192 14.28938 14.2979 14.30582 14.31237 14.31414 14.31904 14.32751 14.33905 14.35645 14.37 14.38266 14.38987 14.40051 14.40953 14.41793 14.4223 14.41759 14.41171 14.41025 14.4073 14.40861 14.41545 14.42497 14.43642
0 0 0 0 0 0 0 0 0 0 0 0 0 0 0 0 0 0 0 0 0 0 0 0 0 0 0 0 0 0 0 0 0 0 17.28227 17.90504 17.06228 15.37621 14.54173 14.57495 14.60765 14.64305 14.67218 14.69191 14.71252 14.72857 14.72877 14.72729 14.72181 14.71511 14.69636 14.67446 14.64595 14.61521 14.59038 14.57554 14.5669 14.56664 14.5814 14.58953 14.59845 14.60841 14.61821 14.63301 14.64108 14.65376 14.6523 14.64949 14.63399 14.61391 14.58622 14.54578 14.50522 14.46732 14.42416 14.38733 14.35744 14.33198 14.31505 14.30286 14.30245 14.30529 14.31153 14.32141 14.32696 14.33304 14.3441 14.35255 14.35752 14.35809 14.36212 14.37094 14.38032 14.39847 14.41272 14.41815 14.42554 14.43159 14.43978 14.44019 14.44139 14.43771 14.43151 14.42995 14.43286 14.43806 14.44948 14.46886 14.48027
0 0 0 0 0 0 0 0 0 0 0 0 0 0 0 0 0 0 0 0 0 0 0 0 0 0 0 0 0 17.70727 17.31313 17.09827 17.10218 16.88961 16.61265 16.03295 14.56273 14.5797 14.59533 14.62154 14.6415 14.66331 14.68479 14.70517 14.72142 14.74563 14.7494 14.74615 14.74753 14.74291 14.73457 14.71685 14.69541 14.67353 14.65039 14.64093 14.63366 14.63436 14.64628 14.64755 14.65553 14.66268 14.66776 14.67625 14.68113 14.68838 14.68812 14.6826 14.6713 14.65051 14.62648 14.59201 14.55537 14.52532 14.48337 14.45295 14.42658 14.40631 14.39077 14.38043 14.37687 14.38092 14.38564 14.38596 14.3876 14.38781 14.38647 14.39302 14.39116 14.38921 14.39659 14.40405 14.41852 14.42808 14.44329 14.45252 14.45687 14.45982 14.46549 14.47144 14.47334 14.46785 14.46273 14.46035 14.46404 14.471 14.48321 14.49973 14.49975
0 0 0 0 0 0 0 0 0 0 0 0 0 0 0 0 0 0 0 0 0 0 0 0 0 17.46535 16.74844 16.75997 15.83362 15.18876 14.88225 14.59691 14.59015 14.5904 14.58685 14.58971 14.59618 14.60877 14.62524 14.64064 14.65433 14.67178 14.69511 14.72351 14.74068 14.7702 14.77945 14.78662 14.78878 14.79203 14.78882 14.77067 14.75681 14.73434 14.7037 14.68687 14.67927 14.68119 14.68302 14.68555 14.69349 14.70202 14.71113 14.72047 14.725 14.72729 14.7247 14.72244 14.71471 14.69867 14.67751 14.6454 14.60936 14.57746 14.54404 14.51224 14.48825 14.4728 14.45812 14.44904 14.44462 14.44152 14.44583 14.44503 14.44369 14.44273 14.44377 14.44055 14.43854 14.43704 14.44223 14.45144 14.45561 14.46346 14.47547 14.48233 14.48181 14.48286 14.48784 14.49521 14.49518 14.48996 14.48164 14.48587 14.49603 14.5073 14.5208 14.52268 14.50215
0 0 0 0 0 0 0 0 0 0 0 0 0 0 0 0 0 0 0 0 0 0 0 17.63781 16.78258 16.22239 15.90837 15.59653 14.65861 14.6471 14.63796 14.6298 14.62289 14.61386 14.60531 14.60987 14.61777 14.62683 14.64148 14.65424 14.66454 14.68126 14.71205 14.74323 14.76643 14.78847 14.80206 14.8166 14.82551 14.83212 14.83584 14.82629 14.81068 14.78608 14.76049 14.74159 14.7369 14.73152 14.73112 14.72974 14.73338 14.73623 14.74154 14.74852 14.75232 14.75293 14.75298 14.75302 14.74294 14.73007 14.71788 14.69437 14.6687 14.63818 14.61375 14.59267 14.5704 14.55664 14.5464 14.53565 14.5232 14.51287 14.5065 14.50219 14.49981 14.49384 14.48934 14.48307 14.48031 14.48275 14.48832 14.49313 14.49847 14.50558 14.50943 14.51408 14.51333 14.51434 14.51593 14.52142 14.51666 14.51043 14.50957 14.51507 14.52278 14.53323 14.53821 14.52796 14.4937
0 0 0 0 0 0 0 0 0 0 0 0 0 0 0 0 0 0 0 0 0 0 17.0651 16.23726 15.93119 15.93608 15.62244 15.28983 14.66403 14.64453 14.6324 14.62811 14.61968 14.61142 14.61055 14.61548 14.62048 14.63053 14.64733 14.66472 14.6758 14.69149 14.71835 14.74916 14.77649 14.7992 14.81807 14.83245 14.84657 14.85459 14.85541 14.8462 14.82986 14.81119 14.79259 14.78284 14.7781 14.76751 14.76329 14.76284 14.7644 14.77056 14.77549 14.77807 14.78123 14.7815 14.78718 14.78657 14.78144 14.76996 14.75585 14.73027 14.70954 14.6854 14.66579 14.64934 14.63808 14.62127 14.61516 14.60518 14.59353 14.58433 14.57719 14.57141 14.56653 14.5622 14.55535 14.54733 14.54141 14.53408 14.52966 14.53518 14.53572 14.5373 14.53847 14.53661 14.53576 14.53816 14.53991 14.54084 14.54144 14.53928 14.54474 14.54839 14.55689 14.56125 14.55812 14.53187 14.48324
0 0 0 0 0 0 0 0 0 0 0 0 0 0 0 0 0 0 0 0 0 18.28268 17.2643 16.22701 15.61942 15.6196 15.29003 15.28271 14.65462 14.64159 14.63511 14.62743 14.61878 14.61537 14.61249 14.61504 14.62108 14.63233 14.64624 14.6597 14.67335 14.69067 14.71636 14.73871 14.7673 14.79832 14.82325 14.83748 14.84557 14.85395 14.85623 14.84735 14.83906 14.82668 14.81451 14.80692 14.80237 14.79446 14.78857 14.78514 14.78414 14.78973 14.79367 14.79554 14.7995 14.80187 14.81135 14.817 14.81543 14.80967 14.8002 14.78656 14.77197 14.75266 14.73879 14.72763 14.71028 14.6966 14.6826 14.6694 14.65319 14.6401 14.62853 14.62388 14.61865 14.618 14.61365 14.60821 14.60419 14.59549 14.58675 14.58455 14.58295 14.57983 14.57453 14.57467 14.5729 14.57381 14.57493 14.56986 14.56674 14.56971 14.57658 14.58356 14.58878 14.58718 14.57148 14.53171 14.47039
0 0 0 0 0 0 0 0 0 0 0 0 0 0 0 0 0 0 0 0 0 0 0 16.79351 15.93089 15.62484 15.29126 14.97001 14.64606 14.63525 14.62892 14.62624 14.61815 14.61654 14.61173 14.61633 14.62339 14.63145 14.63947 14.65242 14.67162 14.69417 14.71374 14.73756 14.76555 14.78937 14.81261 14.82455 14.83541 14.84357 14.85021 14.85381 14.85526 14.8454 14.83336 14.82982 14.82779 14.82511 14.81994 14.81859 14.81926 14.81568 14.81646 14.82048 14.81902 14.82356 14.83302 14.83935 14.83769 14.83808 14.83471 14.82831 14.82345 14.81271 14.80291 14.79124 14.78156 14.76819 14.75552 14.74292 14.72875 14.71577 14.70314 14.69301 14.68645 14.68414 14.67646 14.66692 14.65464 14.64131 14.63402 14.62729 14.62168 14.61631 14.61445 14.62106 14.61949 14.61955 14.62001 14.61527 14.61168 14.61704 14.62698 14.63368 14.6295 14.61192 14.58443 14.53593 14.46703
0 0 0 0 0 0 0 0 0 0 0 0 0 0 0 0 0 0 0 0 0 18.67484 18.39145 17.41496 15.96867 15.65143 15.31205 15.29331 14.94871 14.63396 14.62877 14.62096 14.62091 14.61866 14.61715 14.61913 14.62898 14.63641 14.64652 14.6567 14.67133 14.69423 14.7121 14.73721 14.75466 14.77512 14.79387 14.8127 14.82527 14.84249 14.85694 14.8637 14.8648 14.86595 14.85582 14.85595 14.85844 14.8513 14.84718 14.84458 14.83905 14.83598 14.83508 14.8361 14.84177 14.85298 14.86317 14.86742 14.86836 14.86077 14.8673 14.86963 14.86935 14.8648 14.85436 14.84464 14.83538 14.82228 14.80647 14.79114 14.78148 14.77062 14.76419 14.75714 14.75239 14.75145 14.741 14.72923 14.71493 14.70623 14.69403 14.68566 14.67097 14.66656 14.6651 14.66517 14.66488 14.66634 14.6647 14.66215 14.65561 14.65701 14.66578 14.66605 14.66035 14.63982 14.60534 14.54716 14.46646
0 0 0 0 0 0 0 0 0 0 0 0 0 0 0 0 0 0 0 18.65973 18.60223 18.51849 17.70663 16.63281 16.01044 15.68746 15.33534 15.64675 14.65735 14.63301 14.62495 14.62137 14.6248 14.62644 14.62633 14.62765 14.63206 14.64088 14.65294 14.66682 14.67781 14.69513 14.71315 14.73162 14.7485 14.76517 14.78509 14.80733 14.8287 14.84591 14.8639 14.87894 14.88803 14.89096 14.89263 14.89808 14.90081 14.89417 14.88543 14.87837 14.87105 14.86095 14.85855 14.85729 14.86394 14.87192 14.87626 14.88427 14.88891 14.89064 14.89749 14.90084 14.90799 14.90625 14.90447 14.89847 14.88984 14.87752 14.86659 14.85529 14.84601 14.83871 14.83026 14.82434 14.81508 14.80621 14.79295 14.77551 14.75897 14.75076 14.74095 14.72833 14.7209 14.72066 14.71977 14.72475 14.72773 14.72895 14.72644 14.72206 14.71646 14.7095 14.70842 14.70042 14.68582 14.66016 14.62074 14.5588 14.47399
0 0 0 0 0 0 0 0 0 0 0 0 0 0 0 0 0 0 18.16943 18.03621 17.70364 17.25897 16.66684 16.0414 15.72528 15.71028 15.35681 15.00092 14.66613 14.63488 14.62694 14.62602 14.63318 14.63303 14.63204 14.63751 14.64513 14.65341 14.66671 14.67676 14.68906 14.70509 14.71955 14.74169 14.75749 14.77557 14.79377 14.81525 14.84129 14.86275 14.88489 14.89604 14.90512 14.91294 14.92385 14.92652 14.93061 14.93009 14.92482 14.91224 14.90012 14.89045 14.88772 14.89145 14.8927 14.89707 14.90145 14.90136 14.90174 14.90539 14.91975 14.92899 14.93457 14.93525 14.93846 14.93642 14.9304 14.92507 14.9177 14.91143 14.91227 14.90849 14.90399 14.89618 14.88332 14.86925 14.85221 14.8334 14.8164 14.80196 14.78833 14.77367 14.76679 14.7633 14.76498 14.77205 14.77461 14.77263 14.77379 14.76834 14.76452 14.76004 14.75183 14.73919 14.71889 14.6881 14.64734 14.58784 14.50527
0 0 0 0 0 0 0 0 0 0 0 0 0 0 0 0 0 18.61853 18.06637 17.46629 16.98166 16.37797 16.07068 16.07163 16.06914 15.69989 15.34743 14.69532 14.65904 14.63295 14.62711 14.6262 14.63132 14.63155 14.63446 14.64277 14.65215 14.65833 14.66955 14.68056 14.69649 14.7171 14.7311 14.75492 14.77611 14.79357 14.81428 14.83761 14.86247 14.88967 14.91148 14.93035 14.93694 14.94645 14.95075 14.95033 14.96083 14.95623 14.95082 14.94278 14.93105 14.92403 14.92568 14.92239 14.91827 14.91274 14.91695 14.9203 14.92024 14.93047 14.94417 14.9558 14.96555 14.96959 14.97423 14.97805 14.98012 14.97365 14.96599 14.96369 14.96773 14.9614 14.95682 14.94801 14.93691 14.92316 14.90466 14.8868 14.8702 14.85804 14.84068 14.82645 14.82037 14.8208 14.81663 14.82041 14.82128 14.81695 14.81745 14.80848 14.80407 14.79924 14.7898 14.77183 14.74914 14.71891 14.67808 14.61696 14.54443
0 0 0 0 0 0 0 0 0 0 0 0 0 0 0 0 18.13106 18.10207 17.26086 16.71069 16.41049 16.08981 16.07162 16.07018 16.06459 15.7031 15.34269 14.69046 14.65239 14.63411 14.63014 14.628 14.63294 14.6384 14.64239 14.64921 14.66274 14.66987 14.68057 14.6919 14.71142 14.73092 14.75389 14.77523 14.80072 14.82229 14.84196 14.86472 14.88443 14.90937 14.93742 14.96037 14.9734 14.97752 14.97809 14.98264 14.99423 14.9925 14.98201 14.97712 14.97202 14.96527 14.95881 14.9454 14.93126 14.93019 14.93199 14.93784 14.93838 14.94337 14.95507 14.96927 14.98771 14.99916 15.00984 15.01973 15.0236 15.01901 15.02474 15.02924 15.03179 15.02992 15.02167 15.0083 14.9943 14.97813 14.95743 14.93745 14.91244 14.89417 14.8761 14.8675 14.86446 14.86334 14.86287 14.86118 14.85812 14.85285 14.84909 14.84353 14.83963 14.83301 14.8298 14.81046 14.78728 14.76 14.7166 14.65726 14.58492
0 0 0 0 0 0 0 0 0 0 0 0 0 0 0 18.69274 17.95684 17.28509 16.71407 16.41376 16.08985 16.08869 16.07193 15.7253 15.7122 15.36799 14.70839 14.67463 14.6446 14.6316 14.62642 14.62987 14.63514 14.64397 14.6509 14.6656 14.6811 14.69344 14.70521 14.72495 14.74302 14.76875 14.79269 14.81745 14.84585 14.87021 14.89048 14.90796 14.93015 14.9544 14.97621 14.99425 15.00009 15.00411 15.00838 15.01426 15.01507 15.01759 15.02143 15.02752 15.02188 15.01848 14.99897 14.98093 14.96533 14.95248 14.94758 14.94756 14.95342 14.95609 14.97169 14.98862 15.00647 15.02354 15.04262 15.05589 15.05937 15.06601 15.07159 15.0776 15.08285 15.08144 15.07501 15.06648 15.05485 15.0377 15.01999 14.99685 14.96971 14.94639 14.92897 14.92041 14.91533 14.90919 14.89828 14.8917 14.88049 14.87591 14.87169 14.86699 14.86246 14.86072 14.85111 14.83619 14.81742 14.79281 14.75731 14.70547 14.63534
0 0 0 0 0 0 0 0 0 0 0 0 0 0 18.03704 18.02904 17.33656 16.7283 16.41152 16.079 16.07685 15.73058 15.70556 15.698 15.36139 15.0121 14.69103 14.66156 14.64188 14.63712 14.63742 14.63993 14.65203 14.66245 14.67249 14.68708 14.69997 14.71675 14.73459 14.75582 14.7807 14.80914 14.84236 14.87022 14.89899 14.92962 14.95383 14.97794 14.9977 15.01385 15.02279 15.03468 15.0481 15.05552 15.05446 15.05927 15.05899 15.06416 15.07106 15.0778 15.07432 15.0654 15.05106 15.03135 15.01163 14.987 14.97359 14.96632 14.96998 14.96782 14.98578 15.00633 15.02889 15.05412 15.07906 15.09679 15.10896 15.11556 15.124 15.12437 15.1303 15.12607 15.11871 15.11005 15.1031 15.08838 15.07135 15.05205 15.02678 15.00284 14.9837 14.97057 14.96021 14.95024 14.9361 14.92415 14.91002 14.90559 14.90184 14.89307 14.88625 14.88109 14.87414 14.85828 14.84018 14.81504 14.77928 14.73349 14.66532
0 0 0 0 0 0 0 0 0 0 0 0 0 17.91488 18.08262 17.34376 16.72003 16.41521 16.07165 16.06441 15.73053 15.71451 15.69707 15.69323 15.34652 14.69307 14.67059 14.65323 14.64658 14.64539 14.651 14.66112 14.67831 14.69472 14.70867 14.71759 14.73201 14.74593 14.76914 14.79502 14.83306 14.87027 14.90179 14.93041 14.96218 14.9846 15.01211 15.03773 15.05715 15.06986 15.07928 15.08698 15.09569 15.09741 15.09774 15.09433 15.08922 15.10101 0 0 0 15.06359 15.06005 15.0924 15.06865 15.03492 15.01457 14.99949 14.98984 14.98202 14.99134 15.01432 15.04099 15.07326 15.103 15.12876 15.14401 15.16243 15.16836 15.1726 15.17735 15.17816 15.17581 15.16888 15.1619 15.15174 15.13537 15.11793 15.09462 15.06788 15.04334 15.02336 15.0074 14.99162 14.97313 14.95501 14.93871 14.92781 14.92713 14.91887 14.91307 14.91044 14.90362 14.89125 14.87215 14.84783 14.81183 14.76306 14.69108
0 0 0 0 0 0 0 0 0 0 0 0 0 18.28936 17.37266 16.73305 16.39507 16.04769 16.05261 15.70391 15.69986 15.7055 15.70479 14.71423 14.69681 14.67816 14.66233 14.65252 14.64995 14.6518 14.66494 14.6815 14.70362 14.72113 14.73281 14.74619 14.76336 14.78414 14.81246 14.85071 14.89657 14.93861 14.97402 15.00733 15.04075 15.06988 15.09603 15.11581 15.126 15.13166 15.1392 15.90937 15.14548 15.13472 15.12146 15.47633 16.25314 17.04217 0 0 0 0 0 15.49562 15.11224 15.07704 15.04685 15.02735 15.00524 14.99705 15.00951 15.03442 15.05797 15.09335 15.1301 15.15722 15.18072 15.19496 15.20603 15.2139 15.2187 15.21881 15.21675 15.21249 15.21044 15.20313 15.1886 15.17452 15.15845 15.13619 15.11483 15.09295 15.07393 15.05098 15.02798 15.00165 14.98417 14.97067 14.96051 14.95146 14.94287 14.93882 14.92999 14.91822 14.89845 14.87563 14.83948 14.78601 14.71374
0 0 0 0 0 0 0 0 0 0 0 0 18.44465 17.65523 16.73138 16.38502 16.02057 15.68036 15.69733 15.70664 15.70627 15.71719 15.36723 14.70965 14.69088 14.67431 14.66381 14.65981 14.66014 14.66596 14.68336 14.70338 14.72044 14.73735 14.75115 14.76993 14.79065 14.81749 14.85383 14.90472 14.95082 14.99503 15.03611 15.07377 15.10836 15.12833 15.13723 0 0 15.13229 0 16.79109 15.957 15.53374 15.90124 15.87676 16.6635 17.08559 18.02447 15.8498 15.12351 0 0 0 16.70918 15.09427 15.06423 15.0434 15.02772 15.01575 15.02825 15.05259 15.08419 15.12059 15.15925 15.19119 15.21359 15.23188 15.249 15.25765 15.26448 15.26449 15.26176 15.25824 15.2519 15.23933 15.23096 15.21911 15.20446 15.18738 15.16634 15.1438 15.12489 15.1043 15.07774 15.05551 15.03476 15.02013 15.00765 14.99787 14.98752 14.98103 14.97 14.95339 14.93363 14.90708 14.86754 14.81061 14.73702
0 0 0 0 0 0 0 0 0 0 0 17.69392 17.67627 16.74818 16.3881 15.66706 15.68277 15.70209 15.7068 15.71539 15.72844 15.06132 14.73785 14.72244 14.69697 14.68358 14.67536 14.67375 14.6791 14.69203 14.70741 14.72561 14.74393 14.76196 14.7797 14.7996 14.82533 14.86361 14.91454 14.97275 15.02568 15.06704 15.09652 15.1238 15.92262 0 0 0 0 0 17.58426 18.37743 18.12268 17.50336 17.11579 16.67671 16.6646 15.48558 15.12317 15.12673 15.12484 15.11896 15.10967 17.09127 17.43661 15.10135 15.07859 15.06058 15.04672 15.04052 15.05503 15.07613 15.10723 15.13928 15.1791 15.21354 15.23887 15.26163 15.28237 15.29664 15.30081 15.30252 15.30265 15.2976 15.2924 15.2847 15.27591 15.26828 15.25756 15.24088 15.22277 15.19825 15.17471 15.1513 15.12605 15.10136 15.0792 15.06144 15.04781 15.03635 15.02559 15.01556 15.00403 14.98477 14.96346 14.93411 14.89854 14.83998 14.76316
0 0 0 0 0 0 0 0 0 0 18.4244 17.71147 16.75848 16.04388 15.69434 15.36921 15.37322 15.38369 15.39066 15.40121 15.40515 14.76933 14.75836 14.74012 14.71863 14.70372 14.69459 14.69871 14.70686 14.71741 14.73016 14.74748 14.75966 14.77782 14.79574 14.82678 14.86443 14.91922 14.97736 15.03333 15.08725 15.12226 15.51766 0 0 0 0 0 0 0 0 0 0 0 17.47978 17.09666 16.29012 15.12682 15.13693 15.14447 15.14364 15.13339 15.1244 15.11886 15.11825 15.11213 15.09394 15.08318 15.07642 15.07411 15.08192 15.10644 15.12995 15.16683 15.19909 15.23672 15.26625 15.28782 15.30849 15.32236 15.32959 15.32813 15.32217 15.32161 15.31846 15.31313 15.30913 15.30671 15.29777 15.28529 15.26548 15.24743 15.22327 15.20108 15.17806 15.15463 15.13131 15.11474 15.09884 15.0843 15.07424 15.06187 15.04325 15.01585 14.98824 14.96042 14.91841 14.86028 14.78319
0 0 0 0 0 0 0 0 0 0 17.99958 16.76532 16.05439 15.70156 15.0608 15.05697 14.74587 14.75217 14.77103 14.77995 14.78191 14.7854 14.77614 14.77066 14.7571 14.73807 14.73107 14.73595 14.74261 14.7501 14.76365 14.77558 14.7893 14.80273 14.8259 14.86281 14.91041 14.96281 15.01898 15.07269 16.28694 0 0 0 0 0 0 0 0 0 0 0 0 0 18.13691 16.72612 15.15069 15.15151 15.16336 15.17215 15.17866 15.17299 15.16312 15.1523 15.14215 15.12533 15.11184 15.1038 15.10889 15.10651 15.11334 15.13116 15.15328 15.18918 15.22173 15.25952 15.29343 15.31563 15.33783 15.3497 15.35698 15.3513 15.35103 15.3473 15.34766 15.34395 15.34456 15.34002 15.33315 15.32015 15.30251 15.28215 15.26216 15.24508 15.22098 15.19828 15.17612 15.16137 15.14881 15.1354 15.1211 15.1062 15.08141 15.05124 15.02032 14.98739 14.94172 14.88137 14.80655
0 0 0 0 0 0 0 0 0 18.08984 17.46584 16.41784 15.70158 15.04906 14.74823 14.73967 14.74157 14.75105 14.76707 14.78481 14.79818 14.80685 14.80096 14.80066 14.78781 14.77607 14.76595 14.76802 14.77567 14.78528 14.79935 14.80892 14.82151 14.83548 14.86518 14.90755 14.95729 15.00744 15.05419 15.85827 16.08638 0 0 0 0 0 0 0 0 0 0 0 0 17.41347 17.16547 15.94092 15.16493 15.17484 15.19625 15.21104 15.21863 15.21633 15.20759 15.19433 15.18172 15.16727 15.15844 15.14815 15.14537 15.14326 15.15041 15.16463 15.18672 15.2193 15.25064 15.28103 15.31215 15.33148 15.35416 15.36825 15.37838 15.37844 15.36861 15.3667 15.36988 15.37538 15.37225 15.37235 15.372 15.36037 15.34513 15.32729 15.30582 15.28679 15.26697 15.24589 15.22404 15.20303 15.18759 15.17441 15.15863 15.13914 15.10939 15.07957 15.04133 15.00586 14.9575 14.89519 14.8218
0 0 0 0 0 0 0 0 18.94853 17.81423 16.44285 15.6922 15.34458 14.72059 14.71565 14.7145 14.72172 14.73658 14.75524 14.78072 14.80049 14.81474 14.81777 14.81519 14.80891 14.80234 14.80115 14.80525 14.81633 14.8283 14.83511 14.84143 14.85089 14.8673 14.89486 14.93395 14.98244 15.02384 15.41999 15.86006 16.30703 17.13326 0 17.97268 18.5485 0 0 0 0 0 0 0 18.19211 17.18885 16.384 15.17282 15.18657 15.20753 15.22803 15.2465 15.25246 15.24899 15.23646 15.22354 15.21515 15.20092 15.19315 15.18641 15.18137 15.18384 15.19463 15.20858 15.23388 15.25426 15.28348 15.31545 15.33904 15.36525 15.38706 15.40632 15.40946 15.40349 15.4002 15.39266 15.3948 15.40084 15.39932 15.40024 15.39826 15.38724 15.37198 15.35644 15.34281 15.32845 15.31087 15.29088 15.27351 15.25054 15.23582 15.21862 15.20186 15.17244 15.13751 15.10153 15.06321 15.01794 14.9635 14.90093 14.82578
0 0 0 0 0 0 0 0 18.9774 17.84028 16.45247 15.68736 14.71314 14.70237 14.69679 14.69658 14.70977 14.73056 14.75172 14.78397 14.80885 14.83205 14.83525 14.8347 14.83527 14.83974 14.84869 14.85838 14.87644 14.8883 14.89628 14.89774 14.90252 14.91958 14.94391 14.97339 15.00668 15.03879 15.05897 15.46402 15.87736 16.30141 16.7354 17.1734 17.95392 0 0 0 0 0 0 17.59194 16.79433 16.79683 15.18378 15.19554 15.21862 15.24632 15.26959 15.28412 15.28761 15.28146 15.27227 15.25895 15.2475 15.23409 15.22624 15.21248 15.21369 15.21664 15.22232 15.24315 15.26341 15.28369 15.31253 15.34233 15.3709 15.39525 15.41824 15.43771 15.44324 15.44051 15.43641 15.43257 15.43575 15.4379 15.43746 15.4312 15.42699 15.4145 15.39946 15.38544 15.36938 15.35591 15.34257 15.324 15.30901 15.28968 15.27105 15.25566 15.23574 15.20356 15.16756 15.12536 15.07835 15.02543 14.9676 14.90168 14.82851
0 0 0 0 0 0 0 0 0 17.87541 16.46415 15.69501 14.70262 14.68985 14.68733 14.69216 14.70972 14.72876 14.75734 14.79246 14.82467 14.8531 14.85364 14.85991 14.8626 14.87735 14.89219 14.90934 14.9308 14.94626 14.95721 14.96476 14.96714 14.97407 14.99121 15.01403 15.03922 15.05611 15.07073 15.07873 15.09357 15.10813 15.12242 15.50061 16.32342 17.15457 17.95757 18.28813 0 0 17.90662 16.78331 15.95936 15.18726 15.20136 15.23307 15.2626 15.28732 15.30844 15.31716 15.32014 15.31536 15.30546 15.28994 15.27969 15.26676 15.25983 15.25064 15.25122 15.25233 15.26012 15.27337 15.29162 15.31577 15.34068 15.36538 15.39364 15.41934 15.44888 15.46312 15.46668 15.4626 15.45818 15.46138 15.46578 15.46574 15.46982 15.46787 15.4626 15.44973 15.43595 15.4203 15.40509 15.39224 15.3754 15.35698 15.3406 15.32715 15.30904 15.28748 15.26226 15.22745 15.187 15.14136 15.08971 15.03082 14.96813 14.9 14.82933
0 0 0 0 0 0 0 0 0 18.88556 17.23487 16.08977 15.0095 14.69077 14.68443 14.69188 14.70862 14.73275 14.76311 14.80138 14.83546 14.86682 14.8773 14.88482 14.89913 14.9197 14.94767 14.97431 14.99911 15.01787 15.02493 15.02036 15.0145 15.02158 15.03114 15.04653 15.06255 15.07552 15.08442 15.08754 15.09287 15.09888 15.10745 15.11651 15.49947 15.90861 16.3346 16.74905 17.9308 16.77758 15.52723 15.16516 15.184 15.20504 15.23756 15.26883 15.29876 15.31972 15.33182 15.33965 15.33635 15.32583 15.3198 15.31158 15.304 15.29958 15.28888 15.28388 15.28395 15.28786 15.29466 15.31021 15.32793 15.35047 15.37912 15.40424 15.42646 15.45547 15.47956 15.48882 15.48988 15.48996 15.48705 15.48675 15.48604 15.49114 15.49427 15.49316 15.49057 15.48246 15.46981 15.45433 15.43707 15.42228 15.40505 15.38989 15.37767 15.36146 15.34202 15.3158 15.28834 15.25359 15.20992 15.16031 15.10643 15.04 14.97042 14.89797 14.82204
0 0 0 0 0 0 0 0 0 19.04621 18.21238 16.49213 15.34482 14.69856 14.689 14.69944 14.7141 14.73295 14.76479 14.79913 14.8409 14.8759 14.89066 14.90508 14.93213 14.96984 15.00857 15.04792 15.08409 15.09376 15.09513 15.08929 15.07641 15.07136 15.07267 15.0784 15.08554 15.09264 15.09603 15.09273 15.09848 15.10249 15.10854 15.11841 15.12775 15.14114 15.52913 0 16.78809 15.54111 15.17345 15.19517 15.22291 15.25308 15.28717 15.31662 15.34242 15.35281 15.3589 15.36199 15.35784 15.34857 15.34603 15.34312 15.33749 15.33127 15.31869 15.3138 15.31493 15.31624 15.32382 15.33666 15.35703 15.37979 15.40807 15.43135 15.45578 15.47929 15.4951 15.50539 15.50762 15.50909 15.50909 15.50707 15.51267 15.52028 15.5242 15.52207 15.52048 15.51235 15.50237 15.48864 15.46862 15.45175 15.43519 15.42131 15.40661 15.38879 15.36684 15.33978 15.30862 15.27087 15.22577 15.17947 15.12087 15.04968 14.97588 14.89848 14.81215
0 0 0 0 0 0 0 0 0 0 18.74276 17.28506 15.71991 15.02287 14.71457 14.70999 14.71427 14.7305 14.75747 14.79315 14.83375 14.88307 14.90345 14.92295 14.96147 15.00585 15.05617 15.09781 0 0 0 15.32597 15.10745 15.10579 15.10508 15.10871 15.11104 15.10911 15.10642 15.10145 15.09787 15.10105 15.10725 15.12198 15.13928 15.15577 15.17555 15.56576 15.18973 15.19787 15.21577 15.23912 15.2698 15.29929 15.32263 15.34821 15.3607 15.37162 15.37796 15.38248 15.38297 15.38207 15.37582 15.38285 15.37144 15.3623 15.35738 15.35255 15.34921 15.35142 15.3606 15.37394 15.38795 15.41138 15.4346 15.46221 15.48193 15.50051 15.51133 15.52541 15.52615 15.52552 15.52939 15.52871 15.53417 15.54346 15.54622 15.54831 15.54143 15.5387 15.53138 15.52046 15.50492 15.48608 15.46966 15.45457 15.43832 15.41721 15.39401 15.36696 15.33286 15.28687 15.24455 15.19651 15.13544 15.06253 14.98531 14.90037 14.80796
0 0 0 0 0 0 0 0 0 0 0 18.624 17.28824 15.72736 15.02638 14.70981 14.70569 14.72714 14.75173 14.78818 14.83533 14.89134 14.91746 14.94435 14.98305 15.03254 15.43755 15.83513 0 0 0 15.97917 16.26157 15.11814 15.11589 15.12001 15.12433 15.12496 15.11874 15.11248 15.1043 15.10163 15.11295 15.13582 15.15822 15.17972 15.1979 15.21234 15.22396 15.23775 15.2641 15.29277 15.31996 15.34593 15.36596 15.38275 15.39042 15.39205 15.39722 15.40312 15.40638 15.40488 15.40716 15.40222 15.39821 15.39099 15.39039 15.38737 15.38528 15.39074 15.39977 15.40998 15.4262 15.44603 15.46593 15.48435 15.50294 15.52005 15.53468 15.54329 15.54645 15.54783 15.55008 15.55778 15.56413 15.56991 15.57306 15.57493 15.5746 15.5662 15.55662 15.54576 15.52838 15.51123 15.49663 15.4809 15.4636 15.4435 15.41778 15.38906 15.35413 15.30949 15.25974 15.21131 15.15049 15.08171 15.00038 14.91698 14.8195
0 0 0 0 0 0 0 0 0 0 0 0 18.82359 17.66408 15.70614 15.01848 14.69947 14.72228 14.74782 14.79077 14.84441 14.90409 14.93658 14.96298 14.99689 15.04939 15.81199 0 0 17.40624 17.49121 15.89949 15.13611 15.12261 15.11581 15.12205 15.12493 15.12997 15.1331 15.12959 15.1187 15.11514 15.12619 15.1499 15.17552 15.20426 15.22412 15.23653 15.25359 15.27732 15.30351 15.33067 15.35689 15.38127 15.4012 15.41336 15.42346 15.43006 15.42918 15.42934 15.43758 15.44212 15.4406 15.43449 15.43226 15.42656 15.42436 15.4181 15.41933 15.42237 15.42952 15.43804 15.45 15.46663 15.48328 15.50223 15.5192 15.54161 15.55384 15.56176 15.56735 15.57658 15.58182 15.58833 15.59428 15.60269 15.60744 15.60144 15.60046 15.59527 15.58515 15.56962 15.55185 15.53659 15.52145 15.50672 15.48726 15.46384 15.43639 15.40663 15.37111 15.324 15.27658 15.22501 15.16569 15.10401 15.02393 14.94472 14.8573
0 0 0 0 0 0 0 0 0 0 0 0 0 0 0 15.69029 14.99649 14.71812 14.75734 14.80271 14.85992 14.9236 14.95449 14.97602 14.99606 15.38718 15.44466 15.84013 16.23896 18.3972 17.49758 15.884 15.13076 15.12141 15.11265 15.11963 15.12994 15.13897 15.14349 15.14164 15.14041 15.14202 15.15195 15.17256 15.19522 15.2201 15.23927 15.25719 15.28337 15.30826 15.33957 15.36917 15.39496 15.4167 15.43719 15.4486 15.46476 15.46844 15.46452 15.45962 15.46627 15.46886 15.4678 15.46261 15.46323 15.46109 15.45618 15.45486 15.45573 15.46216 15.46563 15.47056 15.48233 15.49752 15.51401 15.52948 15.54833 15.56403 15.57584 15.58601 15.59412 15.60437 15.6112 15.61574 15.61942 15.62565 15.62848 15.62546 15.61692 15.61067 15.6011 15.59297 15.57679 15.562 15.54886 15.53369 15.51186 15.48563 15.45537 15.42754 15.39038 15.34585 15.30024 15.24954 15.19377 15.13071 15.05499 14.9752 14.89755
0 0 0 0 0 0 0 0 0 0 0 0 0 0 0 16.43167 15.68428 14.72667 14.77229 14.82114 14.88363 14.94953 14.97786 14.99343 15.00986 15.04065 15.80968 15.85313 16.26002 0 17.54922 15.14011 15.12899 15.12126 15.12591 15.12304 15.13686 15.14572 15.15243 15.15749 15.16192 15.1674 15.17917 15.19405 15.21259 15.22954 15.25141 15.27233 15.30587 15.33919 15.38173 15.41216 15.4352 15.45108 15.47314 15.49408 15.49925 15.49817 15.49463 15.4948 15.49517 15.49745 15.49706 15.49181 15.48577 15.4833 15.48319 15.4812 15.48142 15.489 15.49273 15.50239 15.51687 15.53163 15.55024 15.56432 15.57861 15.59254 15.60757 15.62208 15.63314 15.64325 15.6523 15.65461 15.65509 15.65221 15.64961 15.64235 15.63355 15.62314 15.61277 15.60328 15.59392 15.58266 15.57074 15.55485 15.53313 15.50647 15.47853 15.45511 15.41533 15.37702 15.33206 15.28411 15.23248 15.17206 15.10117 15.02837 14.95706
0 0 0 0 0 0 0 0 0 0 0 0 0 17.63959 17.25769 16.44274 15.72616 14.74932 14.78673 14.84873 14.91537 14.98114 15.00949 15.02379 15.03797 15.05749 16.20206 16.6332 17.07387 16.97769 17.94704 15.49122 15.12275 15.11928 15.12587 15.13999 15.15638 15.16921 15.17585 15.17857 15.18281 15.19146 15.20234 15.21613 15.23251 15.24961 15.27268 15.30027 15.33159 15.37453 15.41129 15.4375 15.46169 15.47948 15.49797 15.51516 15.52409 15.52396 15.51872 15.51694 15.52113 15.52358 15.52243 15.51775 15.5088 15.50378 15.50533 15.50631 15.50922 15.51188 15.5222 15.53378 15.54619 15.56434 15.57939 15.5909 15.60578 15.62018 15.63711 15.65053 15.66578 15.67806 15.68361 15.68654 15.68196 15.67702 15.66725 15.65861 15.64796 15.63695 15.62604 15.61817 15.60848 15.6005 15.58706 15.57178 15.55444 15.53684 15.50899 15.47899 15.4424 15.40282 15.35935 15.31012 15.25665 15.20267 15.14655 15.08351 15.01703
0 0 0 0 0 0 0 0 0 0 0 0 16.87782 16.47721 16.48898 16.10956 15.42202 14.79257 14.82841 14.884 14.93985 15.0048 15.02853 15.04289 15.05829 15.08107 15.84965 15.87199 16.67022 17.47259 15.87087 15.11463 15.12566 15.14124 15.15935 15.17696 15.19135 15.20082 15.2041 15.20366 15.20808 15.21245 15.22522 15.23948 15.26119 15.28486 15.30954 15.33451 15.36429 15.40146 15.43502 15.45837 15.47375 15.49204 15.50878 15.51992 15.52523 15.53053 15.53055 15.52954 15.53351 15.54141 15.53987 15.53043 15.52635 15.52488 15.52398 15.52845 15.53416 15.54183 15.5552 15.56826 15.58618 15.60373 15.61222 15.62674 15.63991 15.65367 15.66343 15.67832 15.68791 15.69829 15.70066 15.69982 15.69553 15.68621 15.67623 15.66827 15.65622 15.6457 15.63486 15.63068 15.6173 15.60937 15.60085 15.58973 15.5766 15.55756 15.53348 15.50424 15.47127 15.43675 15.39474 15.34866 15.29974 15.25256 15.19974 15.14378 15.07912
0 0 0 0 0 0 0 0 18.69817 18.08172 16.91606 16.10215 16.09184 16.09319 15.76441 15.80935 15.49637 14.85795 14.89521 14.94106 14.99177 15.04563 15.06905 15.08697 15.10014 15.11506 15.13051 15.13213 15.13806 15.13736 15.13018 15.13866 15.15442 15.1759 15.19008 15.20848 15.21754 15.2247 15.22522 15.22138 15.22221 15.23277 15.24427 15.2629 15.2855 15.31602 15.3459 15.37376 15.3984 15.42168 15.43773 15.46349 15.48235 15.50093 15.52061 15.53151 15.54136 15.54342 15.54521 15.54895 15.55693 15.5568 15.55532 15.54891 15.53971 15.5371 15.53947 15.54689 15.55778 15.57511 15.58835 15.61115 15.63069 15.64434 15.65206 15.66042 15.67843 15.69467 15.70379 15.71133 15.71551 15.71838 15.71644 15.71236 15.70368 15.69468 15.68725 15.67526 15.66151 15.64915 15.64026 15.63691 15.62672 15.61643 15.61197 15.60164 15.58553 15.56624 15.54638 15.52415 15.50056 15.4698 15.43645 15.39193 15.34861 15.30685 15.25832 15.20553 15.14779
0 0 0 0 0 0 0 17.71795 17.78648 16.15014 15.75854 15.7465 15.74859 15.7745 15.8225 15.54003 14.89631 14.92525 14.96556 15.00536 15.0546 15.10034 15.11993 15.13148 15.14359 15.15913 15.16539 15.16802 15.17651 15.1817 15.18604 15.19605 15.20406 15.21056 15.21649 15.22418 15.23547 15.23705 15.23724 15.23549 15.23844 15.24996 15.26442 15.2868 15.31216 15.34119 15.37166 15.39322 15.417 15.43444 15.44569 15.46475 15.48209 15.50592 15.52485 15.53971 15.55165 15.55946 15.5679 15.57103 15.5788 15.57916 15.57421 15.5672 15.56149 15.56151 15.56964 15.57482 15.58974 15.61123 15.62794 15.64779 15.66554 15.67508 15.68675 15.69872 15.71652 15.72846 15.73035 15.73399 15.73907 15.74032 15.73485 15.72597 15.71869 15.70802 15.69266 15.68037 15.6614 15.65147 15.64429 15.64258 15.63735 15.63046 15.61924 15.60864 15.59989 15.58288 15.56743 15.5468 15.52772 15.49838 15.47175 15.43411 15.39575 15.35062 15.30641 15.25729 15.19862
0 0 0 0 0 0 18.23925 18.20687 16.18028 15.75884 15.74228 15.7543 15.79422 15.49249 15.21621 14.94495 14.95474 14.99207 15.02291 15.06075 15.10322 15.13812 15.16043 15.16997 15.18249 15.19076 15.19626 15.20555 15.21973 15.22858 15.23312 15.23848 15.24008 15.23894 15.24267 15.24584 15.24956 15.25297 15.25387 15.25749 15.26562 15.27686 15.29369 15.31528 15.33613 15.35337 15.37273 15.3951 15.41653 15.43711 15.45699 15.47445 15.48685 15.50088 15.51745 15.5367 15.55073 15.55745 15.56549 15.57774 15.58482 15.59042 15.58684 15.58732 15.58851 15.59872 15.60951 15.6192 15.63046 15.64954 15.66914 15.68829 15.70108 15.71233 15.72467 15.73724 15.75176 15.75569 15.75737 15.75576 15.75409 15.75345 15.74893 15.73652 15.72794 15.71574 15.6963 15.67421 15.66262 15.65303 15.64359 15.64401 15.64111 15.63892 15.63493 15.62394 15.61346 15.60733 15.59265 15.57431 15.55859 15.53515 15.51654 15.48598 15.44754 15.40417 15.35988 15.31303 15.26018
0 0 0 0 0 0 19.09198 17.41889 16.14696 15.74673 15.4116 15.45078 15.1703 14.9131 14.9687 15.01762 15.04179 15.06918 15.09597 15.12524 15.16038 15.18759 15.19975 15.20808 15.21708 15.21971 15.22635 15.23657 15.24718 15.25642 15.26106 15.26673 15.26367 15.26429 15.26319 15.26049 15.26361 15.26195 15.26844 15.27745 15.28778 15.30049 15.31485 15.3262 15.33661 15.35221 15.36393 15.38145 15.40371 15.42737 15.44654 15.46836 15.48435 15.49829 15.50867 15.51894 15.53655 15.54588 15.56275 15.57496 15.5882 15.59554 15.60575 15.61129 15.62098 15.62713 15.64295 15.6579 15.67044 15.68419 15.69816 15.71776 15.73468 15.74162 15.75666 15.77091 15.7811 15.77986 15.77779 15.77241 15.76858 15.76644 15.75934 15.748 15.72811 15.71565 15.70157 15.67633 15.66742 15.65589 15.65137 15.64673 15.64201 15.64746 15.6482 15.64279 15.6302 15.62584 15.61597 15.59841 15.58471 15.57348 15.56119 15.53909 15.50565 15.46665 15.42638 15.37853 15.33086
0 0 0 0 0 19.18252 18.72376 17.39442 16.14052 15.77242 15.12973 14.86635 14.92826 14.98516 15.02962 15.06879 15.09555 15.12358 15.15016 15.17836 15.20279 15.22044 15.22663 15.23633 15.24593 15.25412 15.25789 15.26715 15.27399 15.28066 15.28343 15.28662 15.28676 15.28176 15.274 15.27332 15.27336 15.27212 15.27344 15.286 15.30413 15.31155 15.31809 15.32506 15.33254 15.34375 15.35507 15.37384 15.38965 15.41279 15.43564 15.45594 15.46822 15.48622 15.49766 15.51001 15.52484 15.53959 15.5574 15.57088 15.58449 15.60201 15.61637 15.63381 15.64558 15.65721 15.67353 15.68992 15.70749 15.72053 15.73264 15.74378 15.7587 15.76615 15.77881 15.78753 15.7956 15.7962 15.78985 15.78483 15.77662 15.77119 15.76231 15.752 15.73147 15.71224 15.69749 15.68394 15.67043 15.66469 15.65792 15.65748 15.66011 15.6655 15.67003 15.66534 15.6565 15.65122 15.64195 15.63282 15.62455 15.6128 15.59886 15.57337 15.54571 15.51338 15.47434 15.43664 15.38924
0 0 0 0 18.24273 17.85511 16.1518 15.74459 15.40704 14.80899 14.86981 14.93192 14.98587 15.03078 15.0672 15.09683 15.12463 15.15128 15.17982 15.20428 15.22349 15.24206 15.25422 15.26001 15.2672 15.27891 15.28714 15.29042 15.29509 15.29596 15.29571 15.29584 15.29298 15.28896 15.28843 15.28549 15.27919 15.28006 15.28181 15.28951 15.29935 15.30499 15.3108 15.31955 15.32455 15.33181 15.34321 15.35804 15.37974 15.39906 15.4214 15.44013 15.45724 15.47352 15.48986 15.50591 15.52629 15.544 15.56106 15.57641 15.59441 15.613 15.62805 15.64804 15.66887 15.68647 15.70081 15.71669 15.73703 15.74915 15.76044 15.76911 15.77772 15.78735 15.79843 15.80747 15.80987 15.81033 15.80191 15.79662 15.78907 15.77666 15.76396 15.75245 15.73453 15.71201 15.69744 15.68629 15.67621 15.67714 15.67578 15.67827 15.68068 15.6824 15.68429 15.68463 15.67915 15.67659 15.66857 15.66248 15.66231 15.65587 15.64449 15.62654 15.60136 15.57001 15.53366 15.4985 15.46283
0 0 0 0 19.33266 16.60062 14.80976 14.79882 14.81604 14.8608 14.93867 14.99484 15.03846 15.0742 15.10607 15.13139 15.15415 15.17788 15.20754 15.22989 15.24482 15.2654 15.27071 15.27662 15.28382 15.28755 15.29606 15.29994 15.30264 15.30576 15.29943 15.29629 15.29618 15.29344 15.29218 15.28853 15.28164 15.27967 15.28038 15.28594 15.29602 15.3022 15.30662 15.30493 15.30785 15.31394 15.32661 15.34128 15.36298 15.385 15.40897 15.42763 15.44364 15.45944 15.47878 15.49939 15.52162 15.54216 15.56135 15.57897 15.59843 15.61735 15.63742 15.65973 15.68351 15.70356 15.71823 15.7353 15.75478 15.77275 15.78716 15.79272 15.79792 15.80565 15.81443 15.82038 15.82139 15.81638 15.80794 15.80485 15.79673 15.7852 15.76806 15.75165 15.73608 15.71535 15.7007 15.69559 15.69549 15.69466 15.69515 15.69804 15.70125 15.70384 15.70135 15.70039 15.69707 15.69736 15.69362 15.68994 15.68817 15.69152 15.68857 15.67777 15.66047 15.63842 15.60279 15.574 15.53945
0 0 0 18.41011 17.96816 16.19832 14.80627 14.81735 14.86345 14.92861 14.99771 15.04789 15.08608 15.11377 15.1359 15.15972 15.18258 15.20841 15.22904 15.24824 15.26281 15.277 15.28334 15.28438 15.28598 15.29059 15.29789 15.30168 15.30578 15.30381 15.30204 15.29836 15.29678 15.29737 15.29702 15.28814 15.28054 15.28146 15.28428 15.28838 15.29169 15.29243 15.292 15.29366 15.29449 15.30304 15.31427 15.3295 15.34871 15.36739 15.38926 15.41019 15.42886 15.44615 15.4683 15.49154 15.51633 15.54097 15.56329 15.58344 15.59924 15.62209 15.64504 15.66606 15.68691 15.70908 15.72987 15.74571 15.76922 15.78789 15.80202 15.81095 15.8163 15.81998 15.82635 15.82828 15.82483 15.81956 15.81397 15.80944 15.79805 15.78576 15.77149 15.75586 15.74192 15.73446 15.72712 15.72326 15.72132 15.72072 15.72744 15.73241 15.73602 15.73374 15.7342 15.73198 15.72787 15.7238 15.72549 15.72398 15.72537 15.72545 15.7205 15.71602 15.70988 15.69201 15.65662 15.62897 15.60015
0 0 0 18.38178 17.95786 16.19288 15.44057 14.8399 14.90442 14.98598 15.04618 15.09074 15.11438 15.14027 15.16 15.17647 15.2013 15.22353 15.2442 15.25801 15.267 15.27975 15.28871 15.28968 15.28137 15.28813 15.28912 15.29248 15.2914 15.28989 15.29452 15.29468 15.29886 15.29843 15.29799 15.28653 15.28142 15.28031 15.2837 15.2811 15.28024 15.27981 15.27858 15.27953 15.28048 15.29277 15.30382 15.31853 15.33599 15.35613 15.37834 15.39743 15.41676 15.43876 15.46328 15.48918 15.51478 15.54137 15.56219 15.5825 15.60195 15.62544 15.64622 15.66952 15.68988 15.71534 15.73635 15.76113 15.78535 15.80362 15.81773 15.83066 15.8285 15.83003 15.83373 15.83319 15.82692 15.82248 15.8207 15.8134 15.80312 15.78954 15.78293 15.77028 15.75902 15.75126 15.75065 15.74949 15.75142 15.75917 15.76786 15.77013 15.77195 15.76917 15.7691 15.77417 15.77124 15.76859 15.76983 15.76993 15.77298 15.77273 15.76818 15.76411 15.75416 15.74205 15.71935 15.69156 15.66759
0 0 0 19.24977 18.22794 16.18484 15.12228 14.86889 14.93655 15.02115 15.08617 15.11574 15.13755 15.16199 15.18085 15.19385 15.21077 15.23129 15.24759 15.26283 15.2717 15.27912 15.28168 15.27866 15.27375 15.27595 15.27945 15.28093 15.28212 15.28723 15.28453 15.29194 15.29346 15.29563 15.28622 15.27991 15.27431 15.27521 15.27205 15.27316 15.26645 15.2602 15.25992 15.26243 15.26758 15.27862 15.29118 15.30768 15.32485 15.34477 15.36718 15.39124 15.41119 15.43551 15.46062 15.48691 15.51804 15.54487 15.56374 15.58838 15.60955 15.63618 15.65818 15.68205 15.70026 15.72436 15.74475 15.77185 15.79059 15.81336 15.82933 15.84048 15.84334 15.84331 15.83926 15.83477 15.83172 15.82792 15.82379 15.81742 15.80554 15.79806 15.7927 15.78776 15.78209 15.77742 15.78141 15.78451 15.78908 15.79961 15.8087 15.81113 15.80709 15.80682 15.80436 15.80418 15.80689 15.80601 15.80857 15.81226 15.81706 15.81428 15.81259 15.80697 15.79892 15.78507 15.77033 15.75065 15.73523
0 0 0 19.2594 16.93575 15.41584 14.83111 14.89861 14.98028 15.05633 15.10306 15.12956 15.1534 15.17599 15.19255 15.20142 15.21365 15.23245 15.24647 15.25298 15.25777 15.26648 15.26372 15.25603 15.25978 15.26391 15.26636 15.27018 15.26731 15.27186 15.27514 15.28026 15.2808 15.28225 15.28092 15.27623 15.27255 15.26724 15.26347 15.25947 15.25434 15.2513 15.25093 15.25359 15.26035 15.26732 15.27943 15.29635 15.3165 15.33984 15.3658 15.3893 15.40956 15.43518 15.46274 15.49136 15.52533 15.55415 15.5735 15.59587 15.61891 15.64999 15.67555 15.69552 15.71711 15.73547 15.75274 15.77815 15.80045 15.82082 15.83173 15.84368 15.8513 15.85178 15.84737 15.83919 15.83567 15.82804 15.82617 15.81947 15.81304 15.80774 15.80225 15.80123 15.80287 15.80701 15.81292 15.82149 15.82857 15.83564 15.84278 15.84943 15.85235 15.85285 15.8525 15.85331 15.85485 15.85182 15.85326 15.86225 15.86628 15.86545 15.85684 15.85098 15.84301 15.82883 15.81331 15.79494 15.77508
14.8053 14.80431 16.1134 16.88903 15.05179 14.78955 14.85971 14.93908 15.014 15.08149 15.12477 15.14925 15.16696 15.18304 15.19365 15.20304 15.21528 15.22564 15.23619 15.23598 15.23703 15.2396 15.23749 15.2347 15.23331 15.23701 15.24613 15.24943 15.2534 15.26337 15.26522 15.27411 15.27929 15.28172 15.28034 15.27378 15.2703 15.26561 15.26126 15.25644 15.25193 15.24999 15.25064 15.25508 15.25832 15.2669 15.27709 15.29442 15.31817 15.34085 15.36647 15.39354 15.42241 15.44573 15.4719 15.5058 15.53867 15.56878 15.59123 15.61443 15.63336 15.66166 15.68904 15.71339 15.73431 15.7484 15.76678 15.79057 15.81145 15.82588 15.8408 15.85229 15.85587 15.85894 15.85843 15.84866 15.8414 15.83586 15.82801 15.8248 15.81914 15.81535 15.81859 15.81903 15.82311 15.82482 15.83405 15.84344 15.85476 15.8676 15.87893 15.88924 15.89266 15.89672 15.90038 15.90137 15.90385 15.90556 15.91314 15.91814 15.92224 15.91968 15.91566 15.9065 15.89636 15.88573 15.86761 15.84954 15.83389
14.81227 14.79834 14.80232 14.81791 14.83722 14.87747 14.94168 15.01186 15.07016 15.12083 15.15077 15.16825 15.18159 15.1872 15.1946 15.20078 15.20974 15.21495 15.21398 15.21166 15.21325 15.2164 15.21348 15.21038 15.21113 15.2153 15.22346 15.23128 15.23465 15.2465 15.25765 15.26785 15.27424 15.27899 15.27844 15.27431 15.27015 15.26738 15.26607 15.26372 15.25964 15.25796 15.26374 15.26672 15.27174 15.27857 15.28467 15.29887 15.31831 15.34749 15.37958 15.41064 15.43711 15.46408 15.49159 15.52578 15.56155 15.5875 15.61035 15.6326 15.65678 15.68016 15.7077 15.72891 15.74671 15.76329 15.77977 15.80045 15.81987 15.83342 15.84694 15.85274 15.86048 15.8642 15.86266 15.85784 15.85027 15.84663 15.84219 15.83466 15.83281 15.83168 15.83622 15.8434 15.85089 15.86029 15.86879 15.8765 15.89482 15.91335 15.93031 15.9378 15.9412 15.94168 15.94514 15.95019 15.95036 15.95423 15.95831 15.96275 15.96957 15.96962 15.96503 15.96072 15.95111 15.93607 15.91945 15.90533 15.8959
14.89798 14.90613 14.91697 14.93554 14.96396 14.99619 15.03958 15.08637 15.12185 15.15436 15.17482 15.18456 15.18868 15.19172 15.19391 15.19513 15.19781 15.20398 15.19554 15.18441 15.18466 15.1827 15.18504 15.18667 15.18711 15.19652 15.2117 15.21919 15.22905 15.23939 15.25085 15.25731 15.26817 15.27765 15.27871 15.27349 15.27134 15.27095 15.27104 15.26475 15.26401 15.26812 15.27597 15.28504 15.29108 15.29688 15.30282 15.31753 15.33868 15.36432 15.39594 15.43072 15.46282 15.49028 15.5226 15.55368 15.58712 15.61647 15.6437 15.67141 15.69315 15.7143 15.73508 15.7499 15.76415 15.78205 15.7984 15.81492 15.82995 15.84254 15.85097 15.85955 15.86759 15.8755 15.87383 15.86904 15.86367 15.85771 15.85621 15.85138 15.84574 15.84911 15.85899 15.87141 15.88311 15.89999 15.91283 15.93204 15.95214 15.97116 15.98712 15.99746 15.99964 16.00002 16.00251 16.00523 16.00994 16.01479 16.01756 16.02705 16.03091 16.03248 16.02967 16.02333 16.01019 15.99565 15.97941 15.96751 15.95822
14.98102 14.99037 15.00535 15.02786 15.04927 15.07348 15.1013 15.12383 15.14634 15.16228 15.16858 15.1737 15.18007 15.18169 15.18127 15.17963 15.17907 15.18432 15.18021 15.16964 15.15914 15.15552 15.15953 15.16447 15.16752 15.18259 15.19178 15.21133 15.22267 15.23593 15.24587 15.25641 15.26647 15.27946 15.28411 15.28278 15.28032 15.27967 15.27889 15.27948 15.28197 15.28842 15.29357 15.30414 15.31413 15.32006 15.32919 15.34329 15.36514 15.39125 15.42256 15.455 15.48973 15.52125 15.55193 15.58858 15.6237 15.65045 15.67814 15.70597 15.73193 15.75258 15.77346 15.7864 15.79961 15.81148 15.82594 15.8407 15.85018 15.86062 15.86616 15.87441 15.88266 15.88915 15.88691 15.88643 15.88076 15.8738 15.8675 15.86304 15.86699 15.87051 15.88107 15.89522 15.91673 15.93667 15.96009 15.97891 16.00259 16.02484 16.0441 16.05479 16.06227 16.06465 16.0676 16.07511 16.08312 16.09714 16.10654 16.1209 16.13409 16.13275 16.12404 16.11068 16.09581 16.08113 16.06988 16.05895 16.05004
15.05816 15.07004 15.07878 15.08788 15.0979 15.11013 15.12219 15.13088 15.14587 15.15016 15.15477 15.15678 15.1562 15.15839 15.16006 15.16482 15.16579 15.16991 15.1678 15.15558 15.1445 15.14316 15.14552 15.15562 15.16224 15.17916 15.19611 15.20918 15.22172 15.23316 15.24467 15.26134 15.27593 15.2875 15.29794 15.30543 15.30732 15.3098 15.30916 15.31072 15.31406 15.32323 15.33046 15.33805 15.34841 15.35879 15.3753 15.39166 15.40944 15.43387 15.46574 15.49601 15.52698 15.5592 15.59207 15.62754 15.65959 15.6818 15.70805 15.73341 15.76034 15.78703 15.80704 15.82118 15.83064 15.84147 15.85495 15.86479 15.86989 15.87934 15.88431 15.89619 15.90198 15.90692 15.9059 15.90265 15.89514 15.88803 15.89056 15.89047 15.89485 15.90507 15.91471 15.93154 15.95674 15.98574 16.0162 16.04055 16.06705 16.08962 16.10195 16.11347 16.12075 16.12246 16.12204 16.13171 16.1407 16.1528 16.17013 16.18792 16.2091 16.21674 16.2103 16.19254 16.18233 16.16803 16.15557 16.148 16.1408
15.09533 15.09808 15.0969 15.09506 15.09795 15.09815 15.10363 15.10919 15.1231 15.13745 15.14165 15.14001 15.13807 15.13875 15.14091 15.14554 15.15167 15.15644 15.15221 15.14752 15.14292 15.14147 15.14597 15.15898 15.17318 15.18314 15.19687 15.21857 15.23499 15.25189 15.26214 15.2819 15.29623 15.3146 15.32569 15.33182 15.3358 15.34225 15.34681 15.35085 15.3596 15.36901 15.37926 15.39031 15.40256 15.42064 15.44386 15.46403 15.48371 15.50729 15.5344 15.56447 15.59406 15.62836 15.66172 15.69352 15.72291 15.74761 15.76732 15.78723 15.81286 15.83421 15.85109 15.86206 15.87212 15.87984 15.88708 15.89711 15.89904 15.90478 15.91399 15.91917 15.9252 15.92884 15.93511 15.92845 15.92302 15.92006 15.92272 15.93212 15.94276 15.95688 15.97099 15.98883 16.01722 16.05004 16.08169 16.11009 16.1364 16.15611 16.1731 16.18394 16.18956 16.19221 16.19148 16.19158 16.19628 16.20096 16.22022 16.24489 16.26566 16.27562 16.27788 16.26952 16.25916 16.25044 16.24209 16.22901 16.21869
15.0963 15.09119 15.08634 15.08171 15.07664 15.07924 15.08559 15.09128 15.10301 15.11776 15.12252 15.12191 15.12175 15.12423 15.12818 15.12638 15.13272 15.14246 15.14405 15.14612 15.14839 15.15185 15.1631 15.17853 15.19419 15.20868 15.22099 15.24416 15.26989 15.28543 15.29769 15.31674 15.33399 15.35097 15.36373 15.37154 15.38113 15.38911 15.39428 15.40626 15.41299 15.42226 15.43784 15.45277 15.47013 15.49535 15.51748 15.5428 15.56746 15.58973 15.61678 15.64239 15.66899 15.70302 15.7345 15.76406 15.78071 15.80597 15.83162 15.85013 15.87753 15.89593 15.91633 15.92691 15.93385 15.93413 15.93914 15.94812 15.95649 15.96601 15.97104 15.97648 15.98124 15.98301 15.982 15.97286 15.96823 15.96893 15.97828 15.99438 16.00351 16.01727 16.03582 16.05267 16.07649 16.1022 16.12972 16.1512 0 0 16.21019 16.24444 16.24844 16.25259 16.24773 16.24492 16.24803 16.25639 16.25565 0 0 16.28599 16.3248 16.32558 16.32448 16.32438 16.32881 16.32482 16.31167
