ncols        109
nrows        82
xllcorner    -1.041666666667
yllcorner    37.041665395101
cellsize     0.083333333333
NODATA_value -9999
0.0 0 0 0 0 0 0 0 0 0 0 0 0 0 0 0 0 0 0 0 0 0 0 0 0 0 0 0 0 0 0 0 0 0 0 0 0 0 0 0 0 0 0 0 0 0 0 0 0 0 0 0 0 0 0 0 0 0 0 0 0 0 0 0 0 0 0 0 0 0 0 0 0 0 0 0 0 0 0 0 0 0 0 0 0 0 0 0 0 0 0 0 0 0 0 0 0 0 0 0 0 0 0 0 0 17.6838 16.42236 15.12608 15.12954
0 0 0 0 0 0 0 0 0 0 0 0 0 0 0 0 0 0 0 0 0 0 0 0 0 0 0 0 0 0 0 0 0 0 0 0 0 0 0 0 0 0 0 0 0 0 0 0 0 0 0 0 0 0 0 0 0 0 0 0 0 0 0 0 0 0 0 0 0 0 0 0 0 0 0 0 0 0 0 0 0 0 0 0 0 0 0 0 0 0 0 0 0 0 0 0 0 0 0 0 0 15.24411 15.26694 15.07416 15.09136 15.10151 15.10364 15.10363 15.08518
0 0 0 0 0 0 0 0 0 0 0 0 0 0 0 0 0 0 0 0 0 0 0 0 0 0 0 0 0 0 0 0 0 0 0 0 0 0 0 0 0 0 0 0 0 0 0 0 0 0 0 0 0 0 0 0 0 0 0 0 0 0 0 0 0 0 0 0 0 0 0 0 0 0 0 0 0 0 0 0 0 0 0 0 0 0 0 0 0 0 0 0 0 0 0 0 0 0 15.04906 15.05903 15.05922 15.05147 15.03766 15.03015 15.01941 15.00386 14.9879 14.96954 14.94466
0 0 0 0 0 0 0 0 0 0 0 0 0 0 0 0 0 0 0 0 0 0 0 0 0 0 0 0 0 0 0 0 0 0 0 0 0 0 0 0 0 0 0 0 0 0 0 0 0 0 0 0 0 0 0 0 0 0 0 0 0 0 0 0 0 0 0 0 0 0 0 0 0 0 0 0 0 0 0 0 0 0 0 0 0 0 0 0 0 0 0 0 0 0 0 0 0 16.59526 15.03408 15.02944 15.00375 14.97106 14.94161 14.92159 14.89881 14.8791 14.85568 14.83824 14.81403
0 0 0 0 0 0 0 0 0 0 0 0 0 0 0 0 0 0 0 0 0 0 0 0 0 0 0 0 0 0 0 0 0 0 0 0 0 0 0 0 0 0 0 0 0 0 0 0 0 0 0 0 0 0 0 0 0 0 16.27118 15.90379 15.59546 15.71499 0 0 0 0 0 0 0 0 0 0 0 0 0 0 0 0 0 0 0 0 0 0 0 0 0 0 0 0 0 0 0 0 0 15.43215 15.02652 15.02586 14.9949 14.96127 14.91745 14.86557 14.8136 14.77517 14.74506 14.7183 14.70237 14.68926 14.67717
0 0 0 0 0 0 0 0 0 0 0 0 0 0 0 0 0 0 0 0 0 0 0 0 0 0 0 0 0 0 0 0 0 0 0 0 0 0 0 0 0 0 0 0 0 0 0 0 0 0 0 0 0 0 0 0 15.78047 15.82269 15.56766 15.35595 15.27259 15.24981 15.32775 15.51789 15.71707 15.82774 15.81118 0 0 0 0 16.06262 0 0 0 0 0 0 0 0 0 0 0 0 0 0 0 0 0 0 0 0 0 15.95354 14.97417 15.00442 14.9885 14.95142 14.89894 14.83975 14.78007 14.72365 14.68143 14.64788 14.63199 14.62001 14.61444 14.6043 14.59417
0 0 0 0 0 0 0 0 0 0 0 0 0 0 0 0 0 0 0 0 0 0 0 0 0 0 0 0 0 0 0 0 0 0 0 0 0 0 0 0 0 0 0 0 0 0 0 0 0 0 0 0 0 0 0 15.94576 15.57351 15.2732 15.08518 14.83095 14.8931 14.91592 15.07975 15.20229 15.33066 15.41792 15.48393 15.65106 15.84519 15.80476 15.74505 15.48844 15.29849 15.34805 15.49456 15.26482 15.28745 0 0 0 0 0 0 0 0 0 0 0 0 0 0 0 15.30526 14.98692 14.97999 14.95842 14.92101 14.86368 14.80283 14.73554 14.6738 14.61602 14.57092 14.54704 14.54441 14.54617 14.54839 14.55339 14.55843
0 0 0 0 0 0 0 0 0 0 0 0 0 0 0 0 0 0 0 0 0 0 0 0 0 0 0 0 0 0 0 0 0 0 0 0 0 0 0 0 0 0 0 0 0 0 0 0 0 0 0 15.60065 15.73898 15.91747 15.70564 15.30553 15.08468 14.83012 14.72431 14.79476 14.85043 14.87069 14.86353 15.03013 15.00484 15.1761 15.15514 15.14028 15.16134 15.07208 14.9802 15.0047 14.8764 15.0461 15.07272 15.24455 0 0 0 0 0 0 0 0 0 0 0 0 0 0 0 0 14.9742 14.97533 14.93781 14.88494 14.81968 14.74492 14.67644 14.61634 14.57545 14.5394 14.51543 14.50445 14.51122 14.51845 14.52352 14.53106 14.54188
0 0 0 0 0 0 0 0 0 0 0 0 0 0 0 0 0 0 0 0 0 0 0 0 0 0 0 0 0 0 0 0 0 0 0 0 0 0 0 0 0 0 0 0 0 0 0 0 0 0 15.81351 15.63914 15.42383 15.38822 15.29537 15.01845 14.70431 14.78282 14.64781 14.70873 14.75259 14.77375 14.77933 14.95303 14.94228 15.12416 15.11191 15.11322 14.96712 14.84512 14.88054 14.91725 14.79256 14.9659 14.98612 15.18674 15.20916 15.05497 15.08589 15.45409 15.90651 16.64594 0 0 0 0 0 0 0 15.87699 15.3473 14.9776 14.9817 14.94947 14.87397 14.80369 14.72425 14.65792 14.59606 14.54644 14.51342 14.49661 14.49181 14.49258 14.50334 14.51474 14.52481 14.53597 14.55071
0 0 0 0 0 0 0 0 0 0 0 0 0 0 0 0 0 0 0 0 0 0 0 0 0 0 0 0 0 0 0 0 0 0 0 0 0 0 0 0 0 0 0 0 0 0 0 0 0 16.66193 15.51648 15.4365 15.39284 15.09767 14.93473 14.77298 14.83014 14.68098 14.72617 14.77244 14.80996 14.83204 14.842 15.03813 15.04765 15.05584 15.06663 15.06954 15.06435 14.90969 14.93644 14.80282 14.67192 14.68338 14.70149 14.72409 14.74288 14.77497 14.81007 14.82813 15.19119 15.73769 0 15.58392 16.14445 16.64194 16.9324 16.68313 16.23191 14.95624 14.98209 14.98283 14.9514 14.87406 14.78479 14.70314 14.62976 14.57529 14.52942 14.50411 14.48966 14.48957 14.49168 14.50096 14.50585 14.52304 14.53586 14.54789 14.55509
0 0 0 0 0 0 0 0 0 0 0 0 0 0 0 0 0 0 0 0 0 0 0 0 0 0 0 0 0 0 0 0 0 0 0 0 0 0 0 0 0 0 0 0 0 0 0 0 0 16.34764 15.49166 15.23176 14.94588 14.81892 14.86713 14.70965 14.74746 14.79331 14.83358 14.86811 14.90286 14.92393 14.92956 14.93367 14.93757 14.79219 14.65899 14.80153 14.80063 14.80421 14.81083 14.66662 14.66705 14.6708 14.69297 14.70967 14.73301 14.75582 14.78764 14.80917 14.835 14.86563 14.88621 14.91282 14.94708 14.96119 15.93535 16.12922 15.75494 14.94457 14.93273 14.89569 14.84208 14.76576 14.69243 14.62843 14.57373 14.52714 14.49906 14.48925 14.4946 14.50467 14.51747 14.52561 14.53757 14.54859 14.55691 14.56506 14.57386
0 0 0 0 0 0 0 0 0 0 0 0 0 0 0 0 0 0 0 0 0 0 0 0 0 0 0 0 0 0 0 0 0 0 0 0 0 0 0 0 0 0 0 0 0 0 0 0 0 16.10259 15.44486 15.17108 14.84977 14.91402 14.7635 14.81581 14.85983 14.90279 14.93784 14.96587 14.80703 14.82638 14.83672 14.83837 14.837 14.6792 14.68333 14.67955 14.65863 14.65004 14.65 14.65005 14.64791 14.65131 14.67653 14.68249 14.6917 14.70438 14.72545 14.74771 14.7719 14.8014 14.8248 14.84692 14.87805 14.9001 14.91419 14.91849 14.90065 14.87354 14.83718 14.78751 14.7247 14.65552 14.60352 14.56455 14.53339 14.49534 14.49587 14.50733 14.51672 14.52872 14.5419 14.55044 14.56184 14.56947 14.57705 14.58634 14.59642
0 0 0 0 0 0 0 0 0 0 0 0 0 0 0 0 0 0 0 0 0 0 0 0 0 0 0 0 0 0 0 0 0 0 0 0 0 0 0 0 0 0 0 0 0 0 0 0 0 16.02605 15.34092 15.04708 14.92537 14.78588 14.85708 14.93812 14.79233 14.82644 14.66634 14.67676 14.69075 14.69821 14.70082 14.69732 14.69074 14.68233 14.67968 14.66663 14.64413 14.62147 14.6127 14.60503 14.59023 14.5824 14.59917 14.59844 14.60707 14.62712 14.65046 14.67502 14.69129 14.70753 14.72 14.73625 14.75453 14.77509 14.78446 14.77828 14.75614 14.73336 14.7024 14.66693 14.61989 14.58432 14.56029 14.53327 14.51628 14.50696 14.51446 14.52927 14.54752 14.562 14.5746 14.58252 14.59125 14.59785 14.60328 14.60476 14.61485
0 0 0 0 0 0 0 0 0 0 0 0 0 0 0 0 0 0 0 0 0 0 0 0 0 0 0 0 0 0 0 0 0 0 0 0 0 0 0 0 0 0 0 0 0 0 0 0 0 15.90028 15.39104 15.08744 14.97379 14.84009 14.91549 14.79464 14.66063 14.68621 14.70247 14.70628 14.70741 14.7021 14.69345 14.68607 14.67537 14.66378 14.65176 14.63534 14.61937 14.59862 14.58343 14.56606 14.54765 14.53707 14.52323 14.5111 14.50932 14.52456 14.55119 14.56698 14.57706 14.58128 14.58702 14.60421 14.62527 14.64822 14.65745 14.65611 14.63843 14.61428 14.58996 14.56458 14.5445 14.53211 14.52244 14.51997 14.52713 14.53445 14.54286 14.55649 14.57313 14.59101 14.59709 14.60674 14.61493 14.62229 14.62669 14.63568 14.64087
0 0 0 0 0 0 0 0 0 0 0 0 0 0 0 0 0 0 0 0 0 0 0 0 0 0 0 0 0 0 0 0 0 0 0 0 0 0 0 0 0 0 0 0 0 0 0 0 0 15.94321 15.20416 14.90361 15.02692 14.90026 14.97291 14.81935 14.67535 14.6908 14.69659 14.68898 14.68195 14.67502 14.66526 14.65472 14.64335 14.62721 14.60708 14.58901 14.56109 14.53696 14.51536 14.49317 14.47871 14.47198 14.46267 14.45809 14.45865 14.46431 14.47178 14.47837 14.48581 14.49368 14.50001 14.50412 14.51602 14.52852 14.53036 14.52979 14.528 14.51937 14.51433 14.51046 14.50786 14.51225 14.52071 14.53137 14.54698 14.5602 14.57273 14.58117 14.59452 14.61276 14.62677 14.63238 14.63655 14.6427 14.64712 14.65708 14.66491
0 0 0 0 0 0 0 0 0 0 0 0 0 0 0 0 0 0 0 0 0 0 0 0 0 0 0 0 0 0 0 0 0 0 0 0 0 0 0 0 0 0 0 0 0 0 0 0 0 15.46754 15.25525 14.94151 14.86133 14.76808 14.82851 14.67332 14.68412 14.68392 14.68059 14.6719 14.65672 14.64471 14.63087 14.61931 14.60537 14.59192 14.57368 14.55015 14.52445 14.49731 14.46948 14.44368 14.42714 14.41351 14.40382 14.39763 14.39458 14.39862 14.40784 14.41676 14.42202 14.43094 14.44002 14.44755 14.457 14.46194 14.46766 14.46835 14.46517 14.464 14.46684 14.47906 14.49093 14.50714 14.52256 14.54065 14.5627 14.5788 14.5916 14.59894 14.60686 14.62269 14.63448 14.65298 14.65708 14.66252 14.6671 14.67881 14.69467
0 0 0 0 0 0 0 0 0 0 0 0 0 0 0 0 0 0 0 0 0 0 0 0 0 0 0 0 0 0 0 0 0 0 0 0 0 0 0 0 0 0 0 0 0 0 0 0 0 0 15.04439 15.00801 14.93338 14.6496 14.68861 14.68608 14.68368 14.68021 14.66795 14.65309 14.63282 14.61907 14.60271 14.5866 14.57184 14.56229 14.54768 14.52719 14.50295 14.4755 14.44258 14.42098 14.40588 14.3946 14.38172 14.37447 14.37105 14.37121 14.37711 14.3871 14.39117 14.39397 14.39491 14.39792 14.40583 14.4137 14.42101 14.42708 14.43352 14.43973 14.45239 14.46651 14.48413 14.5072 14.53 14.55165 14.57165 14.59048 14.60753 14.61876 14.62887 14.63949 14.65148 14.66464 14.67209 14.67409 14.6844 14.69834 14.71243
0 0 0 0 0 0 0 0 0 0 0 0 0 0 0 0 0 0 0 0 0 0 0 0 0 0 0 0 0 0 0 0 0 0 0 0 0 0 0 0 0 0 0 0 0 0 0 0 0 0 15.18699 14.83021 14.59523 14.66376 14.69065 14.69259 14.68291 14.66741 14.64874 14.62901 14.61086 14.59612 14.58298 14.57202 14.56346 14.55405 14.5406 14.52193 14.49792 14.47343 14.44616 14.42405 14.40763 14.3911 14.37836 14.36994 14.36769 14.36896 14.3728 14.37852 14.37715 14.37746 14.38296 14.38745 14.388 14.3944 14.40401 14.4131 14.4204 14.43001 14.44489 14.46829 14.49156 14.51432 14.54402 14.56706 14.58783 14.60578 14.62298 14.63703 14.64897 14.65946 14.66761 14.67857 14.68711 14.69328 14.70401 14.71954 14.74121
0 0 0 0 0 0 0 0 0 0 0 0 0 0 0 0 0 0 0 0 0 0 0 0 0 0 0 0 0 0 0 0 0 0 0 0 0 0 0 0 0 0 0 0 0 0 0 0 0 0 0 0 14.61045 14.65514 14.67389 14.67997 14.67689 14.6547 14.63378 14.61486 14.5956 14.58154 14.57034 14.56436 14.55836 14.55101 14.54531 14.53117 14.51244 14.48912 14.46412 14.43964 14.41772 14.40041 14.3861 14.37748 14.37309 14.37354 14.37527 14.37719 14.37826 14.37631 14.37636 14.37865 14.38487 14.39063 14.40023 14.41153 14.42162 14.43586 14.45443 14.47492 14.49918 14.53046 14.55862 14.58518 14.6112 14.6278 14.63987 14.65599 14.6656 14.67547 14.68537 14.69131 14.70359 14.70802 14.71634 14.73617 14.75836
0 0 0 0 0 0 0 0 0 0 0 0 0 0 0 0 0 0 0 0 0 0 0 0 0 0 0 0 0 0 0 0 0 0 0 0 0 0 0 0 0 0 0 0 0 0 0 0 0 0 16.73261 15.22249 14.83385 14.68004 14.69033 14.6828 14.66902 14.6428 14.62539 14.60646 14.59308 14.58271 14.5766 14.57258 14.5681 14.56356 14.56126 14.5511 14.53696 14.51902 14.4946 14.46892 14.44287 14.4215 14.40774 14.39861 14.39287 14.3922 14.39232 14.39478 14.39244 14.3879 14.38854 14.38881 14.39138 14.39613 14.4077 14.41688 14.42959 14.44616 14.47131 14.49809 14.52156 14.5537 14.58136 14.61137 14.63476 14.65149 14.66619 14.67781 14.68489 14.69211 14.70184 14.71128 14.72108 14.72645 14.73968 14.7613 14.78537
0 0 0 0 0 0 0 0 0 0 0 0 0 0 0 0 0 0 0 0 0 0 0 0 0 0 0 0 0 0 0 0 0 0 0 0 0 0 0 0 0 0 0 0 0 0 0 0 0 0 16.11118 15.25613 15.07439 14.70652 14.70481 14.68692 14.66988 14.64275 14.62585 14.6141 14.60441 14.59806 14.59457 14.59738 14.60196 14.60538 14.60033 14.59423 14.57972 14.55643 14.52786 14.50037 14.47565 14.45002 14.43225 14.419 14.41711 14.41421 14.41583 14.41674 14.4155 14.41578 14.41339 14.41586 14.41811 14.421 14.42895 14.43714 14.44952 14.47067 14.49967 14.53308 14.56184 14.59225 14.61947 14.64329 14.66613 14.68205 14.69199 14.70213 14.70746 14.71676 14.72934 14.73719 14.74014 14.74631 14.75999 14.78341 14.81128
0 0 0 0 0 0 0 0 0 0 0 0 0 0 0 0 0 0 0 0 0 0 0 0 0 0 0 0 0 0 0 0 0 0 0 0 0 0 0 0 0 0 0 0 0 0 0 0 0 0 0 15.30292 14.9041 14.73757 14.72285 14.69725 14.68112 14.65476 14.64024 14.6334 14.62777 14.6236 14.62544 14.63413 14.64315 14.65246 14.65591 14.65217 14.63533 14.61225 14.58491 14.54949 14.52114 14.49069 14.46721 14.45091 14.44437 14.44171 14.43759 14.4396 14.43736 14.44176 14.44552 14.44742 14.45128 14.45737 14.46717 14.47774 14.49525 14.51759 14.55039 14.58207 14.61071 14.63796 14.66217 14.68292 14.70073 14.71083 14.71917 14.72875 14.73571 14.74636 14.75612 14.7702 14.77404 14.77841 14.78986 14.81148 14.84416
0 0 0 0 0 0 0 0 0 0 0 0 0 0 0 0 0 0 0 0 0 0 0 0 0 0 0 0 0 0 0 0 0 0 0 0 0 0 0 0 0 0 0 0 0 0 0 0 0 0 0 15.10981 14.74187 14.75959 14.73765 14.71758 14.69312 14.67114 14.65907 14.65856 14.66121 14.66602 14.6806 14.69179 14.70293 14.71069 14.71637 14.71435 14.69601 14.66766 14.63657 14.60162 14.57036 14.54283 14.51463 14.49512 14.48762 14.47826 14.47727 14.47606 14.47706 14.48136 14.48276 14.48863 14.49171 14.49861 14.50581 14.52248 14.54664 14.57667 14.61042 14.64288 14.66888 14.69215 14.71821 14.73337 14.74837 14.75663 14.76458 14.76614 14.76817 14.77054 14.78032 14.79318 14.80383 14.80892 14.82064 14.84718 14.87539
0 0 0 0 0 0 0 0 0 0 0 0 0 0 0 0 0 0 0 0 0 0 0 0 0 0 0 0 0 0 0 0 0 0 0 0 0 0 0 0 0 0 0 0 0 0 0 0 0 0 0 14.77068 14.78048 14.78056 14.75747 14.73481 14.70735 14.68987 14.68159 14.68844 14.69493 14.7124 14.73187 14.74994 14.76459 14.77597 14.78479 14.77987 14.76407 14.73641 14.70056 14.66186 14.62433 14.58917 14.56139 14.54299 14.52739 14.51633 14.51447 14.5179 14.52357 14.52785 14.53242 14.5398 14.54655 14.5613 14.57749 14.59743 14.62404 14.65392 14.68411 14.70792 14.72497 14.74565 14.7628 14.78024 14.7947 14.80338 14.80723 14.809 14.8089 14.80696 14.81122 14.82416 14.83517 14.84687 14.86172 14.88063 14.90198
0 0 0 0 0 0 0 0 0 0 0 0 0 0 0 0 0 0 0 0 0 0 0 0 0 0 0 0 0 0 0 0 0 0 0 0 0 0 0 0 0 0 0 0 0 0 0 0 0 16.67718 15.72551 14.81944 14.81797 14.79336 14.7678 14.74317 14.72664 14.71125 14.71471 14.72327 14.7392 14.76139 14.78054 14.80388 14.81804 14.83117 14.83672 14.83743 14.82075 14.79605 14.76435 14.7258 14.69008 14.65232 14.62198 14.60078 14.58357 14.57386 14.56782 14.56937 14.57802 14.58035 14.58597 14.59259 14.60383 14.62033 14.64464 14.67102 14.69876 14.72553 14.75344 14.77461 14.79186 14.80367 14.81989 14.83286 14.84411 14.84973 14.85101 14.84944 14.84623 14.8444 14.84677 14.8563 14.86851 14.88485 14.90223 14.9151 14.92821
0 0 0 0 0 0 0 0 0 0 0 0 0 0 0 0 0 0 0 0 0 0 0 0 0 0 0 0 0 0 0 0 0 0 0 0 0 0 0 0 0 0 0 0 0 0 0 0 15.79864 15.29652 15.0724 14.85934 14.83972 14.81001 14.7792 14.75992 14.74344 14.73326 14.73728 14.75704 14.78565 14.81078 14.83797 14.85486 14.87249 14.88599 14.89064 14.89039 14.87973 14.85456 14.82215 14.77992 14.73775 14.7031 14.6706 14.64559 14.63298 14.62381 14.62687 14.63299 14.63821 14.64506 14.65228 14.66135 14.67606 14.69513 14.71627 14.73954 14.76084 14.78232 14.8043 14.82572 14.83675 14.85084 14.86284 14.87491 14.88595 14.89472 14.89957 14.89794 14.89419 14.89282 14.89317 14.89914 14.90285 14.91068 14.92682 14.93942 14.95218
0 0 0 0 0 0 0 0 0 0 0 0 0 0 0 0 0 0 0 0 0 0 0 0 0 0 0 0 0 0 0 0 0 0 0 0 0 0 0 0 0 0 0 0 0 15.46297 15.33895 15.86166 15.36492 15.3909 15.14634 14.90186 14.87433 14.83578 14.80585 14.78834 14.77344 14.767 14.77331 14.79447 14.82604 14.85484 14.88359 14.89808 14.91728 14.93228 14.94413 14.94511 14.93894 14.91537 14.87964 14.84307 14.80456 14.76853 14.73698 14.71413 14.69122 14.68234 14.68349 14.68952 14.6908 14.69873 14.71046 14.72386 14.74367 14.76409 14.78597 14.80455 14.82384 14.84435 14.86021 14.87924 14.89426 14.9043 14.91316 14.9195 14.92767 14.93342 14.94112 14.94278 14.94119 14.93681 14.93486 14.93805 14.93632 14.94275 14.95276 14.96569 14.98128
0 0 0 0 0 0 0 0 0 0 0 0 0 0 0 0 0 0 0 0 0 0 0 0 0 0 0 0 0 0 0 0 0 0 0 0 0 0 0 0 0 0 17.44209 17.14621 16.17977 15.40084 14.93234 14.95523 15.45645 15.20114 14.95764 14.9293 14.89283 14.85825 14.83565 14.82229 14.8114 14.8156 14.82792 14.85388 14.88517 14.91048 14.93436 14.95616 14.97994 14.99362 14.99734 14.99781 14.98765 14.96537 14.93226 14.89753 14.86526 14.83181 14.80413 14.77748 14.75602 14.7495 14.75039 14.75872 14.76426 14.77168 14.78275 14.79542 14.81031 14.82593 14.84168 14.85517 14.87411 14.89122 14.90732 14.92271 14.93833 14.95256 14.96215 14.97409 14.98279 14.98954 14.99848 15.00356 14.99533 14.98679 14.98041 14.97482 14.97358 14.9746 14.97978 14.99175 15.00695
0 0 0 0 0 0 0 0 0 0 0 0 0 0 0 0 0 0 0 0 0 0 0 0 0 0 0 0 0 0 0 0 0 0 0 0 0 0 0 0 16.53735 16.92242 17.19444 16.26484 15.44979 14.9672 15.0017 15.02773 15.0318 15.01548 14.98893 14.95375 14.91535 14.88828 14.86858 14.85688 14.85564 14.86109 14.88033 14.90482 14.93506 14.96226 14.98918 15.02081 15.04566 15.05706 15.06087 15.06017 15.05 15.02959 15.0023 14.97006 14.93833 14.9013 14.86792 14.84019 14.81734 14.8036 14.80256 14.81041 14.82043 14.82784 14.84549 14.86116 14.87715 14.89379 14.90879 14.92407 14.93222 14.94638 14.95993 14.97099 14.98255 14.99106 14.99843 15.01 15.02025 15.0308 15.03875 15.04581 15.04406 15.03601 15.02444 15.01844 15.01344 15.01108 15.01662 15.02686 15.04163
0 0 0 0 0 0 0 0 0 0 0 0 0 0 0 0 0 0 0 0 0 0 0 0 0 0 0 0 0 0 0 0 0 0 0 0 0 0 0 16.7386 16.5036 15.98479 15.74751 14.97499 14.98783 15.00865 15.03384 15.06317 15.06728 15.04853 15.0167 14.98361 14.94772 14.92427 14.91568 14.91133 14.91769 14.93208 14.95069 14.97829 15.00162 15.02463 15.04884 15.07667 15.09627 15.11033 15.11553 15.11824 15.10434 15.08764 15.06407 15.03911 15.00961 14.97999 14.9468 14.91913 14.8952 14.87927 14.87177 14.87074 14.87602 14.88766 14.90018 14.91774 14.93162 14.9467 14.95809 14.97402 14.98295 14.99264 15.00193 15.01706 15.02788 15.03819 15.04729 15.05616 15.06638 15.07372 15.08097 15.0831 15.08295 15.07384 15.05868 15.05063 15.04787 15.04466 15.04935 15.06362 15.07516
0 0 0 0 0 0 0 0 0 0 0 0 0 0 0 0 0 0 0 0 0 0 0 0 0 0 0 0 0 0 0 0 0 0 0 0 0 0 15.97512 15.7098 15.48457 15.00719 15.02534 15.03826 15.04567 15.06445 15.07725 15.08822 15.08604 15.07431 15.05293 15.02454 15.0044 14.97973 14.97062 14.96968 14.97811 14.99634 15.01928 15.0476 15.07266 15.09121 15.11753 15.13734 15.15716 15.17282 15.18057 15.18429 15.17627 15.15726 15.13673 15.10861 15.07731 15.04838 15.01526 14.98673 14.96525 14.94893 14.93984 14.94037 14.94429 14.95512 14.9689 14.98373 14.99572 15.00679 15.01545 15.02488 15.03024 15.03758 15.04317 15.05191 15.0578 15.07066 15.08355 15.0953 15.10412 15.11145 15.11525 15.11463 15.11386 15.10768 15.09769 15.09044 15.08547 15.08519 15.09053 15.10357 15.11806
0 0 0 0 0 0 0 0 0 0 0 0 0 0 0 0 0 0 0 0 0 0 0 0 0 0 0 0 0 0 0 0 0 0 17.58684 18.19895 17.3603 15.72613 14.96155 14.99199 15.02423 15.04477 15.06863 15.07864 15.0952 15.09424 15.10723 15.11491 15.11743 15.11007 15.09874 15.09092 15.07726 15.06068 15.0545 15.0555 15.05989 15.06743 15.08863 15.11134 15.13218 15.14878 15.17026 15.18945 15.20863 15.22808 15.23779 15.2448 15.24241 15.22986 15.21416 15.18797 15.16384 15.13557 15.10501 15.07668 15.05219 15.03278 15.02088 15.01473 15.01208 15.0154 15.02671 15.03875 15.04741 15.05622 15.0662 15.07553 15.07839 15.08212 15.08683 15.09402 15.10286 15.1136 15.12913 15.13797 15.14321 15.14657 15.14895 15.14465 15.13966 15.13421 15.12461 15.12024 15.12191 15.1232 15.13672 15.15761 15.16322
0 0 0 0 0 0 0 0 0 0 0 0 0 0 0 0 0 0 0 0 0 0 0 0 0 0 0 0 0 18.01258 17.62652 17.42097 17.42468 17.22165 16.94921 16.37817 14.98364 15.00595 15.02246 15.0473 15.06684 15.07725 15.09524 15.10596 15.12112 15.12545 15.13497 15.1384 15.14293 15.14181 15.14243 15.14102 15.13694 15.12883 15.12336 15.12378 15.13124 15.14408 15.1612 15.18407 15.2031 15.21596 15.23684 15.25729 15.27297 15.28671 15.29386 15.30033 15.29957 15.28824 15.27561 15.25572 15.23237 15.21269 15.18624 15.16077 15.13828 15.12289 15.11182 15.10656 15.10488 15.10516 15.10787 15.11065 15.11546 15.11846 15.11911 15.12138 15.11866 15.12005 15.1224 15.12817 15.14296 15.15269 15.16776 15.17775 15.18153 15.18343 15.18582 15.1832 15.17591 15.16958 15.15987 15.15779 15.15858 15.16472 15.17865 15.19393 15.18846
0 0 0 0 0 0 0 0 0 0 0 0 0 0 0 0 0 0 0 0 0 0 0 0 0 17.79089 17.08199 17.10244 16.19901 15.58308 15.29587 15.03181 15.02992 15.03474 15.03082 15.02717 15.02849 15.04008 15.0542 15.06975 15.08191 15.09837 15.11418 15.13636 15.1485 15.14978 15.16526 15.17822 15.18553 15.19095 15.19826 15.20388 15.20354 15.19596 15.18199 15.1818 15.18956 15.20158 15.2163 15.23479 15.25164 15.27266 15.29679 15.31518 15.33372 15.34592 15.35294 15.3627 15.36835 15.36032 15.35111 15.33146 15.30829 15.28946 15.26714 15.24354 15.21883 15.20416 15.19199 15.1884 15.18103 15.17756 15.17889 15.17701 15.17819 15.1802 15.18088 15.17794 15.17458 15.1722 15.17177 15.17848 15.1849 15.19543 15.20513 15.2125 15.215 15.2168 15.21602 15.21455 15.20712 15.2 15.19471 15.19734 15.20271 15.21212 15.22412 15.22438 15.19868
0 0 0 0 0 0 0 0 0 0 0 0 0 0 0 0 0 0 0 0 0 0 0 17.93947 17.10434 16.56776 16.27701 15.98285 15.09702 15.08692 15.08034 15.07496 15.07387 15.06954 15.05993 15.0568 15.058 15.06412 15.0787 15.08908 15.09415 15.10938 15.12608 15.14761 15.16202 15.17607 15.19544 15.21658 15.22919 15.24355 15.25883 15.2633 15.27019 15.25883 15.24796 15.24682 15.25126 15.26277 15.27734 15.29195 15.30418 15.32055 15.34099 15.35681 15.37358 15.38996 15.40282 15.41394 15.41805 15.41533 15.40577 15.39238 15.3805 15.36666 15.35141 15.3369 15.31894 15.30618 15.29377 15.28244 15.26983 15.25948 15.24962 15.24018 15.23903 15.23756 15.22865 15.22405 15.22037 15.21678 15.21951 15.22493 15.23155 15.23954 15.24638 15.25205 15.25088 15.25433 15.25199 15.25169 15.24567 15.23885 15.23766 15.24003 15.23971 15.24748 15.25135 15.23831 15.20129
0 0 0 0 0 0 0 0 0 0 0 0 0 0 0 0 0 0 0 0 0 0 17.35309 16.54171 16.27042 16.29385 16.00589 15.69776 15.1103 15.09832 15.09044 15.08371 15.07877 15.07435 15.07223 15.07195 15.06963 15.07424 15.08293 15.09701 15.10174 15.11555 15.1355 15.15841 15.17478 15.20444 15.22948 15.25666 15.27652 15.28073 15.29255 15.29919 15.3018 15.29576 15.28756 15.28736 15.29666 15.30885 15.3241 15.33603 15.34785 15.36688 15.38296 15.39953 15.4154 15.43161 15.44888 15.46159 15.46622 15.46567 15.45779 15.44928 15.44091 15.43001 15.41984 15.40626 15.39397 15.38313 15.37464 15.36445 15.35264 15.33964 15.32667 15.31549 15.30957 15.30599 15.29805 15.28971 15.2844 15.27673 15.27022 15.27114 15.27264 15.27805 15.28113 15.27927 15.28181 15.28159 15.28364 15.28424 15.28154 15.27916 15.28135 15.28449 15.28417 15.29035 15.28027 15.25036 15.19932
0 0 0 0 0 0 0 0 0 0 0 0 0 0 0 0 0 0 0 0 0 18.54066 17.56146 16.52294 15.95154 15.97769 15.68413 15.68945 15.10052 15.08827 15.08206 15.07343 15.06783 15.06588 15.06003 15.05851 15.0611 15.06557 15.07741 15.08795 15.0987 15.11501 15.13655 15.16056 15.18332 15.21667 15.25349 15.28136 15.28962 15.30115 15.31305 15.32153 15.32273 15.31874 15.31522 15.32172 15.33199 15.33956 15.35521 15.36632 15.37832 15.3928 15.40899 15.42568 15.44197 15.45792 15.4798 15.49686 15.50878 15.51284 15.51341 15.50979 15.50982 15.50714 15.49908 15.48711 15.47354 15.45914 15.4449 15.42964 15.41311 15.39335 15.37839 15.36988 15.36092 15.35666 15.35469 15.35181 15.34287 15.33689 15.32756 15.32641 15.32629 15.32543 15.32353 15.32416 15.32162 15.32025 15.31728 15.31338 15.3084 15.31001 15.31308 15.31704 15.32299 15.31911 15.29846 15.25371 15.18886
0 0 0 0 0 0 0 0 0 0 0 0 0 0 0 0 0 0 0 0 0 0 0 17.08567 16.25123 15.96165 15.67177 15.38731 15.0826 15.07406 15.0675 15.06314 15.05768 15.05422 15.04955 15.05187 15.05676 15.06359 15.07178 15.08464 15.09738 15.11848 15.13798 15.1632 15.19277 15.22219 15.24553 15.26663 15.2899 15.30795 15.3253 15.34064 15.34555 15.34217 15.34621 15.35566 15.36184 15.37447 15.38832 15.40331 15.41852 15.42937 15.44324 15.45636 15.47119 15.48529 15.50769 15.52723 15.54004 15.54705 15.55134 15.55392 15.55943 15.56437 15.56197 15.55579 15.54695 15.53463 15.51968 15.50798 15.48762 15.46975 15.45298 15.44109 15.42886 15.42192 15.41517 15.40911 15.39587 15.38241 15.37389 15.36824 15.36611 15.36688 15.36403 15.36749 15.37214 15.36661 15.36071 15.35408 15.35214 15.3569 15.35945 15.36082 15.35845 15.34579 15.31156 15.25721 15.18373
0 0 0 0 0 0 0 0 0 0 0 0 0 0 0 0 0 0 0 0 0 18.95008 18.67787 17.72621 16.28676 15.9857 15.67209 15.68062 15.35445 15.06294 15.05594 15.0493 15.0491 15.04501 15.04141 15.04444 15.0541 15.06448 15.07282 15.08375 15.10195 15.12262 15.14295 15.17186 15.18837 15.21153 15.22868 15.26184 15.29229 15.31949 15.34075 15.35638 15.37062 15.38238 15.38551 15.39189 15.40046 15.40683 15.42107 15.43792 15.44897 15.46308 15.47454 15.48605 15.50237 15.52129 15.54301 15.56254 15.57603 15.58211 15.59047 15.5986 15.60816 15.61349 15.61272 15.61304 15.60484 15.59101 15.57679 15.56302 15.54741 15.53292 15.52017 15.50556 15.49627 15.48777 15.48035 15.47052 15.45763 15.44622 15.43431 15.42246 15.41612 15.41507 15.41038 15.41206 15.41433 15.41031 15.40289 15.39566 15.39468 15.39715 15.39668 15.39401 15.38482 15.36325 15.3265 15.26861 15.18616
0 0 0 0 0 0 0 0 0 0 0 0 0 0 0 0 0 0 0 18.92021 18.89084 18.81736 18.02201 16.94479 16.33558 16.02135 15.69272 16.00415 15.07719 15.05269 15.04366 15.03974 15.03956 15.04182 15.04343 15.04311 15.0481 15.0589 15.07915 15.09324 15.11205 15.12865 15.14833 15.16847 15.18969 15.21347 15.2401 15.2697 15.30368 15.33358 15.36519 15.38994 15.40709 15.42213 15.43265 15.44613 15.46118 15.46499 15.4708 15.48119 15.4862 15.493 15.50287 15.51343 15.52876 15.54325 15.56682 15.58626 15.5982 15.60847 15.62446 15.63854 15.65501 15.66632 15.67205 15.67424 15.66911 15.66178 15.65012 15.63602 15.61887 15.60437 15.58907 15.571 15.55446 15.53953 15.52671 15.51326 15.50069 15.48837 15.47579 15.46827 15.46541 15.46415 15.46312 15.46896 15.47242 15.46951 15.46286 15.45484 15.45013 15.44476 15.43659 15.42611 15.41078 15.38129 15.34127 15.28063 15.19593
0 0 0 0 0 0 0 0 0 0 0 0 0 0 0 0 0 0 18.42476 18.32894 18.01839 17.58595 16.9986 16.36638 16.07194 16.056 15.72248 15.39532 15.08003 15.04788 15.03516 15.02906 15.03267 15.03571 15.04101 15.04535 15.05024 15.06465 15.08699 15.1055 15.12445 15.14309 15.16785 15.1892 15.21132 15.23461 15.26185 15.29678 15.33256 15.36522 15.39764 15.4237 15.44527 15.46364 15.48117 15.49859 15.50913 15.51553 15.51931 15.52344 15.52904 15.53422 15.53863 15.54372 15.56099 15.57859 15.59602 15.61088 15.62146 15.6339 15.64957 15.66748 15.68402 15.70167 15.71379 15.71614 15.71652 15.71583 15.71515 15.7078 15.69425 15.68173 15.66697 15.64684 15.62636 15.60695 15.58518 15.56725 15.55168 15.53528 15.52182 15.51054 15.50933 15.50748 15.50649 15.512 15.5143 15.51405 15.50998 15.50139 15.50044 15.4915 15.48041 15.46451 15.44509 15.40871 15.36826 15.31021 15.22901
0 0 0 0 0 0 0 0 0 0 0 0 0 0 0 0 0 18.82108 18.30851 17.74504 17.29676 16.7068 16.4036 16.41607 16.42457 16.06763 15.71856 15.10824 15.07083 15.04114 15.03016 15.02971 15.02766 15.02503 15.03118 15.04646 15.05577 15.0766 15.09239 15.11464 15.13618 15.15828 15.18128 15.21234 15.23675 15.26332 15.29552 15.3312 15.3684 15.40481 15.43523 15.46416 15.48768 15.50754 15.52377 15.53482 15.54152 15.54134 15.54414 15.55531 15.56316 15.56866 15.5685 15.57203 15.58117 15.60612 15.6219 15.63627 15.64562 15.66013 15.67753 15.69803 15.71805 15.73838 15.7512 15.75678 15.75873 15.76415 15.76363 15.75886 15.75102 15.73933 15.71913 15.6989 15.67813 15.65573 15.63486 15.61729 15.59811 15.58274 15.57029 15.5607 15.55986 15.55788 15.55947 15.56115 15.55935 15.55626 15.55103 15.54327 15.53659 15.52624 15.51234 15.49238 15.46968 15.4404 15.39797 15.34122 15.2707
0 0 0 0 0 0 0 0 0 0 0 0 0 0 0 0 18.29034 18.27918 17.49152 16.98535 16.70403 16.39947 16.40444 16.41227 16.40027 16.06073 15.70813 15.1035 15.05946 15.03437 15.02263 15.02154 15.02173 15.0247 15.03556 15.05429 15.0701 15.09073 15.1068 15.12387 15.15028 15.17619 15.20625 15.23692 15.2682 15.29961 15.33377 15.36771 15.40247 15.43783 15.4691 15.5007 15.52765 15.54619 15.56132 15.57567 15.58341 15.58929 15.5928 15.59666 15.59937 15.6051 15.60639 15.60435 15.60844 15.6211 15.63697 15.64958 15.66036 15.67497 15.6942 15.71475 15.73829 15.76192 15.77993 15.79125 15.80198 15.81007 15.81176 15.81308 15.80676 15.79538 15.77705 15.75493 15.73181 15.70473 15.68017 15.65657 15.63276 15.61793 15.60328 15.5977 15.5979 15.59822 15.59805 15.59786 15.59882 15.59479 15.58952 15.58124 15.57224 15.56183 15.54451 15.5278 15.50826 15.47769 15.43649 15.3814 15.30957
0 0 0 0 0 0 0 0 0 0 0 0 0 0 0 18.81081 18.09473 17.4459 16.92703 16.66947 16.37537 16.38961 16.40232 16.06753 16.06246 15.73559 15.11408 15.08458 15.04675 15.02885 15.0152 15.01548 15.01705 15.02536 15.03826 15.06398 15.08265 15.10883 15.13078 15.15424 15.18653 15.21871 15.25158 15.28489 15.32201 15.35629 15.38807 15.42039 15.45037 15.48366 15.51196 15.54138 15.56365 15.58171 15.59672 15.61435 15.62473 15.63198 15.64139 15.65014 15.65381 15.65324 15.65677 15.64938 15.64194 15.64472 15.65331 15.66195 15.67542 15.68985 15.70991 15.72969 15.75646 15.78371 15.80242 15.8164 15.83039 15.83888 15.84452 15.84583 15.84268 15.83266 15.81942 15.80405 15.78314 15.75977 15.73738 15.71145 15.68453 15.66513 15.64981 15.64604 15.64384 15.64192 15.63574 15.62996 15.62755 15.62003 15.61561 15.60264 15.59186 15.58037 15.5675 15.5579 15.54116 15.51576 15.48129 15.42944 15.36025
0 0 0 0 0 0 0 0 0 0 0 0 0 0 18.13058 18.12786 17.4447 16.89551 16.61268 16.31972 16.34728 16.02727 16.03505 16.03079 15.71695 15.39327 15.09146 15.0661 15.04149 15.03085 15.02324 15.02716 15.02959 15.03645 15.05827 15.07942 15.10373 15.1292 15.15705 15.19017 15.22771 15.26474 15.30571 15.34683 15.38668 15.41956 15.45342 15.48549 15.52066 15.54928 15.57473 15.5971 15.61491 15.63275 15.64691 15.66288 15.66917 15.68242 15.69453 15.70989 15.71512 15.71631 15.71633 15.70658 15.69141 15.67858 15.67422 15.6785 15.68924 15.69709 15.71346 15.74173 15.77461 15.8047 15.83036 15.84938 15.86403 15.87542 15.882 15.88206 15.87809 15.86732 15.85422 15.8401 15.82261 15.80173 15.78057 15.75368 15.72997 15.70989 15.69883 15.69133 15.68861 15.68674 15.67856 15.6693 15.65979 15.65049 15.64225 15.62816 15.61745 15.60568 15.59542 15.58519 15.57192 15.54258 15.50692 15.45854 15.38954
0 0 0 0 0 0 0 0 0 0 0 0 0 17.99307 18.15701 17.42663 16.85047 16.57909 16.28205 16.29941 15.99209 15.98905 16.00135 16.01071 15.688 15.08265 15.06711 15.05428 15.04169 15.03771 15.03827 15.04547 15.05452 15.06769 15.09206 15.11617 15.13977 15.16619 15.20194 15.23848 15.28039 15.32591 15.36966 15.41422 15.45342 15.48738 15.52517 15.55735 15.58935 15.61104 15.62945 15.65092 15.66836 15.67926 15.69344 15.70591 15.71762 15.72769 0 0 0 15.71592 15.73093 15.78448 15.76683 15.73599 15.71135 15.69964 15.69953 15.70123 15.71776 15.74478 15.78348 15.81695 15.84719 15.87177 15.89134 15.90489 15.91453 15.918 15.91582 15.91066 15.89666 15.88331 15.8699 15.8538 15.83489 15.813 15.78783 15.76477 15.7493 15.74043 15.73132 15.72386 15.71461 15.7021 15.69058 15.67987 15.66679 15.65614 15.642 15.6337 15.6262 15.6174 15.60365 15.5786 15.53715 15.48755 15.41751
0 0 0 0 0 0 0 0 0 0 0 0 0 18.36078 17.46143 16.8481 16.54588 16.24026 16.25962 15.95652 15.96805 15.97368 15.99027 15.08544 15.07565 15.06776 15.05613 15.05139 15.04819 15.04419 15.05622 15.06253 15.07701 15.08942 15.11444 15.1412 15.17625 15.2056 15.24936 15.29345 15.34223 15.39885 15.45536 15.50167 15.54113 15.57161 15.60549 15.63615 15.65935 15.67681 15.68812 16.45859 15.71604 15.71982 15.73131 16.10378 16.88175 17.66857 0 0 0 0 0 16.20079 15.81618 15.78557 15.75162 15.7293 15.71671 15.71529 15.72924 15.75721 15.79091 15.8327 15.86676 15.89542 15.91485 15.92922 15.9403 15.94657 15.94636 15.93976 15.92845 15.91821 15.90803 15.89827 15.88669 15.87254 15.85351 15.83332 15.81906 15.80906 15.79316 15.7807 15.76631 15.75012 15.73432 15.71935 15.70308 15.6879 15.67332 15.65901 15.65245 15.64205 15.62937 15.60682 15.56419 15.5087 15.4361
0 0 0 0 0 0 0 0 0 0 0 0 18.48226 17.70663 16.82741 16.52332 16.21106 15.93163 15.94459 15.95524 15.95791 15.97927 15.67385 15.07798 15.07307 15.06086 15.05875 15.0581 15.05801 15.06613 15.07608 15.08924 15.10465 15.11696 15.14219 15.17383 15.20111 15.24328 15.29283 15.34326 15.4001 15.45699 15.5136 15.56206 15.60562 15.63625 15.64966 0 0 15.67476 0 17.34371 16.53608 16.12929 16.52294 16.51421 17.29777 17.71991 18.68088 16.50511 15.78757 0 0 0 17.43569 15.80401 15.76869 15.74705 15.72986 15.7303 15.74484 15.76987 15.80609 15.84694 15.88403 15.91535 15.93859 15.95814 15.97306 15.98156 15.98005 15.97585 15.96768 15.95532 15.94534 15.93608 15.92876 15.91864 15.90457 15.88544 15.87593 15.86371 15.84891 15.83079 15.81672 15.80122 15.78403 15.76829 15.75041 15.73238 15.71649 15.7033 15.68741 15.67685 15.6596 15.63889 15.59272 15.52983 15.44962
0 0 0 0 0 0 0 0 0 0 0 17.70324 17.69952 16.82807 16.51728 15.90172 15.93197 15.94826 15.94994 15.95935 15.98689 15.36653 15.07661 15.07313 15.0641 15.05657 15.06288 15.07335 15.08017 15.09146 15.10795 15.11761 15.13212 15.14719 15.17642 15.20929 15.2494 15.30579 15.36024 15.41823 15.47729 15.53044 15.56977 15.60194 16.3879 0 0 0 0 0 18.12898 18.91425 18.68459 18.11692 17.75162 17.32242 17.31392 16.13502 15.77023 15.7819 15.78742 15.7934 15.7959 17.82249 18.18349 15.80519 15.77605 15.75696 15.74828 15.74723 15.75983 15.78416 15.81605 15.85926 15.89837 15.93035 15.95498 15.97769 15.99879 16.00709 16.01247 16.00719 15.99879 15.99052 15.98216 15.97828 15.97584 15.97163 15.96528 15.95149 15.93616 15.91805 15.89807 15.87818 15.86195 15.84341 15.82586 15.8079 15.79003 15.77136 15.75219 15.73783 15.71987 15.70557 15.69066 15.66199 15.623 15.55855 15.47521
0 0 0 0 0 0 0 0 0 0 18.37941 17.6901 16.81216 16.18472 15.91982 15.63579 15.64443 15.65873 15.66984 15.67575 15.68115 15.08517 15.08038 15.08119 15.07287 15.06808 15.07052 15.09112 15.1038 15.11757 15.13579 15.14856 15.16033 15.17388 15.20446 15.24575 15.29811 15.36119 15.42257 15.48463 15.54621 15.58788 15.97144 0 0 0 0 0 0 0 0 0 0 0 18.1331 17.76754 16.95502 15.7775 15.79175 15.80438 15.80902 15.81074 15.81107 15.81042 15.81031 15.80854 15.78849 15.7745 15.77206 15.7729 15.78502 15.80688 15.84076 15.88053 15.91712 15.94842 15.97516 15.99688 16.01647 16.02786 16.03198 16.02854 16.02447 16.01536 16.01073 16.0094 16.01143 16.01093 16.0071 15.99771 15.98155 15.9648 15.94291 15.92579 15.9102 15.89363 15.87738 15.85694 15.83801 15.81793 15.80055 15.78336 15.75843 15.73656 15.71509 15.68216 15.64241 15.57776 15.49387
0 0 0 0 0 0 0 0 0 0 17.9124 16.76524 16.15169 15.90331 15.34537 15.35831 15.08115 15.08308 15.08184 15.08543 15.08797 15.08102 15.08466 15.09066 15.09141 15.0863 15.10102 15.11953 15.13092 15.15006 15.16599 15.17721 15.18771 15.20417 15.24137 15.28814 15.34151 15.4006 15.46791 15.53196 16.70127 0 0 0 0 0 0 0 0 0 0 0 0 0 18.78378 17.41287 15.80183 15.80725 15.82065 15.83748 15.85213 15.85397 15.84916 15.83849 15.82844 15.8194 15.80737 15.79981 15.79816 15.79846 15.80872 15.83132 15.86254 15.90149 15.93821 15.96802 15.99661 16.02015 16.03665 16.04827 16.05289 16.05109 16.0482 16.0457 16.04163 16.03868 16.04217 16.04443 16.04133 16.02971 16.01597 15.99747 15.98096 15.96513 15.94863 15.93275 15.91672 15.90078 15.88444 15.86781 15.85171 15.83025 15.80254 15.77389 15.74437 15.709 15.66222 15.59798 15.51849
0 0 0 0 0 0 0 0 0 17.98807 17.40067 16.43449 15.84371 15.30895 15.07073 15.07116 15.05589 15.05299 15.0635 15.0766 15.07728 15.07653 15.08998 15.09617 15.09664 15.10274 15.11897 15.14054 15.15989 15.17267 15.18864 15.20281 15.21265 15.23732 15.27977 15.33288 15.38563 15.44679 15.5112 16.28849 16.51433 0 0 0 0 0 0 0 0 0 0 0 0 18.06294 17.84138 16.60263 15.81395 15.82607 15.85141 15.8779 15.8928 15.89921 15.89316 15.8801 15.86322 15.85175 15.8435 15.83818 15.83405 15.83292 15.84213 15.85961 15.88966 15.92314 15.95584 15.98443 16.01201 16.03369 16.05457 16.06308 16.06811 16.06888 16.07155 16.07174 16.07279 16.07222 16.07585 16.07749 16.07617 16.06661 16.05613 16.04005 16.02232 16.00475 15.98914 15.97239 15.95662 15.94054 15.92037 15.90455 15.8849 15.86388 15.83642 15.80432 15.76728 15.72673 15.67654 15.6114 15.53236
0 0 0 0 0 0 0 0 18.94712 17.73422 16.3909 15.78896 15.5138 15.00076 15.00769 15.01853 15.0284 15.03754 15.05003 15.06252 15.08061 15.10179 15.10923 15.10825 15.1112 15.13287 15.15826 15.17366 15.18705 15.1979 15.20823 15.21822 15.23931 15.26925 15.31635 15.37056 15.41829 15.46979 15.86578 16.28558 16.73051 17.54814 0 18.40505 18.99141 0 0 0 0 0 0 0 18.82746 17.83522 17.02687 15.82411 15.83635 15.86392 15.89273 15.91343 15.92216 15.92366 15.91813 15.90758 15.8984 15.8881 15.87952 15.87388 15.87104 15.87015 15.87953 15.89918 15.92385 15.95108 15.98133 16.00812 16.03897 16.06154 16.07818 16.08916 16.09293 16.09422 16.09562 16.09574 16.09694 16.09962 16.10304 16.10679 16.1063 16.10022 16.08743 16.07272 16.05812 16.04652 16.03178 16.01561 16.00264 15.98563 15.9707 15.95225 15.92728 15.90109 15.86696 15.83252 15.79218 15.74428 15.68676 15.62207 15.54515
0 0 0 0 0 0 0 0 18.95485 17.74285 16.38246 15.77446 14.95191 14.97374 14.97864 14.98974 15.00605 15.02095 15.04393 15.07353 15.09266 15.11082 15.11981 15.13594 15.1409 15.17142 15.19375 15.20974 15.22819 15.24444 15.26418 15.27993 15.29458 15.32214 15.36397 15.40755 15.45223 15.48718 15.52243 15.91292 16.32076 16.75806 17.19847 17.63837 18.43108 0 0 0 0 0 0 18.20325 17.41511 17.4242 15.81702 15.84307 15.87455 15.91249 15.94193 15.954 15.95499 15.94996 15.94487 15.93614 15.92698 15.91768 15.91041 15.90319 15.89859 15.90204 15.91205 15.92868 15.94849 15.97591 16.00594 16.03754 16.06593 16.09024 16.11164 16.12319 16.12941 16.12943 16.13123 16.13093 16.13289 16.13522 16.13785 16.13861 16.13884 16.1319 16.11822 16.10217 16.08857 16.07496 16.06394 16.04877 16.03933 16.02375 16.0051 15.98694 15.96052 15.93202 15.8966 15.85619 15.81238 15.75773 15.69761 15.63041 15.55831
0 0 0 0 0 0 0 0 0 17.7389 16.37869 15.76783 14.94288 14.9541 14.95865 14.97569 14.98717 15.00443 15.04287 15.07902 15.11097 15.13259 15.13531 15.15891 15.17448 15.20593 15.23187 15.27704 15.30756 15.32651 15.34633 15.3552 15.36166 15.37953 15.41082 15.45328 15.48505 15.50997 15.53757 15.56087 15.58381 15.60827 15.63487 16.02031 16.84594 17.67847 18.47815 18.8193 0 0 18.49461 17.38171 16.57269 15.80492 15.83336 15.87018 15.91127 15.94702 15.96929 15.97898 15.98187 15.97911 15.97234 15.96731 15.95985 15.95105 15.94915 15.94318 15.94157 15.94199 15.95303 15.96784 15.98639 16.01098 16.03482 16.06329 16.08945 16.11574 16.13676 16.15026 16.15648 16.15731 16.1603 16.1634 16.16897 16.17214 16.17617 16.1777 16.1735 16.16636 16.15486 16.14072 16.12357 16.10955 16.09536 16.08626 16.07452 16.05699 16.03817 16.0152 15.9895 15.95636 15.91575 15.87422 15.82377 15.76672 15.7074 15.64001 15.57085
0 0 0 0 0 0 0 0 0 18.81643 17.09556 16.09055 15.20337 14.95861 14.94873 14.9695 14.97014 14.99364 15.03882 15.08409 15.13222 15.15771 15.16854 15.19463 15.21559 15.24617 15.30476 15.34979 15.38127 15.40588 15.4215 15.42357 15.4267 15.43841 15.45409 15.48399 15.51417 15.53585 15.55712 15.56959 15.58536 15.60634 15.63802 15.6594 16.04459 16.4525 16.87648 17.29084 18.4817 17.34267 16.1113 15.75761 15.7898 15.82889 15.86556 15.90417 15.94103 15.96722 15.9852 15.99546 15.99934 15.99978 15.99666 15.98861 15.98108 15.9798 15.97904 15.97871 15.97858 15.98272 15.99015 16.00748 16.0255 16.04902 16.07342 16.09832 16.12369 16.14317 16.16297 16.17495 16.18295 16.18385 16.18369 16.19113 16.1958 16.20127 16.20475 16.20721 16.20579 16.19985 16.18953 16.17629 16.16033 16.14427 16.13093 16.12169 16.1105 16.08915 16.06555 16.04394 16.01524 15.97875 15.93695 15.88929 15.83637 15.77974 15.71786 15.64651 15.57203
0 0 0 0 0 0 0 0 0 18.96275 18.04302 16.42294 15.49346 14.96773 14.9673 14.9744 14.97181 14.99907 15.0459 15.09745 15.1315 15.17394 15.18757 15.20153 15.24276 15.30811 15.36568 15.41769 15.46008 15.48236 15.48775 15.48829 15.49013 15.49541 15.50452 15.52146 15.54556 15.56427 15.574 15.58396 15.59589 15.61312 15.63876 15.66517 15.68003 15.69377 16.08507 0 17.34464 16.1257 15.76488 15.79078 15.83112 15.87191 15.91293 15.94702 15.97486 15.99308 16.00913 16.01585 16.02308 16.02648 16.02459 16.01875 16.01541 16.01656 16.01498 16.01313 16.00939 16.01067 16.01924 16.03499 16.05139 16.0755 16.1006 16.12307 16.14529 16.1638 16.18214 16.19546 16.20503 16.20678 16.20967 16.21668 16.22398 16.23161 16.23583 16.24052 16.23989 16.23072 16.22499 16.21008 16.19343 16.17734 16.15936 16.14897 16.13654 16.11628 16.09173 16.06225 16.03173 15.99338 15.94926 15.90508 15.85005 15.78942 15.72341 15.65038 15.56742
0 0 0 0 0 0 0 0 0 0 18.61915 17.16168 15.81741 15.25994 15.00347 14.99091 14.98681 14.99887 15.03788 15.0671 15.12186 15.16617 15.19087 15.21845 15.26968 15.33991 15.4061 15.45901 0 0 0 15.72652 15.52871 15.53848 15.5446 15.55416 15.5717 15.59226 15.60253 15.60811 15.61224 15.62587 15.64472 15.66805 15.69198 15.7121 15.73707 16.13492 15.76649 15.78263 15.81226 15.8448 15.88163 15.91695 15.94688 15.97353 15.99458 16.01169 16.02465 16.03631 16.04475 16.05052 16.05073 16.04802 16.04871 16.05449 16.0576 16.05267 16.04772 16.04794 16.05416 16.06689 16.08107 16.10124 16.12432 16.14675 16.16471 16.18618 16.19973 16.21214 16.22108 16.2241 16.22951 16.23505 16.24544 16.25541 16.26056 16.26353 16.2645 16.26228 16.25396 16.24302 16.2261 16.21026 16.19574 16.17833 16.16655 16.14477 16.1195 16.08548 16.05048 16.00994 15.96727 15.92167 15.86412 15.79716 15.72685 15.65055 15.56303
0 0 0 0 0 0 0 0 0 0 0 18.54662 17.2315 15.87069 15.27264 14.99888 14.98792 14.99709 15.02178 15.04162 15.08964 15.14146 15.18567 15.22146 15.27854 15.35444 15.76812 16.16926 0 0 0 16.35316 16.63772 15.5526 15.56758 15.57301 15.5953 15.61249 15.62399 15.62825 15.62755 15.6382 15.65702 15.68605 15.71468 15.74202 15.76653 15.78817 15.80592 15.8263 15.85887 15.89531 15.93028 15.95888 15.98368 16.00541 16.0192 16.02961 16.03848 16.04644 16.05855 16.06547 16.07096 16.07073 16.07148 16.0732 16.0745 16.07687 16.07624 16.07648 16.08347 16.09999 16.1137 16.12975 16.14958 16.17089 16.19055 16.20975 16.22528 16.23365 16.24283 16.24634 16.24949 16.25664 16.26312 16.27051 16.27618 16.27859 16.28369 16.27977 16.27281 16.26153 16.24668 16.23475 16.22089 16.2087 16.1936 16.17258 16.14333 16.11217 16.07665 16.03372 15.98359 15.93472 15.87774 15.81448 15.73991 15.66122 15.57031
0 0 0 0 0 0 0 0 0 0 0 0 18.7905 17.57237 15.84779 15.26645 14.98368 14.98754 15.01107 15.03491 15.05698 15.11843 15.17601 15.22312 15.27524 15.35528 16.11326 0 0 17.68078 17.79073 16.26285 15.5458 15.55644 15.56174 15.5909 15.60532 15.62786 15.64658 15.652 15.65098 15.66022 15.67657 15.70879 15.74347 15.7757 15.79856 15.81727 15.83455 15.86246 15.89248 15.92699 15.96521 15.99648 16.02005 16.03543 16.05046 16.06058 16.06759 16.06947 16.07818 16.08433 16.09323 16.09105 16.09102 16.09166 16.09329 16.10016 16.10149 16.10724 16.10976 16.12102 16.13426 16.15131 16.16996 16.19377 16.21733 16.23452 16.24573 16.25158 16.26142 16.26697 16.27231 16.27883 16.28506 16.29062 16.29519 16.29884 16.30104 16.29613 16.29387 16.28377 16.27012 16.25869 16.2479 16.23629 16.22068 16.19781 16.17018 16.13572 16.09375 16.05033 16.00123 15.95195 15.89687 15.83354 15.75957 15.68131 15.6012
0 0 0 0 0 0 0 0 0 0 0 0 0 0 0 15.82758 15.22519 14.97568 14.99643 15.00485 15.04776 15.10384 15.16397 15.21697 15.26004 15.67104 15.74982 16.15452 16.55631 18.58203 17.79406 16.2533 15.54971 15.55629 15.56825 15.59928 15.62525 15.64458 15.65997 15.67199 15.68268 15.69413 15.71069 15.7347 15.76374 15.79368 15.81857 15.84045 15.863 15.89193 15.92324 15.96063 15.99546 16.0265 16.05119 16.06662 16.07909 16.08719 16.09353 16.09522 16.09609 16.1013 16.10436 16.10261 16.10488 16.10955 16.11495 16.12367 16.13051 16.13277 16.13871 16.14909 16.16385 16.18288 16.20491 16.22523 16.24396 16.25856 16.26661 16.27803 16.28313 16.28912 16.29395 16.30082 16.30735 16.31063 16.31173 16.31218 16.31466 16.31394 16.30823 16.30245 16.29259 16.2832 16.27381 16.26255 16.24895 16.22477 16.19572 16.16263 16.12097 16.07534 16.02823 15.97981 15.92523 15.86218 15.78918 15.71237 15.63957
0 0 0 0 0 0 0 0 0 0 0 0 0 0 0 16.43557 15.81535 14.95647 14.98362 14.99283 15.04613 15.10382 15.16035 15.21773 15.25759 15.32233 16.08847 16.15802 16.57367 0 17.85033 15.54644 15.55527 15.5593 15.59468 15.6108 15.63812 15.65763 15.67283 15.69001 15.71078 15.72322 15.73884 15.75756 15.77851 15.80741 15.83195 15.85376 15.88974 15.92405 15.96525 15.99676 16.02613 16.05568 16.08043 16.098 16.10911 16.1144 16.1156 16.11552 16.11699 16.1136 16.11407 16.11506 16.11744 16.12574 16.13387 16.14096 16.14775 16.15327 16.1648 16.17885 16.19433 16.21565 16.23312 16.25296 16.26975 16.28585 16.29945 16.3077 16.31328 16.31807 16.32061 16.32495 16.32899 16.32849 16.33094 16.33212 16.32944 16.32603 16.32129 16.31489 16.31049 16.30194 16.29247 16.2822 16.26793 16.24496 16.21889 16.18894 16.14872 16.10676 16.0619 16.016 15.96358 15.90309 15.8402 15.76998 15.69967
0 0 0 0 0 0 0 0 0 0 0 0 0 17.50958 17.19739 16.46884 15.83804 14.96942 14.99941 15.02477 15.06938 15.11153 15.17298 15.23517 15.27717 15.32866 16.43495 16.86751 17.33592 17.28764 18.25441 15.88889 15.55091 15.56674 15.59962 15.62522 15.65755 15.67922 15.6947 15.7093 15.72343 15.74058 15.75663 15.77745 15.79876 15.81866 15.84295 15.87494 15.91281 15.95332 15.99041 16.01857 16.04787 16.07182 16.09092 16.11068 16.12485 16.13477 16.13195 16.13416 16.13103 16.12981 16.12995 16.13392 16.13544 16.14067 16.15086 16.15822 16.16532 16.17522 16.18911 16.20391 16.21861 16.23811 16.25823 16.27465 16.29387 16.30992 16.32547 16.33603 16.34178 16.34476 16.34612 16.34829 16.34877 16.34985 16.34853 16.34862 16.34563 16.33837 16.33211 16.32817 16.32344 16.31896 16.31155 16.30258 16.2911 16.272 16.24494 16.2146 16.17697 16.13505 16.09053 16.04489 15.99676 15.93945 15.88148 15.82296 15.76249
0 0 0 0 0 0 0 0 0 0 0 0 16.78561 16.45936 16.50499 16.19439 15.57547 14.99441 15.03358 15.07064 15.11885 15.16884 15.21633 15.27156 15.31768 15.36586 16.11613 16.17161 16.96547 17.77788 16.25579 15.53758 15.56614 15.60262 15.63885 15.66904 15.69663 15.71049 15.71794 15.72548 15.74106 15.75709 15.77357 15.79671 15.8222 15.84393 15.87121 15.89913 15.93196 15.96687 15.99684 16.01954 16.04263 16.06857 16.09249 16.10948 16.12371 16.13335 16.13403 16.13484 16.13813 16.13544 16.13742 16.13966 16.14446 16.15058 16.16185 16.1717 16.17944 16.19393 16.20983 16.23045 16.24921 16.27329 16.28811 16.29873 16.31452 16.33064 16.34435 16.35369 16.35764 16.35807 16.36024 16.3621 16.36379 16.36087 16.35886 16.35426 16.34762 16.34038 16.33459 16.33059 16.32613 16.32416 16.31809 16.30985 16.30259 16.28595 16.26396 16.23477 16.20393 16.16665 16.12611 16.08693 16.04024 15.98578 15.93174 15.86899 15.81385
0 0 0 0 0 0 0 0 18.19805 17.57459 16.66627 16.0293 16.09632 16.11639 15.86427 15.91932 15.63612 15.04631 15.08932 15.14015 15.19345 15.24412 15.2971 15.33574 15.36993 15.41415 15.45807 15.48532 15.51409 15.53732 15.54948 15.57063 15.60214 15.64851 15.67449 15.70009 15.71884 15.73051 15.73558 15.73969 15.75177 15.77728 15.79367 15.81445 15.84189 15.87144 15.89844 15.92244 15.94643 15.97772 15.99734 16.02155 16.04232 16.06361 16.08378 16.09797 16.11167 16.12334 16.1326 16.13632 16.14078 16.13745 16.13641 16.13815 16.14714 16.15512 16.16746 16.17953 16.19335 16.21238 16.23304 16.25766 16.2795 16.30035 16.31421 16.32453 16.34268 16.35684 16.36645 16.37272 16.37807 16.37688 16.37824 16.37926 16.37465 16.3706 16.36325 16.35793 16.34924 16.34476 16.34038 16.33586 16.3309 16.32375 16.32029 16.31379 16.30466 16.29243 16.27506 16.25217 16.22643 16.19657 16.16323 16.1271 16.08506 16.03766 15.98746 15.93602 15.87836
0 0 0 0 0 0 0 17.23657 17.23696 15.96851 15.70128 15.73265 15.7605 15.84005 15.91471 15.65016 15.06746 15.09837 15.14552 15.19461 15.26005 15.29307 15.34539 15.38455 15.41899 15.45593 15.49404 15.52511 15.55946 15.58663 15.60949 15.63576 15.66651 15.68884 15.70432 15.72027 15.73426 15.74315 15.75171 15.75683 15.76912 15.78925 15.81113 15.83119 15.85784 15.88827 15.91339 15.93536 15.95525 15.97028 15.98625 16.00501 16.02778 16.05148 16.07098 16.08871 16.0989 16.11345 16.12504 16.12884 16.13233 16.13003 16.13278 16.14063 16.14902 16.16364 16.17947 16.1947 16.21356 16.23395 16.25623 16.28203 16.30048 16.31722 16.3342 16.34764 16.36169 16.3746 16.37962 16.38978 16.39328 16.39329 16.39189 16.39054 16.38313 16.37376 16.36605 16.35635 16.34363 16.33875 16.33763 16.33684 16.3303 16.33002 16.32953 16.32488 16.32075 16.30604 16.28954 16.27349 16.24939 16.22308 16.1927 16.16397 16.12393 16.08155 16.0365 15.98779 15.93086
0 0 0 0 0 0 17.69046 17.54572 15.96555 15.68265 15.68331 15.72224 15.8074 15.57612 15.35121 15.09881 15.12233 15.17918 15.22635 15.2787 15.31233 15.34265 15.39475 15.42793 15.46266 15.48236 15.51782 15.57013 15.61061 15.63575 15.65757 15.68787 15.70932 15.72407 15.73388 15.74444 15.7553 15.76612 15.77635 15.78178 15.79159 15.80465 15.82281 15.848 15.87109 15.88598 15.90332 15.92379 15.93993 15.95957 15.97777 15.99645 16.01577 16.03327 16.05251 16.06748 16.08224 16.09625 16.10535 16.11561 16.12689 16.12881 16.12651 16.13805 16.1519 16.17286 16.19315 16.2155 16.23298 16.2553 16.27662 16.30115 16.31816 16.33744 16.3553 16.37144 16.38282 16.39506 16.40135 16.40405 16.40495 16.40237 16.40013 16.3919 16.38126 16.37012 16.35814 16.34817 16.33833 16.33297 16.32972 16.32997 16.32873 16.33283 16.3336 16.33669 16.33215 16.32171 16.30854 16.29862 16.28057 16.25886 16.23339 16.20647 16.17008 16.13587 16.09235 16.04823 15.99537
0 0 0 0 0 0 18.66367 16.862 15.97175 15.67477 15.41333 15.49089 15.25959 15.03735 15.08516 15.14057 15.19607 15.22893 15.27129 15.31405 15.35822 15.39804 15.43842 15.46318 15.49997 15.51555 15.55321 15.60597 15.64092 15.66357 15.68961 15.71908 15.73228 15.74344 15.75279 15.76244 15.77298 15.7774 15.78513 15.7933 15.8075 15.82238 15.84016 15.85505 15.86463 15.87749 15.88894 15.90116 15.92043 15.94155 15.96127 15.98172 16.00031 16.01349 16.03124 16.04299 16.05716 16.06918 16.08498 16.09715 16.10595 16.11115 16.11919 16.13616 16.15777 16.17971 16.20814 16.23393 16.25262 16.27268 16.29328 16.31704 16.33855 16.35503 16.37258 16.3849 16.39844 16.40779 16.41479 16.41608 16.41454 16.40947 16.4001 16.38956 16.37469 16.36071 16.35154 16.34365 16.33851 16.33382 16.32833 16.32472 16.32922 16.33731 16.34288 16.34521 16.34132 16.33394 16.32634 16.32001 16.30706 16.28956 16.26893 16.24891 16.22299 16.19092 16.15203 16.11284 16.06601
0 0 0 0 0 18.62503 17.92493 16.81448 15.98911 15.71755 15.19381 14.95863 15.00879 15.07316 15.13869 15.18453 15.22628 15.26903 15.32144 15.3665 15.40854 15.43514 15.47835 15.50867 15.54351 15.56577 15.59757 15.64665 15.67402 15.70297 15.72467 15.74088 15.76226 15.76806 15.77257 15.78215 15.79231 15.79182 15.79567 15.80728 15.81942 15.83134 15.84187 15.8469 15.85551 15.86483 15.87582 15.89299 15.91188 15.93384 15.94974 15.96684 15.97801 15.99375 16.00458 16.01741 16.03559 16.05216 16.06564 16.0778 16.08856 16.09722 16.11475 16.14745 16.17067 16.1945 16.22287 16.25111 16.27386 16.29407 16.31173 16.33285 16.35725 16.36871 16.38668 16.4002 16.41262 16.42138 16.42644 16.42216 16.41448 16.40873 16.40062 16.38551 16.36732 16.34859 16.33997 16.34115 16.33742 16.33458 16.33329 16.32974 16.3369 16.34646 16.35706 16.36089 16.3586 16.35348 16.34721 16.34329 16.33433 16.32451 16.30745 16.2902 16.27044 16.23745 16.20167 16.16504 16.12307
0 0 0 0 17.54627 16.95249 15.78751 15.58355 15.36658 14.90139 14.9341 14.97997 15.05185 15.1192 15.17638 15.22474 15.26274 15.30374 15.35232 15.3919 15.42297 15.46991 15.51227 15.5438 15.5868 15.61744 15.65241 15.68828 15.7162 15.74402 15.75405 15.77097 15.78222 15.78809 15.79308 15.79925 15.79838 15.80458 15.81374 15.81867 15.81943 15.82533 15.82974 15.83229 15.84019 15.85102 15.8628 15.87888 15.90468 15.92414 15.93823 15.95022 15.9598 15.97805 15.9951 16.00768 16.01498 16.02656 16.04583 16.05684 16.06799 16.07582 16.09649 16.13918 16.16573 16.1967 16.22377 16.25279 16.28487 16.31351 16.33105 16.34974 16.36571 16.38341 16.3987 16.41122 16.42402 16.43187 16.43103 16.42564 16.42155 16.41085 16.396 16.38071 16.36726 16.35154 16.34679 16.34226 16.33992 16.33786 16.33648 16.34272 16.34915 16.36239 16.37446 16.37845 16.3748 16.37411 16.37399 16.37365 16.36934 16.36188 16.357 16.34783 16.32244 16.29593 16.26224 16.22096 16.18495
0 0 0 0 18.61341 15.99416 14.77735 14.80485 14.86055 14.89696 14.96898 15.04685 15.11113 15.17151 15.23601 15.28675 15.32693 15.35219 15.38787 15.42105 15.45779 15.50242 15.54767 15.58891 15.61793 15.64448 15.68073 15.71947 15.74731 15.76784 15.78144 15.79257 15.80295 15.80355 15.80669 15.80513 15.81107 15.81611 15.81363 15.81807 15.82438 15.81969 15.81462 15.81429 15.82132 15.83623 15.85275 15.86446 15.88772 15.90549 15.91651 15.92075 15.93627 15.95582 15.97287 15.98626 16.00159 16.00807 16.02033 16.03817 16.05136 16.06238 16.0892 16.13325 16.16715 16.19952 16.23117 16.26159 16.29265 16.32393 16.34163 16.35932 16.37421 16.3935 16.40696 16.4167 16.42503 16.42855 16.4283 16.42659 16.41918 16.41 16.39429 16.38213 16.36782 16.35734 16.34478 16.34503 16.34851 16.34703 16.35065 16.35739 16.36601 16.37872 16.38858 16.39113 16.38981 16.39212 16.3982 16.40096 16.40074 16.40115 16.39379 16.3884 16.37403 16.34976 16.32012 16.28353 16.25067
0 0 0 17.38474 16.87563 15.70248 14.77007 14.83079 14.86693 14.93975 15.02365 15.07808 15.14787 15.21735 15.27803 15.32456 15.3588 15.38191 15.41699 15.45428 15.50003 15.54436 15.57502 15.61042 15.64067 15.66681 15.70411 15.73774 15.76327 15.7812 15.79512 15.80643 15.81262 15.81803 15.82029 15.82284 15.81974 15.82053 15.8191 15.81882 15.81268 15.80676 15.80333 15.8016 15.80596 15.81907 15.83741 15.85365 15.86978 15.88204 15.89162 15.90273 15.91689 15.92821 15.9463 15.96331 15.98423 15.9993 16.01433 16.02801 16.04615 16.06161 16.08881 16.11828 16.15328 16.1985 16.22991 16.25494 16.29178 16.32633 16.34638 16.36515 16.38284 16.39445 16.4068 16.41786 16.41733 16.42026 16.42115 16.42057 16.41243 16.40481 16.39119 16.37925 16.36851 16.36131 16.36104 16.3642 16.36645 16.37262 16.38374 16.39102 16.39961 16.40776 16.41126 16.41711 16.41484 16.41597 16.42537 16.43111 16.43875 16.44 16.43237 16.4271 16.41712 16.39841 16.37022 16.33837 16.30684
0 0 0 17.21695 16.833 15.65883 15.21959 14.83616 14.92348 14.99021 15.05847 15.12054 15.1791 15.23686 15.2945 15.33391 15.38517 15.40527 15.43509 15.46653 15.50947 15.55598 15.60038 15.63615 15.66458 15.69135 15.71925 15.74936 15.77088 15.78483 15.80595 15.81589 15.82419 15.82905 15.83031 15.82337 15.81825 15.81846 15.82005 15.81191 15.80456 15.79753 15.79228 15.78715 15.79219 15.80725 15.82429 15.83967 15.85606 15.86491 15.87393 15.88218 15.89745 15.91213 15.92897 15.94939 15.97807 15.99698 16.0043 16.02209 16.03728 16.05883 16.07465 16.12561 16.16613 16.19092 16.21573 16.25925 16.29438 16.32668 16.35321 16.37482 16.38558 16.39565 16.4052 16.41231 16.41087 16.40975 16.41104 16.40518 16.40038 16.39077 16.3855 16.37549 16.36801 16.37061 16.37523 16.37994 16.38824 16.40028 16.41491 16.42542 16.43306 16.43898 16.4431 16.45246 16.45046 16.45427 16.46315 16.46764 16.47566 16.47695 16.47823 16.47371 16.46507 16.44778 16.43127 16.40961 16.38497
0 0 0 18.3319 17.02445 15.65323 15.00102 14.83914 14.93233 15.01718 15.11345 15.15831 15.20382 15.26305 15.3175 15.36394 15.39609 15.42536 15.45488 15.49673 15.53352 15.56379 15.59917 15.62745 15.66201 15.68217 15.72281 15.76108 15.78021 15.79368 15.80507 15.81726 15.82683 15.83183 15.82903 15.82129 15.82293 15.82091 15.81297 15.80906 15.79417 15.78475 15.77912 15.77881 15.78139 15.79819 15.80868 15.82342 15.83919 15.84729 15.85601 15.86795 15.88587 15.90433 15.92308 15.94475 15.97388 15.99152 16.00194 16.01887 16.04119 16.05853 16.09739 16.13252 16.16664 16.18823 16.23289 16.26913 16.29518 16.33003 16.35514 16.37825 16.39207 16.40117 16.40575 16.40612 16.40163 16.39724 16.39862 16.39453 16.38953 16.38771 16.38778 16.38739 16.3878 16.38904 16.40032 16.40698 16.4213 16.43644 16.4483 16.45649 16.46149 16.47072 16.47316 16.47538 16.47721 16.48347 16.49467 16.50246 16.50747 16.51221 16.51422 16.51316 16.50418 16.48713 16.47865 16.46469 16.44868
0 0 0 18.36468 16.10169 15.1815 14.77978 14.87409 14.99155 15.07181 15.14867 15.18969 15.24316 15.28288 15.34156 15.38274 15.41279 15.44439 15.4823 15.50117 15.5272 15.55429 15.57894 15.61121 15.63699 15.66775 15.71262 15.75457 15.78057 15.79739 15.80992 15.82504 15.84034 15.85 15.84331 15.83584 15.83094 15.82692 15.81648 15.80367 15.79588 15.78916 15.78672 15.78408 15.78209 15.79068 15.8038 15.81811 15.82813 15.83842 15.85836 15.87933 15.89175 15.91165 15.9302 15.95315 15.97442 15.99894 16.01539 16.03362 16.05888 16.08905 16.12014 16.14466 16.18256 16.20978 16.23923 16.27741 16.30152 16.32392 16.35528 16.37758 16.39572 16.40574 16.40481 16.39911 16.39597 16.38953 16.38828 16.38384 16.37969 16.38728 16.3861 16.39161 16.39844 16.40694 16.4234 16.44325 16.45834 16.4687 16.48414 16.49212 16.50424 16.51012 16.51724 16.51712 16.52169 16.52547 16.53305 16.54367 16.55281 16.55886 16.55425 16.55174 16.5431 16.52977 16.51779 16.51156 16.49495
14.86353 14.8628 15.81881 16.14033 14.88847 14.74831 14.83396 14.96627 15.05972 15.1361 15.18251 15.22522 15.26654 15.30602 15.3516 15.38782 15.41129 15.44418 15.47458 15.4906 15.51458 15.52901 15.56313 15.5922 15.62169 15.64593 15.69822 15.73978 15.77762 15.80929 15.81846 15.83504 15.85295 15.85965 15.85711 15.84761 15.83775 15.82949 15.82538 15.81587 15.8034 15.79488 15.7887 15.78981 15.78513 15.79392 15.80637 15.81575 15.82986 15.8468 15.86515 15.88395 15.89869 15.92213 15.94589 15.97353 15.99099 16.01851 16.03729 16.05735 16.07818 16.10056 16.14257 16.16871 16.19542 16.22362 16.24357 16.2809 16.31378 16.33244 16.35589 16.37392 16.39428 16.40317 16.40624 16.39693 16.39586 16.39046 16.38546 16.38064 16.38214 16.38644 16.40003 16.41138 16.42373 16.43037 16.45029 16.47307 16.48891 16.50521 16.52198 16.53758 16.54615 16.55458 16.56012 16.56109 16.56724 16.57222 16.58352 16.59571 16.6012 16.60217 16.60205 16.59621 16.59043 16.58352 16.57144 16.55968 16.55046
14.86952 14.85755 14.86134 14.87014 14.86638 14.92763 15.01151 15.09993 15.15531 15.19296 15.22621 15.2562 15.27893 15.30201 15.34188 15.38337 15.40299 15.42032 15.44749 15.47502 15.49137 15.52062 15.55186 15.57709 15.59856 15.63939 15.67831 15.73446 15.76406 15.79387 15.81849 15.84307 15.86644 15.87572 15.87572 15.87022 15.85586 15.8446 15.83764 15.82922 15.81513 15.80625 15.80233 15.79707 15.79791 15.80549 15.81353 15.82397 15.83884 15.86041 15.88435 15.90316 15.92257 15.94282 15.96988 15.99852 16.02294 16.04931 16.0727 16.08624 16.09877 16.12886 16.15939 16.18242 16.20407 16.23054 16.25947 16.28856 16.31344 16.337 16.3613 16.37646 16.39059 16.39956 16.40372 16.40388 16.39996 16.40034 16.3944 16.38924 16.39097 16.39673 16.41214 16.43193 16.43976 16.4564 16.48068 16.4996 16.52139 16.54287 16.56607 16.58128 16.58695 16.59395 16.59795 16.60383 16.60786 16.61074 16.61919 16.63151 16.63934 16.64081 16.63788 16.63715 16.63476 16.63233 16.62631 16.61718 16.60851
14.99942 15.00922 15.02206 15.03283 15.04417 15.08967 15.12861 15.16971 15.18718 15.23383 15.25306 15.2622 15.27772 15.31816 15.35234 15.39481 15.42776 15.44017 15.44574 15.45398 15.4702 15.50444 15.52914 15.55857 15.58769 15.63081 15.68262 15.73466 15.76587 15.79021 15.82432 15.8505 15.8735 15.88975 15.88506 15.87791 15.87095 15.86233 15.85367 15.84704 15.83262 15.82506 15.82078 15.81823 15.81624 15.8211 15.83166 15.84602 15.86585 15.88795 15.9123 15.93914 15.95848 15.97946 16.00096 16.02708 16.05747 16.08671 16.1083 16.11931 16.13226 16.1521 16.17989 16.204 16.22518 16.24517 16.27516 16.30017 16.32654 16.34754 16.36264 16.37593 16.39011 16.40104 16.40825 16.39981 16.40494 16.40975 16.40797 16.40069 16.40558 16.41399 16.42755 16.44579 16.47162 16.49756 16.52217 16.54726 16.56961 16.5934 16.62148 16.63498 16.64326 16.64882 16.65082 16.65638 16.66076 16.66531 16.67031 16.68063 16.69 16.68851 16.6853 16.68568 16.68194 16.67994 16.67686 16.67025 16.66291
15.04978 15.07963 15.1081 15.11143 15.12505 15.13404 15.15921 15.17406 15.19536 15.22893 15.24679 15.26677 15.28213 15.30915 15.35578 15.38725 15.40624 15.41012 15.42392 15.44457 15.46425 15.47751 15.50671 15.54424 15.58112 15.63171 15.67063 15.72542 15.74937 15.78964 15.82293 15.85826 15.8847 15.9011 15.90135 15.90123 15.89018 15.88349 15.87326 15.862 15.85197 15.84867 15.84704 15.84252 15.84097 15.84747 15.85664 15.87473 15.89723 15.92404 15.9508 15.97403 15.99618 16.01986 16.03939 16.06412 16.09516 16.11895 16.13192 16.15831 16.17285 16.19489 16.21668 16.23477 16.25703 16.27947 16.30252 16.32583 16.34363 16.35886 16.36737 16.37737 16.3909 16.40611 16.41411 16.41584 16.42258 16.42303 16.42189 16.42356 16.42591 16.43232 16.45282 16.4729 16.49678 16.52997 16.55695 16.58761 16.61506 16.64126 16.66563 16.67858 16.69411 16.70577 16.70936 16.71745 16.72372 16.73553 16.74739 16.76265 16.77101 16.76987 16.76378 16.75856 16.75535 16.75371 16.74721 16.74468 16.74344
15.09214 15.11088 15.11555 15.12129 15.13146 15.14593 15.17226 15.19166 15.19977 15.20675 15.2343 15.25691 15.2685 15.297 15.33923 15.36592 15.39085 15.40959 15.42981 15.44291 15.45435 15.48108 15.50598 15.54845 15.58842 15.64577 15.68463 15.72626 15.75845 15.79136 15.82666 15.8643 15.89325 15.91469 15.92493 15.92877 15.92445 15.91592 15.91015 15.90011 15.8886 15.88703 15.88568 15.88588 15.88966 15.89953 15.91506 15.93012 15.94772 15.96865 15.99775 16.01971 16.04168 16.05961 16.0829 16.11037 16.13436 16.15583 16.17713 16.1958 16.21432 16.23624 16.2558 16.27728 16.2953 16.31524 16.33729 16.35455 16.37251 16.38381 16.39025 16.40812 16.41798 16.42315 16.42778 16.44119 16.44528 16.44285 16.44425 16.44609 16.44976 16.46082 16.48314 16.5122 16.53911 16.57144 16.61051 16.64691 16.68367 16.71092 16.72701 16.73953 16.75098 16.75868 16.768 16.77261 16.7811 16.79306 16.81304 16.83838 16.85933 16.86432 16.85282 16.84351 16.84544 16.84654 16.84898 16.84742 16.84551
15.10462 15.10015 15.11307 15.12404 15.14603 15.16994 15.18869 15.20408 15.20112 15.20665 15.23022 15.24719 15.25738 15.2953 15.32274 15.34921 15.38202 15.40989 15.42087 15.44942 15.46102 15.49309 15.51365 15.56688 15.60687 15.65405 15.69246 15.74438 15.77669 15.81251 15.84637 15.8831 15.91293 15.9394 15.94635 15.95239 15.951 15.94684 15.94956 15.9411 15.93631 15.93698 15.93749 15.9417 15.955 15.96549 15.98545 16.00682 16.02287 16.04558 16.06426 16.08612 16.10882 16.13471 16.15746 16.17738 16.19997 16.22687 16.2428 16.26055 16.28237 16.29361 16.31246 16.32291 16.33892 16.35519 16.37181 16.39149 16.40181 16.41337 16.4292 16.43417 16.44488 16.45479 16.45619 16.46244 16.46376 16.46508 16.47164 16.48699 16.49953 16.51783 16.53519 16.56013 16.5938 16.62783 16.67111 16.71662 16.75672 16.78555 16.80153 16.81623 16.82574 16.83445 16.84074 16.83676 16.83848 16.84783 16.8711 16.897 16.92214 16.92907 16.92936 16.92844 16.9268 16.9271 16.92943 16.92327 16.91767
15.11315 15.11946 15.13101 15.13601 15.14903 15.17273 15.19533 15.2068 15.21508 15.21934 15.24783 15.24164 15.24601 15.2823 15.31166 15.34268 15.3778 15.40486 15.4288 15.45068 15.47958 15.50516 15.54717 15.59878 15.64343 15.68577 15.7274 15.77573 15.81833 15.84782 15.87558 15.90976 15.9414 15.96178 15.97294 15.9807 15.98792 15.98507 15.98567 15.9856 15.98524 15.98959 15.99682 16.01302 16.02489 16.04177 16.06163 16.08392 16.10835 16.12894 16.15246 16.17126 16.19335 16.22234 16.24938 16.27347 16.28254 16.30547 16.32379 16.33658 16.35294 16.36429 16.38518 16.39965 16.4103 16.41491 16.43058 16.43969 16.44942 16.45764 16.46806 16.48572 16.49631 16.50021 16.49878 16.49907 16.50496 16.51014 16.52382 16.53944 16.54888 16.56272 16.59085 16.61759 16.6525 16.68657 16.7253 16.7583 0 0 16.83785 16.87828 16.88659 16.89236 16.89935 16.89851 16.90276 16.91532 16.91656 0 0 16.94219 16.9882 16.99317 17.00031 17.00494 17.0131 17.01549 17.00408
