ncols        109
nrows        82
xllcorner    -1.041666666667
yllcorner    37.041665395101
cellsize     0.083333333333
NODATA_value -9999
0.0 0 0 0 0 0 0 0 0 0 0 0 0 0 0 0 0 0 0 0 0 0 0 0 0 0 0 0 0 0 0 0 0 0 0 0 0 0 0 0 0 0 0 0 0 0 0 0 0 0 0 0 0 0 0 0 0 0 0 0 0 0 0 0 0 0 0 0 0 0 0 0 0 0 0 0 0 0 0 0 0 0 0 0 0 0 0 0 0 0 0 0 0 0 0 0 0 0 0 0 0 0 0 0 0 19.36547 18.02941 16.57573 16.5594
0 0 0 0 0 0 0 0 0 0 0 0 0 0 0 0 0 0 0 0 0 0 0 0 0 0 0 0 0 0 0 0 0 0 0 0 0 0 0 0 0 0 0 0 0 0 0 0 0 0 0 0 0 0 0 0 0 0 0 0 0 0 0 0 0 0 0 0 0 0 0 0 0 0 0 0 0 0 0 0 0 0 0 0 0 0 0 0 0 0 0 0 0 0 0 0 0 0 0 0 0 16.77791 16.79645 16.56696 16.56648 16.55987 16.54049 16.51575 16.47913
0 0 0 0 0 0 0 0 0 0 0 0 0 0 0 0 0 0 0 0 0 0 0 0 0 0 0 0 0 0 0 0 0 0 0 0 0 0 0 0 0 0 0 0 0 0 0 0 0 0 0 0 0 0 0 0 0 0 0 0 0 0 0 0 0 0 0 0 0 0 0 0 0 0 0 0 0 0 0 0 0 0 0 0 0 0 0 0 0 0 0 0 0 0 0 0 0 0 16.58881 16.5762 16.56241 16.53959 16.51397 16.49489 16.47121 16.43849 16.39023 16.34937 16.31604
0 0 0 0 0 0 0 0 0 0 0 0 0 0 0 0 0 0 0 0 0 0 0 0 0 0 0 0 0 0 0 0 0 0 0 0 0 0 0 0 0 0 0 0 0 0 0 0 0 0 0 0 0 0 0 0 0 0 0 0 0 0 0 0 0 0 0 0 0 0 0 0 0 0 0 0 0 0 0 0 0 0 0 0 0 0 0 0 0 0 0 0 0 0 0 0 0 18.36305 16.57174 16.53404 16.48325 16.43173 16.39486 16.37178 16.33779 16.30536 16.26885 16.23414 16.20057
0 0 0 0 0 0 0 0 0 0 0 0 0 0 0 0 0 0 0 0 0 0 0 0 0 0 0 0 0 0 0 0 0 0 0 0 0 0 0 0 0 0 0 0 0 0 0 0 0 0 0 0 0 0 0 0 0 0 18.12314 17.73348 17.42629 17.56497 0 0 0 0 0 0 0 0 0 0 0 0 0 0 0 0 0 0 0 0 0 0 0 0 0 0 0 0 0 0 0 0 0 17.11142 16.62702 16.59165 16.5302 16.46869 16.40341 16.342 16.28905 16.23702 16.19522 16.15952 16.13105 16.11155 16.09499
0 0 0 0 0 0 0 0 0 0 0 0 0 0 0 0 0 0 0 0 0 0 0 0 0 0 0 0 0 0 0 0 0 0 0 0 0 0 0 0 0 0 0 0 0 0 0 0 0 0 0 0 0 0 0 0 17.61652 17.64748 17.35096 17.11618 17.0307 17.01904 17.11142 17.33404 17.55582 17.67704 17.66499 0 0 0 0 18.03119 0 0 0 0 0 0 0 0 0 0 0 0 0 0 0 0 0 0 0 0 0 17.75633 16.60633 16.62542 16.58392 16.51895 16.43546 16.35954 16.28705 16.22326 16.17416 16.12316 16.09891 16.08095 16.06193 16.04621 16.03645
0 0 0 0 0 0 0 0 0 0 0 0 0 0 0 0 0 0 0 0 0 0 0 0 0 0 0 0 0 0 0 0 0 0 0 0 0 0 0 0 0 0 0 0 0 0 0 0 0 0 0 0 0 0 0 17.76079 17.34732 17.01062 16.80133 16.54006 16.60276 16.6327 16.81881 16.95766 17.11146 17.23078 17.31816 17.52161 17.73351 17.70264 17.6577 17.41406 17.1908 17.24544 17.41627 17.1537 17.17322 0 0 0 0 0 0 0 0 0 0 0 0 0 0 0 17.00965 16.63788 16.61262 16.57088 16.51106 16.43373 16.35144 16.27667 16.20193 16.12906 16.0838 16.03256 16.0211 16.01504 16.00956 16.00807 16.01036
0 0 0 0 0 0 0 0 0 0 0 0 0 0 0 0 0 0 0 0 0 0 0 0 0 0 0 0 0 0 0 0 0 0 0 0 0 0 0 0 0 0 0 0 0 0 0 0 0 0 0 17.35664 17.54677 17.71487 17.46679 17.03556 16.79801 16.51947 16.39876 16.47217 16.52816 16.55027 16.54985 16.74667 16.7539 16.95378 16.93927 16.93952 16.96583 16.86167 16.73946 16.77675 16.6217 16.83257 16.86736 17.07444 0 0 0 0 0 0 0 0 0 0 0 0 0 0 0 0 16.64038 16.63474 16.55926 16.48133 16.4014 16.31786 16.241 16.16877 16.10575 16.05767 16.02906 16.00252 15.99882 15.99753 16.00041 16.00443 16.01205
0 0 0 0 0 0 0 0 0 0 0 0 0 0 0 0 0 0 0 0 0 0 0 0 0 0 0 0 0 0 0 0 0 0 0 0 0 0 0 0 0 0 0 0 0 0 0 0 0 0 17.51063 17.37852 17.14462 17.10318 17.00677 16.7219 16.37892 16.45029 16.30031 16.35911 16.40188 16.42675 16.44305 16.63515 16.63355 16.84773 16.8503 16.86317 16.70573 16.55553 16.59061 16.63339 16.47633 16.68635 16.70652 16.94303 16.96785 16.78449 16.82534 17.27324 17.79598 18.67005 0 0 0 0 0 0 0 17.75077 17.11311 16.67118 16.66085 16.59724 16.48881 16.38888 16.30766 16.23105 16.15555 16.09006 16.04483 16.01396 16.00057 15.99979 16.00193 16.008 16.0182 16.0243 16.03604
0 0 0 0 0 0 0 0 0 0 0 0 0 0 0 0 0 0 0 0 0 0 0 0 0 0 0 0 0 0 0 0 0 0 0 0 0 0 0 0 0 0 0 0 0 0 0 0 0 18.35826 17.19888 17.10685 17.0557 16.75937 16.60334 16.43489 16.48049 16.31756 16.3632 16.41215 16.45341 16.48208 16.50068 16.71094 16.7219 16.72885 16.74469 16.75491 16.76505 16.59283 16.61993 16.46767 16.30303 16.31814 16.32942 16.35487 16.37843 16.41975 16.45912 16.47775 16.9121 17.54472 0 17.39501 18.03934 18.61739 18.94964 18.66815 18.14152 16.67105 16.69212 16.68353 16.62014 16.51897 16.39383 16.3049 16.21907 16.16066 16.10035 16.05891 16.03465 16.02798 16.02646 16.02813 16.03562 16.047 16.05747 16.06867 16.08016
0 0 0 0 0 0 0 0 0 0 0 0 0 0 0 0 0 0 0 0 0 0 0 0 0 0 0 0 0 0 0 0 0 0 0 0 0 0 0 0 0 0 0 0 0 0 0 0 0 18.01993 17.1408 16.87059 16.57408 16.43114 16.48426 16.32113 16.36206 16.40864 16.44915 16.4913 16.52894 16.55251 16.56321 16.5649 16.57292 16.39999 16.25573 16.42206 16.43016 16.4354 16.4464 16.27383 16.27695 16.28163 16.30292 16.32118 16.35 16.37565 16.40517 16.43384 16.46684 16.50487 16.54499 16.57882 16.61722 16.63427 17.76225 17.99101 17.57564 16.63813 16.62157 16.57075 16.50244 16.40689 16.32967 16.24919 16.18072 16.1313 16.08555 16.06297 16.06197 16.06786 16.07607 16.084 16.09241 16.10269 16.11132 16.12031 16.13251
0 0 0 0 0 0 0 0 0 0 0 0 0 0 0 0 0 0 0 0 0 0 0 0 0 0 0 0 0 0 0 0 0 0 0 0 0 0 0 0 0 0 0 0 0 0 0 0 0 17.74146 17.06364 16.7632 16.42926 16.50695 16.34446 16.40213 16.44282 16.48823 16.52358 16.55549 16.38259 16.40076 16.41113 16.41795 16.42366 16.24979 16.25482 16.25534 16.23879 16.23227 16.23412 16.23368 16.23541 16.24039 16.26587 16.27276 16.28456 16.29497 16.31328 16.34122 16.37077 16.41282 16.44919 16.4808 16.51617 16.54407 16.56364 16.58185 16.5814 16.54952 16.50633 16.44917 16.37964 16.31266 16.25031 16.19908 16.15985 16.11169 16.098 16.09638 16.10211 16.11198 16.12081 16.13186 16.14405 16.15348 16.1631 16.17438 16.18507
0 0 0 0 0 0 0 0 0 0 0 0 0 0 0 0 0 0 0 0 0 0 0 0 0 0 0 0 0 0 0 0 0 0 0 0 0 0 0 0 0 0 0 0 0 0 0 0 0 17.64538 16.93175 16.61742 16.48458 16.34101 16.41411 16.48207 16.33855 16.36894 16.20039 16.21063 16.22122 16.2271 16.23207 16.23471 16.23558 16.23201 16.2282 16.22153 16.20201 16.18163 16.17725 16.17009 16.16459 16.16112 16.18045 16.18069 16.18869 16.20501 16.22735 16.25024 16.27275 16.3036 16.33121 16.35598 16.37357 16.38997 16.40647 16.40978 16.40563 16.39041 16.36252 16.32779 16.28068 16.23062 16.19555 16.16516 16.14802 16.12666 16.12977 16.1391 16.14819 16.16019 16.17244 16.18678 16.19718 16.20554 16.21477 16.22569 16.23997
0 0 0 0 0 0 0 0 0 0 0 0 0 0 0 0 0 0 0 0 0 0 0 0 0 0 0 0 0 0 0 0 0 0 0 0 0 0 0 0 0 0 0 0 0 0 0 0 0 17.50434 16.97008 16.6474 16.52148 16.37632 16.45103 16.31349 16.16768 16.19162 16.2068 16.21056 16.21062 16.2076 16.20411 16.20002 16.1974 16.1898 16.18143 16.17059 16.15658 16.14316 16.13404 16.12477 16.11229 16.10359 16.09549 16.08265 16.08234 16.08988 16.10663 16.11804 16.13808 16.15974 16.18129 16.20864 16.23157 16.2511 16.26601 16.27808 16.28187 16.26796 16.25078 16.2254 16.19503 16.16913 16.14882 16.14651 16.15771 16.16275 16.17169 16.18142 16.19295 16.20311 16.21389 16.2287 16.24089 16.25447 16.26573 16.27591 16.29506
0 0 0 0 0 0 0 0 0 0 0 0 0 0 0 0 0 0 0 0 0 0 0 0 0 0 0 0 0 0 0 0 0 0 0 0 0 0 0 0 0 0 0 0 0 0 0 0 0 17.55396 16.77802 16.44916 16.56351 16.42484 16.49731 16.32646 16.16116 16.17962 16.19095 16.18519 16.17644 16.1731 16.16887 16.16444 16.159 16.1474 16.12825 16.11708 16.10047 16.08072 16.06497 16.04566 16.03658 16.03197 16.0237 16.01814 16.0184 16.02286 16.03085 16.04133 16.05185 16.06027 16.07194 16.08266 16.10332 16.11908 16.13543 16.15045 16.15917 16.15986 16.16246 16.15986 16.15268 16.1535 16.15327 16.15977 16.17216 16.18556 16.20248 16.21472 16.22527 16.23471 16.24707 16.25992 16.27211 16.28435 16.29577 16.30676 16.32603
0 0 0 0 0 0 0 0 0 0 0 0 0 0 0 0 0 0 0 0 0 0 0 0 0 0 0 0 0 0 0 0 0 0 0 0 0 0 0 0 0 0 0 0 0 0 0 0 0 17.05653 16.83761 16.48208 16.3844 16.28471 16.33644 16.16012 16.15236 16.16392 16.15917 16.15242 16.14238 16.13125 16.12547 16.12269 16.11856 16.1091 16.09773 16.08619 16.0744 16.05537 16.02697 16.00051 15.98365 15.97624 15.96932 15.96627 15.9615 15.96462 15.96751 15.97653 15.9853 15.99571 16.00906 16.02326 16.04089 16.05601 16.07115 16.08426 16.09389 16.10059 16.11198 16.12134 16.13052 16.14244 16.15563 16.1735 16.19443 16.21039 16.22461 16.2386 16.25199 16.26138 16.2748 16.29247 16.30373 16.31682 16.3303 16.3451 16.36681
0 0 0 0 0 0 0 0 0 0 0 0 0 0 0 0 0 0 0 0 0 0 0 0 0 0 0 0 0 0 0 0 0 0 0 0 0 0 0 0 0 0 0 0 0 0 0 0 0 0 16.59987 16.55317 16.4526 16.14647 16.17204 16.16391 16.14639 16.14042 16.13381 16.12877 16.11475 16.10921 16.10504 16.09524 16.09154 16.09001 16.08402 16.07596 16.06046 16.03989 16.01363 15.98918 15.97152 15.96234 15.95069 15.94902 15.94825 15.94932 15.94935 15.95167 15.95798 15.96364 15.97004 15.98184 15.99473 16.01037 16.02771 16.04492 16.06221 16.07809 16.09786 16.11417 16.12652 16.14696 16.16739 16.19075 16.21095 16.22842 16.24364 16.2631 16.27877 16.2941 16.30701 16.32194 16.33368 16.34138 16.35348 16.37168 16.39444
0 0 0 0 0 0 0 0 0 0 0 0 0 0 0 0 0 0 0 0 0 0 0 0 0 0 0 0 0 0 0 0 0 0 0 0 0 0 0 0 0 0 0 0 0 0 0 0 0 0 16.76063 16.36586 16.09733 16.15628 16.16136 16.15666 16.1298 16.12259 16.11205 16.09962 16.09105 16.08473 16.08717 16.08912 16.08737 16.08549 16.0824 16.07816 16.06507 16.04751 16.02451 16.00189 15.98192 15.96674 15.95516 15.95132 15.94923 15.94899 15.94864 15.95052 15.95151 15.95738 15.96472 15.97191 15.98376 15.99719 16.01383 16.03303 16.05048 16.0691 16.09085 16.11409 16.13584 16.15871 16.18419 16.20804 16.2304 16.2468 16.26367 16.28305 16.3019 16.31598 16.3279 16.34498 16.35818 16.36839 16.38049 16.39988 16.42367
0 0 0 0 0 0 0 0 0 0 0 0 0 0 0 0 0 0 0 0 0 0 0 0 0 0 0 0 0 0 0 0 0 0 0 0 0 0 0 0 0 0 0 0 0 0 0 0 0 0 0 0 16.11728 16.14385 16.14414 16.12942 16.12185 16.10862 16.09409 16.08671 16.07899 16.07535 16.07789 16.08495 16.0912 16.09596 16.10161 16.10288 16.09119 16.07785 16.05719 16.03506 16.01527 15.99596 15.97651 15.97152 15.96917 15.96324 15.96101 15.96096 15.96095 15.96378 15.96643 15.97447 15.98365 15.99784 16.01533 16.03458 16.05391 16.07742 16.09995 16.12972 16.15763 16.18432 16.21559 16.24374 16.26856 16.28396 16.30355 16.31636 16.333 16.34457 16.35403 16.36668 16.37892 16.38986 16.39926 16.42035 16.44475
0 0 0 0 0 0 0 0 0 0 0 0 0 0 0 0 0 0 0 0 0 0 0 0 0 0 0 0 0 0 0 0 0 0 0 0 0 0 0 0 0 0 0 0 0 0 0 0 0 0 18.3585 16.78438 16.35955 16.16763 16.15274 16.13006 16.1147 16.10094 16.0907 16.0805 16.07791 16.07944 16.08475 16.09074 16.10313 16.11576 16.12609 16.12839 16.12098 16.11026 16.09171 16.06904 16.0487 16.03181 16.01344 15.99755 15.987 15.98051 15.97506 15.97307 15.96916 15.96992 15.97633 15.98432 15.99295 16.00648 16.02406 16.04373 16.06762 16.09532 16.12564 16.15993 16.19056 16.22254 16.25254 16.28036 16.30262 16.31703 16.33474 16.34704 16.35896 16.37034 16.38063 16.3917 16.40409 16.41094 16.42088 16.44358 16.46724
0 0 0 0 0 0 0 0 0 0 0 0 0 0 0 0 0 0 0 0 0 0 0 0 0 0 0 0 0 0 0 0 0 0 0 0 0 0 0 0 0 0 0 0 0 0 0 0 0 0 17.72968 16.81716 16.61294 16.19714 16.17816 16.14757 16.1244 16.10275 16.09602 16.09344 16.09807 16.09786 16.10471 16.1133 16.12639 16.14129 16.15149 16.15913 16.15107 16.13435 16.11146 16.09132 16.06808 16.05078 16.03152 16.01555 16.00229 15.99494 15.98833 15.98388 15.98334 15.9869 15.99223 16.00118 16.01067 16.02158 16.04052 16.06106 16.08746 16.12125 16.15683 16.19431 16.23132 16.26591 16.29636 16.32462 16.34624 16.36222 16.37191 16.38212 16.38839 16.39695 16.40463 16.41111 16.41888 16.42668 16.43826 16.45803 16.48526
0 0 0 0 0 0 0 0 0 0 0 0 0 0 0 0 0 0 0 0 0 0 0 0 0 0 0 0 0 0 0 0 0 0 0 0 0 0 0 0 0 0 0 0 0 0 0 0 0 0 0 16.87671 16.42751 16.22091 16.1984 16.17345 16.1404 16.12397 16.11921 16.121 16.11959 16.12486 16.13624 16.14959 16.16185 16.17892 16.19036 16.19953 16.19553 16.17927 16.15536 16.12721 16.10027 16.07264 16.05036 16.03333 16.01499 16.00661 16.0013 15.9977 15.99926 16.00787 16.01307 16.01993 16.0313 16.04885 16.07025 16.09579 16.12818 16.16506 16.20764 16.24543 16.27995 16.3103 16.33514 16.35891 16.38057 16.39529 16.40397 16.41229 16.41818 16.42745 16.43122 16.44003 16.44591 16.45624 16.46542 16.4835 16.51193
0 0 0 0 0 0 0 0 0 0 0 0 0 0 0 0 0 0 0 0 0 0 0 0 0 0 0 0 0 0 0 0 0 0 0 0 0 0 0 0 0 0 0 0 0 0 0 0 0 0 0 16.67651 16.2593 16.25149 16.2175 16.19691 16.16141 16.15 16.14371 16.14905 16.15466 16.16937 16.18506 16.20005 16.21523 16.22685 16.23966 16.24403 16.23719 16.21462 16.18881 16.15501 16.13145 16.10141 16.07713 16.05518 16.03889 16.03212 16.02607 16.02497 16.02952 16.03429 16.04439 16.0512 16.06375 16.0814 16.10684 16.13897 16.17479 16.21636 16.26181 16.30221 16.33503 16.36044 16.38687 16.40753 16.42332 16.43416 16.43886 16.44508 16.44777 16.45219 16.45688 16.4636 16.47298 16.48258 16.49507 16.51304 16.5369
0 0 0 0 0 0 0 0 0 0 0 0 0 0 0 0 0 0 0 0 0 0 0 0 0 0 0 0 0 0 0 0 0 0 0 0 0 0 0 0 0 0 0 0 0 0 0 0 0 0 0 16.31293 16.29832 16.2775 16.24508 16.21719 16.18312 16.17395 16.17603 16.18339 16.19184 16.21266 16.23696 16.25219 16.26612 16.28836 16.30274 16.30037 16.28864 16.26624 16.23668 16.19774 16.16448 16.12986 16.09662 16.07308 16.05753 16.04898 16.04739 16.05001 16.05933 16.07016 16.0801 16.0967 16.1115 16.13666 16.16619 16.2035 16.24168 16.28098 16.31913 16.35594 16.38211 16.40467 16.42773 16.44634 16.46239 16.47171 16.47723 16.47828 16.47994 16.48145 16.48909 16.49722 16.50555 16.51502 16.52416 16.53782 16.55779
0 0 0 0 0 0 0 0 0 0 0 0 0 0 0 0 0 0 0 0 0 0 0 0 0 0 0 0 0 0 0 0 0 0 0 0 0 0 0 0 0 0 0 0 0 0 0 0 0 18.3328 17.33768 16.35048 16.32502 16.29503 16.26766 16.23719 16.21795 16.20506 16.21431 16.22592 16.24456 16.2669 16.28842 16.30473 16.32307 16.34773 16.35199 16.35425 16.33617 16.3149 16.2876 16.25277 16.21501 16.17754 16.14221 16.11583 16.09729 16.08441 16.08288 16.09026 16.10338 16.1119 16.1251 16.14075 16.16443 16.18962 16.22584 16.26608 16.30887 16.34772 16.38946 16.42268 16.44144 16.46204 16.48134 16.49736 16.50818 16.51639 16.51705 16.51646 16.51464 16.516 16.5204 16.52936 16.53602 16.54574 16.55498 16.56738 16.58578
0 0 0 0 0 0 0 0 0 0 0 0 0 0 0 0 0 0 0 0 0 0 0 0 0 0 0 0 0 0 0 0 0 0 0 0 0 0 0 0 0 0 0 0 0 0 0 0 17.43097 16.88069 16.62728 16.38692 16.35746 16.31912 16.28617 16.26133 16.24147 16.24081 16.24924 16.26971 16.29575 16.32446 16.35009 16.36712 16.38793 16.40304 16.40837 16.4103 16.39553 16.36652 16.3377 16.2974 16.25487 16.21838 16.18193 16.1542 16.13502 16.12196 16.12146 16.13037 16.14787 16.16524 16.17972 16.20055 16.22739 16.25381 16.28793 16.32345 16.35572 16.39148 16.42817 16.4569 16.47925 16.50013 16.51799 16.53609 16.54899 16.55586 16.55905 16.55819 16.55941 16.56044 16.55892 16.56355 16.56771 16.57253 16.57992 16.59203 16.60969
0 0 0 0 0 0 0 0 0 0 0 0 0 0 0 0 0 0 0 0 0 0 0 0 0 0 0 0 0 0 0 0 0 0 0 0 0 0 0 0 0 0 0 0 0 17.10965 16.9746 17.51664 16.97076 16.97715 16.70325 16.44088 16.40469 16.36301 16.32613 16.29649 16.28513 16.28259 16.2969 16.3151 16.34424 16.37028 16.40077 16.41893 16.44262 16.45326 16.46133 16.46073 16.44694 16.4224 16.38655 16.34873 16.31002 16.27198 16.2355 16.20229 16.17813 16.16921 16.16565 16.17743 16.19116 16.2085 16.22672 16.24812 16.28131 16.313 16.34245 16.37422 16.40708 16.44037 16.4721 16.49891 16.51964 16.53964 16.5579 16.5708 16.58295 16.58911 16.59575 16.59771 16.59783 16.59875 16.59747 16.60168 16.60491 16.61023 16.61253 16.62255 16.63947
0 0 0 0 0 0 0 0 0 0 0 0 0 0 0 0 0 0 0 0 0 0 0 0 0 0 0 0 0 0 0 0 0 0 0 0 0 0 0 0 0 0 19.21032 18.90843 17.89721 17.04103 16.52575 16.53334 17.06132 16.77945 16.51757 16.48479 16.44577 16.40514 16.37054 16.34954 16.33683 16.34212 16.3545 16.37508 16.40699 16.43324 16.45895 16.47985 16.49687 16.51025 16.51481 16.5026 16.48525 16.45666 16.42501 16.39131 16.35166 16.31869 16.28487 16.25228 16.23303 16.22303 16.22535 16.23783 16.25022 16.26608 16.2831 16.30454 16.33121 16.36019 16.38913 16.41521 16.44474 16.47619 16.50589 16.53168 16.54976 16.57416 16.59298 16.61274 16.62612 16.63429 16.64373 16.64869 16.64672 16.64236 16.63562 16.63301 16.63428 16.63699 16.64282 16.65324 16.66694
0 0 0 0 0 0 0 0 0 0 0 0 0 0 0 0 0 0 0 0 0 0 0 0 0 0 0 0 0 0 0 0 0 0 0 0 0 0 0 0 18.29799 18.70342 18.95937 17.99226 17.10095 16.57316 16.59035 16.6059 16.60273 16.58934 16.56985 16.52843 16.48693 16.44987 16.41715 16.3962 16.38926 16.38969 16.40337 16.42837 16.45904 16.49057 16.51589 16.53755 16.55006 16.55591 16.55452 16.5495 16.53297 16.51414 16.47935 16.44457 16.41052 16.375 16.33512 16.30693 16.28157 16.26423 16.27373 16.28399 16.29919 16.31417 16.33916 16.36004 16.38793 16.41456 16.44119 16.46579 16.489 16.51401 16.53918 16.5622 16.58205 16.5994 16.6219 16.63811 16.65485 16.66541 16.67561 16.68225 16.6822 16.67791 16.67352 16.66945 16.66999 16.67264 16.67719 16.68707 16.6955
0 0 0 0 0 0 0 0 0 0 0 0 0 0 0 0 0 0 0 0 0 0 0 0 0 0 0 0 0 0 0 0 0 0 0 0 0 0 0 18.52137 18.26915 17.69802 17.42994 16.59087 16.60011 16.61007 16.63108 16.64845 16.65081 16.63551 16.60837 16.57192 16.53156 16.49556 16.47497 16.4583 16.45312 16.46113 16.47332 16.4965 16.52442 16.54894 16.57031 16.5844 16.59992 16.60696 16.59815 16.59064 16.57509 16.55755 16.53 16.50016 16.47229 16.44323 16.41064 16.38088 16.35653 16.33988 16.33395 16.33994 16.35108 16.36534 16.38315 16.4035 16.42424 16.44857 16.47772 16.50689 16.52481 16.54628 16.5707 16.59555 16.61403 16.63215 16.6533 16.67608 16.69386 16.7007 16.7088 16.7061 16.7057 16.70369 16.69822 16.6973 16.69653 16.69854 16.7099 16.72145 16.73237
0 0 0 0 0 0 0 0 0 0 0 0 0 0 0 0 0 0 0 0 0 0 0 0 0 0 0 0 0 0 0 0 0 0 0 0 0 0 17.69548 17.40231 17.14426 16.61125 16.63231 16.6416 16.64993 16.66656 16.68059 16.68925 16.6872 16.67509 16.65264 16.62341 16.59433 16.55451 16.53144 16.51576 16.51133 16.5182 16.53562 16.56111 16.58938 16.6101 16.63271 16.64415 16.64747 16.65267 16.6552 16.64802 16.62808 16.60572 16.58327 16.5537 16.5243 16.49662 16.46383 16.43527 16.41463 16.39509 16.39171 16.39481 16.4101 16.42031 16.43863 16.4599 16.48066 16.50339 16.52645 16.54498 16.56265 16.58466 16.60584 16.62504 16.64166 16.65806 16.67883 16.7024 16.72132 16.72996 16.73158 16.73755 16.73616 16.73454 16.73155 16.73046 16.73168 16.73717 16.75 16.76455 16.77226
0 0 0 0 0 0 0 0 0 0 0 0 0 0 0 0 0 0 0 0 0 0 0 0 0 0 0 0 0 0 0 0 0 0 19.36711 19.98913 19.12993 17.42442 16.57369 16.59554 16.6226 16.64071 16.66229 16.67826 16.69577 16.70865 16.71971 16.73074 16.7357 16.73577 16.72216 16.70304 16.68166 16.64842 16.62044 16.59872 16.58804 16.58869 16.60507 16.62444 16.64794 16.65982 16.67443 16.68448 16.69204 16.70293 16.69817 16.69951 16.68606 16.66604 16.64402 16.61822 16.5907 16.56303 16.53574 16.51002 16.48617 16.46589 16.45183 16.45315 16.46066 16.47408 16.48809 16.50446 16.52745 16.55014 16.56949 16.58906 16.60624 16.62589 16.64844 16.66781 16.68384 16.70241 16.7163 16.73472 16.7495 16.75573 16.7597 16.75947 16.76298 16.75997 16.75769 16.7598 16.76468 16.77787 16.79638 16.8187 16.82246
0 0 0 0 0 0 0 0 0 0 0 0 0 0 0 0 0 0 0 0 0 0 0 0 0 0 0 0 0 19.83007 19.4219 19.20314 19.198 18.97312 18.68281 18.09147 16.59111 16.60248 16.61216 16.62887 16.6486 16.67045 16.69671 16.71676 16.73209 16.73656 16.75335 16.76447 16.77696 16.77604 16.77093 16.76445 16.74952 16.72646 16.69525 16.68316 16.6757 16.67365 16.69361 16.70204 16.71183 16.72082 16.72836 16.73927 16.74517 16.74419 16.74595 16.74106 16.72411 16.70996 16.69261 16.66933 16.64534 16.62568 16.59766 16.57682 16.56048 16.54235 16.53177 16.53208 16.5374 16.55315 16.56568 16.57465 16.59074 16.60156 16.60981 16.62913 16.64302 16.66155 16.681 16.69872 16.7195 16.73661 16.75166 16.76867 16.78055 16.78798 16.79041 16.79173 16.79383 16.79443 16.79599 16.79742 16.80659 16.81993 16.84001 16.85667 16.85242
0 0 0 0 0 0 0 0 0 0 0 0 0 0 0 0 0 0 0 0 0 0 0 0 0 19.61103 18.88861 18.88697 17.93632 17.27035 16.94355 16.63774 16.62904 16.62023 16.61177 16.61198 16.61662 16.61922 16.63497 16.64779 16.66826 16.69891 16.72391 16.74846 16.7683 16.78079 16.80485 16.82126 16.83769 16.85188 16.85531 16.84557 16.83062 16.80244 16.77082 16.7566 16.74572 16.74242 16.74279 16.74989 16.76065 16.77232 16.78003 16.78844 16.79105 16.7983 16.79522 16.78875 16.77967 16.76935 16.75908 16.73489 16.71299 16.69146 16.66924 16.6431 16.62399 16.61017 16.60057 16.60466 16.60694 16.61512 16.62783 16.63765 16.6508 16.66187 16.6694 16.68114 16.6924 16.70701 16.72789 16.74467 16.75856 16.7725 16.785 16.79494 16.80372 16.8147 16.81525 16.81608 16.81974 16.8231 16.82961 16.83914 16.84917 16.86695 16.88353 16.88548 16.85789
0 0 0 0 0 0 0 0 0 0 0 0 0 0 0 0 0 0 0 0 0 0 0 19.79136 18.93925 18.35258 18.01854 17.68217 16.70681 16.69329 16.6725 16.65329 16.64035 16.6292 16.6228 16.62589 16.63144 16.63678 16.64417 16.6596 16.6834 16.70961 16.74208 16.76932 16.78916 16.80583 16.83449 16.85951 16.88756 16.90555 16.92291 16.91567 16.89769 16.8775 16.8482 16.81862 16.80823 16.80437 16.79836 16.80117 16.80958 16.81236 16.81682 16.82214 16.8238 16.83081 16.83077 16.82546 16.81644 16.80932 16.80474 16.78749 16.7734 16.75357 16.73653 16.72115 16.70211 16.6965 16.69094 16.68542 16.6857 16.68799 16.6948 16.70028 16.70911 16.71548 16.71858 16.72376 16.734 16.74851 16.76549 16.78286 16.79552 16.81069 16.81989 16.82772 16.83384 16.84166 16.84107 16.84942 16.8549 16.85691 16.86207 16.8732 16.88759 16.90259 16.91033 16.89484 16.85286
0 0 0 0 0 0 0 0 0 0 0 0 0 0 0 0 0 0 0 0 0 0 19.2298 18.37388 18.0505 18.0472 17.70952 17.3571 16.69891 16.67469 16.65781 16.64921 16.63721 16.63152 16.63314 16.63143 16.6339 16.63711 16.64631 16.66982 16.68908 16.71195 16.73926 16.77148 16.79507 16.82864 16.86353 16.89689 16.92935 16.94723 16.94934 16.94164 16.93103 16.91939 16.89174 16.86788 16.85189 16.84383 16.84023 16.84174 16.84398 16.84778 16.85344 16.8561 16.86103 16.86931 16.868 16.86307 16.86091 16.85059 16.84357 16.82707 16.81663 16.80131 16.78757 16.77666 16.76902 16.76086 16.76296 16.75723 16.76112 16.76585 16.76926 16.77043 16.77768 16.78349 16.78625 16.78724 16.79065 16.79812 16.80879 16.82135 16.82981 16.84025 16.84657 16.8497 16.85649 16.86101 16.87106 16.87786 16.88578 16.88944 16.90185 16.91682 16.93431 16.93993 16.92975 16.8987 16.84959
0 0 0 0 0 0 0 0 0 0 0 0 0 0 0 0 0 0 0 0 0 20.44531 19.43764 18.36368 17.72623 17.71542 17.36561 17.35026 16.68679 16.67111 16.66173 16.65073 16.64491 16.64092 16.63707 16.63715 16.63839 16.64725 16.65926 16.68014 16.70189 16.72417 16.7489 16.77789 16.80528 16.84071 16.88669 16.91859 16.93488 16.94726 16.95516 16.94901 16.94445 16.93349 16.91309 16.89212 16.88192 16.87595 16.87196 16.86832 16.86776 16.86881 16.87591 16.88281 16.88667 16.89433 16.89689 16.89815 16.89429 16.88972 16.89134 16.88291 16.87588 16.86524 16.85383 16.84764 16.84037 16.83756 16.82979 16.82429 16.81893 16.81603 16.81452 16.8183 16.82462 16.83935 16.84263 16.84777 16.85333 16.85786 16.86127 16.87218 16.87782 16.88154 16.88479 16.88901 16.89331 16.89773 16.90402 16.90695 16.91154 16.92219 16.9346 16.95179 16.96414 16.96341 16.94376 16.90106 16.84267
0 0 0 0 0 0 0 0 0 0 0 0 0 0 0 0 0 0 0 0 0 0 0 18.95271 18.05498 17.7178 17.36345 17.02428 16.67733 16.66347 16.65564 16.65655 16.64969 16.64901 16.64259 16.64495 16.64804 16.65587 16.6654 16.68603 16.70716 16.73719 16.75362 16.78216 16.81475 16.85112 16.88905 16.91375 16.92915 16.94302 16.95663 16.96298 16.96113 16.94737 16.93046 16.91684 16.91658 16.91085 16.9084 16.90629 16.90697 16.90493 16.90497 16.91274 16.91661 16.91482 16.91985 16.92545 16.9231 16.92694 16.92721 16.92518 16.92447 16.92108 16.92219 16.91616 16.91214 16.90791 16.90372 16.89802 16.89463 16.88994 16.88512 16.88403 16.89263 16.90255 16.90343 16.90507 16.90471 16.90504 16.90623 16.91086 16.91132 16.91488 16.92224 16.93254 16.9383 16.93693 16.94496 16.94857 16.95548 16.96905 16.98424 16.99937 17.00224 16.99 16.96069 16.91091 16.8417
0 0 0 0 0 0 0 0 0 0 0 0 0 0 0 0 0 0 0 0 0 20.85945 20.55156 19.57206 18.08595 17.74114 17.38206 17.35693 16.99246 16.66212 16.65952 16.65583 16.65576 16.65272 16.64947 16.6507 16.66039 16.66941 16.67978 16.69125 16.71808 16.74807 16.7731 16.79775 16.8275 16.84722 16.87193 16.90162 16.924 16.94535 16.96192 16.96877 16.97032 16.96814 16.95551 16.95352 16.94748 16.94433 16.94087 16.93942 16.93485 16.93773 16.94235 16.94235 16.94542 16.94438 16.94611 16.95449 16.95668 16.96375 16.96833 16.97261 16.97727 16.98013 16.9792 16.97627 16.97246 16.96617 16.95779 16.95025 16.95365 16.94878 16.94895 16.95538 16.962 16.97105 16.9708 16.97129 16.96795 16.96807 16.9646 16.95948 16.95812 16.96011 16.96458 16.97165 16.9739 16.97645 16.98147 16.98971 16.99538 17.00621 17.02511 17.033 17.0314 17.01555 16.98267 16.9284 16.84307
0 0 0 0 0 0 0 0 0 0 0 0 0 0 0 0 0 0 0 20.86113 20.79717 20.70157 19.86314 18.77496 18.11732 17.77349 17.40622 17.70912 16.68913 16.66253 16.65949 16.65693 16.65774 16.65892 16.65573 16.66278 16.671 16.68174 16.69394 16.71246 16.73362 16.75634 16.77979 16.80461 16.82595 16.84696 16.86514 16.89534 16.91891 16.94172 16.96386 16.97785 16.98699 16.99524 16.99836 16.99168 16.99096 16.98439 16.98649 16.97695 16.97037 16.96426 16.96872 16.97187 16.97301 16.97052 16.96939 16.97649 16.98018 16.98646 16.9984 17.01066 17.02491 17.02763 17.03693 17.04177 17.04008 17.03451 17.03249 17.02708 17.02073 17.01471 17.01552 17.02022 17.02264 17.02466 17.02062 17.01842 17.01195 17.0101 17.00803 17.00919 17.00993 17.01087 17.01759 17.01909 17.02348 17.02836 17.03308 17.03955 17.04573 17.05283 17.06926 17.06925 17.06069 17.03806 17.00245 16.94008 16.85256
0 0 0 0 0 0 0 0 0 0 0 0 0 0 0 0 0 0 20.35927 20.23336 19.88015 19.41985 18.81152 18.15448 17.82306 17.8012 17.42707 17.04981 16.69911 16.6705 16.66181 16.66156 16.66592 16.66765 16.67246 16.68495 16.69412 16.71055 16.72742 16.74214 16.7599 16.77916 16.7985 16.82082 16.83878 16.85602 16.8768 16.90192 16.92942 16.95357 16.97855 17.00081 17.01438 17.02148 17.03263 17.03443 17.0375 17.03478 17.02674 17.0215 17.01635 17.01063 17.00631 17.00153 17.00471 17.00316 17.00044 16.99995 16.99885 17.0058 17.02051 17.03664 17.05167 17.06135 17.07448 17.08495 17.08765 17.09004 17.092 17.09083 17.09234 17.09107 17.09351 17.09324 17.09112 17.08557 17.07698 17.06953 17.06389 17.05627 17.04934 17.04975 17.04921 17.04907 17.05371 17.05704 17.0657 17.07055 17.07689 17.08442 17.09248 17.09936 17.11153 17.10817 17.09775 17.07109 17.03455 16.97102 16.88756
0 0 0 0 0 0 0 0 0 0 0 0 0 0 0 0 0 20.80436 20.25318 19.64433 19.1442 18.5108 18.18567 18.1852 18.18072 17.79913 17.41972 16.73453 16.69575 16.67271 16.66445 16.66493 16.67218 16.67352 16.6824 16.69855 16.71177 16.73002 16.74689 16.76449 16.7808 16.80023 16.81859 16.84507 16.86516 16.88525 16.90968 16.93381 16.96034 16.98434 17.01041 17.0321 17.04919 17.05951 17.06481 17.06681 17.07007 17.06993 17.06227 17.0536 17.04553 17.04136 17.04252 17.04109 17.03749 17.03077 17.02496 17.02399 17.02275 17.02977 17.04525 17.06385 17.08432 17.09989 17.11342 17.12346 17.13415 17.14027 17.14077 17.14483 17.14989 17.14781 17.14755 17.14218 17.13602 17.12825 17.12313 17.11696 17.10957 17.10038 17.09935 17.09662 17.09699 17.09713 17.09979 17.10401 17.10775 17.11496 17.11824 17.12135 17.12804 17.13583 17.14043 17.14143 17.13386 17.10801 17.0672 17.00612 16.93291
0 0 0 0 0 0 0 0 0 0 0 0 0 0 0 0 20.31599 20.28892 19.4596 18.87385 18.54537 18.20595 18.19202 18.19212 18.16831 17.80137 17.41243 16.73142 16.69346 16.67711 16.6681 16.66696 16.67741 16.68994 16.70396 16.72071 16.73588 16.74935 16.76123 16.77693 16.8014 16.82643 16.8485 16.8743 16.90356 16.92742 16.94519 16.97436 16.99538 17.01852 17.04665 17.06637 17.0856 17.09749 17.10332 17.10693 17.10791 17.11055 17.10629 17.09857 17.09266 17.08329 17.07533 17.06846 17.06108 17.05219 17.04924 17.04805 17.04448 17.05375 17.06721 17.08507 17.10742 17.1296 17.14805 17.16467 17.17974 17.18888 17.19767 17.20744 17.21375 17.21161 17.20651 17.19947 17.19019 17.17804 17.17013 17.15662 17.1456 17.13744 17.13076 17.12963 17.12851 17.13167 17.13861 17.14178 17.14713 17.1518 17.1557 17.15966 17.17138 17.17762 17.18287 17.18563 17.17797 17.15266 17.11145 17.05194 16.97939
0 0 0 0 0 0 0 0 0 0 0 0 0 0 0 20.87506 20.147 19.46463 18.87607 18.55618 18.22007 18.22123 18.20124 17.84163 17.81948 17.45577 16.75159 16.71818 16.68956 16.67634 16.66971 16.67611 16.68835 16.70094 16.71164 16.73196 16.74991 16.77195 16.78671 16.80444 16.83183 16.86235 16.89282 16.9243 16.95613 16.98505 17.00259 17.02237 17.04127 17.06301 17.08277 17.10595 17.12116 17.12939 17.1358 17.13902 17.14152 17.14696 17.15356 17.15203 17.14782 17.14249 17.12044 17.10471 17.08955 17.07641 17.07235 17.07431 17.06764 17.07305 17.08766 17.10403 17.12795 17.15451 17.17528 17.19634 17.20988 17.22483 17.23778 17.24772 17.25293 17.25164 17.25062 17.24636 17.24191 17.23094 17.21874 17.20819 17.19389 17.18222 17.17557 17.1707 17.16786 17.16694 17.16812 17.16992 17.17082 17.17477 17.17967 17.18836 17.19526 17.20725 17.2162 17.21987 17.21356 17.1926 17.15357 17.10073 17.03479
0 0 0 0 0 0 0 0 0 0 0 0 0 0 20.21113 20.20939 19.51215 18.88517 18.54996 18.21167 18.21253 17.85546 17.8265 17.81152 17.4552 17.08226 16.73708 16.7064 16.68795 16.6819 16.68212 16.69027 16.7075 16.71988 16.73366 16.75211 16.77584 16.79558 16.81783 16.83959 16.87297 16.9051 16.94482 16.9838 17.01461 17.04004 17.06474 17.08746 17.10982 17.13016 17.14365 17.15947 17.17026 17.17635 17.18062 17.18339 17.18433 17.19388 17.20281 17.20948 17.20542 17.20047 17.18244 17.15916 17.13534 17.11096 17.09903 17.09504 17.09282 17.09332 17.10239 17.12107 17.15002 17.17653 17.20725 17.23213 17.24951 17.26629 17.27881 17.28269 17.28495 17.2871 17.28777 17.28527 17.28174 17.27169 17.26191 17.24869 17.23665 17.22212 17.21183 17.20779 17.20298 17.20136 17.20163 17.20329 17.20419 17.2065 17.2106 17.21939 17.22758 17.23793 17.24684 17.24703 17.23658 17.21539 17.17886 17.12983 17.06357
0 0 0 0 0 0 0 0 0 0 0 0 0 20.07906 20.24859 19.5115 18.87966 18.54951 18.20183 18.19828 17.84127 17.82307 17.80706 17.80497 17.43249 16.74181 16.71653 16.69771 16.69193 16.69449 16.70255 16.72068 16.73533 16.75305 16.76511 16.78697 16.81054 16.83443 16.86459 16.89608 16.93599 16.97516 17.01653 17.05117 17.08478 17.10923 17.13188 17.15391 17.17232 17.18654 17.19639 17.20503 17.21562 17.21766 17.21938 17.2163 17.2183 17.23522 0 0 0 17.19611 17.19409 17.2343 17.20569 17.16372 17.13293 17.1166 17.10916 17.10459 17.11276 17.1315 17.16189 17.19122 17.22862 17.259 17.2822 17.30263 17.3182 17.32696 17.33516 17.33859 17.33807 17.33558 17.33016 17.32409 17.314 17.3019 17.28625 17.26901 17.25397 17.24719 17.23912 17.23404 17.2316 17.23348 17.23085 17.23481 17.24026 17.24811 17.25988 17.27453 17.28321 17.28517 17.27301 17.24977 17.21182 17.1595 17.08825
0 0 0 0 0 0 0 0 0 0 0 0 0 20.45309 19.53552 18.88361 18.52104 18.16669 18.16265 17.80776 17.80878 17.80087 17.79816 16.75815 16.74328 16.7265 16.70758 16.69596 16.69983 16.70631 16.72281 16.73735 16.75903 16.77783 16.79437 16.82127 16.85003 16.8803 16.91904 16.95819 17.00474 17.04887 17.08954 17.1288 17.16052 17.18697 17.21366 17.23248 17.24449 17.25437 17.26155 18.0592 17.26916 17.25665 17.24496 17.61921 18.42257 19.24853 0 0 0 0 0 17.65372 17.25494 17.21066 17.1685 17.14385 17.1296 17.1232 17.1338 17.15037 17.17341 17.2106 17.25157 17.28645 17.31362 17.33271 17.34953 17.36093 17.36743 17.36616 17.37014 17.36988 17.36955 17.36718 17.36184 17.35482 17.34322 17.32645 17.31251 17.30166 17.29734 17.28832 17.2804 17.2749 17.2725 17.27619 17.279 17.28338 17.29255 17.30472 17.31428 17.31265 17.30226 17.27902 17.23843 17.18262 17.10655
0 0 0 0 0 0 0 0 0 0 0 0 20.6069 19.81231 18.87302 18.50798 18.13724 17.78762 17.7791 17.78723 17.78756 17.79857 17.43942 16.74765 16.73399 16.71471 16.70469 16.697 16.70267 16.71775 16.7341 16.75635 16.77996 16.80242 16.82145 16.84916 16.87896 16.91205 16.96099 17.0116 17.05854 17.10713 17.15068 17.18852 17.2291 17.25203 17.26071 0 0 17.25347 0 18.97961 18.12809 17.68611 18.07156 18.04542 18.84347 19.2838 20.27664 18.00433 17.24744 0 0 0 18.91997 17.22646 17.18949 17.16165 17.14377 17.14193 17.15138 17.1652 17.19097 17.22867 17.26885 17.30593 17.33924 17.36792 17.38679 17.39573 17.40278 17.40194 17.40418 17.40501 17.40273 17.40005 17.39863 17.39438 17.38732 17.3759 17.36538 17.35133 17.34536 17.33924 17.32991 17.32552 17.32329 17.32626 17.32924 17.33212 17.33779 17.34978 17.35411 17.34832 17.3334 17.30922 17.26969 17.20485 17.12328
0 0 0 0 0 0 0 0 0 0 0 19.88538 19.84212 18.88302 18.50225 17.76536 17.77288 17.77598 17.77734 17.78522 17.80564 17.10402 16.76539 16.74512 16.72944 16.71254 16.7078 16.70793 16.71852 16.73635 16.75493 16.77942 16.80226 16.82646 16.8485 16.88156 16.91617 16.96252 17.0192 17.07139 17.12779 17.17585 17.20883 17.23735 18.07194 0 0 0 0 0 19.79415 20.60869 20.34759 19.72987 19.33411 18.88022 18.85908 17.6239 17.24164 17.24949 17.24953 17.24329 17.23369 19.2996 19.6596 17.22849 17.19688 17.17804 17.16236 17.15755 17.16442 17.17731 17.20424 17.24155 17.28552 17.32616 17.35738 17.38921 17.41106 17.42576 17.43514 17.43199 17.43482 17.43515 17.43368 17.43775 17.43923 17.43873 17.4365 17.43329 17.42265 17.41042 17.39945 17.38753 17.37933 17.37471 17.36928 17.36864 17.37155 17.3748 17.38087 17.38793 17.39091 17.38104 17.36409 17.34087 17.30064 17.24026 17.15319
0 0 0 0 0 0 0 0 0 0 20.5974 19.88216 18.89414 18.1338 17.77108 17.41564 17.42198 17.43672 17.4462 17.46001 17.46925 16.78507 16.77106 16.75711 16.74031 16.72732 16.72492 16.72471 16.73888 16.75539 16.77469 16.79604 16.81805 16.83872 16.86921 16.9074 16.9572 17.01213 17.07237 17.12718 17.18753 17.23058 17.64399 0 0 0 0 0 0 0 0 0 0 0 19.70779 19.31607 18.46845 17.24505 17.25752 17.26538 17.26275 17.25273 17.24468 17.24369 17.23808 17.22955 17.20775 17.19284 17.18944 17.18477 17.19124 17.20358 17.22978 17.26857 17.30869 17.3447 17.37825 17.40916 17.43279 17.44815 17.45697 17.45744 17.45698 17.45734 17.46128 17.46436 17.46633 17.47201 17.47479 17.47593 17.46904 17.4586 17.44803 17.44051 17.43421 17.42927 17.42563 17.42793 17.42691 17.42673 17.43107 17.43274 17.43094 17.41316 17.39354 17.36481 17.32342 17.26024 17.17531
0 0 0 0 0 0 0 0 0 0 20.16057 18.90223 18.14261 17.76948 17.07345 17.08158 16.76291 16.77045 16.78678 16.79442 16.79658 16.79573 16.787 16.77731 16.76641 16.75815 16.75365 16.76077 16.77314 16.7867 16.80712 16.8264 16.84412 16.86949 16.90346 16.94414 16.99281 17.04609 17.1106 17.16889 18.42959 0 0 0 0 0 0 0 0 0 0 0 0 0 20.354 18.93576 17.27482 17.27672 17.28648 17.29563 17.29788 17.29233 17.2842 17.2726 17.26 17.24814 17.2331 17.21974 17.21728 17.21284 17.21806 17.23319 17.25821 17.29538 17.33165 17.36681 17.39979 17.42903 17.45255 17.46664 17.47531 17.47619 17.47979 17.48539 17.4899 17.491 17.50174 17.50588 17.50759 17.50717 17.50148 17.49208 17.48578 17.48139 17.47565 17.4714 17.46834 17.47398 17.47999 17.48332 17.48257 17.48073 17.47316 17.45167 17.42554 17.39356 17.34681 17.28562 17.20101
0 0 0 0 0 0 0 0 0 20.25073 19.64134 18.52564 17.75812 17.05433 16.74723 16.74818 16.74902 16.76173 16.77922 16.79206 16.79995 16.80612 16.80225 16.79851 16.7909 16.7817 16.78252 16.79214 16.80854 16.82609 16.84379 16.85942 16.87737 16.90461 16.94133 16.98476 17.03148 17.08789 17.14984 17.99008 18.22279 0 0 0 0 0 0 0 0 0 0 0 0 19.62232 19.38314 18.11427 17.2895 17.30223 17.31794 17.32983 17.33332 17.33212 17.32507 17.31206 17.2969 17.27799 17.26554 17.25444 17.25157 17.24809 17.25494 17.26841 17.29106 17.31832 17.35105 17.3826 17.41959 17.44686 17.46797 17.48099 17.49166 17.50047 17.50597 17.50999 17.51753 17.52585 17.53402 17.54162 17.54564 17.54379 17.53988 17.53381 17.52567 17.52285 17.52219 17.51761 17.5162 17.51756 17.52308 17.5253 17.52505 17.51869 17.5058 17.48053 17.44962 17.4139 17.36154 17.29999 17.22352
0 0 0 0 0 0 0 0 21.09785 19.99546 18.54315 17.74527 17.36937 16.71081 16.71146 16.71597 16.72909 16.74323 16.7579 16.77355 16.79322 16.79941 16.80601 16.81376 16.80983 16.80954 16.81546 16.82752 16.84297 16.86051 16.87785 16.88947 16.91016 16.93594 16.97122 17.01049 17.06037 17.10577 17.52728 17.98655 18.45276 19.30884 0 20.1786 20.77155 0 0 0 0 0 0 0 20.42044 19.39309 18.56095 17.29771 17.30372 17.32918 17.34918 17.35936 17.3631 17.35947 17.34678 17.33346 17.32397 17.30848 17.29831 17.28932 17.28681 17.28752 17.29724 17.30951 17.33315 17.3548 17.38955 17.42344 17.452 17.4807 17.49751 17.51057 17.5227 17.52928 17.53671 17.54049 17.54921 17.55839 17.56405 17.57215 17.57775 17.57783 17.57638 17.57265 17.56969 17.56776 17.56603 17.5646 17.5661 17.56786 17.57193 17.56979 17.56948 17.55733 17.5381 17.5088 17.47144 17.42708 17.37125 17.30674 17.23105
0 0 0 0 0 0 0 0 21.11326 20.00753 18.543 17.72601 16.69495 16.68458 16.68582 16.69245 16.70802 16.72511 16.74318 16.76362 16.78553 16.80214 16.81666 16.8245 16.8349 16.8451 16.86216 16.88007 16.9 16.91758 16.93372 16.9477 16.96248 16.98687 17.01134 17.04172 17.07817 17.11251 17.14419 17.5659 17.99942 18.44203 18.88886 19.34674 20.16379 0 0 0 0 0 0 19.80119 18.97904 18.9772 17.29415 17.31631 17.34232 17.37079 17.38789 17.39487 17.39272 17.38363 17.37397 17.36077 17.34685 17.33691 17.32386 17.31862 17.31611 17.31887 17.32893 17.34718 17.36487 17.39014 17.42313 17.46004 17.49016 17.51448 17.53483 17.54956 17.56346 17.56916 17.57771 17.58092 17.59014 17.59649 17.60317 17.607 17.61186 17.61082 17.60976 17.60717 17.60437 17.60556 17.60203 17.60103 17.60372 17.60422 17.60576 17.60434 17.60024 17.59137 17.56931 17.53211 17.48854 17.43634 17.37715 17.30902 17.23511
0 0 0 0 0 0 0 0 0 20.03719 18.5498 17.73324 16.6789 16.66069 16.66381 16.67209 16.68551 16.70286 16.72924 16.7555 16.77933 16.80028 16.81888 16.83456 16.85617 16.87611 16.90262 16.93024 16.95722 16.98217 17.00202 17.01378 17.02219 17.03542 17.05541 17.08183 17.11017 17.13207 17.15284 17.15732 17.17529 17.18567 17.20362 17.60788 18.46572 19.32994 20.16907 20.50716 0 0 20.11344 18.96354 18.11114 17.29218 17.31229 17.34315 17.38015 17.40557 17.41981 17.42389 17.41968 17.41368 17.40177 17.3926 17.38136 17.369 17.36157 17.3587 17.35591 17.36131 17.37437 17.3856 17.40467 17.43201 17.46241 17.49386 17.51954 17.54713 17.56969 17.58418 17.5964 17.60507 17.61431 17.61874 17.62329 17.62986 17.63944 17.64731 17.65377 17.65374 17.65037 17.64654 17.6448 17.64782 17.64579 17.64077 17.6409 17.6401 17.6403 17.63594 17.62628 17.60842 17.58307 17.54601 17.49752 17.44155 17.37681 17.30588 17.23364
0 0 0 0 0 0 0 0 0 21.01758 19.37852 18.15308 17.00124 16.65589 16.64546 16.65164 16.66716 16.68784 16.71229 16.74385 16.77231 16.79993 16.82384 16.85003 16.88407 16.91769 16.95669 16.99169 17.02023 17.04894 17.06464 17.07036 17.06861 17.0737 17.08937 17.11162 17.13265 17.14763 17.16433 17.16523 17.17174 17.1814 17.19379 17.20355 17.6079 18.04005 18.47958 18.90398 20.13448 18.95136 17.65833 17.27132 17.28923 17.31491 17.34667 17.37734 17.40984 17.42657 17.438 17.44324 17.44145 17.43622 17.42664 17.41736 17.4058 17.39799 17.39482 17.39402 17.39273 17.40344 17.41501 17.43234 17.45105 17.47538 17.50386 17.53493 17.55841 17.58246 17.60473 17.61643 17.62887 17.64015 17.64456 17.65304 17.6575 17.66507 17.67367 17.68145 17.68914 17.68827 17.68527 17.6838 17.68396 17.68592 17.68351 17.6809 17.67667 17.67373 17.66956 17.66174 17.65037 17.63335 17.60308 17.55762 17.50558 17.44401 17.37546 17.30004 17.22296
0 0 0 0 0 0 0 0 0 21.17613 20.38343 18.58336 17.36431 16.66161 16.63715 16.64021 16.6554 16.67239 16.70002 16.72581 16.75998 16.79766 16.83176 16.86657 16.91077 16.96246 17.01474 17.06751 17.10777 17.12221 17.12921 17.12929 17.11772 17.11493 17.12267 17.14073 17.15709 17.16599 17.17518 17.17067 17.17387 17.18217 17.19427 17.20775 17.22021 17.23064 17.63959 0 18.95559 17.67563 17.28522 17.30768 17.33125 17.35649 17.38651 17.41703 17.44166 17.45421 17.46225 17.46169 17.46368 17.46116 17.45516 17.44808 17.4402 17.43621 17.43007 17.42232 17.4221 17.4334 17.4473 17.46397 17.48235 17.51006 17.5395 17.56587 17.59402 17.62076 17.63418 17.64685 17.66018 17.66749 17.67609 17.68452 17.69284 17.70119 17.70978 17.71654 17.7217 17.72255 17.72049 17.71691 17.71738 17.7136 17.71285 17.70912 17.706 17.7022 17.69461 17.68087 17.66833 17.6446 17.61244 17.56642 17.51571 17.44984 17.37426 17.2921 17.20439
0 0 0 0 0 0 0 0 0 0 20.89257 19.43498 17.76839 17.00608 16.65288 16.63753 16.64141 16.66299 16.68799 16.71783 16.75564 16.79794 16.83466 16.8807 16.93402 16.99512 17.06026 17.11662 0 0 0 17.36815 17.14486 17.14413 17.14929 17.15878 17.17231 17.17841 17.18138 17.18086 17.17797 17.18595 17.20005 17.2153 17.23258 17.24919 17.26956 17.6868 17.29582 17.30538 17.32759 17.35136 17.37426 17.40139 17.42704 17.45074 17.46657 17.47669 17.47994 17.48281 17.48679 17.48882 17.48407 17.47947 17.47815 17.47334 17.46907 17.46296 17.46509 17.47586 17.48987 17.50589 17.5234 17.548 17.57332 17.60329 17.62763 17.64818 17.65985 17.67139 17.68513 17.69186 17.70223 17.70949 17.71724 17.72895 17.73707 17.74045 17.74577 17.74945 17.7502 17.74864 17.74758 17.7456 17.74388 17.7394 17.73601 17.73086 17.72191 17.70534 17.68772 17.65782 17.62343 17.5736 17.52 17.45002 17.37433 17.29182 17.19317
0 0 0 0 0 0 0 0 0 0 0 20.76487 19.39657 17.75296 17.00532 16.65828 16.63123 16.64829 16.6746 16.718 16.75826 16.80421 16.85224 16.90091 16.95375 17.02169 17.45076 17.8699 0 0 0 18.02807 18.31968 17.14936 17.15513 17.16576 17.17825 17.18252 17.18282 17.18104 17.18062 17.18362 17.19775 17.22261 17.24554 17.26882 17.28881 17.30632 17.31975 17.33571 17.36314 17.38882 17.41492 17.44136 17.45881 17.47206 17.48805 17.49784 17.50445 17.50631 17.51038 17.51212 17.50995 17.50757 17.50643 17.50348 17.50015 17.49992 17.50326 17.51266 17.53084 17.55018 17.56541 17.58635 17.6122 17.63739 17.66038 17.67736 17.69181 17.70161 17.71146 17.72108 17.72873 17.73846 17.74635 17.75113 17.75543 17.76261 17.77007 17.7718 17.77346 17.77249 17.77081 17.76913 17.76831 17.76422 17.7623 17.75368 17.74187 17.72521 17.70146 17.67277 17.63506 17.58825 17.53241 17.46463 17.38832 17.30555 17.20919
0 0 0 0 0 0 0 0 0 0 0 0 20.90211 19.74622 17.72012 16.99429 16.63258 16.6335 16.66999 16.71457 16.76446 16.8198 16.86585 16.91317 16.96077 17.03053 17.83225 0 0 19.47682 19.57081 17.94713 17.15785 17.14506 17.14827 17.16 17.1707 17.18207 17.18629 17.18757 17.18325 17.18429 17.19859 17.22609 17.25552 17.27959 17.30325 17.32284 17.33925 17.36421 17.39217 17.42118 17.44985 17.47395 17.49284 17.5067 17.5216 17.52896 17.53504 17.53617 17.53559 17.53452 17.53466 17.53541 17.53627 17.53445 17.53446 17.53583 17.54093 17.55117 17.5663 17.57992 17.59677 17.62238 17.64531 17.67043 17.69245 17.70971 17.72022 17.73188 17.74171 17.74894 17.75617 17.76612 17.76945 17.77547 17.78019 17.78519 17.79154 17.7959 17.79319 17.79434 17.79819 17.79658 17.79306 17.7908 17.78313 17.7736 17.75897 17.73937 17.71528 17.68635 17.64952 17.60205 17.55122 17.48955 17.41282 17.33128 17.2458
0 0 0 0 0 0 0 0 0 0 0 0 0 0 0 17.69151 16.94528 16.63962 16.67377 16.72066 16.78188 16.8367 16.8788 16.91807 16.95784 17.37747 17.45122 17.86903 18.27648 20.49646 19.56352 17.9247 17.14579 17.13903 17.13886 17.14806 17.16377 17.17735 17.18962 17.19279 17.19286 17.19819 17.21238 17.23316 17.26415 17.28739 17.31164 17.33166 17.3552 17.3817 17.41634 17.44497 17.47579 17.49804 17.51898 17.53434 17.54531 17.55644 17.56099 17.56084 17.5584 17.55516 17.55368 17.55484 17.56191 17.56496 17.56639 17.57093 17.58007 17.59067 17.60663 17.61923 17.63949 17.66158 17.68659 17.70864 17.72721 17.73967 17.75191 17.76067 17.76922 17.77862 17.78289 17.79093 17.79536 17.79927 17.80432 17.80945 17.81256 17.81471 17.81494 17.81878 17.81755 17.81599 17.8198 17.81562 17.80892 17.7963 17.78061 17.7613 17.73773 17.70845 17.67468 17.63088 17.57956 17.51848 17.44618 17.36698 17.28831
0 0 0 0 0 0 0 0 0 0 0 0 0 0 0 18.46666 17.66912 16.64313 16.68889 16.73715 16.7998 16.85915 16.90117 16.93272 16.96932 17.02152 17.82616 17.88216 18.29593 0 19.6065 17.15087 17.13888 17.13121 17.14478 17.14378 17.16218 17.17532 17.18686 17.19143 17.19803 17.20592 17.22363 17.24561 17.27338 17.2959 17.32288 17.34591 17.37336 17.40923 17.44424 17.47442 17.50633 17.53054 17.54867 17.56724 17.57827 17.58496 17.58803 17.58216 17.57677 17.57254 17.57241 17.57763 17.58225 17.58792 17.5934 17.60045 17.61216 17.62389 17.64449 17.66092 17.68004 17.70091 17.72449 17.75042 17.7699 17.7834 17.79069 17.79754 17.80455 17.81056 17.81427 17.81718 17.82133 17.82647 17.83234 17.83302 17.83562 17.83498 17.83771 17.83447 17.83429 17.83291 17.83448 17.8321 17.82734 17.81531 17.8016 17.78875 17.76661 17.74034 17.70985 17.66884 17.6238 17.56413 17.49439 17.42148 17.35057
0 0 0 0 0 0 0 0 0 0 0 0 0 19.70612 19.32036 18.46714 17.70451 16.67055 16.70721 16.7628 16.82585 16.88826 16.93094 16.96445 16.99538 17.03407 18.22019 18.67736 19.12424 19.02008 20.00326 17.5128 17.12632 17.12488 17.13817 17.15382 17.17073 17.1837 17.19087 17.19551 17.20182 17.213 17.23274 17.25509 17.28119 17.30755 17.3346 17.36305 17.39492 17.42547 17.4626 17.4982 17.5253 17.55264 17.57428 17.59347 17.60631 17.61067 17.61043 17.60656 17.60129 17.60002 17.60293 17.60479 17.6066 17.61488 17.6223 17.62935 17.64193 17.65648 17.67667 17.69505 17.71519 17.73801 17.76644 17.79078 17.80804 17.81866 17.82583 17.83427 17.83957 17.84006 17.83965 17.84375 17.84795 17.85436 17.86002 17.86237 17.856 17.85187 17.85295 17.85309 17.85069 17.85026 17.84892 17.84815 17.84202 17.84006 17.82879 17.81528 17.79326 17.77016 17.74013 17.70265 17.65828 17.60603 17.54506 17.47985 17.41357
0 0 0 0 0 0 0 0 0 0 0 0 18.89536 18.48694 18.4991 18.11731 17.38436 16.70929 16.73826 16.79598 16.85277 16.91624 16.95835 16.99081 17.01484 17.05016 17.86302 17.89918 18.70069 19.51948 17.89045 17.10659 17.11778 17.13702 17.16049 17.17735 17.19216 17.20111 17.20848 17.21379 17.21833 17.22871 17.24305 17.27007 17.30025 17.32772 17.35614 17.38538 17.41527 17.44723 17.47468 17.50455 17.53362 17.55857 17.5828 17.59995 17.61575 17.62676 17.62605 17.62487 17.62422 17.62735 17.6282 17.63353 17.6366 17.64232 17.65219 17.66196 17.67357 17.69147 17.71801 17.74386 17.76364 17.79096 17.81827 17.83802 17.84772 17.85549 17.86418 17.87378 17.87584 17.87205 17.87194 17.87541 17.88175 17.8851 17.88252 17.87724 17.87392 17.86905 17.86626 17.86765 17.86521 17.86753 17.86722 17.86607 17.86704 17.86177 17.85671 17.84698 17.83026 17.81141 17.78157 17.74606 17.70514 17.65608 17.59822 17.54109 17.47835
0 0 0 0 0 0 0 0 20.64906 20.05687 18.90415 18.07665 18.07285 18.07321 17.72859 17.77224 17.43959 16.76344 16.79766 16.85051 16.9089 16.96394 17.00108 17.0269 17.05215 17.07794 17.10877 17.11947 17.12241 17.12172 17.11238 17.11924 17.13744 17.16097 17.18036 17.19533 17.20979 17.21694 17.21847 17.21837 17.22234 17.2349 17.25633 17.2872 17.31822 17.34653 17.37863 17.40546 17.43256 17.46234 17.48302 17.50741 17.53234 17.55643 17.58108 17.60144 17.61747 17.62885 17.63558 17.63969 17.6457 17.64709 17.64752 17.65027 17.65801 17.66424 17.67563 17.68639 17.70282 17.72526 17.75604 17.7883 17.8149 17.83992 17.8663 17.87995 17.88568 17.89199 17.9012 17.90578 17.90688 17.90658 17.90819 17.90861 17.90827 17.9073 17.90083 17.89476 17.88909 17.88708 17.88382 17.88097 17.88313 17.88006 17.88288 17.88333 17.88279 17.88495 17.88655 17.87958 17.86694 17.84798 17.82657 17.79412 17.75825 17.71298 17.66369 17.60734 17.55009
0 0 0 0 0 0 0 19.64945 19.7288 18.09125 17.69581 17.68548 17.69423 17.71722 17.76736 17.46333 16.79669 16.8211 16.86495 16.91293 16.96304 17.01504 17.04882 17.06993 17.08976 17.11272 17.13091 17.14259 17.147 17.14989 17.15451 17.16453 17.17458 17.18828 17.19894 17.21081 17.22027 17.22179 17.21727 17.21944 17.22486 17.23974 17.26657 17.29493 17.3259 17.35871 17.38551 17.4114 17.43505 17.45876 17.47785 17.50254 17.5271 17.55149 17.57856 17.60057 17.61889 17.63 17.63908 17.65027 17.65764 17.66122 17.6688 17.67439 17.68381 17.69586 17.70805 17.7241 17.74225 17.76667 17.79351 17.82716 17.85554 17.88303 17.90239 17.91333 17.91474 17.92152 17.92899 17.93074 17.93147 17.93208 17.93147 17.93359 17.93076 17.92912 17.92098 17.91575 17.90997 17.90871 17.90516 17.89804 17.8961 17.89737 17.9017 17.90599 17.90842 17.91142 17.91516 17.91341 17.90428 17.89054 17.86694 17.83733 17.80446 17.76312 17.71498 17.66568 17.6114
0 0 0 0 0 0 20.13762 20.11981 18.10013 17.67319 17.64548 17.65832 17.70314 17.40637 17.12414 16.83794 16.85015 16.87874 16.92065 16.96606 17.01546 17.05423 17.08371 17.10045 17.11839 17.13583 17.14943 17.16024 17.17295 17.18462 17.1952 17.20347 17.20998 17.21167 17.21276 17.21704 17.22157 17.22077 17.22006 17.22739 17.23638 17.25415 17.27829 17.30312 17.3311 17.36065 17.38676 17.41293 17.4377 17.46357 17.48561 17.50718 17.52875 17.5483 17.57078 17.59451 17.6155 17.62936 17.63992 17.65504 17.66645 17.6757 17.68509 17.69582 17.71171 17.73152 17.74923 17.77047 17.79108 17.81501 17.84334 17.87208 17.90216 17.92287 17.93514 17.94392 17.94966 17.95412 17.95956 17.9582 17.95518 17.95327 17.95216 17.95113 17.94858 17.94481 17.93778 17.93315 17.92938 17.92628 17.92079 17.91691 17.91302 17.91629 17.91972 17.92841 17.9308 17.93817 17.94091 17.94311 17.94054 17.92878 17.91217 17.88565 17.85958 17.82692 17.78087 17.73347 17.68186
0 0 0 0 0 0 20.97598 19.31708 18.06142 17.63295 17.27931 17.32424 17.05007 16.79265 16.85217 16.89962 16.92666 16.95634 16.99245 17.02275 17.05997 17.09527 17.1166 17.1309 17.1455 17.15301 17.16389 17.17723 17.19045 17.20326 17.21087 17.22041 17.22277 17.22766 17.22449 17.22244 17.2233 17.22281 17.22233 17.23191 17.24385 17.26521 17.28663 17.30614 17.32999 17.35412 17.37661 17.40135 17.42736 17.45542 17.48383 17.50391 17.52733 17.55149 17.57096 17.59086 17.61505 17.62718 17.64146 17.65755 17.67091 17.68255 17.69244 17.71114 17.73466 17.76081 17.78317 17.80489 17.82907 17.85797 17.88593 17.91139 17.93726 17.95981 17.97421 17.98109 17.98832 17.99126 17.99169 17.98552 17.98024 17.97942 17.9745 17.96823 17.96593 17.96395 17.95721 17.95408 17.94925 17.94279 17.94003 17.93487 17.93541 17.93517 17.94396 17.95298 17.95132 17.95751 17.96198 17.96484 17.96489 17.95731 17.94379 17.92752 17.90916 17.88116 17.84938 17.80788 17.76043
0 0 0 0 0 21.03165 20.56058 19.279 18.04534 17.65544 16.98553 16.7122 16.77852 16.84695 16.90285 16.9547 16.98873 17.01488 17.04349 17.07177 17.10083 17.12627 17.13848 17.15374 17.16865 17.18312 17.19214 17.20192 17.21377 17.22161 17.22782 17.23333 17.2394 17.23699 17.23234 17.22781 17.22313 17.22137 17.22574 17.23645 17.25714 17.27086 17.29025 17.30956 17.32982 17.35038 17.36997 17.39604 17.42244 17.44747 17.47228 17.49828 17.52598 17.55235 17.57566 17.59945 17.61736 17.63043 17.64692 17.66495 17.68271 17.69833 17.71645 17.73769 17.76248 17.79037 17.81938 17.84198 17.86751 17.89465 17.91887 17.94919 17.97035 17.9912 18.00255 18.01015 18.01581 18.01406 18.01395 18.01027 18.00327 17.99718 17.99248 17.98822 17.98414 17.97837 17.9729 17.97139 17.96842 17.9648 17.96221 17.95941 17.95963 17.95612 17.96703 17.9763 17.97819 17.98032 17.98797 17.98865 17.98784 17.98113 17.96822 17.9573 17.94094 17.9199 17.89119 17.85847 17.815
0 0 0 0 20.06569 19.69671 18.04016 17.63412 17.28077 16.65479 16.69901 16.75914 16.8309 16.88862 16.93992 16.98726 17.01989 17.04299 17.07002 17.09893 17.12238 17.14574 17.15637 17.17352 17.18641 17.20008 17.21427 17.22294 17.22836 17.23401 17.23271 17.23507 17.23692 17.23674 17.23647 17.2321 17.22588 17.22789 17.23178 17.2418 17.25976 17.27475 17.29263 17.30766 17.32687 17.34422 17.36691 17.39209 17.41796 17.4413 17.46629 17.49467 17.52238 17.55244 17.58233 17.60833 17.62726 17.64275 17.65863 17.67255 17.69111 17.7155 17.7356 17.76233 17.792 17.8245 17.85188 17.88039 17.90907 17.93353 17.95523 17.98152 18.00213 18.01903 18.02999 18.03742 18.03735 18.03513 18.03327 18.03159 18.02578 18.01844 18.0138 18.00493 17.99722 17.99291 17.99332 17.99229 17.98909 17.98778 17.98115 17.98197 17.98189 17.98303 17.99025 17.99675 18.00183 18.00691 18.01637 18.01963 18.01807 18.01032 18.00094 17.99852 17.98322 17.96402 17.94185 17.91045 17.87359
0 0 0 0 21.09773 18.43669 16.64342 16.63087 16.64435 16.68027 16.74584 16.82412 16.88445 16.93416 16.97357 17.02004 17.04692 17.07045 17.09774 17.12062 17.14317 17.15781 17.17129 17.18347 17.19898 17.21107 17.21819 17.22294 17.23011 17.23332 17.23237 17.2363 17.24161 17.24136 17.23762 17.23242 17.23552 17.23534 17.23841 17.24788 17.26305 17.27439 17.28781 17.30197 17.31625 17.33591 17.35742 17.38151 17.40656 17.43419 17.46081 17.49145 17.52261 17.5525 17.58044 17.60633 17.63168 17.64884 17.66676 17.68508 17.70843 17.73547 17.76169 17.79067 17.81747 17.84867 17.87493 17.90047 17.93084 17.95994 17.98396 18.00547 18.02283 18.03889 18.04869 18.05471 18.05645 18.05194 18.0501 18.04983 18.04746 18.04109 18.03389 18.03104 18.02279 18.01944 18.02123 18.01667 18.0138 18.00933 18.00497 18.00279 17.99876 18.00334 18.01123 18.0124 18.01639 18.02528 18.03941 18.04304 18.04571 18.04252 18.03606 18.03401 18.02622 18.01186 17.99157 17.96846 17.93494
0 0 0 20.15765 19.72766 18.00856 16.61292 16.62489 16.66149 16.73012 16.80536 16.86917 16.9269 16.9699 17.00943 17.04576 17.07136 17.09805 17.12125 17.13858 17.15845 17.16898 17.17915 17.19043 17.1988 17.20765 17.21421 17.21936 17.22658 17.22769 17.22977 17.23685 17.24456 17.24649 17.24358 17.24173 17.24125 17.24104 17.24589 17.25414 17.26834 17.27403 17.28236 17.29349 17.30716 17.32819 17.35133 17.37316 17.39653 17.4293 17.46315 17.49251 17.52144 17.55006 17.57917 17.60683 17.63393 17.65277 17.67712 17.69753 17.72414 17.7565 17.78833 17.81311 17.8352 17.85826 17.8887 17.91361 17.94559 17.97292 17.99454 18.01642 18.03459 18.05042 18.06268 18.06707 18.06594 18.0625 18.06268 18.06879 18.06505 18.0636 18.05531 18.05465 18.05119 18.04849 18.04589 18.04233 18.04458 18.03712 18.03367 18.03703 18.02907 18.03453 18.037 18.03982 18.04467 18.05276 18.06022 18.06872 18.07322 18.07255 18.06932 18.06685 18.06052 18.04817 18.03313 18.01169 17.98108
0 0 0 20.09824 19.70698 17.97732 17.22767 16.63105 16.70456 16.78773 16.85066 16.90879 16.95543 16.99875 17.03615 17.06378 17.08981 17.11429 17.13813 17.15239 17.15898 17.17301 17.18593 17.19189 17.18915 17.1893 17.19374 17.20104 17.20752 17.2111 17.22133 17.22763 17.23803 17.24029 17.24092 17.23936 17.24212 17.24515 17.24894 17.25175 17.2609 17.27061 17.27559 17.28424 17.29659 17.32002 17.34517 17.37112 17.39623 17.4275 17.46061 17.49319 17.52138 17.54835 17.57939 17.6083 17.6374 17.66245 17.686 17.70846 17.74052 17.77549 17.80319 17.82711 17.84505 17.86643 17.89568 17.91829 17.94705 17.97506 17.99866 18.0216 18.04011 18.0551 18.06502 18.07161 18.07179 18.07292 18.07516 18.07643 18.07904 18.07682 18.07439 18.07101 18.0692 18.06632 18.063 18.06163 18.06394 18.06649 18.06544 18.0654 18.06544 18.06938 18.07035 18.07346 18.07666 18.08518 18.09427 18.09946 18.10915 18.11011 18.1096 18.10587 18.10369 18.09407 18.07964 18.05705 18.02967
0 0 0 20.95177 19.94791 17.96056 16.89463 16.63907 16.72048 16.81014 16.88856 16.93733 16.97683 17.01998 17.05521 17.08117 17.10013 17.11897 17.13611 17.15142 17.15473 17.16306 17.17332 17.17689 17.17506 17.17235 17.17655 17.1818 17.18766 17.19673 17.20284 17.2145 17.2249 17.23105 17.23397 17.23407 17.23371 17.23816 17.23929 17.24931 17.25509 17.2595 17.26392 17.27581 17.28769 17.31077 17.3374 17.36221 17.38873 17.41967 17.45695 17.48982 17.51848 17.54532 17.57732 17.6096 17.64382 17.66998 17.69542 17.72454 17.75516 17.78496 17.81343 17.83683 17.85688 17.87454 17.89595 17.92025 17.94118 17.97377 18.00251 18.02475 18.03849 18.0516 18.06071 18.06661 18.06736 18.07227 18.0817 18.08576 18.08575 18.0863 18.08483 18.08357 18.08394 18.08436 18.08098 18.08122 18.08098 18.0795 18.08629 18.08736 18.08942 18.09731 18.09796 18.10063 18.10457 18.11257 18.12618 18.13076 18.13693 18.1396 18.14035 18.14126 18.14015 18.13184 18.1198 18.10383 18.08483
0 0 0 20.96136 18.70027 17.18718 16.58849 16.66247 16.74984 16.83499 16.90386 16.95283 16.99368 17.02735 17.05783 17.08386 17.0993 17.11158 17.12405 17.12279 17.12451 17.1285 17.13593 17.13289 17.13423 17.13833 17.14533 17.1534 17.16 17.16708 17.17864 17.19158 17.20666 17.21492 17.21871 17.22055 17.22096 17.2244 17.23259 17.23825 17.24277 17.24972 17.25783 17.27324 17.28346 17.30602 17.33027 17.35423 17.38268 17.41637 17.4508 17.48362 17.51588 17.54441 17.57313 17.60844 17.64345 17.67427 17.70368 17.73401 17.76461 17.78992 17.82125 17.84549 17.86468 17.8804 17.90003 17.92195 17.94202 17.9691 17.9956 18.01432 18.02836 18.03587 18.04349 18.04958 18.05642 18.06146 18.06989 18.07483 18.07329 18.07872 18.07538 18.07996 18.08486 18.09123 18.08938 18.09088 18.08882 18.09107 18.09896 18.10657 18.11534 18.12304 18.12857 18.13311 18.13575 18.15036 18.16241 18.1676 18.16985 18.17324 18.17825 18.17753 18.17385 18.16965 18.15843 18.14816 18.12808
16.5607 16.56318 17.87071 18.68431 16.80821 16.5401 16.61087 16.69726 16.78645 16.8614 16.92423 16.96755 17.00508 17.03073 17.05303 17.07787 17.09193 17.09958 17.10009 17.09311 17.08889 17.08493 17.09141 17.0889 17.09065 17.10082 17.11079 17.11787 17.13149 17.14653 17.15926 17.17518 17.19049 17.19807 17.20347 17.20968 17.21371 17.22128 17.22836 17.23625 17.24182 17.25055 17.25717 17.27087 17.2843 17.3053 17.32567 17.35159 17.38179 17.41311 17.45268 17.49147 17.52486 17.55422 17.58251 17.61314 17.64876 17.68342 17.71265 17.74604 17.77135 17.80018 17.82726 17.85164 17.86765 17.88854 17.90537 17.92596 17.94509 17.96625 17.98813 18.00361 18.01824 18.02369 18.02914 18.03663 18.04584 18.05005 18.05736 18.06286 18.06456 18.06464 18.07216 18.0789 18.0849 18.08508 18.09216 18.09498 18.0979 18.10347 18.11624 18.12513 18.13604 18.14628 18.15949 18.16682 18.17412 18.18221 18.19139 18.20245 18.20975 18.21636 18.21988 18.21773 18.21553 18.2119 18.19881 18.18843 18.1745
16.56482 16.55658 16.56812 16.58319 16.58738 16.62216 16.68979 16.76907 16.83933 16.90217 16.94748 16.98089 17.01162 17.03003 17.05493 17.07491 17.08131 17.078 17.06961 17.06013 17.05133 17.04645 17.04754 17.05036 17.0546 17.06524 17.07678 17.09118 17.10893 17.12265 17.13672 17.15614 17.17013 17.18392 17.19245 17.20419 17.2111 17.2195 17.23332 17.24226 17.24956 17.26073 17.26896 17.2807 17.29655 17.31283 17.33066 17.3527 17.38411 17.42021 17.45803 17.49809 17.52855 17.56302 17.59358 17.62361 17.65917 17.68663 17.71571 17.74683 17.78031 17.80659 17.83112 17.85206 17.87109 17.89124 17.91016 17.92639 17.94541 17.96317 17.98368 18.00007 18.01094 18.02252 18.02309 18.02861 18.03326 18.03754 18.04199 18.04815 18.05255 18.05653 18.06559 18.07604 18.08155 18.0867 18.09547 18.10177 18.11116 18.12311 18.13601 18.14527 18.1587 18.16963 18.1781 18.18898 18.19724 18.20245 18.21067 18.22481 18.23672 18.24326 18.25061 18.2553 18.26159 18.25493 18.24694 18.23529 18.22322
16.63646 16.64956 16.66578 16.68134 16.70323 16.74241 16.78906 16.84059 16.88691 16.93227 16.96945 16.99197 17.01339 17.03645 17.05051 17.06019 17.06014 17.05604 17.04329 17.02732 17.01054 16.99886 17.0029 17.00821 17.02118 17.03777 17.05386 17.06994 17.08598 17.10565 17.12511 17.14078 17.15306 17.16728 17.18275 17.1977 17.20919 17.22043 17.231 17.24146 17.25527 17.26801 17.27859 17.29138 17.30633 17.32186 17.33919 17.36259 17.39281 17.42567 17.46556 17.50136 17.53978 17.57212 17.60623 17.64032 17.66783 17.69641 17.72798 17.75793 17.7881 17.81297 17.8368 17.85886 17.87743 17.89577 17.91551 17.93379 17.94969 17.96484 17.98043 18.00181 18.00679 18.01679 18.02219 18.02347 18.02752 18.03018 18.03675 18.04135 18.04765 18.05101 18.06228 18.07008 18.08016 18.0923 18.10759 18.12275 18.13729 18.14943 18.16697 18.17848 18.19093 18.19928 18.20928 18.21729 18.22457 18.23596 18.24585 18.26421 18.27581 18.28676 18.29262 18.29874 18.30126 18.29719 18.28624 18.27819 18.26844
16.69786 16.71984 16.74605 16.77502 16.80034 16.82359 16.85436 16.88146 16.9126 16.94231 16.96326 16.98826 17.0083 17.02066 17.03706 17.04515 17.04335 17.03485 17.01766 17.00011 16.97797 16.96032 16.96621 16.9771 16.98848 17.01049 17.03085 17.05323 17.06919 17.09175 17.11323 17.13565 17.14921 17.16292 17.17714 17.19778 17.21422 17.22506 17.23537 17.24723 17.26055 17.27589 17.28708 17.30248 17.32284 17.337 17.35051 17.3739 17.4047 17.44108 17.48085 17.51671 17.55146 17.5863 17.62224 17.65313 17.68219 17.7126 17.74315 17.77512 17.79936 17.82153 17.84625 17.86743 17.88734 17.90408 17.92363 17.94117 17.95645 17.9711 17.98105 17.99499 18.01018 18.02072 18.0252 18.0278 18.02862 18.03193 18.03291 18.03801 18.04539 18.04958 18.05747 18.06705 18.08169 18.10209 18.12562 18.14702 18.1674 18.18641 18.20335 18.2189 18.23501 18.24624 18.25563 18.26341 18.27586 18.296 18.31151 18.3298 18.3468 18.35891 18.36568 18.36095 18.35724 18.35089 18.33917 18.33262 18.32588
16.77384 16.79094 16.80663 16.82296 16.83655 16.85059 16.86486 16.87981 16.90241 16.91849 16.94495 16.96253 16.97526 16.98969 17.00568 17.02163 17.01551 17.01181 16.99652 16.97842 16.95923 16.94862 16.95316 16.96618 16.97913 17.00158 17.027 17.04668 17.06405 17.08331 17.10775 17.13284 17.15253 17.16971 17.18982 17.20945 17.22823 17.24147 17.25597 17.26899 17.27734 17.29055 17.30082 17.31994 17.34223 17.3584 17.3777 17.40232 17.43217 17.46643 17.50389 17.5398 17.5729 17.61126 17.64351 17.67627 17.71105 17.73597 17.76758 17.799 17.82792 17.85618 17.87566 17.89637 17.9137 17.93176 17.94851 17.95955 17.97049 17.98208 17.9913 18.00461 18.01523 18.029 18.0269 18.02942 18.03146 18.02875 18.03293 18.03741 18.05912 18.07361 18.09085 18.10574 18.12547 18.15007 18.1835 18.21546 18.24546 18.26207 18.27497 18.28381 18.29574 18.3122 18.32648 18.33142 18.33671 18.35008 18.37545 18.40653 18.43501 18.44638 18.44311 18.43521 18.43118 18.42452 18.42212 18.41563 18.40839
16.81034 16.82118 16.82444 16.82493 16.83447 16.84212 16.85033 16.8619 16.87819 16.89744 16.91173 16.92328 16.93895 16.9582 16.97392 16.98853 16.98498 16.98482 16.97765 16.96359 16.9481 16.94137 16.94607 16.96042 16.97797 16.99885 17.02545 17.04848 17.06901 17.08875 17.11613 17.14243 17.16395 17.18519 17.2044 17.22796 17.24862 17.26711 17.28417 17.29476 17.30913 17.3166 17.3321 17.3518 17.37741 17.40149 17.42773 17.45578 17.48576 17.51785 17.55511 17.59092 17.62697 17.65945 17.69722 17.72848 17.76705 17.79392 17.82196 17.84637 17.87826 17.89862 17.92102 17.93637 17.95531 17.96808 17.9796 17.99208 17.99968 18.00433 18.01697 18.02305 18.02965 18.0394 18.02961 18.03045 18.03389 18.03753 18.04287 18.05316 18.08714 18.10785 18.12963 18.15697 18.18811 18.22125 18.25673 18.30341 18.33842 18.36058 18.37173 18.3819 18.38896 18.3962 18.40829 18.40772 18.41096 18.42156 18.45147 18.48977 18.51682 18.52266 18.51991 18.51228 18.50607 18.50261 18.50051 18.49326 18.4865
16.80598 16.80836 16.8105 16.81184 16.81007 16.81537 16.82379 16.83105 16.84295 16.85808 16.87425 16.88517 16.90138 16.92417 16.94432 16.9601 16.9626 16.97097 16.96389 16.95767 16.94988 16.94528 16.9564 16.9712 16.99094 17.01559 17.0434 17.06857 17.09142 17.11943 17.14368 17.16482 17.18758 17.21046 17.23728 17.26056 17.28344 17.30281 17.31875 17.3304 17.34371 17.35976 17.37946 17.4052 17.42961 17.45956 17.49044 17.52032 17.55216 17.58234 17.62156 17.65819 17.69453 17.72949 17.76387 17.7914 17.81954 17.85206 17.88767 17.91737 17.94848 17.9709 17.99371 18.00772 18.02492 18.0359 18.04322 18.04885 18.05436 18.05873 18.06448 18.06625 18.06553 18.06365 18.0573 18.05717 18.06108 18.06353 18.0716 18.08699 18.11892 18.14397 18.17331 18.20322 18.24055 18.27942 18.32263 18.36593 0 0 18.43948 18.47176 18.47144 18.47646 18.48302 18.48268 18.49002 18.51175 18.52144 0 0 18.5412 18.60541 18.6018 18.59174 18.5854 18.59198 18.59007 18.57601
