ncols        109
nrows        82
xllcorner    -1.041666666667
yllcorner    37.041665395101
cellsize     0.083333333333
NODATA_value -9999
0.0 0 0 0 0 0 0 0 0 0 0 0 0 0 0 0 0 0 0 0 0 0 0 0 0 0 0 0 0 0 0 0 0 0 0 0 0 0 0 0 0 0 0 0 0 0 0 0 0 0 0 0 0 0 0 0 0 0 0 0 0 0 0 0 0 0 0 0 0 0 0 0 0 0 0 0 0 0 0 0 0 0 0 0 0 0 0 0 0 0 0 0 0 0 0 0 0 0 0 0 0 0 0 0 0 17.42073 16.09253 14.67866 14.66861
0 0 0 0 0 0 0 0 0 0 0 0 0 0 0 0 0 0 0 0 0 0 0 0 0 0 0 0 0 0 0 0 0 0 0 0 0 0 0 0 0 0 0 0 0 0 0 0 0 0 0 0 0 0 0 0 0 0 0 0 0 0 0 0 0 0 0 0 0 0 0 0 0 0 0 0 0 0 0 0 0 0 0 0 0 0 0 0 0 0 0 0 0 0 0 0 0 0 0 0 0 14.86833 14.88985 14.67397 14.67876 14.67588 14.66249 14.64513 14.61372
0 0 0 0 0 0 0 0 0 0 0 0 0 0 0 0 0 0 0 0 0 0 0 0 0 0 0 0 0 0 0 0 0 0 0 0 0 0 0 0 0 0 0 0 0 0 0 0 0 0 0 0 0 0 0 0 0 0 0 0 0 0 0 0 0 0 0 0 0 0 0 0 0 0 0 0 0 0 0 0 0 0 0 0 0 0 0 0 0 0 0 0 0 0 0 0 0 0 14.67465 14.6687 14.66584 14.65804 14.63836 14.62337 14.60576 14.57596 14.53604 14.5042 14.47064
0 0 0 0 0 0 0 0 0 0 0 0 0 0 0 0 0 0 0 0 0 0 0 0 0 0 0 0 0 0 0 0 0 0 0 0 0 0 0 0 0 0 0 0 0 0 0 0 0 0 0 0 0 0 0 0 0 0 0 0 0 0 0 0 0 0 0 0 0 0 0 0 0 0 0 0 0 0 0 0 0 0 0 0 0 0 0 0 0 0 0 0 0 0 0 0 0 16.44362 14.65669 14.63693 14.59921 14.5654 14.53283 14.51117 14.47685 14.4462 14.4123 14.38014 14.34896
0 0 0 0 0 0 0 0 0 0 0 0 0 0 0 0 0 0 0 0 0 0 0 0 0 0 0 0 0 0 0 0 0 0 0 0 0 0 0 0 0 0 0 0 0 0 0 0 0 0 0 0 0 0 0 0 0 0 16.32687 15.94865 15.64229 15.77807 0 0 0 0 0 0 0 0 0 0 0 0 0 0 0 0 0 0 0 0 0 0 0 0 0 0 0 0 0 0 0 0 0 15.16895 14.69416 14.66827 14.62065 14.57325 14.51791 14.46215 14.41299 14.37015 14.33 14.29333 14.26581 14.24879 14.22945
0 0 0 0 0 0 0 0 0 0 0 0 0 0 0 0 0 0 0 0 0 0 0 0 0 0 0 0 0 0 0 0 0 0 0 0 0 0 0 0 0 0 0 0 0 0 0 0 0 0 0 0 0 0 0 0 15.83652 15.86213 15.55822 15.3211 15.2273 15.22197 15.3268 15.55298 15.7762 15.89819 15.90537 0 0 0 0 16.30018 0 0 0 0 0 0 0 0 0 0 0 0 0 0 0 0 0 0 0 0 0 15.82775 14.66605 14.68726 14.65213 14.59823 14.52728 14.45937 14.39594 14.33614 14.29369 14.25383 14.2274 14.20116 14.18119 14.1621 14.15326
0 0 0 0 0 0 0 0 0 0 0 0 0 0 0 0 0 0 0 0 0 0 0 0 0 0 0 0 0 0 0 0 0 0 0 0 0 0 0 0 0 0 0 0 0 0 0 0 0 0 0 0 0 0 0 15.96877 15.54823 15.21533 14.98369 14.69647 14.74992 14.77165 14.96514 15.12723 15.28743 15.41709 15.5265 15.74009 15.95712 15.93071 15.89241 15.63042 15.39583 15.45793 15.65332 15.36073 15.38185 0 0 0 0 0 0 0 0 0 0 0 0 0 0 0 15.07153 14.69758 14.67026 14.63183 14.57953 14.5074 14.43388 14.36591 14.29485 14.23376 14.1944 14.15453 14.13683 14.1224 14.11654 14.10915 14.1119
0 0 0 0 0 0 0 0 0 0 0 0 0 0 0 0 0 0 0 0 0 0 0 0 0 0 0 0 0 0 0 0 0 0 0 0 0 0 0 0 0 0 0 0 0 0 0 0 0 0 0 15.61575 15.80124 15.93035 15.66701 15.22169 14.9647 14.67906 14.5441 14.60549 14.64812 14.66036 14.66251 14.8702 14.88621 15.09627 15.07973 15.07503 15.10169 14.99367 14.89199 14.93585 14.76885 14.98959 15.02655 15.25263 0 0 0 0 0 0 0 0 0 0 0 0 0 0 0 0 14.69544 14.68925 14.62143 14.54542 14.46323 14.38568 14.3147 14.24867 14.19616 14.1582 14.13534 14.11142 14.09947 14.09161 14.08997 14.09429 14.09808
0 0 0 0 0 0 0 0 0 0 0 0 0 0 0 0 0 0 0 0 0 0 0 0 0 0 0 0 0 0 0 0 0 0 0 0 0 0 0 0 0 0 0 0 0 0 0 0 0 0 15.79575 15.65622 15.38979 15.31321 15.20116 14.87091 14.51365 14.58316 14.41677 14.46626 14.50535 14.52761 14.53915 14.74209 14.7399 14.95495 14.96061 14.97425 14.81873 14.67632 14.71782 14.76421 14.60414 14.83109 14.85333 15.10573 15.13616 14.95581 15.01235 15.48961 16.06265 16.99738 0 0 0 0 0 0 0 15.84936 15.19063 14.72584 14.71357 14.65097 14.53876 14.44956 14.36828 14.30244 14.23362 14.17789 14.13964 14.11367 14.10009 14.09541 14.09106 14.09053 14.09062 14.09444 14.1032
0 0 0 0 0 0 0 0 0 0 0 0 0 0 0 0 0 0 0 0 0 0 0 0 0 0 0 0 0 0 0 0 0 0 0 0 0 0 0 0 0 0 0 0 0 0 0 0 0 16.66164 15.49105 15.37408 15.30002 14.97638 14.7848 14.59109 14.61984 14.44835 14.48747 14.53255 14.57092 14.59576 14.60954 14.82617 14.83522 14.84761 14.86377 14.87016 14.88875 14.71912 14.75158 14.5856 14.42083 14.44351 14.4535 14.48119 14.51095 14.56335 14.60803 14.62719 15.10852 15.78069 0 15.58558 16.24808 16.8429 17.15126 16.84249 16.24844 14.73775 14.75095 14.74228 14.67303 14.56601 14.44671 14.35879 14.27722 14.22013 14.16924 14.13211 14.11535 14.1071 14.10224 14.10278 14.10603 14.10881 14.11304 14.12201 14.12652
0 0 0 0 0 0 0 0 0 0 0 0 0 0 0 0 0 0 0 0 0 0 0 0 0 0 0 0 0 0 0 0 0 0 0 0 0 0 0 0 0 0 0 0 0 0 0 0 0 16.34988 15.43569 15.14682 14.81586 14.65138 14.69116 14.50599 14.51753 14.5535 14.59179 14.62596 14.66025 14.67713 14.68573 14.69149 14.70342 14.52369 14.35975 14.5314 14.54175 14.55153 14.56502 14.38507 14.39199 14.40504 14.42413 14.44795 14.48247 14.51297 14.54872 14.58383 14.61581 14.64994 14.68916 14.7089 14.74 14.75061 15.91923 16.13731 15.67135 14.69851 14.67581 14.62099 14.54718 14.45058 14.37117 14.29832 14.23426 14.18597 14.14762 14.12815 14.12462 14.12751 14.13721 14.13738 14.14222 14.1458 14.14937 14.1533 14.16065
0 0 0 0 0 0 0 0 0 0 0 0 0 0 0 0 0 0 0 0 0 0 0 0 0 0 0 0 0 0 0 0 0 0 0 0 0 0 0 0 0 0 0 0 0 0 0 0 0 16.07775 15.37424 15.05365 14.68116 14.73894 14.55991 14.60698 14.6116 14.65058 14.67977 14.71365 14.52814 14.54305 14.54791 14.55214 14.54981 14.3643 14.36703 14.36502 14.35014 14.34841 14.35218 14.35492 14.36085 14.37017 14.40954 14.41494 14.42581 14.43554 14.45486 14.48401 14.51285 14.55235 14.58212 14.60264 14.62857 14.65443 14.66708 14.67139 14.64651 14.59938 14.5537 14.4921 14.42204 14.34593 14.28628 14.23844 14.20072 14.16031 14.14956 14.15064 14.15444 14.16469 14.17573 14.17718 14.18174 14.19162 14.19193 14.19531 14.19397
0 0 0 0 0 0 0 0 0 0 0 0 0 0 0 0 0 0 0 0 0 0 0 0 0 0 0 0 0 0 0 0 0 0 0 0 0 0 0 0 0 0 0 0 0 0 0 0 0 15.98986 15.2643 14.91116 14.75046 14.57848 14.63803 14.69198 14.49351 14.52527 14.34015 14.3512 14.35993 14.36388 14.36526 14.36947 14.36425 14.35782 14.35403 14.34364 14.32603 14.30976 14.30651 14.3014 14.2994 14.299 14.31975 14.32082 14.32748 14.34416 14.3624 14.3821 14.40976 14.43539 14.46063 14.47768 14.48339 14.4935 14.50351 14.4892 14.46097 14.42557 14.38804 14.3554 14.30924 14.26506 14.22465 14.19507 14.18002 14.15878 14.1632 14.17405 14.18551 14.20289 14.21576 14.22059 14.22576 14.22776 14.22688 14.22316 14.22195
0 0 0 0 0 0 0 0 0 0 0 0 0 0 0 0 0 0 0 0 0 0 0 0 0 0 0 0 0 0 0 0 0 0 0 0 0 0 0 0 0 0 0 0 0 0 0 0 0 15.85555 15.30295 14.94245 14.79279 14.62198 14.67254 14.4927 14.32561 14.34798 14.36119 14.35961 14.35459 14.3498 14.3443 14.34078 14.33897 14.32754 14.32162 14.31245 14.29657 14.28094 14.27024 14.25936 14.24883 14.23806 14.22983 14.21766 14.21774 14.22459 14.2319 14.24241 14.2629 14.28753 14.30508 14.32056 14.33445 14.35333 14.36148 14.35839 14.33398 14.29145 14.26458 14.23919 14.21507 14.19583 14.17435 14.16885 14.17693 14.18688 14.19688 14.2058 14.21781 14.23315 14.24682 14.25839 14.25902 14.25846 14.2595 14.25449 14.25569
0 0 0 0 0 0 0 0 0 0 0 0 0 0 0 0 0 0 0 0 0 0 0 0 0 0 0 0 0 0 0 0 0 0 0 0 0 0 0 0 0 0 0 0 0 0 0 0 0 15.91646 15.09974 14.72455 14.82709 14.66594 14.71018 14.51254 14.33297 14.3461 14.35278 14.34536 14.337 14.33038 14.32483 14.32316 14.31492 14.30551 14.2903 14.27664 14.25762 14.23433 14.21407 14.19038 14.17291 14.16304 14.15376 14.15206 14.15677 14.16267 14.16926 14.17386 14.17897 14.18391 14.18985 14.19764 14.2109 14.21633 14.2197 14.21685 14.21267 14.19894 14.18863 14.18222 14.17584 14.17044 14.17317 14.18007 14.19298 14.20282 14.21647 14.22672 14.23722 14.24876 14.2724 14.28053 14.28368 14.28229 14.2798 14.27799 14.28189
0 0 0 0 0 0 0 0 0 0 0 0 0 0 0 0 0 0 0 0 0 0 0 0 0 0 0 0 0 0 0 0 0 0 0 0 0 0 0 0 0 0 0 0 0 0 0 0 0 15.39239 15.16096 14.76195 14.637 14.50418 14.54138 14.33994 14.33279 14.33511 14.32939 14.32252 14.31009 14.29812 14.29528 14.29513 14.29388 14.28678 14.27603 14.26083 14.24366 14.21953 14.18616 14.15744 14.13148 14.12205 14.11499 14.11242 14.11027 14.11464 14.11194 14.11133 14.11353 14.11497 14.12325 14.13183 14.14577 14.15611 14.16082 14.15841 14.1531 14.15322 14.15867 14.16128 14.16627 14.17404 14.1855 14.20233 14.2175 14.22843 14.23844 14.24487 14.25104 14.26588 14.2835 14.29933 14.30773 14.3085 14.30499 14.30603 14.30932
0 0 0 0 0 0 0 0 0 0 0 0 0 0 0 0 0 0 0 0 0 0 0 0 0 0 0 0 0 0 0 0 0 0 0 0 0 0 0 0 0 0 0 0 0 0 0 0 0 0 14.91038 14.84152 14.70419 14.35544 14.37775 14.37022 14.33543 14.32437 14.31783 14.30637 14.29423 14.28874 14.28645 14.28052 14.27673 14.26896 14.26156 14.25525 14.23875 14.21339 14.18333 14.1528 14.13056 14.11768 14.10705 14.1066 14.1069 14.10419 14.09084 14.08195 14.07977 14.07732 14.07745 14.0846 14.09826 14.10935 14.12005 14.12864 14.13694 14.14549 14.15698 14.16335 14.17413 14.19134 14.20686 14.22358 14.23501 14.24519 14.25651 14.26837 14.28116 14.29059 14.30362 14.31522 14.32097 14.32489 14.32653 14.32927 14.33979
0 0 0 0 0 0 0 0 0 0 0 0 0 0 0 0 0 0 0 0 0 0 0 0 0 0 0 0 0 0 0 0 0 0 0 0 0 0 0 0 0 0 0 0 0 0 0 0 0 0 15.12502 14.66246 14.3429 14.39221 14.39182 14.377 14.32912 14.3179 14.30608 14.29318 14.28449 14.27789 14.28102 14.28528 14.28831 14.28939 14.28835 14.2831 14.2713 14.25356 14.22311 14.19253 14.16712 14.14731 14.12787 14.12102 14.11598 14.10455 14.09513 14.08494 14.07477 14.07144 14.07202 14.07601 14.08459 14.09741 14.11093 14.12328 14.13645 14.14656 14.15873 14.17505 14.18812 14.20683 14.22687 14.24455 14.25824 14.26794 14.27809 14.28843 14.3043 14.31549 14.32683 14.33415 14.33869 14.34389 14.34771 14.35405 14.36565
0 0 0 0 0 0 0 0 0 0 0 0 0 0 0 0 0 0 0 0 0 0 0 0 0 0 0 0 0 0 0 0 0 0 0 0 0 0 0 0 0 0 0 0 0 0 0 0 0 0 0 0 14.38481 14.39457 14.38281 14.35977 14.33147 14.31614 14.30728 14.30257 14.29451 14.29604 14.30875 14.32215 14.33373 14.3408 14.35073 14.35143 14.32916 14.31055 14.28803 14.25929 14.23438 14.20465 14.17188 14.16301 14.15065 14.13017 14.11665 14.10592 14.09488 14.08338 14.07957 14.08284 14.09468 14.10297 14.11836 14.13082 14.1442 14.16363 14.17915 14.20139 14.22042 14.24051 14.26273 14.28112 14.29709 14.30233 14.31786 14.32404 14.33408 14.34689 14.35428 14.35856 14.35968 14.36701 14.37123 14.37612 14.38572
0 0 0 0 0 0 0 0 0 0 0 0 0 0 0 0 0 0 0 0 0 0 0 0 0 0 0 0 0 0 0 0 0 0 0 0 0 0 0 0 0 0 0 0 0 0 0 0 0 0 16.92513 15.19374 14.68736 14.44298 14.40065 14.35713 14.33383 14.32704 14.32062 14.31494 14.31297 14.32691 14.34214 14.35449 14.37182 14.3897 14.40291 14.40295 14.40109 14.38932 14.36121 14.33316 14.30052 14.26847 14.24322 14.21474 14.18569 14.16651 14.15342 14.13635 14.12142 14.1099 14.1031 14.10595 14.11227 14.12498 14.13783 14.15235 14.16778 14.19117 14.21387 14.24241 14.26381 14.28733 14.30447 14.32076 14.33399 14.34 14.349 14.35525 14.36057 14.36746 14.37525 14.38136 14.38736 14.38664 14.38575 14.3996 14.41391
0 0 0 0 0 0 0 0 0 0 0 0 0 0 0 0 0 0 0 0 0 0 0 0 0 0 0 0 0 0 0 0 0 0 0 0 0 0 0 0 0 0 0 0 0 0 0 0 0 0 16.29658 15.24883 14.98512 14.48365 14.43119 14.38255 14.35994 14.34468 14.34147 14.34356 14.35365 14.37031 14.38817 14.40349 14.42487 14.44188 14.45412 14.46296 14.46363 14.45769 14.44338 14.41644 14.37541 14.3408 14.30422 14.26494 14.23419 14.20965 14.18721 14.18104 14.16447 14.15675 14.1462 14.15095 14.15852 14.16175 14.17446 14.18373 14.2037 14.22849 14.26038 14.28632 14.31042 14.33296 14.34817 14.36429 14.37557 14.38257 14.38579 14.39066 14.38797 14.39286 14.39607 14.40096 14.40376 14.40155 14.40362 14.41677 14.43713
0 0 0 0 0 0 0 0 0 0 0 0 0 0 0 0 0 0 0 0 0 0 0 0 0 0 0 0 0 0 0 0 0 0 0 0 0 0 0 0 0 0 0 0 0 0 0 0 0 0 0 15.32643 14.78561 14.51253 14.46265 14.42298 14.38996 14.37776 14.37337 14.37987 14.39219 14.41303 14.44015 14.46641 14.4848 14.50761 14.52042 14.54152 14.54767 14.54291 14.52648 14.49963 14.45816 14.40942 14.36681 14.32159 14.27529 14.24604 14.22739 14.21598 14.20438 14.2 14.19424 14.19315 14.19958 14.20996 14.22513 14.23939 14.26459 14.29457 14.32867 14.35533 14.37452 14.38652 14.39729 14.40567 14.40938 14.4112 14.41637 14.41877 14.41727 14.41759 14.41988 14.43078 14.42778 14.42719 14.4276 14.44539 14.46504
0 0 0 0 0 0 0 0 0 0 0 0 0 0 0 0 0 0 0 0 0 0 0 0 0 0 0 0 0 0 0 0 0 0 0 0 0 0 0 0 0 0 0 0 0 0 0 0 0 0 0 15.09299 14.57814 14.53909 14.49052 14.47251 14.43026 14.42021 14.41583 14.42653 14.44661 14.47747 14.50678 14.53769 14.5622 14.58521 14.60295 14.62272 14.63975 14.62393 14.60767 14.57563 14.54131 14.48476 14.42878 14.38835 14.33884 14.31206 14.28372 14.27432 14.26069 14.25107 14.24794 14.24495 14.24622 14.25101 14.26895 14.29893 14.32916 14.36987 14.3992 14.42181 14.43848 14.44466 14.45252 14.45588 14.45323 14.45364 14.45274 14.45202 14.44677 14.44615 14.44093 14.44637 14.4513 14.44753 14.45715 14.47198 14.48684
0 0 0 0 0 0 0 0 0 0 0 0 0 0 0 0 0 0 0 0 0 0 0 0 0 0 0 0 0 0 0 0 0 0 0 0 0 0 0 0 0 0 0 0 0 0 0 0 0 0 0 14.6588 14.60989 14.55858 14.5195 14.50195 14.46111 14.45878 14.4741 14.48994 14.50828 14.53841 14.58242 14.61658 14.64486 14.67723 14.7146 14.72051 14.72789 14.70855 14.69 14.64527 14.59473 14.54113 14.48005 14.42249 14.38222 14.34993 14.32877 14.31509 14.31173 14.31258 14.31448 14.31747 14.31502 14.32868 14.35158 14.38225 14.41303 14.44384 14.46283 14.4793 14.48555 14.49114 14.49788 14.50143 14.49964 14.49638 14.49238 14.48821 14.48345 14.47138 14.46964 14.47131 14.47207 14.47482 14.48151 14.49368 14.50856
0 0 0 0 0 0 0 0 0 0 0 0 0 0 0 0 0 0 0 0 0 0 0 0 0 0 0 0 0 0 0 0 0 0 0 0 0 0 0 0 0 0 0 0 0 0 0 0 0 16.90636 15.80143 14.67986 14.62084 14.56964 14.55435 14.52385 14.51401 14.51454 14.53981 14.5625 14.5899 14.61718 14.66059 14.69789 14.73641 14.78919 14.80558 14.82943 14.81042 14.79566 14.77616 14.72946 14.67601 14.59493 14.54513 14.48483 14.44062 14.39812 14.38349 14.37636 14.38292 14.38329 14.38322 14.38098 14.38609 14.39704 14.42572 14.45875 14.48881 14.50969 14.53132 14.54601 14.5468 14.54935 14.55713 14.5565 14.54988 14.54968 14.53659 14.52689 14.51416 14.50335 14.49582 14.4985 14.49913 14.50462 14.50997 14.51769 14.52899
0 0 0 0 0 0 0 0 0 0 0 0 0 0 0 0 0 0 0 0 0 0 0 0 0 0 0 0 0 0 0 0 0 0 0 0 0 0 0 0 0 0 0 0 0 0 0 0 15.89996 15.28706 14.99294 14.70601 14.64946 14.61919 14.59217 14.57893 14.56625 14.58378 14.59541 14.62426 14.64948 14.68982 14.74765 14.7924 14.83608 14.87058 14.89882 14.89783 14.89088 14.83644 14.81912 14.77128 14.71484 14.65108 14.58694 14.53362 14.48563 14.45333 14.44332 14.45209 14.46307 14.47306 14.47906 14.47939 14.48035 14.48563 14.50986 14.52682 14.54103 14.55986 14.57567 14.58479 14.59233 14.60073 14.60544 14.60829 14.60458 14.59657 14.5874 14.56871 14.55709 14.54716 14.53802 14.53402 14.53305 14.53304 14.53597 14.53684 14.54628
0 0 0 0 0 0 0 0 0 0 0 0 0 0 0 0 0 0 0 0 0 0 0 0 0 0 0 0 0 0 0 0 0 0 0 0 0 0 0 0 0 0 0 0 0 15.51206 15.3968 15.97202 15.36356 15.35634 15.04696 14.75876 14.72548 14.70658 14.68168 14.65791 14.65308 14.65287 14.67501 14.69485 14.71772 14.7498 14.80773 14.84472 14.88978 14.90914 14.94474 14.97229 14.94974 14.91827 14.86894 14.81011 14.76489 14.71039 14.64122 14.5747 14.53985 14.52439 14.52173 14.52287 14.53149 14.54564 14.55244 14.5503 14.56102 14.56677 14.58259 14.59987 14.60836 14.62004 14.62782 14.63069 14.63989 14.65019 14.65567 14.65474 14.64962 14.63339 14.62521 14.61408 14.60101 14.59044 14.57936 14.57745 14.57008 14.56906 14.56312 14.56252 14.56966
0 0 0 0 0 0 0 0 0 0 0 0 0 0 0 0 0 0 0 0 0 0 0 0 0 0 0 0 0 0 0 0 0 0 0 0 0 0 0 0 0 0 17.74077 17.43706 16.3496 15.44074 14.8611 14.86631 15.43833 15.12467 14.83652 14.82305 14.81052 14.79271 14.771 14.75716 14.74222 14.74861 14.75367 14.77577 14.79072 14.82305 14.86577 14.90094 14.92549 14.97583 15.01356 15.01498 14.98222 14.93614 14.90727 14.86681 14.8139 14.76519 14.70679 14.65841 14.62405 14.60806 14.61056 14.62345 14.63044 14.63312 14.63029 14.62131 14.62965 14.64011 14.65345 14.6565 14.66515 14.66849 14.66539 14.67416 14.68297 14.69549 14.699 14.70144 14.70092 14.6946 14.69135 14.67849 14.65772 14.63888 14.62192 14.6134 14.60456 14.59865 14.59132 14.58852 14.59018
0 0 0 0 0 0 0 0 0 0 0 0 0 0 0 0 0 0 0 0 0 0 0 0 0 0 0 0 0 0 0 0 0 0 0 0 0 0 0 0 16.77436 17.22818 17.47378 16.44896 15.4769 14.8863 14.90235 14.91882 14.92164 14.91902 14.92581 14.9078 14.87967 14.85897 14.83622 14.82603 14.81526 14.80023 14.81238 14.83196 14.84735 14.88424 14.91701 14.95436 14.97163 14.9995 15.01551 15.02465 15.00779 14.99244 14.95144 14.93342 14.90006 14.83658 14.77118 14.73192 14.70637 14.67743 14.68244 14.69182 14.70526 14.69779 14.70479 14.69988 14.70067 14.70966 14.72419 14.72522 14.72478 14.71981 14.71991 14.71721 14.72655 14.72731 14.73253 14.72937 14.73048 14.72886 14.72616 14.71774 14.70374 14.68264 14.6639 14.65658 14.64803 14.63871 14.63321 14.62669 14.62422
0 0 0 0 0 0 0 0 0 0 0 0 0 0 0 0 0 0 0 0 0 0 0 0 0 0 0 0 0 0 0 0 0 0 0 0 0 0 0 16.99676 16.74082 16.13166 15.82496 14.90122 14.90023 14.91666 14.94277 14.96432 14.97871 14.99319 14.9997 14.97748 14.93881 14.9095 14.89734 14.88653 14.88112 14.87812 14.87503 14.88977 14.90762 14.93347 14.97052 14.99892 15.04003 15.0699 15.07844 15.07437 15.06233 15.04585 15.01789 15.00507 14.97633 14.92117 14.87174 14.8375 14.80724 14.78573 14.77826 14.77053 14.77146 14.7699 14.76592 14.75295 14.75249 14.75595 14.76832 14.77788 14.76936 14.76738 14.76679 14.76721 14.76975 14.77508 14.77253 14.77084 14.76871 14.7583 14.75633 14.74547 14.73038 14.71303 14.69341 14.68744 14.67957 14.67071 14.66785 14.66494 14.65933
0 0 0 0 0 0 0 0 0 0 0 0 0 0 0 0 0 0 0 0 0 0 0 0 0 0 0 0 0 0 0 0 0 0 0 0 0 0 16.10707 15.78735 15.50183 14.91612 14.9324 14.95376 14.97083 14.99157 15.00808 15.02761 15.04215 15.04396 15.03716 15.0217 15.01475 14.96054 14.93807 14.9288 14.92679 14.92502 14.93041 14.95083 14.97776 14.99261 15.03183 15.07923 15.08793 15.11851 15.13795 15.13527 15.12773 15.11064 15.09345 15.07808 15.04143 15.00731 14.94291 14.91004 14.88536 14.86428 14.84931 14.83782 14.83535 14.83684 14.824 14.8145 14.81031 14.8154 14.82489 14.82111 14.81619 14.81093 14.80502 14.80651 14.80592 14.80339 14.80099 14.80052 14.79854 14.79136 14.78119 14.77447 14.75867 14.7424 14.73059 14.72401 14.71834 14.71627 14.71174 14.7096 14.69562
0 0 0 0 0 0 0 0 0 0 0 0 0 0 0 0 0 0 0 0 0 0 0 0 0 0 0 0 0 0 0 0 0 0 17.76164 18.41811 17.55549 15.79102 14.88267 14.88921 14.91821 14.93877 14.97343 14.99621 15.02604 15.04048 15.05586 15.08856 15.1066 15.11984 15.11163 15.10296 15.08779 15.05031 15.01939 14.99237 14.97598 14.97445 14.99457 15.00812 15.03661 15.05171 15.07062 15.09986 15.12734 15.17101 15.17813 15.18068 15.17775 15.17247 15.15921 15.14142 15.10868 15.09708 15.04888 14.99787 14.97791 14.94775 14.91274 14.89923 14.88713 14.88381 14.87375 14.85904 14.86329 14.8662 14.87353 14.86824 14.85968 14.85139 14.85559 14.85799 14.85358 14.85039 14.84624 14.83659 14.83058 14.82331 14.81013 14.79619 14.78396 14.76902 14.75307 14.75063 14.74961 14.75227 14.75649 14.75395 14.74184
0 0 0 0 0 0 0 0 0 0 0 0 0 0 0 0 0 0 0 0 0 0 0 0 0 0 0 0 0 18.21565 17.81206 17.59497 17.58374 17.37334 17.09406 16.48179 14.89158 14.8995 14.89922 14.91992 14.93755 14.96792 14.99408 15.01609 15.05376 15.08344 15.11407 15.13542 15.15869 15.17081 15.16443 15.16459 15.15557 15.12759 15.08038 15.0648 15.0499 15.04851 15.08313 15.07575 15.09033 15.10462 15.11854 15.15299 15.18453 15.20182 15.21218 15.21006 15.20325 15.2037 15.20098 15.18464 15.16754 15.14838 15.1203 15.08686 15.05157 15.0178 14.99923 14.98438 14.96875 14.95487 14.93982 14.93124 14.92735 14.92006 14.91321 14.90703 14.89472 14.89334 14.8973 14.89509 14.89596 14.88975 14.88655 14.87438 14.85891 14.84934 14.84426 14.82982 14.81787 14.8062 14.79283 14.7862 14.78523 14.78997 14.79069 14.78327 14.76153
0 0 0 0 0 0 0 0 0 0 0 0 0 0 0 0 0 0 0 0 0 0 0 0 0 17.98305 17.25728 17.25181 16.30984 15.61717 15.27511 14.9466 14.94051 14.92847 14.90787 14.89912 14.89785 14.90663 14.92624 14.94368 14.96418 14.98742 15.0312 15.08357 15.12704 15.171 15.20173 15.22295 15.24761 15.25702 15.24978 15.22754 15.22531 15.19802 15.14715 15.13107 15.10845 15.11604 15.10598 15.10851 15.13374 15.15076 15.17136 15.2002 15.22327 15.24133 15.25087 15.24815 15.25253 15.24476 15.24337 15.2266 15.21667 15.19434 15.17346 15.15509 15.12773 15.09457 15.06822 15.05246 15.03876 15.02537 15.02029 15.00701 14.99377 14.98558 14.96876 14.95788 14.94446 14.94042 14.946 14.9426 14.93436 14.92738 14.92019 14.90841 14.89375 14.87967 14.87089 14.86267 14.85294 14.83919 14.83044 14.82913 14.82927 14.83055 14.82588 14.80945 14.76577
0 0 0 0 0 0 0 0 0 0 0 0 0 0 0 0 0 0 0 0 0 0 0 18.18868 17.33163 16.75391 16.40101 16.04716 15.02344 14.98605 14.95852 14.94591 14.93652 14.9267 14.91414 14.92355 14.92908 14.93604 14.94829 14.96195 14.97592 15.0116 15.06931 15.12034 15.16698 15.20002 15.22677 15.25989 15.27768 15.29233 15.28647 15.27816 15.26588 15.24612 15.20968 15.16477 15.15581 15.14115 15.1349 15.14521 15.17372 15.17781 15.18659 15.21532 15.22927 15.24742 15.25856 15.26805 15.26585 15.26953 15.28058 15.28171 15.27585 15.2643 15.2456 15.22483 15.20836 15.18116 15.16197 15.13636 15.1233 15.10291 15.08736 15.06964 15.05225 15.02882 15.00943 14.99894 14.98388 14.97948 14.98077 14.97989 14.97507 14.96922 14.95764 14.94645 14.93515 14.92375 14.90873 14.90209 14.89151 14.87659 14.86907 14.86788 14.86403 14.86112 14.84563 14.82089 14.76375
0 0 0 0 0 0 0 0 0 0 0 0 0 0 0 0 0 0 0 0 0 0 17.62426 16.80241 16.46714 16.43164 16.08088 15.69795 14.99491 14.95463 14.94242 14.94093 14.93535 14.93078 14.93155 14.94537 14.94835 14.95857 14.97064 14.98265 14.99411 15.02576 15.07368 15.13037 15.16711 15.1982 15.23212 15.26173 15.2911 15.28801 15.27622 15.26646 15.26281 15.26008 15.2375 15.20613 15.18132 15.1593 15.15341 15.16231 15.17647 15.18823 15.19718 15.21903 15.23914 15.25455 15.27735 15.29356 15.30367 15.30093 15.30859 15.30886 15.31501 15.30886 15.28421 15.26839 15.25635 15.24078 15.22276 15.20894 15.19765 15.19001 15.17201 15.14728 15.1208 15.09785 15.07799 15.06263 15.0448 15.02998 15.02369 15.01942 15.00879 15.00014 14.98826 14.97741 14.96375 14.95349 14.9486 14.93756 14.92871 14.91755 14.91142 14.90718 14.90559 14.89693 14.87258 14.82951 14.76491
0 0 0 0 0 0 0 0 0 0 0 0 0 0 0 0 0 0 0 0 0 18.86069 17.80976 16.78907 16.12804 16.08654 15.70104 15.6596 14.95555 14.94488 14.94253 14.93825 14.93276 14.9351 14.93337 14.94403 14.95323 14.96628 14.97662 14.98758 14.99976 15.03162 15.06643 15.08836 15.12705 15.16981 15.22841 15.26354 15.26278 15.25876 15.24717 15.24195 15.25176 15.24988 15.23297 15.21613 15.20267 15.18595 15.17956 15.18426 15.18442 15.1951 15.20133 15.22679 15.25186 15.27548 15.29962 15.31703 15.3301 15.342 15.34029 15.33829 15.34003 15.33967 15.33455 15.32861 15.31683 15.30208 15.28113 15.27557 15.25173 15.2396 15.22048 15.19651 15.17851 15.15746 15.13753 15.12566 15.1097 15.09186 15.07819 15.06962 15.05592 15.04106 15.0269 15.01635 15.00753 14.99803 14.99122 14.97678 14.96279 14.95713 14.95119 14.94901 14.94596 14.92727 14.8946 14.83515 14.75437
0 0 0 0 0 0 0 0 0 0 0 0 0 0 0 0 0 0 0 0 0 0 0 17.34016 16.46176 16.08295 15.68498 15.31163 14.93459 14.93361 14.93478 14.93313 14.93606 14.93671 14.93139 14.93813 14.9579 14.96701 14.97445 14.98496 14.99928 15.02471 15.03299 15.06068 15.10526 15.15837 15.20305 15.21793 15.22514 15.22387 15.22675 15.24553 15.25307 15.2485 15.23116 15.23119 15.24229 15.23239 15.22527 15.22834 15.23064 15.22759 15.22789 15.24995 15.27824 15.2932 15.31354 15.32601 15.33641 15.35184 15.36275 15.36553 15.36206 15.3573 15.37802 15.38271 15.37202 15.36779 15.35565 15.33977 15.32908 15.31004 15.29177 15.26653 15.24356 15.22784 15.20634 15.18309 15.159 15.13988 15.12302 15.10838 15.09291 15.07856 15.07255 15.06364 15.05593 15.04442 15.0365 15.02154 15.01359 15.00977 15.00251 15.00075 14.98907 14.95907 14.9146 14.84264 14.75151
0 0 0 0 0 0 0 0 0 0 0 0 0 0 0 0 0 0 0 0 0 19.26129 18.92714 17.92992 16.48144 16.08739 15.68401 15.6506 15.27632 14.92573 14.92633 14.92265 14.93852 14.93765 14.92976 14.94207 14.96435 14.97263 14.97895 14.98458 14.99021 15.01153 15.01579 15.05233 15.073 15.10194 15.13154 15.16282 15.17959 15.19962 15.21693 15.23058 15.23742 15.2455 15.23397 15.24877 15.26226 15.26581 15.26079 15.26354 15.26172 15.26123 15.2701 15.28448 15.31064 15.32799 15.34083 15.35377 15.35643 15.3642 15.38167 15.37649 15.38518 15.39978 15.40531 15.41042 15.41462 15.40807 15.40492 15.39447 15.37838 15.36251 15.35177 15.33518 15.31399 15.29018 15.27128 15.2492 15.22626 15.20473 15.18119 15.1575 15.14358 15.1313 15.12344 15.11115 15.10007 15.08577 15.07509 15.06658 15.05691 15.05 15.04998 15.04274 15.02089 14.9835 14.93456 14.85571 14.75317
0 0 0 0 0 0 0 0 0 0 0 0 0 0 0 0 0 0 0 19.26844 19.17883 19.08173 18.23739 17.15325 16.48816 16.10239 15.69518 16.00828 14.9429 14.92109 14.91632 14.91773 14.93133 14.93533 14.92834 14.93517 14.94721 14.96697 14.96961 14.97454 14.98069 14.98764 15.00253 15.01388 15.02278 15.04567 15.0634 15.10224 15.13399 15.15895 15.1863 15.20645 15.22691 15.25581 15.26263 15.27264 15.28232 15.28988 15.29867 15.29685 15.29595 15.29667 15.31198 15.31507 15.32629 15.34316 15.348 15.36603 15.38184 15.3948 15.39887 15.39238 15.41023 15.43438 15.44311 15.4487 15.45498 15.4602 15.46047 15.45389 15.4318 15.41816 15.40638 15.39071 15.36816 15.34463 15.32053 15.29712 15.27606 15.25553 15.23233 15.21432 15.20275 15.19499 15.18811 15.17659 15.16238 15.14728 15.134 15.12593 15.11142 15.10142 15.09546 15.08269 15.05629 15.01314 14.95165 14.86863 14.76547
0 0 0 0 0 0 0 0 0 0 0 0 0 0 0 0 0 0 18.73841 18.60706 18.25046 17.80586 17.20254 16.53828 16.17725 16.1093 15.70901 15.31687 14.94447 14.91899 14.91362 14.91513 14.92682 14.92894 14.93149 14.93772 14.94488 14.95929 14.97427 14.97532 14.98012 14.98799 14.99399 15.02173 15.02483 15.04152 15.06776 15.09779 15.13212 15.15712 15.18738 15.21403 15.23426 15.25983 15.28868 15.27774 15.29744 15.31484 15.32175 15.32143 15.32261 15.33054 15.34319 15.35034 15.35496 15.3648 15.36987 15.37741 15.38975 15.39973 15.41082 15.41577 15.4397 15.45623 15.46873 15.48581 15.49293 15.50147 15.50049 15.50511 15.49369 15.47795 15.46649 15.45237 15.43171 15.41247 15.38462 15.35568 15.33157 15.30611 15.28213 15.26271 15.2515 15.24296 15.22949 15.22095 15.2117 15.1971 15.18783 15.17148 15.15812 15.15052 15.14538 15.1254 15.0932 15.048 14.98477 14.90196 14.8043
0 0 0 0 0 0 0 0 0 0 0 0 0 0 0 0 0 19.18834 18.61994 18.00826 17.51265 16.89789 16.56037 16.52481 16.50114 16.0948 15.70536 14.97562 14.93482 14.91465 14.9104 14.91142 14.92302 14.92283 14.9283 14.93351 14.9428 14.95522 14.96546 14.97739 14.9892 15.00595 15.01501 15.03805 15.05629 15.07539 15.09486 15.12289 15.15593 15.19534 15.23447 15.26525 15.27246 15.29935 15.29745 15.30782 15.32622 15.34036 15.35153 15.36626 15.36795 15.37857 15.38134 15.38495 15.38112 15.38671 15.4016 15.40279 15.40494 15.41871 15.42995 15.44335 15.47546 15.4846 15.49539 15.51036 15.5188 15.53561 15.53895 15.54921 15.53976 15.52291 15.51483 15.49647 15.47686 15.45314 15.42943 15.40732 15.38317 15.35433 15.33012 15.31064 15.30189 15.29188 15.27707 15.26809 15.25424 15.23942 15.22766 15.20821 15.19777 15.18768 15.17562 15.15826 15.12901 15.08382 15.02119 14.94243 14.8544
0 0 0 0 0 0 0 0 0 0 0 0 0 0 0 0 18.6709 18.64448 17.79538 17.23518 16.90968 16.57327 16.52895 16.5047 16.49411 16.10921 15.6907 14.96264 14.9185 14.90921 14.90138 14.90219 14.91721 14.92262 14.92848 14.93414 14.95284 14.96341 14.96766 14.97409 14.9913 15.00871 15.02978 15.05506 15.08838 15.11287 15.13597 15.16141 15.18504 15.22074 15.26563 15.29679 15.32046 15.33206 15.34108 15.34746 15.37877 15.38843 15.38996 15.39569 15.41329 15.41944 15.42347 15.41357 15.39786 15.40136 15.4063 15.41679 15.41323 15.42578 15.43731 15.46636 15.48621 15.50628 15.53003 15.54609 15.55966 15.57048 15.58383 15.60152 15.60012 15.59291 15.57504 15.55775 15.53156 15.50224 15.47399 15.44942 15.42036 15.3918 15.368 15.34741 15.33377 15.32403 15.31622 15.30228 15.28765 15.27469 15.26314 15.25155 15.24103 15.23061 15.21837 15.19988 15.17104 15.12914 15.0688 14.99207 14.90567
0 0 0 0 0 0 0 0 0 0 0 0 0 0 0 19.23662 18.48957 17.7955 17.20966 16.89125 16.55738 16.5261 16.50939 16.14174 16.11799 15.72084 14.98707 14.94088 14.91007 14.90185 14.89193 14.89573 14.91133 14.92164 14.92925 14.94964 14.97082 14.98346 14.99162 15.00637 15.0271 15.05152 15.06822 15.09409 15.12624 15.15428 15.17661 15.20667 15.2374 15.26252 15.29534 15.32803 15.34128 15.35941 15.36845 15.38099 15.40492 15.41498 15.43029 15.45126 15.45341 15.45592 15.45931 15.44435 15.43416 15.4235 15.41241 15.41099 15.4162 15.4287 15.44575 15.47544 15.49455 15.51935 15.54668 15.57081 15.58646 15.6048 15.61803 15.63148 15.63525 15.63548 15.62131 15.60893 15.58591 15.55747 15.53099 15.50071 15.47223 15.44222 15.41447 15.38753 15.37173 15.36019 15.34607 15.33177 15.31368 15.303 15.2905 15.28128 15.27239 15.26761 15.25165 15.23728 15.21134 15.17033 15.11353 15.04387 14.96105
0 0 0 0 0 0 0 0 0 0 0 0 0 0 18.55025 18.54224 17.8455 17.216 16.86958 16.52109 16.49743 16.14287 16.12293 16.10835 15.73502 15.32266 14.96346 14.9327 14.91551 14.90083 14.89352 14.90161 14.91384 14.92825 14.94208 14.96124 14.98441 15.00457 15.02208 15.04698 15.07661 15.09664 15.12146 15.15433 15.17972 15.21479 15.2473 15.28072 15.30913 15.33546 15.35642 15.37765 15.38983 15.40457 15.41455 15.42831 15.43244 15.44899 15.46311 15.47973 15.48862 15.49548 15.5077 15.4985 15.47756 15.45546 15.43648 15.42164 15.41806 15.42451 15.44784 15.46938 15.50299 15.52967 15.56267 15.59238 15.617 15.64092 15.66023 15.66462 15.66903 15.6625 15.64847 15.63341 15.61908 15.59729 15.5718 15.54219 15.50969 15.4802 15.44957 15.42453 15.40617 15.38754 15.37286 15.35885 15.34635 15.33104 15.32312 15.31892 15.30983 15.30579 15.29216 15.26946 15.24398 15.20168 15.14632 15.07502 14.99228
0 0 0 0 0 0 0 0 0 0 0 0 0 18.40496 18.57613 17.84602 17.21265 16.8768 16.50923 16.48594 16.13738 16.11372 16.1047 16.09908 15.70645 14.96582 14.94142 14.92645 14.9209 14.90979 14.90845 14.92245 14.9411 14.9566 14.96915 14.99227 15.00742 15.02296 15.05127 15.07775 15.11782 15.14633 15.17195 15.20427 15.23856 15.26938 15.31332 15.35303 15.37586 15.39844 15.41212 15.42144 15.43514 15.44627 15.44628 15.45192 15.45465 15.47234 0 0 0 15.49727 15.51543 15.56003 15.53363 15.50304 15.47505 15.45126 15.42772 15.42767 15.4401 15.46408 15.49858 15.5334 15.57496 15.61429 15.64364 15.6709 15.68789 15.69468 15.70656 15.70048 15.69015 15.67851 15.6621 15.63811 15.61174 15.58702 15.55969 15.52274 15.49243 15.46243 15.43295 15.41441 15.39904 15.38138 15.36643 15.35644 15.34771 15.3461 15.34068 15.34024 15.33017 15.3119 15.28375 15.24634 15.18628 15.11427 15.02097
0 0 0 0 0 0 0 0 0 0 0 0 0 18.77269 17.86605 17.22401 16.84986 16.48953 16.46533 16.0934 16.09018 16.10099 16.09211 15.01456 14.98918 14.96248 14.93464 14.92398 14.91448 14.91235 14.93162 14.94706 14.96574 14.98543 14.99874 15.02045 15.0397 15.06747 15.09459 15.12665 15.17163 15.21351 15.25135 15.2891 15.33136 15.36769 15.4 15.42746 15.43924 15.45362 15.46812 16.29911 15.48053 15.47719 15.47425 15.86409 16.72602 17.55753 0 0 0 0 0 16.00385 15.57231 15.53813 15.50485 15.4636 15.44183 15.43571 15.44992 15.47691 15.50084 15.55152 15.59979 15.6345 15.66886 15.69444 15.71227 15.71924 15.72425 15.71836 15.71457 15.70825 15.6967 15.67561 15.64887 15.62382 15.60128 15.56962 15.54068 15.50991 15.48784 15.4586 15.43973 15.42192 15.40409 15.39157 15.38279 15.37676 15.37061 15.36847 15.35817 15.34176 15.31395 15.27794 15.21672 15.14039 15.04681
0 0 0 0 0 0 0 0 0 0 0 0 18.92386 18.13378 17.21811 16.84445 16.45325 16.0894 16.0873 16.08414 16.07827 16.08685 15.71946 15.00065 14.97548 14.95641 14.94431 14.9291 14.92755 14.94217 14.96401 14.97899 14.9933 15.01475 15.02718 15.04785 15.07041 15.10077 15.14018 15.18145 15.23533 15.27875 15.32343 15.36513 15.40005 15.42581 15.44171 0 0 15.45366 0 17.22455 16.35487 15.916 16.32061 16.30048 17.14907 17.60116 18.62268 16.28236 15.50889 0 0 0 17.34944 15.55436 15.50983 15.48356 15.46644 15.46377 15.46835 15.49013 15.52641 15.57176 15.62274 15.662 15.69495 15.7236 15.74578 15.75889 15.75342 15.74843 15.74138 15.7281 15.71829 15.69869 15.67582 15.65223 15.6318 15.60148 15.57816 15.54745 15.53014 15.50377 15.48036 15.46162 15.44634 15.43506 15.42459 15.41766 15.41215 15.40787 15.39589 15.37688 15.34751 15.30813 15.24603 15.16564 15.06487
0 0 0 0 0 0 0 0 0 0 0 18.21638 18.15936 17.22716 16.83107 16.084 16.07951 16.07704 16.06478 16.06613 16.08194 15.37427 15.01685 15.00304 14.9688 14.96513 14.95349 14.94331 14.95123 14.9704 14.9923 15.0118 15.02946 15.0493 15.0626 15.0896 15.1223 15.15757 15.20423 15.25721 15.31262 15.35764 15.39085 15.41716 16.27422 0 0 0 0 0 18.05097 18.87739 18.61919 18.0041 17.61014 17.14764 17.14432 15.87026 15.49396 15.5047 15.50809 15.51388 15.51681 17.65161 18.03562 15.53245 15.5206 15.48986 15.48802 15.47768 15.48279 15.50816 15.54769 15.57993 15.63534 15.68453 15.71987 15.74826 15.7703 15.77431 15.77833 15.76977 15.76523 15.75093 15.73764 15.71872 15.70125 15.6826 15.66587 15.64555 15.62271 15.60023 15.57395 15.54951 15.52483 15.50536 15.48495 15.47321 15.46171 15.45508 15.44862 15.43962 15.43095 15.40837 15.37702 15.33545 15.279 15.19857 15.09768
0 0 0 0 0 0 0 0 0 0 18.92025 18.20551 17.24885 16.49909 16.08952 15.71767 15.70481 15.7102 15.71613 15.72143 15.72759 15.02503 15.02401 15.01023 14.97911 14.97504 14.96925 14.97099 14.97952 14.99058 15.01337 15.03312 15.0522 15.07071 15.09603 15.13421 15.16452 15.22622 15.2691 15.32897 15.38787 15.42553 15.84494 0 0 0 0 0 0 0 0 0 0 0 17.97671 17.585 16.71971 15.47633 15.49876 15.51087 15.51595 15.50632 15.50299 15.51453 15.52075 15.52333 15.50814 15.49153 15.49218 15.49563 15.50976 15.5365 15.57232 15.61462 15.64629 15.68912 15.72935 15.75417 15.77757 15.78876 15.78928 15.78496 15.77244 15.76223 15.74821 15.73457 15.7186 15.7097 15.69546 15.68246 15.66489 15.64544 15.62057 15.59698 15.57648 15.55471 15.53881 15.52813 15.51479 15.50638 15.49867 15.48124 15.46766 15.43969 15.40733 15.36181 15.30508 15.22344 15.1243
0 0 0 0 0 0 0 0 0 0 18.51635 17.29208 16.53937 16.11944 15.38438 15.35069 15.00374 15.00115 15.02413 15.03112 15.03041 15.02983 15.02575 15.0228 15.01215 15.00007 15.00124 15.01408 15.02109 15.02994 15.05024 15.06692 15.0866 15.10689 15.13582 15.17202 15.21569 15.2661 15.32347 15.37204 16.67812 0 0 0 0 0 0 0 0 0 0 0 0 0 18.63307 17.1949 15.48986 15.49781 15.51268 15.53421 15.54552 15.54082 15.53815 15.53262 15.52945 15.52205 15.52036 15.5122 15.51981 15.52625 15.54133 15.57378 15.5979 15.63098 15.66618 15.70007 15.73593 15.76061 15.78248 15.79099 15.79271 15.78422 15.77926 15.7713 15.76558 15.75872 15.74865 15.73485 15.72203 15.70972 15.69248 15.67268 15.65242 15.63256 15.60953 15.59529 15.58126 15.57149 15.56445 15.55731 15.54869 15.53008 15.50701 15.47904 15.44173 15.39629 15.33309 15.25008 15.15337
0 0 0 0 0 0 0 0 0 18.62005 18.00483 16.93783 16.13444 15.37949 15.01628 14.9936 14.98533 14.99114 15.00353 15.01409 15.02857 15.03917 15.03312 15.03796 15.0381 15.0278 15.02659 15.04002 15.06166 15.06433 15.08677 15.10378 15.12409 15.14586 15.18068 15.21958 15.25846 15.31015 15.35874 16.20163 16.44946 0 0 0 0 0 0 0 0 0 0 0 0 17.87955 17.64131 16.34961 15.50355 15.51672 15.54233 15.56415 15.57474 15.57908 15.57558 15.57003 15.56401 15.56031 15.55656 15.54976 15.55893 15.55931 15.58056 15.60314 15.63056 15.65578 15.68254 15.70662 15.73209 15.76003 15.78399 15.79079 15.79337 15.79105 15.78007 15.77628 15.77798 15.77691 15.77174 15.76291 15.75384 15.73922 15.71865 15.70271 15.68698 15.66873 15.65062 15.63411 15.62244 15.61107 15.60325 15.5962 15.58197 15.56491 15.53499 15.50405 15.46554 15.41466 15.34806 15.26596 15.17505
0 0 0 0 0 0 0 0 19.45412 18.34743 16.9743 16.14954 15.71594 15.00861 14.97333 14.96089 14.96184 14.98638 15.00158 15.01199 15.02916 15.03963 15.04152 15.03978 15.0407 15.04423 15.06094 15.07167 15.0908 15.11245 15.12467 15.13524 15.15466 15.18255 15.21284 15.24975 15.2856 15.32986 15.74572 16.19878 16.68108 17.56508 0 18.43233 19.06172 0 0 0 0 0 0 0 18.67721 17.65322 16.79292 15.51255 15.51793 15.54206 15.57244 15.59468 15.60371 15.60064 15.59711 15.59097 15.58692 15.58385 15.58043 15.58225 15.57933 15.59505 15.62095 15.64369 15.67292 15.69307 15.71684 15.73565 15.75384 15.78057 15.80223 15.81317 15.81626 15.81014 15.80086 15.79692 15.79588 15.79487 15.78956 15.78439 15.77672 15.76371 15.74769 15.72992 15.71567 15.70489 15.69253 15.6759 15.66832 15.66148 15.65198 15.63638 15.62063 15.59671 15.56564 15.53013 15.48187 15.42778 15.35592 15.27174 15.18386
0 0 0 0 0 0 0 0 19.45938 18.34884 16.97211 16.13098 15.0213 14.9803 14.94467 14.9313 14.95171 14.97227 15.00056 15.02633 15.04298 15.05703 15.05107 15.0568 15.06073 15.08008 15.09956 15.12013 15.14394 15.17089 15.18789 15.20584 15.22043 15.24211 15.26395 15.29602 15.32713 15.34548 15.36817 15.80194 16.23775 16.68564 17.14745 17.59559 18.41177 0 0 0 0 0 0 18.07474 17.23961 17.22561 15.51149 15.53186 15.55098 15.57689 15.60706 15.6323 15.6404 15.63603 15.62366 15.61494 15.60951 15.60339 15.60055 15.60125 15.60261 15.61671 15.63846 15.6634 15.68433 15.70877 15.73322 15.7557 15.77713 15.80205 15.82028 15.83086 15.83097 15.83022 15.82511 15.82027 15.81894 15.81865 15.81593 15.80594 15.79807 15.78898 15.77224 15.75709 15.74639 15.7371 15.72494 15.7142 15.70508 15.6975 15.68654 15.67063 15.65009 15.62618 15.59419 15.54902 15.49574 15.43256 15.36121 15.27923 15.19177
0 0 0 0 0 0 0 0 0 18.38118 16.98554 16.14841 15.01607 14.96685 14.9286 14.92291 14.9394 14.95959 14.99528 15.0329 15.05422 15.07495 15.07463 15.07911 15.09131 15.11762 15.14408 15.17642 15.20603 15.23091 15.25756 15.28095 15.29342 15.30761 15.32828 15.34998 15.37084 15.38276 15.39791 15.41023 15.41822 15.42954 15.43916 15.83893 16.71705 17.57498 18.41684 18.77149 0 0 18.36722 17.22347 16.35303 15.51198 15.52887 15.56036 15.58925 15.61739 15.64375 15.65995 15.66298 15.66432 15.65538 15.64081 15.6348 15.62852 15.62282 15.62401 15.62547 15.63943 15.66066 15.68207 15.70116 15.72476 15.74927 15.77276 15.79608 15.81297 15.83555 15.8452 15.84665 15.84994 15.84124 15.84016 15.83744 15.83215 15.83159 15.83249 15.82806 15.81894 15.81089 15.80014 15.78683 15.77396 15.76674 15.75333 15.7429 15.72893 15.71723 15.6977 15.67308 15.64088 15.60458 15.55877 15.50261 15.43608 15.36401 15.28314 15.19751
0 0 0 0 0 0 0 0 0 19.33898 17.74998 16.5943 15.37332 14.97567 14.93282 14.91563 14.92326 14.95272 14.98779 15.02743 15.06087 15.08793 15.10043 15.11001 15.1306 15.16422 15.2073 15.25039 15.28471 15.31915 15.33316 15.34256 15.34182 15.36033 15.37246 15.38213 15.39709 15.40642 15.41193 15.41745 15.43154 15.4351 15.43838 15.44242 15.84819 16.2852 16.72885 17.15745 18.39573 17.20673 15.89024 15.49443 15.5101 15.53951 15.57284 15.59605 15.62261 15.64365 15.65607 15.66382 15.67378 15.67373 15.66352 15.65898 15.6517 15.64535 15.64164 15.64242 15.64275 15.65502 15.67144 15.69575 15.71733 15.74245 15.76893 15.79516 15.81089 15.83656 15.85037 15.85574 15.86073 15.8644 15.86485 15.85966 15.85577 15.85195 15.85103 15.85071 15.85081 15.84404 15.8366 15.82734 15.81529 15.80662 15.7929 15.78204 15.77175 15.75954 15.74633 15.72524 15.69645 15.66281 15.62105 15.56905 15.51531 15.44697 15.37073 15.28873 15.19926
0 0 0 0 0 0 0 0 0 19.49613 18.69541 17.01461 15.75779 14.99888 14.9455 14.91965 14.92152 14.94675 14.97823 15.01559 15.05537 15.09444 15.11416 15.1341 15.17162 15.22776 15.28094 15.32801 15.37024 15.38475 15.39636 15.40262 15.40905 15.4148 15.40982 15.4088 15.40962 15.41815 15.42175 15.42501 15.44106 15.44753 15.44653 15.45839 15.46213 15.46765 15.8808 0 17.20384 15.90631 15.50668 15.52525 15.55399 15.58618 15.6214 15.64112 15.66589 15.68104 15.68746 15.68763 15.6845 15.67972 15.67625 15.67475 15.67237 15.66242 15.65528 15.65529 15.65873 15.66954 15.68452 15.70268 15.73431 15.75953 15.7861 15.80968 15.83376 15.85084 15.85556 15.8624 15.86982 15.87195 15.87443 15.8737 15.87247 15.87315 15.87125 15.87267 15.87165 15.86855 15.86161 15.85085 15.83989 15.828 15.81758 15.80714 15.7975 15.78668 15.76515 15.74341 15.71114 15.67486 15.62942 15.58299 15.52258 15.45385 15.37582 15.28976 15.18668
0 0 0 0 0 0 0 0 0 0 19.18921 17.7858 16.19266 15.38235 14.98458 14.93855 14.92238 14.93043 14.96229 14.995 15.03881 15.09074 15.11782 15.15483 15.21369 15.27258 15.33104 15.38565 0 0 0 15.66429 15.4502 15.45229 15.44479 15.43657 15.4289 15.43389 15.4337 15.44488 15.44611 15.45325 15.46003 15.46773 15.48088 15.49052 15.51186 15.93143 15.52135 15.52893 15.54746 15.57334 15.6029 15.63547 15.65733 15.6819 15.69847 15.71098 15.71661 15.71579 15.70922 15.7091 15.70255 15.70477 15.70448 15.68826 15.68182 15.68014 15.68402 15.69333 15.71262 15.72912 15.75883 15.78175 15.80294 15.82966 15.84154 15.86151 15.86866 15.87521 15.87641 15.87899 15.88303 15.88349 15.88087 15.88438 15.88607 15.88825 15.88541 15.8879 15.88241 15.87249 15.8657 15.85691 15.84394 15.83434 15.8276 15.81272 15.79072 15.76152 15.72597 15.68492 15.64195 15.59075 15.52944 15.45648 15.3743 15.29023 15.17992
0 0 0 0 0 0 0 0 0 0 0 19.07654 17.75903 16.18554 15.36848 14.98462 14.931 14.92479 14.95004 14.98901 15.02968 15.09226 15.13452 15.18798 15.23753 15.29833 15.73535 16.14893 0 0 0 16.35792 16.6632 15.4696 15.46154 15.45198 15.44467 15.44723 15.45493 15.46225 15.46583 15.47146 15.47475 15.49033 15.50634 15.5296 15.54575 15.55065 15.5587 15.56577 15.58912 15.6194 15.6482 15.68106 15.69958 15.71509 15.72818 15.73871 15.74545 15.74493 15.74019 15.73293 15.73238 15.72956 15.73005 15.71599 15.70979 15.70939 15.70885 15.721 15.74262 15.77295 15.79161 15.81281 15.83424 15.84741 15.86269 15.87475 15.88703 15.88761 15.89041 15.89223 15.89224 15.89551 15.89614 15.8975 15.8979 15.90348 15.90439 15.89983 15.89455 15.88603 15.88118 15.87006 15.8613 15.85525 15.84326 15.82781 15.80389 15.77346 15.74155 15.69838 15.65482 15.60391 15.54151 15.46911 15.38372 15.29498 15.19097
0 0 0 0 0 0 0 0 0 0 0 0 19.2036 18.10146 16.12183 15.34955 14.95161 14.93238 14.94839 14.98504 15.03544 15.10146 15.15616 15.20323 15.25017 15.32358 16.11447 0 0 17.8169 17.89278 16.2949 15.48853 15.46922 15.45305 15.44831 15.44887 15.45691 15.46701 15.48286 15.48452 15.49085 15.50428 15.52187 15.53913 15.56634 15.57731 15.58118 15.58398 15.59977 15.62181 15.65383 15.69129 15.71334 15.72973 15.74733 15.76497 15.76676 15.7685 15.7696 15.76828 15.76641 15.76138 15.75503 15.75228 15.74924 15.74096 15.73879 15.73874 15.74974 15.77268 15.79813 15.8177 15.84096 15.8521 15.86643 15.88335 15.90034 15.90467 15.90521 15.90999 15.91061 15.90886 15.91114 15.90999 15.91384 15.92008 15.91635 15.91632 15.91454 15.90762 15.90238 15.8963 15.88743 15.87821 15.86881 15.85269 15.83607 15.81337 15.78496 15.74889 15.7073 15.6646 15.6118 15.55314 15.48929 15.4076 15.3223 15.22608
0 0 0 0 0 0 0 0 0 0 0 0 0 0 0 16.08143 15.29148 14.95045 14.95593 14.98498 15.05186 15.11776 15.17223 15.21349 15.25326 15.67597 15.75331 16.18139 16.61115 18.85864 17.90505 16.28014 15.48025 15.46254 15.44976 15.45163 15.46598 15.47041 15.48317 15.50036 15.50947 15.52402 15.53711 15.55266 15.57027 15.5856 15.58993 15.59443 15.6136 15.6275 15.6538 15.68588 15.7209 15.7369 15.75139 15.76938 15.77637 15.78461 15.7935 15.79389 15.79275 15.78746 15.78112 15.77708 15.78064 15.7786 15.77344 15.7767 15.78337 15.79843 15.81221 15.83315 15.85344 15.8729 15.88337 15.89093 15.90707 15.91751 15.92175 15.92663 15.93141 15.93112 15.93024 15.93137 15.92699 15.92988 15.93435 15.93441 15.93016 15.92586 15.92111 15.917 15.90716 15.8996 15.89298 15.88183 15.86561 15.84719 15.82659 15.80451 15.77329 15.73174 15.6848 15.6327 15.58057 15.51681 15.44175 15.35729 15.26724
0 0 0 0 0 0 0 0 0 0 0 0 0 0 0 16.87851 16.0537 14.9579 14.97195 15.00064 15.07538 15.14173 15.1963 15.23354 15.27535 15.33076 16.12498 16.20286 16.63819 0 17.95475 15.48851 15.4758 15.45908 15.46986 15.45877 15.47373 15.47909 15.50038 15.50846 15.52006 15.53743 15.55037 15.57046 15.58285 15.59589 15.60774 15.61726 15.63968 15.66045 15.68806 15.71277 15.73782 15.7588 15.77167 15.79077 15.79798 15.80636 15.81073 15.81313 15.8117 15.80719 15.79548 15.79175 15.79244 15.79446 15.79645 15.80458 15.81526 15.82854 15.84779 15.86516 15.88552 15.90085 15.91313 15.92437 15.93292 15.9454 15.95046 15.96079 15.96346 15.95965 15.95801 15.95826 15.95604 15.95213 15.95083 15.94558 15.94099 15.93018 15.92737 15.92025 15.91304 15.90496 15.89912 15.89029 15.87798 15.86038 15.84412 15.82416 15.79531 15.76201 15.71793 15.66978 15.6264 15.5683 15.49224 15.41729 15.33531
0 0 0 0 0 0 0 0 0 0 0 0 0 18.08868 17.69696 16.86899 16.08363 14.98363 14.98379 15.03559 15.10767 15.17949 15.23624 15.27797 15.32303 15.37122 16.57525 17.0398 17.48694 17.39504 18.38168 15.87988 15.47072 15.4657 15.46542 15.47398 15.48732 15.50385 15.50797 15.51199 15.52189 15.55121 15.57063 15.57927 15.59576 15.61033 15.6306 15.64266 15.66293 15.68821 15.71698 15.73717 15.75429 15.77347 15.78559 15.80387 15.81767 15.83001 15.83395 15.83554 15.83116 15.82657 15.81671 15.81325 15.81471 15.8205 15.8216 15.83783 15.84951 15.8621 15.87588 15.89539 15.9126 15.92512 15.94455 15.95159 15.96251 15.96539 15.97808 15.98863 15.9906 15.98722 15.98507 15.98357 15.97875 15.97134 15.96617 15.96319 15.94924 15.93372 15.92551 15.92253 15.91344 15.91034 15.90377 15.89749 15.88925 15.8801 15.86539 15.84347 15.81636 15.78671 15.74591 15.70225 15.658 15.60442 15.54433 15.47603 15.40986
0 0 0 0 0 0 0 0 0 0 0 0 17.28121 16.88239 16.89922 16.49339 15.72453 15.01143 15.01845 15.07718 15.1335 15.20186 15.2544 15.30301 15.35103 15.40643 16.26991 16.29174 17.09433 17.93292 16.27648 15.46723 15.47401 15.48435 15.49265 15.50565 15.51403 15.51336 15.52322 15.53302 15.53931 15.55271 15.56347 15.58121 15.60685 15.63028 15.65005 15.65988 15.6823 15.69906 15.72044 15.74392 15.76379 15.77461 15.7917 15.80672 15.82278 15.83618 15.84186 15.84329 15.84412 15.84092 15.83906 15.83605 15.84149 15.84889 15.85839 15.87038 15.88074 15.89432 15.91555 15.93573 15.95088 15.96695 15.97634 15.98471 15.99176 15.99561 15.99797 16.00709 16.00691 16.00386 15.9995 15.99253 15.98732 15.97882 15.9732 15.96432 15.95263 15.93583 15.926 15.92045 15.91381 15.91169 15.90637 15.90625 15.90508 15.89662 15.8848 15.86681 15.8409 15.8151 15.78302 15.74457 15.69931 15.64914 15.59414 15.5351 15.47291
0 0 0 0 0 0 0 0 19.00971 18.43273 17.2908 16.45789 16.45651 16.4569 16.10479 16.13171 15.75655 15.0511 15.08536 15.13968 15.19813 15.25362 15.30941 15.35229 15.39468 15.44917 15.48462 15.49115 15.48567 15.48055 15.47146 15.48597 15.50429 15.51616 15.51594 15.52774 15.53114 15.53422 15.54492 15.54434 15.54368 15.55684 15.56959 15.5873 15.61375 15.63861 15.6589 15.67119 15.6868 15.70419 15.71748 15.74026 15.75364 15.77265 15.7822 15.79385 15.81126 15.82872 15.84063 15.84432 15.84887 15.85355 15.85782 15.86011 15.86267 15.87246 15.88504 15.89494 15.90502 15.92505 15.95111 15.97432 15.99393 16.00929 16.01862 16.0169 16.02089 16.02389 16.0284 16.02951 16.02546 16.02262 16.02008 16.0104 15.99588 15.98873 15.97849 15.96728 15.95602 15.94508 15.93373 15.92701 15.92001 15.91461 15.917 15.9194 15.91551 15.91399 15.90545 15.8898 15.87191 15.84526 15.81732 15.7808 15.74544 15.7026 15.64769 15.59762 15.53551
0 0 0 0 0 0 0 18.03372 18.12499 16.4786 16.06196 16.05343 16.05851 16.07734 16.11056 15.77534 15.08748 15.10366 15.15939 15.20765 15.26669 15.31077 15.36092 15.39991 15.4384 15.47849 15.50014 15.51093 15.50783 15.50553 15.51085 15.523 15.54118 15.53732 15.53976 15.53866 15.54814 15.55621 15.55519 15.55076 15.55429 15.57018 15.5779 15.59726 15.62163 15.63866 15.65647 15.67307 15.68877 15.70054 15.71345 15.73055 15.74957 15.76894 15.77593 15.78957 15.80138 15.81445 15.83573 15.84861 15.85323 15.8635 15.86932 15.87767 15.88737 15.89393 15.90198 15.92328 15.93923 15.95933 15.97918 16.00435 16.01841 16.02957 16.04289 16.04834 16.0482 16.05061 16.0493 16.04568 16.04818 16.04189 16.0346 16.02675 16.01216 15.99687 15.98745 15.97638 15.96403 15.95471 15.94328 15.93325 15.92942 15.92975 15.93061 15.93871 15.93928 15.93943 15.93574 15.91909 15.90134 15.8814 15.85379 15.8224 15.79028 15.74573 15.70012 15.64592 15.58747
0 0 0 0 0 0 18.53233 18.51068 16.48951 16.0263 15.99807 16.00366 16.04365 15.72034 15.41349 15.12127 15.13046 15.17865 15.22391 15.26757 15.31856 15.35499 15.40126 15.43339 15.47063 15.50711 15.51985 15.53557 15.54586 15.5503 15.55194 15.56385 15.56686 15.5594 15.56479 15.56409 15.57122 15.57295 15.57173 15.5706 15.57417 15.58181 15.59443 15.60713 15.61826 15.63273 15.65333 15.66727 15.68506 15.70109 15.71327 15.72882 15.74322 15.75857 15.76916 15.78112 15.79334 15.80653 15.82215 15.83737 15.85234 15.86321 15.87407 15.88649 15.89912 15.91271 15.92845 15.95457 15.9623 15.986 16.01041 16.03077 16.04714 16.05893 16.06805 16.07719 16.07726 16.07566 16.06872 16.06378 16.05541 16.04606 16.04065 16.02607 16.01636 16.00299 15.98447 15.96896 15.9643 15.95499 15.94741 15.94535 15.93992 15.94147 15.94538 15.95435 15.95778 15.9652 15.96711 15.95422 15.94012 15.92291 15.90242 15.87373 15.84463 15.80589 15.75488 15.70429 15.64835
0 0 0 0 0 0 19.35312 17.73319 16.43673 15.98533 15.61099 15.64963 15.34198 15.07086 15.13465 15.18817 15.22402 15.25209 15.28913 15.3285 15.36596 15.3988 15.43078 15.46151 15.49247 15.51559 15.52968 15.5519 15.56254 15.56822 15.57418 15.5853 15.58191 15.58731 15.59314 15.58574 15.58193 15.5785 15.57195 15.57484 15.59325 15.6006 15.60941 15.6202 15.63396 15.64497 15.65474 15.66352 15.68201 15.70029 15.70647 15.71557 15.73145 15.74712 15.75984 15.77386 15.78859 15.80034 15.81669 15.83428 15.8462 15.86304 15.87563 15.89014 15.91054 15.9283 15.94239 15.97471 15.98665 16.01291 16.03191 16.05342 16.07123 16.08986 16.10217 16.10806 16.10785 16.09957 16.0923 16.07873 16.0667 16.05081 16.04234 16.03322 16.01578 15.99993 15.9844 15.96915 15.96682 15.95801 15.95594 15.95123 15.95258 15.95816 15.96709 15.97217 15.97546 15.98361 15.98263 15.97601 15.9664 15.95437 15.94283 15.92239 15.89666 15.86096 15.81939 15.76618 15.71585
0 0 0 0 0 19.43495 18.9769 17.70458 16.42009 15.99977 15.29646 15.00005 15.06058 15.12972 15.188 15.25301 15.29436 15.32163 15.35254 15.38255 15.41516 15.43326 15.457 15.48165 15.51755 15.54111 15.55521 15.57374 15.58071 15.58893 15.598 15.59909 15.60664 15.60806 15.60183 15.5973 15.59138 15.58573 15.58215 15.59134 15.60503 15.61394 15.62493 15.62668 15.63111 15.64504 15.65304 15.66299 15.67789 15.69435 15.70424 15.71795 15.72738 15.74248 15.75417 15.76498 15.7814 15.80222 15.82516 15.84054 15.85332 15.87072 15.88629 15.91325 15.93341 15.95158 15.97351 15.99761 16.01502 16.03413 16.05683 16.07519 16.09987 16.11059 16.12107 16.12477 16.12409 16.11446 16.10888 16.09322 16.07766 16.06123 16.04782 16.03844 16.02116 15.99926 15.98689 15.98123 15.96941 15.96613 15.96655 15.96527 15.96914 15.97679 15.98811 15.99654 16.00113 16.00665 16.00917 16.00522 15.99669 15.98663 15.96948 15.95672 15.93971 15.9079 15.86727 15.82463 15.77386
0 0 0 0 18.51654 18.18117 16.46154 16.01189 15.62351 14.95734 14.98666 15.04685 15.11846 15.17313 15.23194 15.28268 15.32591 15.35542 15.38837 15.41598 15.43864 15.4545 15.48618 15.51634 15.53991 15.56464 15.58338 15.58967 15.59398 15.59791 15.60687 15.60869 15.61299 15.60919 15.61608 15.6111 15.60772 15.60583 15.60685 15.61152 15.61385 15.62109 15.63031 15.63145 15.63858 15.63954 15.64982 15.6643 15.67519 15.69103 15.70302 15.7164 15.72916 15.74611 15.76418 15.77699 15.78073 15.79784 15.82303 15.84104 15.85955 15.88275 15.90048 15.92673 15.95118 15.97314 15.99438 16.02361 16.04523 16.06334 16.0849 16.10338 16.11798 16.13064 16.13707 16.13841 16.1368 16.12842 16.11302 16.10017 16.08592 16.07103 16.05359 16.03567 16.01822 15.99988 15.9961 15.9981 15.98804 15.98634 15.98198 15.99009 15.99537 16.00387 16.00951 16.01705 16.0221 16.02903 16.03057 16.03578 16.03363 16.02322 16.01449 16.00479 15.98404 15.96128 15.92919 15.88835 15.8471
0 0 0 0 19.54429 16.90574 15.00209 14.97544 14.96024 14.98261 15.03881 15.11897 15.1764 15.22521 15.27312 15.32123 15.34587 15.37436 15.41372 15.4368 15.45081 15.48199 15.51168 15.53488 15.55507 15.57056 15.59052 15.59953 15.60812 15.61695 15.60756 15.60736 15.61031 15.61214 15.61842 15.61802 15.62697 15.62621 15.6191 15.62374 15.62611 15.62305 15.62498 15.62872 15.63945 15.64122 15.65036 15.66077 15.67438 15.68791 15.702 15.71496 15.72637 15.74547 15.75905 15.7705 15.78681 15.79766 15.81826 15.84439 15.86884 15.89597 15.9228 15.94716 15.96772 15.99041 16.01286 16.04499 16.06192 16.08228 16.10376 16.11666 16.12692 16.13964 16.14148 16.14063 16.14043 16.12923 16.11534 16.10149 16.09108 16.0767 16.05199 16.03634 16.01645 16.00568 16.00807 16.01166 16.0096 16.01045 16.0084 16.00855 16.01185 16.02132 16.02826 16.02923 16.0287 16.03694 16.04981 16.05404 16.05448 16.05794 16.05433 16.04364 16.0304 16.01291 15.98751 15.95936 15.92285
0 0 0 18.70195 18.29417 16.47 14.97763 14.96442 14.98077 15.03757 15.10836 15.16894 15.22496 15.27539 15.3176 15.35388 15.38188 15.4021 15.42321 15.45114 15.47753 15.49768 15.52609 15.54237 15.55428 15.5641 15.59073 15.60887 15.62157 15.61268 15.59488 15.5946 15.60359 15.61777 15.62274 15.62725 15.62783 15.62609 15.62506 15.62786 15.61946 15.61277 15.61352 15.62285 15.63225 15.63641 15.65218 15.66499 15.67122 15.68189 15.69317 15.70776 15.72466 15.73179 15.75666 15.77962 15.79443 15.80898 15.8314 15.85785 15.88322 15.91285 15.94039 15.96169 15.9851 16.00703 16.03312 16.04785 16.06869 16.09054 16.10852 16.12013 16.13161 16.13831 16.147 16.14229 16.13456 16.12146 16.11608 16.10265 16.08536 16.06775 16.04905 16.03847 16.01941 16.01477 16.02553 16.02826 16.02729 16.02927 16.03323 16.0346 16.03161 16.03983 16.04006 16.04821 16.0497 16.0548 16.06886 16.07704 16.08043 16.08521 16.0804 16.07997 16.06976 16.05566 16.03508 16.01372 15.97942
0 0 0 18.67797 18.29138 16.45495 15.63649 14.97002 15.01465 15.09463 15.15274 15.21209 15.25672 15.30578 15.3452 15.37022 15.39947 15.41824 15.43854 15.45771 15.47276 15.49435 15.52571 15.53798 15.53889 15.56327 15.57988 15.60412 15.6089 15.58456 15.58572 15.60044 15.61502 15.614 15.62437 15.62407 15.62193 15.62147 15.62013 15.61468 15.6043 15.59657 15.59171 15.59912 15.61243 15.62718 15.64011 15.65701 15.66532 15.67658 15.6842 15.70412 15.72196 15.74065 15.75933 15.77561 15.79402 15.8214 15.8447 15.86986 15.90353 15.92822 15.95873 15.98665 16.00269 16.02063 16.03394 16.06005 16.08023 16.09388 16.11384 16.12737 16.13066 16.13578 16.14042 16.13889 16.12615 16.11652 16.10355 16.08806 16.07996 16.06191 16.05539 16.03707 16.02452 16.02745 16.03014 16.03328 16.04194 16.04574 16.05291 16.05331 16.05731 16.06416 16.06721 16.07032 16.07338 16.08236 16.0899 16.10009 16.10921 16.11537 16.11876 16.1137 16.10986 16.10309 16.08679 16.06038 16.03524
0 0 0 19.47295 18.54385 16.4394 15.28394 14.98831 15.04605 15.12627 15.19583 15.24423 15.28382 15.32871 15.36869 15.38964 15.40865 15.43008 15.44984 15.47024 15.48525 15.50158 15.51824 15.52928 15.54234 15.55612 15.58265 15.60592 15.59222 15.57921 15.57704 15.59494 15.60253 15.61692 15.62843 15.62452 15.61851 15.6156 15.61032 15.61029 15.59602 15.58462 15.57951 15.58451 15.58947 15.61225 15.62825 15.64217 15.65166 15.6605 15.67987 15.7034 15.72526 15.73878 15.75678 15.77435 15.80087 15.83112 15.84836 15.87644 15.91477 15.94313 15.97245 16.00424 16.01489 16.03032 16.04867 16.06731 16.07532 16.09395 16.1113 16.12232 16.13043 16.13251 16.12837 16.11987 16.10774 16.09752 16.09614 16.08181 16.07176 16.06466 16.05515 16.0434 16.04299 16.04153 16.04855 16.05227 16.06124 16.06539 16.07231 16.07473 16.08092 16.09022 16.09073 16.09004 16.09072 16.1039 16.11441 16.12363 16.1317 16.14263 16.146 16.1433 16.14251 16.13514 16.12527 16.10498 16.08683
0 0 0 19.49915 17.25677 15.623 14.96092 15.01459 15.08861 15.16545 15.22507 15.26976 15.30939 15.34711 15.38602 15.41033 15.42874 15.45042 15.46465 15.46886 15.48111 15.49642 15.50052 15.4984 15.52479 15.55608 15.57349 15.59987 15.58291 15.58043 15.58732 15.5993 15.62006 15.6357 15.64505 15.6336 15.62235 15.61767 15.61825 15.61487 15.60892 15.59658 15.58704 15.59317 15.59427 15.60426 15.6255 15.64036 15.64495 15.66231 15.69824 15.72474 15.73724 15.75175 15.76694 15.78738 15.81457 15.84575 15.86438 15.89583 15.93068 15.96525 15.9967 16.01392 16.03689 16.04141 16.05268 16.06595 16.07889 16.08731 16.10465 16.11489 16.12545 16.12523 16.11595 16.10644 16.09835 16.09137 16.09298 16.07911 16.06782 16.06762 16.05354 16.04982 16.04948 16.0551 16.06858 16.08003 16.08966 16.09422 16.10235 16.1061 16.11368 16.1164 16.11938 16.12309 16.12646 16.13701 16.14679 16.15926 16.17039 16.17748 16.17982 16.17694 16.17103 16.1639 16.15174 16.14187 16.12114
15.00526 15.00212 16.35014 17.24913 15.2487 14.93535 14.98049 15.05014 15.1337 15.2036 15.25578 15.29853 15.33587 15.36702 15.39373 15.42225 15.43915 15.45409 15.46979 15.47376 15.47938 15.47646 15.47399 15.47232 15.50161 15.53148 15.5603 15.56868 15.57887 15.5877 15.59384 15.60782 15.63223 15.64565 15.66141 15.65352 15.6445 15.63644 15.63564 15.63471 15.62968 15.62461 15.60904 15.60526 15.60305 15.61124 15.62575 15.63735 15.6523 15.68419 15.71693 15.73906 15.75173 15.77308 15.78959 15.81336 15.83604 15.86473 15.88851 15.91695 15.94587 15.97307 16.00859 16.02568 16.04118 16.04656 16.05693 16.07004 16.08649 16.09123 16.10356 16.11177 16.11933 16.11361 16.10877 16.09622 16.0939 16.08649 16.07908 16.06982 16.06529 16.06032 16.05894 16.0601 16.06761 16.06559 16.08397 16.09999 16.11242 16.12285 16.12989 16.14171 16.14817 16.15274 16.15836 16.161 16.16856 16.17552 16.18889 16.20011 16.20901 16.21525 16.21796 16.21402 16.20501 16.19637 16.18963 16.17827 16.16354
15.01381 14.9967 14.99586 15.00984 14.9821 15.00307 15.05787 15.13112 15.19426 15.24841 15.29321 15.32619 15.35463 15.38055 15.40644 15.42779 15.44623 15.45122 15.45022 15.456 15.46386 15.47133 15.47294 15.47384 15.48368 15.51231 15.53562 15.56477 15.56379 15.58223 15.59698 15.62074 15.63806 15.65025 15.65767 15.66337 15.66153 15.65349 15.65482 15.65354 15.64926 15.64481 15.6428 15.62662 15.62413 15.63417 15.63801 15.64723 15.67259 15.6956 15.71569 15.75293 15.77612 15.79878 15.81727 15.83878 15.86749 15.89313 15.91285 15.92948 15.9534 15.9807 16.00485 16.02161 16.0371 16.04722 16.06376 16.07251 16.0817 16.08669 16.09896 16.10725 16.11098 16.11164 16.10493 16.09794 16.09595 16.08777 16.07628 16.07149 16.06621 16.06568 16.07224 16.08089 16.08483 16.09029 16.11284 16.12594 16.14354 16.15873 16.16851 16.1746 16.18394 16.18971 16.19065 16.19859 16.20119 16.20638 16.21549 16.22725 16.24134 16.25063 16.25599 16.25053 16.24427 16.24025 16.23556 16.21864 16.20123
15.07221 15.07663 15.0884 15.09914 15.09945 15.12651 15.16779 15.21769 15.25669 15.29631 15.32658 15.35334 15.37644 15.3998 15.42021 15.43801 15.44906 15.46221 15.45098 15.44438 15.44439 15.44978 15.46476 15.47024 15.47239 15.50928 15.52609 15.55484 15.57199 15.59323 15.61623 15.63267 15.64336 15.65135 15.65597 15.66887 15.67155 15.66541 15.6641 15.66329 15.66337 15.66468 15.65839 15.65246 15.65207 15.65403 15.6568 15.66624 15.6903 15.71584 15.7429 15.77205 15.7952 15.81763 15.84554 15.87717 15.90733 15.93314 15.95245 15.96028 15.97295 15.98752 16.00613 16.02418 16.03648 16.04615 16.06191 16.07113 16.0788 16.08491 16.08962 16.09849 16.10365 16.11089 16.10679 16.096 16.08906 16.08641 16.08082 16.07725 16.07395 16.06898 16.08415 16.09436 16.10446 16.12151 16.14211 16.16271 16.18208 16.19649 16.21328 16.22335 16.22967 16.2362 16.2369 16.2396 16.24767 16.25267 16.26126 16.27376 16.28683 16.29719 16.29581 16.291 16.28376 16.27989 16.26908 16.25256 16.2404
15.14209 15.15518 15.169 15.18982 15.20823 15.22528 15.24917 15.27486 15.29998 15.31819 15.33514 15.36303 15.38284 15.39807 15.41622 15.43115 15.44047 15.44946 15.45514 15.44989 15.44393 15.43939 15.45451 15.46757 15.47617 15.50666 15.5275 15.5534 15.5655 15.59217 15.61727 15.64162 15.66081 15.66873 15.66627 15.68451 15.67877 15.67649 15.67347 15.67074 15.6712 15.67652 15.67603 15.67215 15.67058 15.67468 15.67558 15.68781 15.71328 15.74195 15.76508 15.79435 15.82361 15.85795 15.87615 15.90336 15.93165 15.95171 15.96597 15.98792 15.99347 16.00419 16.02165 16.02827 16.03881 16.05278 16.06505 16.07651 16.0848 16.09551 16.0931 16.09489 16.09717 16.10622 16.10452 16.10078 16.09717 16.09232 16.09019 16.08794 16.08395 16.09041 16.09805 16.11124 16.12767 16.14947 16.17666 16.1986 16.21866 16.24024 16.26006 16.27794 16.28604 16.28822 16.28916 16.29802 16.30793 16.31854 16.3284 16.34762 16.36398 16.37039 16.36584 16.35583 16.34584 16.33393 16.31889 16.30702 16.29386
15.23359 15.24454 15.25661 15.26705 15.27492 15.28191 15.28972 15.29921 15.31396 15.31891 15.34202 15.3615 15.37381 15.38664 15.40726 15.42596 15.4345 15.44969 15.44834 15.45024 15.44202 15.4399 15.44262 15.46383 15.47958 15.51864 15.5448 15.55928 15.56908 15.59274 15.62032 15.65048 15.67227 15.6862 15.69952 15.70711 15.70229 15.69633 15.69268 15.69358 15.69197 15.69493 15.6963 15.70667 15.70745 15.70825 15.71549 15.73172 15.7564 15.77408 15.80131 15.83154 15.85914 15.89085 15.91176 15.93522 15.95652 15.97288 15.99536 16.00905 16.02414 16.03488 16.0497 16.05935 16.0674 16.07908 16.08649 16.09318 16.10532 16.1115 16.10814 16.11145 16.10769 16.11473 16.11679 16.11907 16.11735 16.11577 16.11338 16.11087 16.10954 16.12152 16.13751 16.15516 16.1681 16.19447 16.22724 16.25592 16.2845 16.30996 16.32999 16.34084 16.34373 16.34651 16.34817 16.34807 16.35718 16.36816 16.38775 16.41199 16.43513 16.44223 16.43596 16.42383 16.40741 16.39271 16.37838 16.37026 16.36497
15.29476 15.30421 15.30237 15.29402 15.29481 15.2977 15.30135 15.30285 15.31264 15.32405 15.34108 15.35926 15.36926 15.38289 15.40569 15.42624 15.43148 15.44016 15.43195 15.44675 15.44495 15.44447 15.45101 15.47068 15.49329 15.52321 15.5515 15.56915 15.58535 15.6095 15.63439 15.66379 15.68451 15.70267 15.70975 15.7229 15.72539 15.72653 15.73246 15.72177 15.72851 15.7279 15.73872 15.73806 15.75216 15.76155 15.77499 15.79872 15.81787 15.83544 15.86199 15.89291 15.92015 15.94321 15.96834 15.99455 16.01162 16.04061 16.05838 16.0664 16.08715 16.09635 16.09999 16.10582 16.11384 16.11609 16.11836 16.13059 16.13193 16.13598 16.13425 16.13446 16.13282 16.1376 16.13568 16.1378 16.13926 16.14129 16.14381 16.15157 16.15623 16.16973 16.18814 16.21133 16.23753 16.27149 16.31001 16.34766 16.38002 16.40331 16.41852 16.42546 16.43014 16.42987 16.42637 16.42114 16.42079 16.43166 16.45163 16.47923 16.50075 16.50075 16.49688 16.48679 16.47242 16.45909 16.4441 16.43094 16.41852
15.30969 15.30797 15.31095 15.30751 15.29822 15.29386 15.29701 15.29659 15.30374 15.31542 15.33245 15.34841 15.35942 15.37973 15.4042 15.42446 15.43402 15.44599 15.45116 15.45594 15.45965 15.46772 15.48086 15.50861 15.53534 15.5567 15.57897 15.60058 15.62306 15.63627 15.66305 15.68666 15.7044 15.71793 15.72949 15.74372 15.75617 15.76354 15.7664 15.76657 15.77119 15.7751 15.78195 15.79391 15.80923 15.82555 15.84567 15.86836 15.88802 15.90495 15.93889 15.96618 15.99397 16.02399 16.04906 16.07123 16.08509 16.10622 16.12346 16.14488 16.16167 16.16705 16.17458 16.18294 16.18385 16.18198 16.18319 16.18777 16.18464 16.18781 16.18313 16.18724 16.18575 16.18417 16.1797 16.17543 16.18007 16.18294 16.18907 16.20253 16.21153 16.22731 16.24674 16.26666 16.30006 16.33701 16.37801 16.40953 0 0 16.47343 16.50211 16.5015 16.50086 16.4895 16.48616 16.49044 16.50603 16.50867 0 0 16.51499 16.56158 16.5531 16.5347 16.51884 16.50647 16.49687 16.47874
