ncols        109
nrows        82
xllcorner    -1.041666666667
yllcorner    37.041665395101
cellsize     0.083333333333
NODATA_value -9999
0.0 0 0 0 0 0 0 0 0 0 0 0 0 0 0 0 0 0 0 0 0 0 0 0 0 0 0 0 0 0 0 0 0 0 0 0 0 0 0 0 0 0 0 0 0 0 0 0 0 0 0 0 0 0 0 0 0 0 0 0 0 0 0 0 0 0 0 0 0 0 0 0 0 0 0 0 0 0 0 0 0 0 0 0 0 0 0 0 0 0 0 0 0 0 0 0 0 0 0 0 0 0 0 0 0 18.18711 16.89675 15.53118 15.52774
0 0 0 0 0 0 0 0 0 0 0 0 0 0 0 0 0 0 0 0 0 0 0 0 0 0 0 0 0 0 0 0 0 0 0 0 0 0 0 0 0 0 0 0 0 0 0 0 0 0 0 0 0 0 0 0 0 0 0 0 0 0 0 0 0 0 0 0 0 0 0 0 0 0 0 0 0 0 0 0 0 0 0 0 0 0 0 0 0 0 0 0 0 0 0 0 0 0 0 0 0 15.67869 15.70486 15.49959 15.50779 15.51143 15.5076 15.50067 15.47842
0 0 0 0 0 0 0 0 0 0 0 0 0 0 0 0 0 0 0 0 0 0 0 0 0 0 0 0 0 0 0 0 0 0 0 0 0 0 0 0 0 0 0 0 0 0 0 0 0 0 0 0 0 0 0 0 0 0 0 0 0 0 0 0 0 0 0 0 0 0 0 0 0 0 0 0 0 0 0 0 0 0 0 0 0 0 0 0 0 0 0 0 0 0 0 0 0 0 15.47534 15.48089 15.48312 15.47677 15.4608 15.44683 15.42889 15.40796 15.38623 15.365 15.33672
0 0 0 0 0 0 0 0 0 0 0 0 0 0 0 0 0 0 0 0 0 0 0 0 0 0 0 0 0 0 0 0 0 0 0 0 0 0 0 0 0 0 0 0 0 0 0 0 0 0 0 0 0 0 0 0 0 0 0 0 0 0 0 0 0 0 0 0 0 0 0 0 0 0 0 0 0 0 0 0 0 0 0 0 0 0 0 0 0 0 0 0 0 0 0 0 0 17.06465 15.45433 15.44514 15.41576 15.38366 15.35452 15.33442 15.30921 15.28415 15.25725 15.23546 15.20502
0 0 0 0 0 0 0 0 0 0 0 0 0 0 0 0 0 0 0 0 0 0 0 0 0 0 0 0 0 0 0 0 0 0 0 0 0 0 0 0 0 0 0 0 0 0 0 0 0 0 0 0 0 0 0 0 0 0 16.77884 16.40433 16.09529 16.22143 0 0 0 0 0 0 0 0 0 0 0 0 0 0 0 0 0 0 0 0 0 0 0 0 0 0 0 0 0 0 0 0 0 15.87449 15.45364 15.44949 15.40774 15.36789 15.32471 15.27124 15.22165 15.18178 15.15036 15.1222 15.10524 15.08841 15.07304
0 0 0 0 0 0 0 0 0 0 0 0 0 0 0 0 0 0 0 0 0 0 0 0 0 0 0 0 0 0 0 0 0 0 0 0 0 0 0 0 0 0 0 0 0 0 0 0 0 0 0 0 0 0 0 0 16.28385 16.31624 16.05032 15.83259 15.75017 15.7349 15.81935 16.02872 16.23046 16.34081 16.34062 0 0 0 0 16.66167 0 0 0 0 0 0 0 0 0 0 0 0 0 0 0 0 0 0 0 0 0 16.40798 15.40258 15.43383 15.41215 15.36058 15.30819 15.24451 15.18432 15.12762 15.08129 15.05509 15.03726 15.02453 15.01404 15.0025 14.99261
0 0 0 0 0 0 0 0 0 0 0 0 0 0 0 0 0 0 0 0 0 0 0 0 0 0 0 0 0 0 0 0 0 0 0 0 0 0 0 0 0 0 0 0 0 0 0 0 0 0 0 0 0 0 0 16.44773 16.05873 15.73998 15.54789 15.29853 15.36082 15.38311 15.55514 15.68839 15.82232 15.92561 16.00185 16.18515 16.38312 16.3552 16.3106 16.06774 15.86712 15.91862 16.07518 15.82314 15.83593 0 0 0 0 0 0 0 0 0 0 0 0 0 0 0 15.74232 15.4171 15.40947 15.38495 15.33894 15.27794 15.21074 15.14477 15.08201 15.01981 14.97335 14.95105 14.94583 14.94517 14.94387 14.94838 14.95337
0 0 0 0 0 0 0 0 0 0 0 0 0 0 0 0 0 0 0 0 0 0 0 0 0 0 0 0 0 0 0 0 0 0 0 0 0 0 0 0 0 0 0 0 0 0 0 0 0 0 0 16.06134 16.22198 16.40586 16.1861 15.78621 15.56138 15.29638 15.1815 15.25118 15.30518 15.32573 15.32174 15.49898 15.49278 15.67731 15.65654 15.6487 15.66774 15.5757 15.48222 15.52482 15.38473 15.58092 15.6063 15.78658 0 0 0 0 0 0 0 0 0 0 0 0 0 0 0 0 15.39611 15.40189 15.36163 15.30488 15.24025 15.16258 15.09216 15.03003 14.98107 14.94213 14.92008 14.90733 14.90996 14.91388 14.91904 14.92552 14.93703
0 0 0 0 0 0 0 0 0 0 0 0 0 0 0 0 0 0 0 0 0 0 0 0 0 0 0 0 0 0 0 0 0 0 0 0 0 0 0 0 0 0 0 0 0 0 0 0 0 0 16.23846 16.08425 15.87778 15.84684 15.75974 15.49128 15.16829 15.2394 15.10094 15.15748 15.19918 15.2209 15.23081 15.41542 15.40602 15.5972 15.59763 15.60631 15.46026 15.33426 15.37521 15.41338 15.28064 15.47527 15.4987 15.70466 15.72587 15.56143 15.58455 15.96065 16.43302 17.18907 0 0 0 0 0 0 0 16.31529 15.77407 15.39394 15.39983 15.36777 15.29041 15.22248 15.14937 15.07572 15.01171 14.95602 14.91807 14.89663 14.89282 14.89251 14.89639 14.90443 14.91746 14.92752 14.93967
0 0 0 0 0 0 0 0 0 0 0 0 0 0 0 0 0 0 0 0 0 0 0 0 0 0 0 0 0 0 0 0 0 0 0 0 0 0 0 0 0 0 0 0 0 0 0 0 0 17.0793 15.92862 15.86168 15.81408 15.53798 15.38512 15.22422 15.28128 15.12836 15.17251 15.2187 15.25597 15.27801 15.2949 15.50227 15.51142 15.52186 15.53543 15.54203 15.54697 15.39053 15.42363 15.28133 15.14351 15.15946 15.17306 15.19441 15.21117 15.24024 15.27194 15.28398 15.66732 16.22227 0 16.04105 16.60082 17.12309 17.41728 17.16072 16.67108 15.36567 15.39132 15.39442 15.35944 15.28367 15.19713 15.1164 15.04125 14.98213 14.9329 14.9045 14.88826 14.88717 14.88935 14.89526 14.89839 14.91107 14.92363 14.93392 14.94608
0 0 0 0 0 0 0 0 0 0 0 0 0 0 0 0 0 0 0 0 0 0 0 0 0 0 0 0 0 0 0 0 0 0 0 0 0 0 0 0 0 0 0 0 0 0 0 0 0 16.74039 15.88195 15.62213 15.34723 15.22731 15.28422 15.13566 15.18696 15.23236 15.27132 15.30847 15.3427 15.36472 15.37698 15.38441 15.39284 15.24036 15.10561 15.26105 15.26031 15.26477 15.27272 15.12093 15.12329 15.12965 15.1451 15.15872 15.18066 15.20335 15.23548 15.257 15.28015 15.30712 15.32565 15.34372 15.37234 15.38305 16.37472 16.57058 16.17413 15.34628 15.33264 15.29403 15.24143 15.16533 15.091 15.02401 14.96681 14.92287 14.89472 14.88264 14.88935 14.89789 14.90682 14.91335 14.92269 14.9307 14.9389 14.9479 14.95867
0 0 0 0 0 0 0 0 0 0 0 0 0 0 0 0 0 0 0 0 0 0 0 0 0 0 0 0 0 0 0 0 0 0 0 0 0 0 0 0 0 0 0 0 0 0 0 0 0 16.46033 15.80514 15.52427 15.21342 15.30253 15.16056 15.22031 15.2807 15.32944 15.36414 15.39273 15.23211 15.25116 15.26328 15.27281 15.27666 15.12088 15.12519 15.123 15.10256 15.09569 15.09326 15.08986 15.08682 15.09118 15.11314 15.11751 15.12584 15.14043 15.15807 15.17724 15.19872 15.22621 15.24678 15.26387 15.28958 15.31049 15.32526 15.32504 15.30512 15.26559 15.2266 15.1773 15.118 15.04798 14.9926 14.9482 14.91511 14.88834 14.88634 14.89284 14.90341 14.9124 14.9232 14.93253 14.9439 14.95275 14.95951 14.96654 14.975
0 0 0 0 0 0 0 0 0 0 0 0 0 0 0 0 0 0 0 0 0 0 0 0 0 0 0 0 0 0 0 0 0 0 0 0 0 0 0 0 0 0 0 0 0 0 0 0 0 16.36504 15.67434 15.37804 15.27455 15.15769 15.24116 15.32602 15.19976 15.23391 15.07424 15.08863 15.10308 15.11435 15.12113 15.12593 15.1241 15.11839 15.1153 15.11036 15.08886 15.06225 15.05243 15.04008 15.02406 15.0179 15.03542 15.03469 15.04009 15.05463 15.07025 15.08903 15.1062 15.12055 15.13167 15.1455 15.1591 15.17645 15.18308 15.17765 15.15586 15.12682 15.09365 15.05878 15.01473 14.97522 14.94537 14.91343 14.89424 14.88676 14.89267 14.90668 14.92188 14.93529 14.94899 14.95927 14.96813 14.97622 14.98132 14.98617 14.99436
0 0 0 0 0 0 0 0 0 0 0 0 0 0 0 0 0 0 0 0 0 0 0 0 0 0 0 0 0 0 0 0 0 0 0 0 0 0 0 0 0 0 0 0 0 0 0 0 0 16.23063 15.71706 15.41179 15.31542 15.20497 15.29472 15.1844 15.05211 15.08043 15.0985 15.10875 15.11492 15.11509 15.11373 15.11252 15.11057 15.10836 15.10226 15.0936 15.07199 15.04561 15.02777 15.00801 14.98383 14.9705 14.95946 14.94362 14.93926 14.94261 14.95655 14.97251 14.98397 14.99153 14.99493 15.00473 15.02299 15.04538 15.05958 15.05937 15.03796 15.00723 14.98072 14.9544 14.93207 14.91848 14.9045 14.89583 14.90305 14.91171 14.91575 14.92981 14.94249 14.95966 14.96956 14.98051 14.98617 14.99602 15.00483 15.0096 15.01792
0 0 0 0 0 0 0 0 0 0 0 0 0 0 0 0 0 0 0 0 0 0 0 0 0 0 0 0 0 0 0 0 0 0 0 0 0 0 0 0 0 0 0 0 0 0 0 0 0 16.2753 15.52954 15.23279 15.37203 15.26362 15.35394 15.20834 15.06368 15.08268 15.08972 15.08837 15.08365 15.08637 15.08354 15.07952 15.07755 15.06765 15.05109 15.03518 15.00993 14.98288 14.95575 14.93201 14.91274 14.89827 14.88534 14.87945 14.87794 14.88172 14.88677 14.88903 14.89056 14.89471 14.89905 14.902 14.9125 14.92866 14.93116 14.92975 14.92673 14.91487 14.90341 14.89798 14.89242 14.89619 14.90225 14.90938 14.92176 14.93278 14.94557 14.95663 14.96592 14.98395 14.99715 15.00735 15.01103 15.01363 15.01757 15.02749 15.0366
0 0 0 0 0 0 0 0 0 0 0 0 0 0 0 0 0 0 0 0 0 0 0 0 0 0 0 0 0 0 0 0 0 0 0 0 0 0 0 0 0 0 0 0 0 0 0 0 0 15.80013 15.59557 15.27936 15.21599 15.14028 15.2131 15.05895 15.06355 15.07165 15.0711 15.06306 15.05771 15.0517 15.04732 15.04173 15.03394 15.02187 15.01205 14.99852 14.97575 14.94216 14.90815 14.87566 14.85288 14.83258 14.81989 14.81169 14.80685 14.81011 14.81713 14.824 14.82559 14.83526 14.8431 14.85292 14.86121 14.86864 14.8741 14.87106 14.86689 14.85851 14.85874 14.86845 14.87762 14.89003 14.9008 14.91761 14.93773 14.95312 14.96587 14.97732 14.98545 15.00026 15.01038 15.02832 15.03139 15.03942 15.03953 15.04873 15.06284
0 0 0 0 0 0 0 0 0 0 0 0 0 0 0 0 0 0 0 0 0 0 0 0 0 0 0 0 0 0 0 0 0 0 0 0 0 0 0 0 0 0 0 0 0 0 0 0 0 0 15.38563 15.35587 15.28864 15.0183 15.06348 15.06006 15.05699 15.05919 15.04968 15.04659 15.03124 15.02447 15.01708 15.01089 15.00203 14.99359 14.9863 14.96876 14.94514 14.91771 14.8835 14.85371 14.83136 14.81448 14.79748 14.78874 14.78 14.77831 14.78021 14.78667 14.79127 14.79905 14.80262 14.81204 14.82209 14.82584 14.83105 14.83543 14.83962 14.84334 14.8484 14.8582 14.87233 14.89042 14.912 14.9346 14.95641 14.97142 14.98739 15.0006 15.00958 15.01731 15.02677 15.0394 15.04877 15.05225 15.05531 15.06501 15.08084
0 0 0 0 0 0 0 0 0 0 0 0 0 0 0 0 0 0 0 0 0 0 0 0 0 0 0 0 0 0 0 0 0 0 0 0 0 0 0 0 0 0 0 0 0 0 0 0 0 0 15.52007 15.1773 14.95407 15.02651 15.05148 15.05578 15.05097 15.04465 15.03159 15.01446 14.99986 14.99136 14.98654 14.98765 14.98611 14.98092 14.97239 14.9581 14.93768 14.91354 14.88376 14.85374 14.83442 14.81394 14.79625 14.78466 14.77623 14.77147 14.77087 14.77422 14.77766 14.78685 14.79293 14.80102 14.80486 14.81316 14.82135 14.82621 14.83306 14.83567 14.84608 14.86396 14.88285 14.90259 14.92949 14.95108 14.97507 14.99204 15.00894 15.02279 15.03323 15.03973 15.04631 15.05448 15.06374 15.0683 15.07952 15.08978 15.10783
0 0 0 0 0 0 0 0 0 0 0 0 0 0 0 0 0 0 0 0 0 0 0 0 0 0 0 0 0 0 0 0 0 0 0 0 0 0 0 0 0 0 0 0 0 0 0 0 0 0 0 0 14.967 15.01363 15.0319 15.04578 15.04819 15.02977 15.00892 14.99501 14.98098 14.96954 14.96913 14.97045 14.97323 14.97535 14.9746 14.96402 14.94832 14.92574 14.89745 14.86556 14.83967 14.82318 14.80516 14.79299 14.78012 14.77595 14.77258 14.77471 14.78028 14.78682 14.79236 14.79775 14.8063 14.81269 14.82019 14.82805 14.83503 14.84507 14.85981 14.87587 14.89606 14.92319 14.94757 14.97323 14.99834 15.01644 15.03046 15.0442 15.05029 15.05596 15.06457 15.06948 15.07539 15.07935 15.08963 15.10614 15.12487
0 0 0 0 0 0 0 0 0 0 0 0 0 0 0 0 0 0 0 0 0 0 0 0 0 0 0 0 0 0 0 0 0 0 0 0 0 0 0 0 0 0 0 0 0 0 0 0 0 0 17.01894 15.55136 15.17241 15.02524 15.04517 15.04763 15.03959 15.01671 14.99804 14.98143 14.97394 14.96908 14.97094 14.97182 14.97714 14.98071 14.98347 14.97442 14.96669 14.95012 14.92053 14.88992 14.86596 14.84388 14.83076 14.80979 14.79695 14.78746 14.78333 14.78434 14.78923 14.79245 14.80364 14.80704 14.81372 14.82111 14.82854 14.83308 14.84438 14.86121 14.88269 14.90466 14.9273 14.95323 14.97666 15.00208 15.02211 15.03579 15.04955 15.05883 15.06332 15.06757 15.07528 15.08292 15.09082 15.09567 15.10617 15.13056 15.14738
0 0 0 0 0 0 0 0 0 0 0 0 0 0 0 0 0 0 0 0 0 0 0 0 0 0 0 0 0 0 0 0 0 0 0 0 0 0 0 0 0 0 0 0 0 0 0 0 0 0 16.39535 15.56948 15.39733 15.03625 15.04374 15.04367 15.02973 15.00726 14.99217 14.98409 14.98366 14.98531 14.98705 14.98972 14.99632 15.00893 15.00882 14.99394 14.98988 14.96742 14.93573 14.90788 14.8841 14.86266 14.84322 14.82384 14.81857 14.80422 14.79838 14.79551 14.7999 14.80742 14.81158 14.81897 14.82668 14.83533 14.84298 14.85399 14.86585 14.88576 14.91064 14.9374 14.96212 14.98907 15.0108 15.03443 15.05033 15.05981 15.06901 15.07699 15.08076 15.08689 15.0972 15.10405 15.10569 15.11086 15.1212 15.14447 15.17001
0 0 0 0 0 0 0 0 0 0 0 0 0 0 0 0 0 0 0 0 0 0 0 0 0 0 0 0 0 0 0 0 0 0 0 0 0 0 0 0 0 0 0 0 0 0 0 0 0 0 0 15.57866 15.20439 15.05013 15.04934 15.03845 15.02991 15.01304 15.0029 15.00099 14.99993 15.00007 15.00617 15.01314 15.02236 15.03385 15.02754 15.02632 15.01451 14.99534 14.96354 14.93507 14.90965 14.88715 14.85966 14.8409 14.82884 14.81971 14.81775 14.82068 14.82056 14.82608 14.83216 14.83466 14.84533 14.85933 14.87155 14.88722 14.90745 14.93131 14.96045 14.98709 15.01166 15.03192 15.05186 15.07289 15.08814 15.09122 15.09563 15.10154 15.10629 15.11421 15.12297 15.13622 15.13648 15.1363 15.14515 15.16925 15.1985
0 0 0 0 0 0 0 0 0 0 0 0 0 0 0 0 0 0 0 0 0 0 0 0 0 0 0 0 0 0 0 0 0 0 0 0 0 0 0 0 0 0 0 0 0 0 0 0 0 0 0 15.37472 15.03123 15.05978 15.05534 15.04073 15.03478 15.0242 15.02139 15.02734 15.03289 15.03342 15.04089 15.04954 15.05729 15.05981 15.06488 15.06267 15.04476 15.01212 14.98504 14.95899 14.93055 14.90893 14.89063 14.86158 14.84972 14.84198 14.84512 14.84697 14.8519 14.85981 14.86312 14.87295 14.88052 14.89275 14.90881 14.92848 14.95114 14.98154 15.01674 15.04427 15.06919 15.08828 15.10671 15.12391 15.13559 15.14047 15.14012 15.13651 15.13575 15.13905 15.14858 15.15641 15.16164 15.16416 15.17269 15.20025 15.22598
0 0 0 0 0 0 0 0 0 0 0 0 0 0 0 0 0 0 0 0 0 0 0 0 0 0 0 0 0 0 0 0 0 0 0 0 0 0 0 0 0 0 0 0 0 0 0 0 0 0 0 15.03498 15.05241 15.07784 15.06693 15.04974 15.03966 15.03652 15.04036 15.04278 15.05027 15.06732 15.07923 15.0888 15.0967 15.11492 15.10957 15.0994 15.07984 15.05557 15.02582 14.99667 14.96428 14.93995 14.91758 14.89172 14.87436 14.86939 14.87127 14.87833 14.88835 14.9004 14.90757 14.91609 14.92873 14.94531 14.96238 14.98512 15.01395 15.04682 15.07499 15.10079 15.11977 15.13766 15.15283 15.16222 15.17504 15.18175 15.18071 15.17783 15.17602 15.17254 15.17429 15.18588 15.19118 15.19729 15.20948 15.22895 15.249
0 0 0 0 0 0 0 0 0 0 0 0 0 0 0 0 0 0 0 0 0 0 0 0 0 0 0 0 0 0 0 0 0 0 0 0 0 0 0 0 0 0 0 0 0 0 0 0 0 16.85778 15.9562 15.07975 15.08321 15.07933 15.06592 15.05475 15.05721 15.04743 15.05761 15.06507 15.08341 15.10984 15.12731 15.13739 15.14714 15.14856 15.14669 15.13911 15.11739 15.09719 15.07217 15.04717 15.02589 15.00072 14.95463 14.94363 14.92715 14.91819 14.92007 14.92803 14.93573 14.94306 14.95431 14.96346 14.97559 14.9954 15.01628 15.03991 15.06935 15.10209 15.1343 15.16329 15.17862 15.19604 15.20316 15.20924 15.21515 15.22008 15.21996 15.21428 15.21374 15.2057 15.20681 15.21078 15.21882 15.22917 15.24401 15.25617 15.26992
0 0 0 0 0 0 0 0 0 0 0 0 0 0 0 0 0 0 0 0 0 0 0 0 0 0 0 0 0 0 0 0 0 0 0 0 0 0 0 0 0 0 0 0 0 0 0 0 16.04348 15.56305 15.31267 15.11466 15.10545 15.0843 15.06463 15.05665 15.06049 15.05227 15.06553 15.09045 15.11545 15.14747 15.17067 15.18091 15.18622 15.19342 15.19631 15.19246 15.17682 15.15082 15.1269 15.09263 15.06332 15.03351 15.00095 14.98888 14.97964 14.97059 14.97142 14.97378 14.98011 14.99251 15.0005 15.01338 15.03173 15.05001 15.06695 15.09073 15.11465 15.14242 15.17041 15.19254 15.20975 15.22713 15.23442 15.24017 15.24933 15.25384 15.25811 15.25773 15.25099 15.24483 15.23973 15.24008 15.23972 15.24686 15.26047 15.27278 15.28647
0 0 0 0 0 0 0 0 0 0 0 0 0 0 0 0 0 0 0 0 0 0 0 0 0 0 0 0 0 0 0 0 0 0 0 0 0 0 0 0 0 0 0 0 0 15.71334 15.58063 16.10851 15.63958 15.66296 15.40806 15.16106 15.1297 15.0924 15.07537 15.07247 15.07609 15.07345 15.0778 15.1086 15.14957 15.17434 15.20264 15.21301 15.22404 15.23825 15.24536 15.244 15.22636 15.21158 15.18215 15.15212 15.11854 15.09118 15.06744 15.0419 15.0232 15.00956 15.00764 15.01138 15.01528 15.02548 15.03645 15.05604 15.0784 15.10373 15.11943 15.13897 15.16082 15.18591 15.21516 15.24402 15.25438 15.26258 15.27128 15.27806 15.28587 15.28919 15.29346 15.29485 15.29111 15.28169 15.2725 15.27042 15.2661 15.27011 15.27839 15.29261 15.30681
0 0 0 0 0 0 0 0 0 0 0 0 0 0 0 0 0 0 0 0 0 0 0 0 0 0 0 0 0 0 0 0 0 0 0 0 0 0 0 0 0 0 17.68724 17.39788 16.41327 15.65659 15.20285 15.22881 15.71898 15.4697 15.24321 15.19135 15.15514 15.11938 15.11246 15.10329 15.09766 15.10023 15.11566 15.14488 15.18934 15.21949 15.24377 15.26456 15.27817 15.28875 15.29331 15.28763 15.27416 15.2478 15.21183 15.18414 15.15943 15.13261 15.10677 15.08285 15.0658 15.05934 15.05359 15.06522 15.07108 15.08005 15.09554 15.11344 15.13079 15.15205 15.16194 15.17547 15.19709 15.22076 15.24691 15.27086 15.28843 15.30129 15.31101 15.3253 15.33648 15.33999 15.34544 15.34589 15.33769 15.32499 15.31272 15.30187 15.2956 15.29519 15.2978 15.30912 15.32316
0 0 0 0 0 0 0 0 0 0 0 0 0 0 0 0 0 0 0 0 0 0 0 0 0 0 0 0 0 0 0 0 0 0 0 0 0 0 0 0 16.78202 17.1645 17.45354 16.48153 15.72834 15.23778 15.27102 15.29828 15.29615 15.2779 15.25847 15.22255 15.18814 15.1525 15.13388 15.12236 15.12627 15.13064 15.15562 15.18856 15.23102 15.26359 15.29319 15.30089 15.32303 15.33681 15.33908 15.33847 15.3251 15.2959 15.2631 15.23303 15.20764 15.18973 15.15759 15.1316 15.10701 15.09765 15.10365 15.10976 15.11586 15.12458 15.14802 15.16442 15.18075 15.20098 15.21405 15.22728 15.24187 15.26158 15.2822 15.30035 15.31741 15.3312 15.34068 15.3559 15.36628 15.37529 15.37831 15.38008 15.37476 15.36599 15.35079 15.33943 15.32931 15.32493 15.32732 15.33497 15.34451
0 0 0 0 0 0 0 0 0 0 0 0 0 0 0 0 0 0 0 0 0 0 0 0 0 0 0 0 0 0 0 0 0 0 0 0 0 0 0 16.99253 16.74976 16.22127 16.00218 15.24099 15.25722 15.27934 15.29701 15.32233 15.32482 15.30468 15.27148 15.23818 15.21856 15.19271 15.17619 15.17176 15.17645 15.19136 15.20463 15.24932 15.28592 15.31895 15.35363 15.35284 15.36219 15.38217 15.38473 15.38802 15.37515 15.34971 15.31801 15.28392 15.26079 15.24317 15.22579 15.19959 15.17632 15.16571 15.1636 15.16964 15.17216 15.18095 15.19074 15.20522 15.21781 15.23729 15.25441 15.26859 15.27737 15.29457 15.31718 15.33832 15.35615 15.3724 15.38203 15.39619 15.4079 15.40944 15.40923 15.40836 15.40591 15.39227 15.37606 15.36592 15.35678 15.35144 15.34972 15.36024 15.37034
0 0 0 0 0 0 0 0 0 0 0 0 0 0 0 0 0 0 0 0 0 0 0 0 0 0 0 0 0 0 0 0 0 0 0 0 0 0 16.24559 15.98035 15.75186 15.28005 15.30121 15.30966 15.30954 15.3139 15.32219 15.33298 15.32416 15.31371 15.29539 15.27802 15.25672 15.2368 15.22214 15.20973 15.22048 15.24577 15.267 15.30885 15.34064 15.36939 15.38932 15.39933 15.41383 15.42776 15.4334 15.44238 15.42922 15.4033 15.3741 15.33386 15.30119 15.28153 15.26482 15.24119 15.22683 15.21671 15.21685 15.22371 15.23226 15.23808 15.24741 15.26341 15.27516 15.2896 15.30648 15.31004 15.32148 15.33888 15.3599 15.3752 15.38408 15.40054 15.4092 15.42336 15.4313 15.43741 15.42979 15.42758 15.42536 15.41376 15.40034 15.3935 15.38618 15.38127 15.38072 15.38963 15.40039
0 0 0 0 0 0 0 0 0 0 0 0 0 0 0 0 0 0 0 0 0 0 0 0 0 0 0 0 0 0 0 0 0 0 17.88281 18.47689 17.62631 16.02563 15.25712 15.28645 15.31201 15.32292 15.33325 15.33054 15.33276 15.32509 15.33567 15.34899 15.35767 15.35857 15.34133 15.33406 15.31313 15.29814 15.29365 15.28342 15.29552 15.30958 15.33803 15.35767 15.38986 15.40651 15.42711 15.43983 15.45179 15.46317 15.47317 15.48702 15.48647 15.47361 15.44144 15.40528 15.37089 15.34019 15.31392 15.2974 15.28598 15.27567 15.27214 15.27726 15.27909 15.28547 15.29436 15.30689 15.31672 15.32975 15.34044 15.35206 15.35825 15.37799 15.39714 15.41255 15.42524 15.4391 15.45001 15.45274 15.45488 15.45639 15.45319 15.44504 15.43759 15.42653 15.41619 15.40804 15.40679 15.40429 15.41422 15.42931 15.43396
0 0 0 0 0 0 0 0 0 0 0 0 0 0 0 0 0 0 0 0 0 0 0 0 0 0 0 0 0 18.36054 17.96553 17.75624 17.75158 17.52998 17.24274 16.66793 15.29033 15.30625 15.32246 15.34069 15.34656 15.34512 15.34514 15.34794 15.36774 15.36052 15.36559 15.36727 15.37253 15.37069 15.37671 15.36923 15.35983 15.36162 15.35066 15.36225 15.36506 15.37663 15.39498 15.4219 15.4423 15.4566 15.46854 15.4712 15.48279 15.49357 15.50795 15.51704 15.51474 15.50404 15.48545 15.4596 15.43038 15.41131 15.37223 15.36129 15.35713 15.34416 15.34136 15.34737 15.34817 15.3592 15.36993 15.36916 15.37601 15.37755 15.37921 15.39112 15.39806 15.41257 15.42626 15.44001 15.4556 15.47114 15.47698 15.47813 15.47438 15.47322 15.47425 15.4663 15.45707 15.4478 15.4407 15.43327 15.43328 15.43728 15.44501 15.45482 15.44684
0 0 0 0 0 0 0 0 0 0 0 0 0 0 0 0 0 0 0 0 0 0 0 0 0 18.1611 17.45919 17.47491 16.56692 15.94661 15.65264 15.37405 15.36911 15.36941 15.35606 15.33896 15.33054 15.33655 15.34788 15.35677 15.35994 15.36556 15.37501 15.37799 15.37621 15.36167 15.37099 15.38232 15.39096 15.40121 15.41148 15.41702 15.41296 15.40937 15.39868 15.41371 15.41699 15.42074 15.43342 15.4595 15.4752 15.47881 15.4869 15.49528 15.51018 15.53013 15.54021 15.54746 15.54703 15.5432 15.53607 15.51117 15.48437 15.47268 15.45081 15.42103 15.41051 15.40315 15.40644 15.41229 15.40602 15.41088 15.42424 15.42634 15.42961 15.43715 15.43945 15.44505 15.45162 15.46033 15.47417 15.48546 15.49809 15.50544 15.5098 15.50766 15.49755 15.48421 15.48411 15.48383 15.47707 15.46631 15.45931 15.45956 15.46554 15.4732 15.4781 15.47603 15.44828
0 0 0 0 0 0 0 0 0 0 0 0 0 0 0 0 0 0 0 0 0 0 0 18.31448 17.48568 16.93762 16.6468 16.34831 15.45325 15.44232 15.42998 15.41937 15.41424 15.40058 15.38097 15.36105 15.3562 15.36217 15.37201 15.3793 15.37837 15.38034 15.3734 15.36843 15.36573 15.37298 15.38013 15.39005 15.40709 15.42996 15.4607 15.4591 15.45413 15.45488 15.44739 15.44743 15.45443 15.46505 15.47653 15.49295 15.51257 15.51778 15.51415 15.51981 15.5315 15.55708 15.56763 15.57567 15.5764 15.57782 15.57423 15.55369 15.54075 15.52003 15.50825 15.49155 15.47864 15.48275 15.48628 15.48653 15.47764 15.47702 15.48263 15.4816 15.48585 15.48528 15.4863 15.48654 15.49423 15.50407 15.51549 15.52638 15.53515 15.54226 15.53921 15.53448 15.52358 15.51168 15.5087 15.51153 15.50486 15.49509 15.49176 15.48937 15.48898 15.494 15.49384 15.48023 15.43919
0 0 0 0 0 0 0 0 0 0 0 0 0 0 0 0 0 0 0 0 0 0 17.72704 16.89825 16.62641 16.6584 16.36293 16.04444 15.4585 15.45042 15.44177 15.42936 15.41907 15.40457 15.399 15.38864 15.37516 15.36151 15.35727 15.37209 15.37405 15.3765 15.38033 15.38206 15.37825 15.39723 15.40794 15.4224 15.43611 15.4583 15.47463 15.47786 15.48445 15.48297 15.48466 15.48792 15.48442 15.49187 15.50208 15.5152 15.53505 15.53757 15.54289 15.54584 15.56091 15.58049 15.59966 15.61036 15.61928 15.61633 15.61815 15.59332 15.58212 15.56849 15.56357 15.55065 15.54339 15.54317 15.55788 15.54577 15.5449 15.54481 15.54458 15.54195 15.54696 15.54665 15.54876 15.54578 15.54784 15.55099 15.55425 15.56565 15.57029 15.56734 15.56291 15.55043 15.54061 15.53644 15.53683 15.53658 15.53284 15.53085 15.53096 15.52303 15.52249 15.52392 15.51236 15.48319 15.42969
0 0 0 0 0 0 0 0 0 0 0 0 0 0 0 0 0 0 0 0 0 18.89087 17.92312 16.88025 16.3028 16.32963 16.03537 16.04372 15.45595 15.4439 15.43339 15.41874 15.40586 15.39617 15.38405 15.36783 15.35694 15.34928 15.35474 15.36346 15.37449 15.38196 15.3863 15.40036 15.40514 15.42471 15.44316 15.45913 15.4684 15.47993 15.49264 15.50349 15.51626 15.522 15.53495 15.53981 15.52629 15.52231 15.53059 15.54446 15.55372 15.56781 15.56919 15.57752 15.59029 15.61414 15.63049 15.64714 15.65556 15.66364 15.66906 15.6529 15.64245 15.63446 15.63334 15.62615 15.61948 15.61296 15.61634 15.60383 15.5977 15.58917 15.58078 15.5785 15.57929 15.59022 15.59166 15.5971 15.60273 15.6048 15.60766 15.61447 15.6131 15.60516 15.59112 15.58238 15.58146 15.57519 15.57129 15.56307 15.55577 15.55287 15.55317 15.55413 15.55483 15.54618 15.52662 15.48145 15.41503
0 0 0 0 0 0 0 0 0 0 0 0 0 0 0 0 0 0 0 0 0 0 0 17.45015 16.60577 16.32109 16.01883 15.74467 15.43773 15.4285 15.42023 15.41308 15.40127 15.39008 15.371 15.36422 15.35621 15.35358 15.35197 15.36842 15.37977 15.39437 15.41 15.42103 15.43228 15.45004 15.46795 15.47974 15.4947 15.50963 15.52155 15.5342 15.54633 15.55394 15.56265 15.56718 15.57289 15.57065 15.5686 15.57202 15.58603 15.59777 15.60762 15.61557 15.62654 15.64422 15.65961 15.67556 15.68825 15.70229 15.70913 15.70106 15.69792 15.70798 15.70349 15.69563 15.69235 15.68479 15.68186 15.67246 15.66378 15.64869 15.63733 15.62792 15.63871 15.64508 15.64947 15.65584 15.65131 15.64448 15.64601 15.64679 15.63725 15.62504 15.61907 15.62356 15.62569 15.6201 15.61227 15.59928 15.59162 15.59098 15.59707 15.59454 15.5832 15.57066 15.53473 15.47945 15.4039
0 0 0 0 0 0 0 0 0 0 0 0 0 0 0 0 0 0 0 0 0 19.28527 19.01142 18.06783 16.63387 16.33765 16.02752 16.04516 15.71551 15.42265 15.41222 15.40309 15.39592 15.38579 15.36944 15.35157 15.35407 15.36032 15.36424 15.37542 15.39028 15.40322 15.42304 15.44077 15.44866 15.47554 15.48718 15.51063 15.5361 15.55446 15.57015 15.58036 15.58468 15.5903 15.59364 15.6095 15.60402 15.60214 15.59887 15.60549 15.60847 15.62441 15.63922 15.65224 15.66979 15.68321 15.7073 15.72093 15.73592 15.74897 15.75401 15.7618 15.76809 15.76643 15.76509 15.76101 15.7604 15.74763 15.73234 15.72168 15.7125 15.6998 15.69544 15.69807 15.69968 15.70786 15.71128 15.71019 15.70211 15.69693 15.69029 15.68062 15.6722 15.66761 15.66347 15.66235 15.65896 15.65352 15.64727 15.63608 15.62481 15.62779 15.62955 15.62312 15.61237 15.58343 15.54534 15.48536 15.40387
0 0 0 0 0 0 0 0 0 0 0 0 0 0 0 0 0 0 0 19.26541 19.21621 19.13821 18.34098 17.28008 16.66592 16.37396 16.06518 16.37261 15.44563 15.41889 15.40431 15.39583 15.39367 15.38513 15.36568 15.35684 15.35467 15.36009 15.38426 15.39374 15.4054 15.41968 15.43076 15.45251 15.46855 15.49214 15.51472 15.537 15.5626 15.5838 15.60344 15.62275 15.62995 15.63618 15.64475 15.64956 15.65127 15.64774 15.64585 15.63658 15.63678 15.64562 15.66382 15.6752 15.69119 15.70932 15.72836 15.74817 15.76444 15.77867 15.79054 15.79912 15.81327 15.81713 15.82125 15.82254 15.82286 15.81028 15.80248 15.78961 15.77832 15.77012 15.76944 15.76569 15.76105 15.75627 15.75274 15.74745 15.73712 15.72944 15.71908 15.71645 15.71239 15.70876 15.70959 15.71172 15.71033 15.70711 15.69702 15.68995 15.67863 15.67214 15.66368 15.65254 15.63305 15.60036 15.55767 15.49266 15.40872
0 0 0 0 0 0 0 0 0 0 0 0 0 0 0 0 0 0 18.7708 18.66011 18.34034 17.89214 17.31519 16.68743 16.40778 16.41788 16.10139 15.77222 15.45816 15.41991 15.40257 15.38951 15.38892 15.3793 15.36925 15.37191 15.36762 15.3778 15.40041 15.41863 15.4349 15.44582 15.46444 15.4817 15.49779 15.51751 15.53669 15.56575 15.59558 15.61911 15.64892 15.66824 15.67782 15.69112 15.69916 15.70588 15.70874 15.70705 15.70756 15.70265 15.6941 15.68552 15.68814 15.69889 15.71575 15.74078 15.76539 15.77607 15.7854 15.79954 15.81557 15.83036 15.8445 15.85269 15.85655 15.86236 15.86174 15.86244 15.86672 15.85543 15.85243 15.845 15.84311 15.83467 15.82562 15.81519 15.80062 15.7915 15.78174 15.76775 15.75691 15.75021 15.74643 15.74508 15.74227 15.74833 15.75199 15.74769 15.74558 15.73217 15.7191 15.71273 15.70424 15.68805 15.66284 15.62272 15.5786 15.51616 15.43756
0 0 0 0 0 0 0 0 0 0 0 0 0 0 0 0 0 19.18589 18.65212 18.09046 17.61829 17.02153 16.72361 16.74206 16.75887 16.41369 16.08652 15.4863 15.45153 15.41885 15.40207 15.40324 15.3979 15.38397 15.37717 15.38827 15.388 15.40522 15.42081 15.43891 15.45773 15.47007 15.48647 15.51354 15.53221 15.56039 15.58006 15.60446 15.63268 15.66336 15.6953 15.72038 15.73661 15.74426 15.75065 15.75555 15.75387 15.75138 15.74914 15.74825 15.7441 15.73398 15.73253 15.73331 15.7435 15.77304 15.79272 15.80483 15.81142 15.82567 15.84856 15.86598 15.88138 15.88932 15.89563 15.90056 15.91444 15.91827 15.91087 15.91245 15.90857 15.89884 15.88889 15.87946 15.86981 15.85786 15.84529 15.83518 15.82713 15.81622 15.80221 15.79598 15.7911 15.78914 15.79055 15.79247 15.79141 15.78732 15.78266 15.76573 15.75856 15.74959 15.73696 15.71541 15.6829 15.65037 15.60765 15.54658 15.4749
0 0 0 0 0 0 0 0 0 0 0 0 0 0 0 0 18.69315 18.66338 17.86637 17.3237 17.03878 16.73218 16.73207 16.74444 16.73839 16.41841 16.0826 15.48403 15.44286 15.41799 15.40504 15.406 15.40623 15.40769 15.41111 15.41747 15.42461 15.43651 15.44514 15.45495 15.47783 15.50063 15.5204 15.54269 15.57236 15.59527 15.61869 15.64476 15.67144 15.70522 15.73877 15.76448 15.78581 15.7984 15.80613 15.81202 15.81042 15.80896 15.81217 15.81222 15.80519 15.79982 15.78679 15.78015 15.78061 15.79679 15.81761 15.82873 15.84758 15.86081 15.87541 15.89042 15.90734 15.9246 15.93768 15.95576 15.96264 15.96314 15.96699 15.9708 15.96837 15.95757 15.94446 15.93163 15.91977 15.90514 15.89005 15.87536 15.86142 15.84725 15.83278 15.83079 15.82518 15.82546 15.82757 15.82375 15.82058 15.81771 15.80911 15.8005 15.7954 15.77966 15.77025 15.74962 15.71822 15.68651 15.64147 15.58505 15.51247
0 0 0 0 0 0 0 0 0 0 0 0 0 0 0 19.24818 18.51952 17.84876 17.30687 17.03327 16.7328 16.74531 16.73228 16.41305 16.41971 16.10346 15.49142 15.47356 15.44011 15.41981 15.40613 15.40587 15.41279 15.41763 15.4214 15.43883 15.44271 15.46547 15.47973 15.49646 15.52548 15.5517 15.57671 15.60043 15.62849 15.65618 15.68008 15.70561 15.73483 15.76433 15.78631 15.80769 15.82222 15.83632 15.84785 15.85794 15.86324 15.86886 15.87695 15.88155 15.87889 15.87467 15.86304 15.85019 15.84433 15.8343 15.85065 15.8585 15.87032 15.88248 15.8993 15.9144 15.93251 15.95691 15.97784 15.99157 15.99345 16.00046 16.00503 16.0076 16.00326 15.99529 15.98859 15.98037 15.96898 15.9566 15.94259 15.92602 15.90656 15.88845 15.87913 15.8719 15.86744 15.86271 15.85512 15.84658 15.83741 15.83569 15.82994 15.82155 15.81402 15.8091 15.7931 15.77519 15.75144 15.72189 15.68639 15.6326 15.56373
0 0 0 0 0 0 0 0 0 0 0 0 0 0 18.56767 18.56505 17.87396 17.30176 17.00358 16.6869 16.70975 16.38738 16.38698 16.39088 16.08137 15.76709 15.47832 15.4615 15.4374 15.42627 15.41894 15.42549 15.42752 15.43407 15.45099 15.46438 15.47957 15.49716 15.52109 15.54944 15.57739 15.60406 15.63472 15.66641 15.69755 15.72679 15.75614 15.78702 15.81279 15.83454 15.85116 15.86781 15.87814 15.88962 15.90038 15.91238 15.91774 15.92339 15.92881 15.93757 15.94023 15.93666 15.93567 15.92078 15.89755 15.88592 15.88037 15.88231 15.89163 15.89645 15.9152 15.93621 15.95736 15.98482 16.01719 16.03003 16.03296 16.04058 16.04738 16.04446 16.03944 16.03277 16.02767 16.02222 16.01141 15.99752 15.98392 15.96757 15.95185 15.93058 15.91847 15.90992 15.9029 15.89645 15.88918 15.87739 15.86626 15.85763 15.85523 15.84564 15.83814 15.83198 15.8222 15.80051 15.78191 15.75077 15.71478 15.66381 15.59679
0 0 0 0 0 0 0 0 0 0 0 0 0 18.43094 18.59312 17.86431 17.28276 16.98918 16.66578 16.66743 16.34803 16.34371 16.35614 16.37939 16.06582 15.46601 15.45483 15.44788 15.43818 15.43605 15.43867 15.44497 15.46002 15.47349 15.49227 15.51435 15.52994 15.55501 15.58156 15.60876 15.63819 15.67313 15.70852 15.74257 15.77465 15.80353 15.83148 15.85795 15.87867 15.89492 15.90577 15.91916 15.93318 15.94445 15.95232 15.95738 15.96231 15.96869 0 0 0 15.93752 15.94812 15.99936 15.98058 15.94818 15.93037 15.92563 15.91646 15.91138 15.92736 15.94906 15.97664 16.00845 16.03508 16.05834 16.06509 16.08259 16.08889 16.08928 16.0899 16.08691 16.08018 16.0721 16.06366 16.05097 16.03916 16.02401 16.00669 15.98393 15.96477 15.95341 15.93815 15.92835 15.918 15.9033 15.88765 15.87628 15.87288 15.86742 15.86077 15.85426 15.84622 15.83382 15.81296 15.78951 15.74929 15.69751 15.62948
0 0 0 0 0 0 0 0 0 0 0 0 0 18.79908 17.90063 17.27907 16.96908 16.63726 16.64982 16.32857 16.33444 16.33799 16.36323 15.4532 15.45271 15.45362 15.44691 15.44508 15.44582 15.44558 15.45512 15.46615 15.48431 15.49793 15.51391 15.53892 15.57364 15.60068 15.6389 15.6742 15.71478 15.7558 15.79156 15.82786 15.8643 15.89138 15.91561 15.93434 15.9447 15.95435 15.96395 16.71438 15.98413 15.98208 15.98516 16.33951 17.09029 17.8529 0 0 0 0 0 16.39884 16.02531 16.00151 15.97027 15.95442 15.93934 15.93614 15.94734 15.9706 15.99707 16.02658 16.05677 16.08065 16.09828 16.11292 16.11918 16.12082 16.12412 16.11648 16.11371 16.10877 16.10532 16.09695 16.08751 16.07714 16.06339 16.04543 16.03054 16.01958 16.00021 15.98329 15.97033 15.94782 15.92993 15.91397 15.90367 15.89891 15.8914 15.87822 15.87013 15.85811 15.8425 15.81976 15.7784 15.72338 15.65195
0 0 0 0 0 0 0 0 0 0 0 0 18.94794 18.15803 17.26133 16.94239 16.61839 16.32611 16.32382 16.33054 16.33549 16.3566 16.04873 15.44898 15.45246 15.44526 15.44678 15.45512 15.45745 15.46435 15.476 15.49174 15.51017 15.52379 15.54119 15.56959 15.5946 15.63614 15.67914 15.71734 15.76732 15.81604 15.85918 15.89138 15.92357 15.94998 15.95871 0 0 15.95434 0 17.58845 16.78752 16.38064 16.75874 16.7443 17.5019 17.90845 18.84638 16.72512 16.02279 0 0 0 17.59011 16.01797 15.98909 15.96562 15.95609 15.95012 15.95754 15.97759 16.00766 16.0424 16.07511 16.09888 16.12226 16.13819 16.15184 16.1567 16.15715 16.15475 16.15018 16.14477 16.13777 16.12813 16.12412 16.11732 16.10858 16.09712 16.08438 16.06852 16.05095 16.03242 16.01708 15.9977 15.97775 15.962 15.95072 15.94107 15.92931 15.91902 15.90626 15.88982 15.87359 15.85219 15.8083 15.74849 15.67336
0 0 0 0 0 0 0 0 0 0 0 18.19459 18.17405 17.27683 16.95138 16.30746 16.32729 16.3396 16.33931 16.34579 16.37139 15.74273 15.45301 15.45282 15.45109 15.44641 15.45516 15.46869 15.47762 15.48862 15.50313 15.5194 15.5364 15.55218 15.57258 15.60477 15.64178 15.69469 15.74519 15.79009 15.84055 15.8845 15.91761 15.94563 16.71305 0 0 0 0 0 18.34532 19.1022 18.87563 18.32779 17.96263 17.54477 17.52733 16.36833 16.01066 16.01931 16.02413 16.02493 16.02225 17.97802 18.3241 16.02535 16.00154 15.98092 15.97225 15.96336 15.97408 15.98939 16.01614 16.0519 16.08698 16.11218 16.13203 16.15162 16.16806 16.18089 16.18548 16.18653 16.18603 16.17751 16.16947 16.16606 16.16798 16.16173 16.16073 16.15162 16.1388 16.12051 16.10138 16.08312 16.06274 16.04565 16.02354 16.00516 15.99185 15.97673 15.96362 15.95116 15.93815 15.92109 15.90494 15.87791 15.84226 15.78138 15.70449
0 0 0 0 0 0 0 0 0 0 18.92139 18.20598 17.28835 16.61689 16.32527 16.02168 16.03541 16.04906 16.05927 16.06449 16.07267 15.46995 15.46287 15.46722 15.4632 15.46007 15.46726 15.49199 15.50624 15.5179 15.53738 15.54904 15.5626 15.57703 15.59737 15.63764 15.69194 15.75338 15.80177 15.85271 15.90664 15.94288 16.32161 0 0 0 0 0 0 0 0 0 0 0 18.34565 17.98174 17.17852 16.02265 16.03211 16.04058 16.04344 16.04069 16.03674 16.03609 16.03386 16.02961 16.0106 15.99586 15.9924 15.98744 15.99038 16.00623 16.03302 16.0679 16.10243 16.12954 16.15177 16.17051 16.18542 16.19715 16.20373 16.20671 16.20109 16.1985 16.19258 16.19205 16.19572 16.19753 16.19373 16.19004 16.17836 16.16273 16.14648 16.1321 16.11807 16.09716 16.08016 16.06355 16.04529 16.0247 16.00805 15.99373 15.97284 15.95322 15.92947 15.89961 15.86263 15.8014 15.72696
0 0 0 0 0 0 0 0 0 0 18.47001 17.27915 16.60835 16.31809 15.72424 15.73989 15.46899 15.47205 15.47598 15.48105 15.48607 15.48212 15.48107 15.48052 15.48139 15.47739 15.4974 15.52376 15.53656 15.55825 15.57453 15.58256 15.59296 15.61377 15.6418 15.68737 15.73797 15.78351 15.83662 15.8912 17.07055 0 0 0 0 0 0 0 0 0 0 0 0 0 18.98766 17.6304 16.05361 16.05513 16.06261 16.0746 16.08399 16.0807 16.07247 16.06252 16.0517 16.03726 16.02952 16.01908 16.01482 16.00971 16.01447 16.02613 16.04747 16.08126 16.11541 16.14346 16.17094 16.18947 16.2101 16.2218 16.22622 16.22583 16.22229 16.22459 16.22624 16.22387 16.22733 16.22864 16.22608 16.21993 16.20938 16.19335 16.17997 16.16958 16.15525 16.13794 16.12137 16.1076 16.09333 16.07687 16.0578 16.03944 16.01599 15.9867 15.9574 15.92635 15.88671 15.82507 15.75297
0 0 0 0 0 0 0 0 0 18.54608 17.9451 16.93966 16.28993 15.7035 15.44895 15.45568 15.45056 15.45733 15.46978 15.48266 15.48304 15.48566 15.49723 15.50083 15.49551 15.49953 15.52233 15.54653 15.57031 15.58545 15.59914 15.61349 15.62446 15.65082 15.68635 15.73114 15.76771 15.81938 15.87577 16.65132 16.87525 0 0 0 0 0 0 0 0 0 0 0 0 18.28178 18.0502 16.83701 16.06873 16.07801 16.09615 16.11272 16.12402 16.12444 16.11657 16.10067 16.08484 16.07221 16.06459 16.05512 16.04475 16.04032 16.042 16.05146 16.07257 16.09933 16.12746 16.15732 16.18483 16.20807 16.22672 16.23291 16.24093 16.24349 16.24345 16.2451 16.25039 16.25553 16.25794 16.26183 16.26233 16.25706 16.24619 16.23253 16.21567 16.20694 16.19374 16.17726 16.16358 16.14824 16.13112 16.11323 16.09437 16.07268 16.04393 16.01286 15.97952 15.94496 15.90311 15.84366 15.77225
0 0 0 0 0 0 0 0 19.48204 18.28731 16.92237 16.26227 15.95614 15.40824 15.42205 15.42855 15.43667 15.4424 15.45392 15.46494 15.47969 15.49696 15.50842 15.51429 15.51691 15.53519 15.55949 15.5793 15.59936 15.61122 15.62269 15.63305 15.65167 15.67986 15.71701 15.7663 15.80034 15.84317 16.2383 16.65395 17.08901 17.89545 0 18.71859 19.30201 0 0 0 0 0 0 0 19.05261 18.05898 17.25944 16.07356 16.08477 16.10988 16.13222 16.1479 16.15151 16.15029 16.14019 16.12589 16.11272 16.10277 16.09372 16.08672 16.07907 16.07341 16.07408 16.08539 16.10273 16.12602 16.15529 16.18256 16.20928 16.23384 16.24971 16.25814 16.26677 16.26563 16.26586 16.26852 16.27333 16.27868 16.2822 16.28811 16.28957 16.28393 16.27633 16.2632 16.24923 16.23728 16.22782 16.21361 16.20201 16.18666 16.17131 16.15435 16.13461 16.10842 16.07278 16.0378 16.00108 15.95779 15.90838 15.84834 15.78119
0 0 0 0 0 0 0 0 19.4973 18.30466 16.92639 16.25471 15.37846 15.39605 15.40323 15.41285 15.42513 15.4336 15.44755 15.46957 15.48745 15.50346 15.5229 15.54218 15.54978 15.574 15.5972 15.62255 15.64188 15.65992 15.67791 15.69063 15.70676 15.72749 15.76419 15.80376 15.83289 15.86181 15.89438 16.28249 16.68237 17.104 17.53632 17.95276 18.72499 0 0 0 0 0 0 18.44077 17.66067 17.66537 16.07065 16.0949 16.12581 16.15564 16.17172 16.17956 16.18198 16.17639 16.16749 16.15477 16.14126 16.12749 16.11468 16.10791 16.10573 16.10032 16.10168 16.11078 16.12939 16.15184 16.17893 16.2081 16.23454 16.25821 16.27596 16.2881 16.29543 16.29354 16.29472 16.29706 16.30356 16.30955 16.31347 16.31349 16.31553 16.30748 16.29827 16.28644 16.27629 16.26298 16.25079 16.23795 16.22771 16.21646 16.2003 16.18556 16.16467 16.136 16.09699 16.05872 16.01492 15.96797 15.91558 15.85429 15.78907
0 0 0 0 0 0 0 0 0 18.31751 16.93193 16.25354 15.36869 15.38076 15.38803 15.40842 15.41648 15.42513 15.45236 15.47891 15.50276 15.51992 15.53818 15.56299 15.57795 15.60796 15.63703 15.68081 15.71421 15.73569 15.75271 15.76181 15.7764 15.79045 15.81298 15.84667 15.86979 15.8866 15.91399 15.9272 15.9388 15.9535 15.96998 16.34708 17.16377 17.97904 18.77118 19.10266 0 0 18.74721 17.63585 16.83262 16.06804 16.09037 16.12416 16.16346 16.18623 16.19992 16.20605 16.20284 16.19903 16.1927 16.18382 16.17331 16.15806 16.14838 16.14104 16.13562 16.13279 16.1355 16.14895 16.16154 16.18338 16.2088 16.23528 16.25735 16.28075 16.30297 16.31334 16.31616 16.31658 16.31602 16.32159 16.32907 16.33629 16.3421 16.34288 16.34331 16.3339 16.3273 16.31516 16.30423 16.29181 16.27894 16.26737 16.25444 16.24302 16.22994 16.20943 16.18861 16.15492 16.11432 16.07442 16.02977 15.98036 15.92653 15.86263 15.79575
0 0 0 0 0 0 0 0 0 19.38131 17.67609 16.60699 15.64045 15.37856 15.38454 15.40889 15.41056 15.4265 15.45916 15.48541 15.51901 15.53838 15.55912 15.59012 15.61306 15.64485 15.69863 15.74605 15.78031 15.80776 15.8272 15.83181 15.84188 15.84611 15.85805 15.88342 15.90477 15.91184 15.92231 15.92904 15.93884 15.94829 15.96424 15.98033 16.35777 16.76998 17.18822 17.59081 18.7524 17.62349 16.39822 16.04717 16.06793 16.09488 16.12731 16.1615 16.18883 16.207 16.2175 16.2222 16.22184 16.2181 16.21211 16.19975 16.18985 16.1852 16.18086 16.17204 16.16219 16.16311 16.1703 16.17993 16.19593 16.21769 16.24202 16.26791 16.28778 16.30725 16.32757 16.33717 16.33978 16.33936 16.33697 16.34264 16.3492 16.35942 16.36518 16.37032 16.36949 16.36446 16.35365 16.34189 16.32914 16.31601 16.30421 16.29555 16.28368 16.26994 16.25661 16.23499 16.21114 16.17523 16.13367 16.09053 16.04464 15.99084 15.93396 15.86732 15.79673
0 0 0 0 0 0 0 0 0 19.53313 18.65432 16.97649 15.94632 15.38304 15.39796 15.4212 15.41635 15.43351 15.46334 15.49891 15.52167 15.55364 15.57567 15.59964 15.64086 15.69747 15.75969 15.81332 15.85694 15.88208 15.89193 15.89625 15.903 15.90586 15.90598 15.92014 15.93696 15.94172 15.93771 15.93769 15.94317 15.95037 15.96552 15.97872 15.99395 16.01013 16.39892 0 17.63562 16.42294 16.06627 16.08733 16.11403 16.14359 16.17557 16.20255 16.22643 16.23873 16.24498 16.24403 16.24214 16.24057 16.23853 16.22963 16.21942 16.21297 16.20543 16.19675 16.18939 16.1905 16.19538 16.20798 16.22606 16.24586 16.27001 16.28973 16.31029 16.32699 16.34297 16.35095 16.35906 16.36122 16.3594 16.36405 16.37367 16.383 16.38985 16.39747 16.39737 16.39172 16.38322 16.3725 16.3573 16.34048 16.3273 16.31705 16.30423 16.29253 16.27446 16.253 16.22507 16.18552 16.14678 16.10837 16.05917 16.00338 15.93696 15.86869 15.7903
0 0 0 0 0 0 0 0 0 0 19.2054 17.73575 16.28192 15.67024 15.42972 15.43307 15.42729 15.43702 15.46115 15.48183 15.52106 15.5519 15.58168 15.61598 15.66879 15.73345 15.80496 15.85974 0 0 0 16.13851 15.94061 15.94829 15.94763 15.94938 15.96135 15.97025 15.96677 15.95887 15.95392 15.96133 15.96964 15.98448 16.0029 16.02709 16.05243 16.44746 16.07626 16.08715 16.11185 16.13671 16.1651 16.193 16.21324 16.23035 16.24469 16.2577 16.26179 16.26272 16.26625 16.27033 16.26348 16.25842 16.24941 16.24161 16.23633 16.23182 16.22486 16.2283 16.22985 16.2384 16.25281 16.27194 16.2908 16.31122 16.33042 16.34838 16.35526 16.36534 16.36986 16.37229 16.37833 16.38182 16.39398 16.4034 16.40957 16.41672 16.41612 16.41199 16.40679 16.39798 16.38587 16.37213 16.35743 16.34221 16.32859 16.31386 16.29542 16.26906 16.23823 16.19842 16.16226 16.12404 16.0719 16.01168 15.94414 15.86939 15.78668
0 0 0 0 0 0 0 0 0 0 0 19.10822 17.77077 16.30795 15.69355 15.42321 15.42743 15.43979 15.45374 15.46893 15.50789 15.54913 15.59431 15.63312 15.68728 15.7637 16.17732 16.58293 0 0 0 16.77338 17.06074 15.95862 15.96659 15.96247 15.97601 15.98453 15.98494 15.98057 15.97526 15.97462 15.98753 16.00868 16.03081 16.05364 16.07133 16.09312 16.10463 16.12522 16.15487 16.18232 16.20757 16.23115 16.2469 16.26403 16.27546 16.28067 16.28276 16.28127 16.28384 16.28799 16.28626 16.27836 16.2732 16.26833 16.26529 16.26365 16.26111 16.26054 16.26398 16.27057 16.28126 16.29822 16.31562 16.33228 16.3491 16.36607 16.37904 16.38483 16.38799 16.39236 16.39959 16.40965 16.41494 16.42434 16.429 16.43671 16.43709 16.43465 16.4283 16.41981 16.40484 16.39023 16.37736 16.36153 16.34468 16.32858 16.3055 16.28142 16.25078 16.21269 16.17403 16.13342 16.08092 16.02423 15.95172 15.8767 15.79419
0 0 0 0 0 0 0 0 0 0 0 0 19.34712 18.12159 16.30936 15.68823 15.41926 15.42766 15.444 15.47219 15.49843 15.54202 15.60039 15.64905 15.69598 15.7731 16.53639 0 0 18.12172 18.22966 16.68295 15.95294 15.96055 15.9599 15.97723 15.98701 15.99788 16.00233 15.99832 15.991 15.99196 16.00348 16.02677 16.05227 16.07927 16.09753 16.11524 16.13293 16.15696 16.18252 16.21121 16.24104 16.2643 16.28388 16.29412 16.30771 16.31009 16.31057 16.30788 16.30702 16.30831 16.31065 16.30297 16.30042 16.29756 16.29673 16.29312 16.28972 16.29084 16.29114 16.29333 16.30416 16.32039 16.3381 16.35528 16.37235 16.38898 16.39602 16.40646 16.40857 16.41635 16.42664 16.4375 16.44237 16.45019 16.45626 16.45704 16.46054 16.45711 16.4489 16.44018 16.42341 16.40942 16.39511 16.37837 16.35953 16.33782 16.31783 16.2922 16.26221 16.2226 16.18505 16.14405 16.09179 16.03977 15.97298 15.90108 15.82579
0 0 0 0 0 0 0 0 0 0 0 0 0 0 0 16.30896 15.67375 15.41149 15.43675 15.45872 15.50297 15.54566 15.60257 15.65158 15.69256 16.09731 16.17242 16.57721 16.97721 19.04536 18.23467 16.67036 15.95425 15.95795 15.96151 15.98217 15.99979 16.01244 16.01928 16.01949 16.01603 16.01627 16.02813 16.04689 16.06817 16.09216 16.11032 16.12858 16.14911 16.1753 16.20442 16.23644 16.26722 16.29189 16.31286 16.3274 16.33732 16.33774 16.33774 16.33382 16.33087 16.33009 16.32635 16.32118 16.32027 16.31893 16.31976 16.32092 16.32327 16.32556 16.32398 16.32549 16.33653 16.35093 16.36678 16.38275 16.3982 16.40959 16.41752 16.42519 16.43683 16.44589 16.45146 16.46054 16.46903 16.47285 16.47468 16.47627 16.47324 16.47176 16.46083 16.45315 16.44114 16.42699 16.4154 16.40068 16.37737 16.35303 16.33047 16.30899 16.27809 16.24392 16.20459 16.1635 16.11742 16.06569 15.99916 15.93046 15.86314
0 0 0 0 0 0 0 0 0 0 0 0 0 0 0 16.97177 16.30158 15.39777 15.43607 15.46239 15.51247 15.55521 15.61329 15.66279 15.69873 15.75377 16.52413 16.58748 17.00247 0 18.29013 15.94774 15.95521 15.95731 15.98027 15.98693 16.0069 16.02595 16.03582 16.03547 16.03787 16.04274 16.05473 16.06973 16.08559 16.10187 16.12174 16.14021 16.16513 16.19559 16.23247 16.26473 16.29267 16.32026 16.33955 16.35638 16.36564 16.3638 16.36142 16.35599 16.35093 16.34404 16.33939 16.33607 16.33821 16.34052 16.34292 16.3452 16.34796 16.3504 16.35343 16.35944 16.36918 16.38216 16.39885 16.41127 16.42618 16.44052 16.45321 16.46677 16.4743 16.47974 16.48321 16.48949 16.49258 16.49022 16.48793 16.48726 16.48201 16.47858 16.46986 16.45906 16.45147 16.43838 16.42658 16.4121 16.38971 16.36644 16.34295 16.32449 16.29781 16.2687 16.23102 16.19545 16.15391 16.10256 16.04632 15.98493 15.92353
0 0 0 0 0 0 0 0 0 0 0 0 0 18.10165 17.75763 16.98968 16.32451 15.41388 15.45935 15.49855 15.54082 15.58004 15.6384 15.69079 15.72439 15.76583 16.88496 17.32212 17.78381 17.72151 18.68871 16.29341 15.9516 15.96101 15.98152 16.00223 16.02461 16.04298 16.04795 16.0504 16.05155 16.05726 16.07215 16.09008 16.10736 16.11965 16.13787 16.16229 16.19161 16.2218 16.25213 16.28335 16.31089 16.3359 16.35123 16.36869 16.37928 16.3842 16.38222 16.37725 16.36992 16.36795 16.36345 16.36307 16.35776 16.36051 16.36107 16.36363 16.36759 16.37027 16.37845 16.38826 16.39886 16.4134 16.42643 16.44071 16.45377 16.4677 16.48458 16.49788 16.50589 16.51158 16.51062 16.51155 16.50922 16.50666 16.50243 16.49861 16.49217 16.48447 16.47804 16.46892 16.46169 16.45179 16.43829 16.42247 16.4043 16.38819 16.36443 16.34314 16.31514 16.28749 16.25531 16.21509 16.17799 16.13069 16.08445 16.03406 15.98395
0 0 0 0 0 0 0 0 0 0 0 0 17.35314 16.99492 17.02224 16.68973 16.05425 15.45921 15.50962 15.55062 15.59168 15.64464 15.689 15.73239 15.76201 15.80021 16.55597 16.60412 17.40501 18.21778 16.66263 15.93466 15.95979 15.98893 16.01371 16.03279 16.05007 16.06076 16.06307 16.06661 16.07235 16.08042 16.09122 16.10636 16.12581 16.14391 16.16511 16.18589 16.21347 16.24195 16.26576 16.29188 16.3154 16.33757 16.3594 16.37522 16.38976 16.39477 16.39185 16.38846 16.3866 16.38685 16.38236 16.37794 16.37725 16.37764 16.37761 16.38413 16.38948 16.39619 16.40801 16.41942 16.43656 16.45161 16.46357 16.47514 16.49024 16.50076 16.50888 16.51714 16.52256 16.52639 16.52438 16.52016 16.51967 16.51551 16.50939 16.50676 16.49844 16.48799 16.48141 16.47629 16.46769 16.45865 16.44888 16.43532 16.4224 16.4042 16.38605 16.36726 16.34145 16.31382 16.27828 16.24395 16.20738 16.16953 16.12689 16.07813 16.02981
0 0 0 0 0 0 0 0 18.90639 18.26877 17.28505 16.59149 16.6344 16.64788 16.36266 16.42253 16.14862 15.53762 15.58371 15.62744 15.67197 15.72327 15.76641 15.79394 15.81655 15.84919 15.88468 15.90361 15.92497 15.94084 15.9482 15.96651 15.99228 16.0222 16.03992 16.0564 16.06933 16.07993 16.08293 16.08254 16.08756 16.10044 16.1118 16.12471 16.14858 16.17118 16.19477 16.21232 16.23256 16.26181 16.27815 16.30388 16.32441 16.344 16.36377 16.37804 16.39276 16.39614 16.40063 16.39963 16.40348 16.39898 16.39564 16.39259 16.39177 16.39374 16.39733 16.40356 16.41066 16.42437 16.43771 16.45891 16.47878 16.49573 16.50278 16.50746 16.51696 16.52719 16.53556 16.53815 16.54001 16.53883 16.5379 16.53461 16.53006 16.52541 16.51553 16.5088 16.49551 16.48912 16.48187 16.47829 16.47108 16.4615 16.45492 16.44265 16.42686 16.41511 16.39886 16.38267 16.36435 16.34001 16.31015 16.27774 16.24488 16.20818 16.17039 16.13072 16.08621
0 0 0 0 0 0 0 17.93029 17.94907 16.5609 16.25871 16.27575 16.31026 16.37834 16.45946 16.18851 15.57635 15.60712 15.65132 15.69312 15.74592 15.77864 15.81696 15.85071 15.87273 15.8953 15.92324 15.94817 15.97524 15.99194 16.00618 16.0255 16.04623 16.06138 16.07234 16.07999 16.08877 16.09788 16.09817 16.09817 16.10202 16.11412 16.12894 16.14101 16.16643 16.19326 16.21225 16.22843 16.24157 16.25541 16.27017 16.29147 16.31406 16.33631 16.35685 16.37408 16.38877 16.40011 16.40795 16.41229 16.41289 16.41122 16.40917 16.40766 16.40895 16.41378 16.42129 16.43081 16.44081 16.45688 16.47036 16.49332 16.51196 16.52596 16.53458 16.53857 16.54588 16.55515 16.55335 16.55478 16.55534 16.55078 16.54497 16.53954 16.5363 16.52589 16.51278 16.50229 16.4908 16.48509 16.48219 16.47797 16.47157 16.46509 16.45585 16.44925 16.43784 16.42782 16.41838 16.40521 16.38849 16.36572 16.33904 16.31052 16.27828 16.24105 16.20552 16.16951 16.12434
0 0 0 0 0 0 18.41758 18.29812 16.56759 16.24847 16.2397 16.2754 16.36956 16.13714 15.89535 15.63914 15.65 15.69529 15.73618 15.77921 15.80772 15.8319 15.87743 15.89893 15.9212 15.93293 15.95923 15.99747 16.02399 16.04165 16.05656 16.07898 16.09098 16.09977 16.10126 16.10417 16.11052 16.11463 16.11792 16.11883 16.12146 16.12847 16.14122 16.15973 16.18088 16.19392 16.20788 16.2226 16.23642 16.25077 16.26645 16.28239 16.30315 16.32117 16.34055 16.36063 16.37702 16.38955 16.40061 16.40851 16.4167 16.42167 16.42018 16.42363 16.42696 16.43923 16.45205 16.46506 16.47679 16.49595 16.51287 16.53005 16.54497 16.55916 16.56358 16.56535 16.57452 16.57671 16.57365 16.56922 16.56489 16.55893 16.55264 16.53994 16.53207 16.52316 16.50562 16.49138 16.48682 16.48222 16.47856 16.47748 16.47164 16.46822 16.46405 16.45874 16.4495 16.44334 16.43797 16.42759 16.41402 16.39891 16.38125 16.35325 16.32146 16.28637 16.24889 16.21446 16.16961
0 0 0 0 0 0 19.37541 17.57921 16.57099 16.22761 15.94305 16.02585 15.78964 15.57125 15.63309 15.69093 15.73589 15.76618 15.80246 15.83584 15.86663 15.89626 15.92823 15.94326 15.96673 15.97418 16.00252 16.03831 16.06308 16.07903 16.09152 16.10683 16.1146 16.11708 16.11942 16.11919 16.12132 16.12005 16.12368 16.12656 16.13354 16.14141 16.15495 16.16962 16.18447 16.19427 16.20264 16.21062 16.22711 16.24166 16.25613 16.27029 16.28616 16.30325 16.32729 16.34515 16.35971 16.37658 16.38806 16.40218 16.4083 16.41743 16.42266 16.43152 16.44584 16.45812 16.47256 16.4894 16.50665 16.52545 16.53886 16.55568 16.56902 16.58082 16.59017 16.5923 16.59303 16.59345 16.59003 16.5843 16.57595 16.56741 16.55419 16.54158 16.52446 16.51161 16.49952 16.4898 16.48176 16.47632 16.47391 16.47224 16.47098 16.47242 16.47041 16.4691 16.46267 16.4578 16.45373 16.44267 16.43459 16.42662 16.41418 16.39602 16.36638 16.33762 16.30561 16.26725 16.22918
0 0 0 0 0 19.39012 18.73458 17.5378 16.58288 16.273 15.71077 15.47252 15.53086 15.61131 15.68611 15.74066 15.7829 15.81636 15.85769 15.88706 15.91774 15.94175 15.97891 15.99842 16.01613 16.0273 16.0503 16.083 16.0995 16.11373 16.12833 16.13042 16.13619 16.13645 16.13367 16.13196 16.13462 16.13391 16.13376 16.13776 16.14578 16.15263 16.16058 16.17116 16.18498 16.19178 16.1967 16.20885 16.2205 16.23381 16.24676 16.26572 16.27691 16.29193 16.30598 16.32569 16.34567 16.36239 16.37771 16.39166 16.402 16.41303 16.42824 16.4471 16.46599 16.48256 16.49583 16.50979 16.52804 16.54503 16.55539 16.56941 16.58465 16.59179 16.59936 16.60067 16.60078 16.6 16.59662 16.58652 16.57408 16.56328 16.54984 16.53401 16.51648 16.49932 16.48173 16.47885 16.46853 16.46654 16.46394 16.46133 16.46358 16.47237 16.47775 16.47634 16.47514 16.47282 16.46681 16.46567 16.46184 16.45409 16.43994 16.4242 16.40234 16.37627 16.34396 16.31595 16.27897
0 0 0 0 18.3274 17.80947 16.46377 16.19716 15.93277 15.40393 15.44791 15.50771 15.58891 15.66732 15.73231 15.79031 15.82522 15.85524 15.8931 15.92563 15.94888 15.98565 16.01435 16.03732 16.06293 16.08095 16.10436 16.12219 16.13441 16.14648 16.15006 16.15297 16.15358 16.15233 16.146 16.1462 16.14373 16.14633 16.14701 16.14678 16.15247 16.16152 16.16637 16.1689 16.18056 16.18598 16.18994 16.19497 16.20922 16.22278 16.23377 16.25151 16.26674 16.28275 16.29995 16.31629 16.32967 16.34271 16.36217 16.37563 16.39055 16.40571 16.4216 16.44893 16.47338 16.49047 16.50529 16.52277 16.54334 16.56031 16.57166 16.58299 16.59489 16.60201 16.60525 16.60416 16.60494 16.60114 16.59163 16.58141 16.57152 16.5576 16.54116 16.52395 16.50574 16.48633 16.47719 16.47033 16.46215 16.46359 16.46219 16.46735 16.46946 16.47554 16.47968 16.484 16.48476 16.48657 16.4847 16.48114 16.4862 16.48073 16.4719 16.46131 16.44651 16.42448 16.39804 16.37019 16.34064
0 0 0 0 19.38163 16.72838 15.31005 15.33312 15.38418 15.42932 15.49775 15.58262 15.64989 15.71993 15.78889 15.85201 15.8895 15.90466 15.93355 15.96313 15.99036 16.0204 16.05045 16.08022 16.0982 16.11418 16.13395 16.1482 16.16094 16.16808 16.1711 16.17342 16.17383 16.1673 16.16257 16.16143 16.16199 16.16145 16.15539 16.15732 16.16131 16.16104 16.16188 16.16474 16.16931 16.17677 16.18234 16.18834 16.19719 16.20632 16.21784 16.23219 16.25076 16.26701 16.28463 16.30228 16.31993 16.33482 16.35129 16.36597 16.38101 16.39682 16.42102 16.44879 16.47232 16.49176 16.51282 16.5321 16.55158 16.5699 16.58187 16.59325 16.60264 16.60745 16.60859 16.60641 16.606 16.6033 16.59214 16.57846 16.56941 16.55616 16.53538 16.51502 16.50071 16.48295 16.47531 16.47368 16.47658 16.48099 16.48133 16.48501 16.48609 16.48955 16.49378 16.49796 16.49733 16.49628 16.49695 16.49758 16.49927 16.50306 16.50055 16.49675 16.48916 16.47594 16.45434 16.43468 16.40605
0 0 0 18.22064 17.74316 16.36391 15.28533 15.34389 15.40414 15.48347 15.55951 15.62709 15.70136 15.7753 15.84289 15.89455 15.92361 15.94045 15.96957 16.00081 16.03571 16.06174 16.07959 16.10753 16.12609 16.13853 16.15633 16.16701 16.17547 16.1829 16.18615 16.1889 16.18943 16.18351 16.18075 16.17738 16.17341 16.1677 16.16359 16.1642 16.16061 16.15696 16.15762 16.15955 16.16412 16.17097 16.17685 16.18266 16.18789 16.19599 16.20631 16.21899 16.23872 16.25285 16.27213 16.28944 16.30855 16.32354 16.34239 16.35834 16.37741 16.3959 16.41924 16.44148 16.46458 16.48938 16.51296 16.53112 16.5538 16.57391 16.58664 16.59472 16.60566 16.60949 16.61004 16.60776 16.60202 16.599 16.58995 16.57966 16.56287 16.54675 16.52743 16.51469 16.49899 16.49496 16.49524 16.49444 16.49534 16.49869 16.51029 16.5183 16.51596 16.51329 16.5136 16.51638 16.51565 16.51557 16.52085 16.5217 16.52554 16.5278 16.52388 16.52355 16.52795 16.51966 16.49773 16.48017 16.45986
0 0 0 18.08452 17.67325 16.30964 15.79001 15.35112 15.46153 15.53369 15.60099 15.67858 15.74458 15.81223 15.87804 15.91765 15.95338 15.97044 15.99287 16.02131 16.0506 16.07777 16.10132 16.12403 16.14464 16.15393 16.16495 16.17696 16.18358 16.18558 16.19143 16.19305 16.19399 16.19125 16.18656 16.1798 16.17041 16.17057 16.16881 16.16035 16.15819 16.15466 16.15112 16.15506 16.16254 16.17044 16.17374 16.18278 16.19072 16.1934 16.19922 16.21009 16.23066 16.24701 16.26414 16.27938 16.29867 16.3202 16.33602 16.35392 16.37333 16.39415 16.41418 16.44495 16.46716 16.48823 16.50096 16.5313 16.56061 16.57788 16.59935 16.60887 16.61213 16.61103 16.61051 16.61052 16.59825 16.59129 16.58727 16.57197 16.55639 16.5422 16.52921 16.51708 16.50937 16.50977 16.512 16.51006 16.51916 16.52775 16.53907 16.5431 16.54626 16.54761 16.5513 16.55602 16.55479 16.55539 16.55927 16.56002 16.56544 16.56499 16.56405 16.56539 16.56652 16.56622 16.55571 16.53464 16.51352
0 0 0 19.10846 17.90253 16.29942 15.51542 15.32835 15.44255 15.55216 15.66102 15.72587 15.78466 15.84884 15.90464 15.94606 15.97576 15.99684 16.02054 16.04878 16.06908 16.08379 16.10424 16.11494 16.13908 16.14935 16.16139 16.1776 16.18393 16.18653 16.18781 16.19226 16.19664 16.19808 16.18818 16.1788 16.17408 16.16838 16.16777 16.16512 16.15553 16.14752 16.14647 16.14756 16.15443 16.16304 16.16579 16.1747 16.18558 16.18631 16.19272 16.20885 16.22753 16.24615 16.26089 16.27908 16.29922 16.31761 16.33128 16.35308 16.37513 16.39803 16.42764 16.45297 16.47154 16.48624 16.51031 16.53531 16.55766 16.58198 16.59964 16.61324 16.61785 16.61772 16.61306 16.60665 16.59195 16.57973 16.57237 16.56457 16.55729 16.55273 16.54158 16.53157 16.52941 16.53447 16.54504 16.54892 16.55987 16.56552 16.57316 16.57884 16.58277 16.58648 16.58823 16.59232 16.59375 16.59293 16.59321 16.60284 16.60705 16.60559 16.60331 16.6027 16.6055 16.60306 16.59525 16.58393 16.56729
0 0 0 19.1668 16.88036 15.74311 15.27387 15.38122 15.51222 15.61555 15.70787 15.76898 15.82951 15.86959 15.92469 15.971 15.99636 16.01686 16.03673 16.04469 16.06003 16.07659 16.08363 16.1003 16.11532 16.1321 16.1457 16.16218 16.17315 16.17995 16.18337 16.18548 16.19452 16.20089 16.19438 16.18442 16.17613 16.17165 16.1683 16.16405 16.15553 16.14759 16.14489 16.14426 16.14812 16.15413 16.1597 16.1697 16.17621 16.18438 16.20233 16.2209 16.23617 16.25389 16.26823 16.28308 16.29947 16.32147 16.33954 16.35732 16.38067 16.40648 16.43221 16.45646 16.48287 16.4963 16.51688 16.54022 16.55693 16.57695 16.60085 16.61095 16.61864 16.61919 16.61163 16.60549 16.59511 16.58371 16.5754 16.56853 16.56414 16.56841 16.56189 16.55704 16.56213 16.56737 16.58302 16.5985 16.61108 16.61523 16.62128 16.63237 16.63551 16.63753 16.63927 16.64133 16.64246 16.63858 16.63866 16.65157 16.65942 16.65721 16.65219 16.65094 16.64869 16.64482 16.63714 16.62686 16.60968
15.38926 15.38875 16.45872 16.949 15.43161 15.25599 15.34528 15.48202 15.59126 15.68403 15.75306 15.80669 15.85761 15.89491 15.93804 15.984 16.00361 16.02302 16.03724 16.04421 16.05247 16.05568 16.07007 16.08233 16.09472 16.10544 16.12424 16.13964 16.1602 16.17626 16.1837 16.19075 16.19565 16.1985 16.19609 16.18998 16.18294 16.17779 16.17772 16.17302 16.16259 16.1562 16.15221 16.15188 16.15313 16.1563 16.1607 16.1694 16.17841 16.19191 16.21484 16.23082 16.24671 16.2625 16.28169 16.29852 16.31301 16.33551 16.35432 16.37244 16.39133 16.41442 16.44715 16.47174 16.4955 16.51087 16.52274 16.54126 16.56698 16.58505 16.60016 16.61214 16.62112 16.62269 16.61819 16.60913 16.60101 16.59141 16.58062 16.57608 16.57303 16.57898 16.58322 16.58898 16.59749 16.59683 16.61432 16.63714 16.65011 16.65679 16.66913 16.68203 16.68777 16.69007 16.69034 16.6873 16.68887 16.69209 16.70016 16.70719 16.71541 16.71643 16.7169 16.71274 16.70794 16.70375 16.69031 16.6758 16.66485
15.39613 15.38239 15.38775 15.40766 15.36861 15.43275 15.52445 15.62196 15.69427 15.75455 15.80614 15.84698 15.87839 15.90574 15.94687 15.98715 16.00403 16.0097 16.02388 16.03051 16.0341 16.0452 16.05295 16.05937 16.06664 16.08759 16.1035 16.12289 16.14114 16.16157 16.17901 16.19083 16.19794 16.20223 16.20469 16.19972 16.19515 16.18963 16.18792 16.18346 16.17484 16.17119 16.17123 16.17221 16.16996 16.17053 16.17191 16.17816 16.18941 16.20928 16.23332 16.24575 16.26294 16.28359 16.30533 16.31996 16.33688 16.35854 16.37677 16.39324 16.40994 16.43694 16.46401 16.48447 16.49934 16.51657 16.53035 16.55427 16.56998 16.5895 16.60341 16.61245 16.62337 16.62835 16.62514 16.62331 16.61416 16.60483 16.59729 16.59106 16.5917 16.59973 16.6125 16.62771 16.63107 16.63945 16.66 16.68201 16.70073 16.71411 16.72566 16.73872 16.73903 16.73488 16.73118 16.73283 16.73702 16.74133 16.74759 16.75897 16.76793 16.77486 16.7743 16.77511 16.76674 16.76008 16.75048 16.73615 16.72629
15.52584 15.53992 15.56101 15.58474 15.56576 15.61795 15.6663 15.72001 15.75858 15.8116 15.84343 15.86528 15.89158 15.9303 15.96044 15.99546 16.01611 16.02426 16.02071 16.02039 16.01779 16.02776 16.02834 16.03609 16.04811 16.06609 16.09004 16.11322 16.12836 16.14639 16.16695 16.18239 16.1968 16.20905 16.20958 16.20824 16.20669 16.20343 16.19882 16.19741 16.19743 16.19373 16.19297 16.19315 16.19369 16.19302 16.19548 16.20185 16.21522 16.23187 16.25589 16.27729 16.2989 16.31976 16.33343 16.35006 16.36718 16.38794 16.40775 16.42294 16.44155 16.45807 16.47942 16.49853 16.51574 16.53029 16.54979 16.56896 16.58436 16.59764 16.60877 16.61845 16.62865 16.63968 16.64396 16.63445 16.63025 16.62488 16.61829 16.61637 16.62264 16.63002 16.64183 16.65826 16.67691 16.69386 16.71159 16.73443 16.75792 16.77371 16.79167 16.80065 16.79978 16.80012 16.79609 16.79612 16.80359 16.81523 16.8201 16.82677 16.83433 16.83906 16.83918 16.83835 16.82887 16.82323 16.8112 16.79941 16.79467
15.59533 15.62505 15.65908 15.68827 15.70478 15.71981 15.74851 15.77206 15.79454 15.82379 15.85086 15.87578 15.89897 15.92692 15.95869 15.98253 15.99984 16.00693 16.01307 16.01499 16.01314 16.00627 16.00792 16.01824 16.03535 16.05797 16.07447 16.09802 16.11526 16.14211 16.16344 16.18381 16.19959 16.21795 16.22433 16.22786 16.22631 16.22283 16.22129 16.22019 16.2186 16.22162 16.22111 16.22145 16.22029 16.2227 16.22539 16.23709 16.24814 16.26861 16.29055 16.31554 16.33787 16.36131 16.37359 16.38891 16.41008 16.42531 16.44126 16.46414 16.47359 16.48866 16.50534 16.52154 16.54174 16.55828 16.57468 16.59162 16.60553 16.61918 16.63203 16.64482 16.65237 16.66136 16.66281 16.6584 16.65344 16.64728 16.64405 16.64678 16.65152 16.66024 16.6754 16.68858 16.70619 16.73112 16.75863 16.78421 16.81544 16.83712 16.85259 16.86506 16.86913 16.87017 16.86656 16.8742 16.88135 16.89254 16.90858 16.92925 16.95118 16.95767 16.94565 16.93283 16.9245 16.91619 16.90976 16.89894 16.89363
15.67715 15.69608 15.70931 15.72292 15.73612 15.74834 15.76791 15.78768 15.80237 15.81525 15.84146 15.86505 15.87886 15.90338 15.93104 15.95434 15.97064 15.98611 15.9934 15.9974 15.99189 15.99383 15.99564 16.0104 16.03115 16.06138 16.07795 16.09869 16.11636 16.14045 16.16428 16.1883 16.20841 16.22833 16.23741 16.2442 16.24436 16.24592 16.24576 16.24316 16.24238 16.24359 16.24645 16.25358 16.25904 16.26413 16.27183 16.2809 16.29463 16.31365 16.33675 16.36083 16.38546 16.4057 16.42098 16.43677 16.45196 16.47184 16.49153 16.50568 16.51865 16.53266 16.5464 16.56894 16.59037 16.60281 16.61141 16.61915 16.63241 16.6466 16.65539 16.66971 16.67786 16.68296 16.68829 16.68846 16.68516 16.68158 16.68193 16.6845 16.68256 16.68929 16.70251 16.72611 16.75402 16.78205 16.81011 16.83669 16.86727 16.89514 16.91794 16.92931 16.93137 16.92667 16.92709 16.93593 16.94601 16.95626 16.98013 17.00935 17.03741 17.04626 17.04191 17.02808 17.01971 17.01157 17.00829 17.00012 16.9923
15.70528 15.7116 15.72225 15.73338 15.74757 15.75975 15.77445 15.78942 15.79389 15.80523 15.8277 15.84394 15.85667 15.88363 15.90745 15.92951 15.94913 15.96544 15.96601 15.97878 15.97709 15.98409 15.98936 16.01864 16.03582 16.06258 16.0821 16.10845 16.13228 16.15921 16.18106 16.20639 16.22599 16.24302 16.25504 16.26139 16.26518 16.26989 16.27265 16.27385 16.27487 16.27741 16.28118 16.28976 16.30839 16.31939 16.33541 16.35221 16.3655 16.38814 16.40924 16.43279 16.44945 16.46887 16.49011 16.50612 16.52376 16.54578 16.55737 16.56765 16.58787 16.59991 16.61245 16.62564 16.64201 16.65037 16.65091 16.66238 16.67025 16.68005 16.68925 16.6963 16.70427 16.70971 16.71449 16.71748 16.71518 16.71592 16.72051 16.73288 16.73669 16.74877 16.76433 16.78682 16.81356 16.84026 16.87071 16.90136 16.93356 16.95615 16.98212 17.00157 17.01033 17.01242 17.01408 17.01534 17.017 17.02226 17.03607 17.05575 17.07951 17.09323 17.10079 17.10386 17.10211 17.09885 17.09979 17.09075 17.0855
15.71129 15.72212 15.72948 15.736 15.74251 15.75517 15.76974 15.78139 15.7936 15.80232 15.82657 15.83065 15.83941 15.86394 15.88402 15.90803 15.93182 15.94379 15.95337 15.95983 15.9679 15.97786 16.00409 16.03479 16.05918 16.08527 16.10708 16.13247 16.16232 16.19033 16.21219 16.23425 16.25601 16.27683 16.28775 16.29307 16.29959 16.30472 16.30714 16.31003 16.31429 16.32013 16.33191 16.34979 16.37296 16.39144 16.41149 16.43092 16.45246 16.46722 16.49024 16.50782 16.52627 16.55022 16.57057 16.5861 16.60433 16.62293 16.63594 16.6447 16.65729 16.67006 16.68625 16.70165 16.71142 16.71249 16.71898 16.72352 16.72886 16.73449 16.74047 16.75389 16.75949 16.76169 16.76126 16.75994 16.76252 16.76824 16.78057 16.7994 16.80544 16.81729 16.83261 16.84597 16.86696 16.89209 16.9229 16.94424 0 0 17.00308 17.03762 17.05067 17.05903 17.05752 17.05085 17.05547 17.06086 17.06009 0 0 17.10335 17.13988 17.14568 17.15318 17.16446 17.17307 17.17625 17.16853
