ncols        109
nrows        82
xllcorner    -1.041666666667
yllcorner    37.041665395101
cellsize     0.083333333333
NODATA_value -9999
0.0 0 0 0 0 0 0 0 0 0 0 0 0 0 0 0 0 0 0 0 0 0 0 0 0 0 0 0 0 0 0 0 0 0 0 0 0 0 0 0 0 0 0 0 0 0 0 0 0 0 0 0 0 0 0 0 0 0 0 0 0 0 0 0 0 0 0 0 0 0 0 0 0 0 0 0 0 0 0 0 0 0 0 0 0 0 0 0 0 0 0 0 0 0 0 0 0 0 0 0 0 0 0 0 0 17.25447 16.00894 14.83052 14.8389
0 0 0 0 0 0 0 0 0 0 0 0 0 0 0 0 0 0 0 0 0 0 0 0 0 0 0 0 0 0 0 0 0 0 0 0 0 0 0 0 0 0 0 0 0 0 0 0 0 0 0 0 0 0 0 0 0 0 0 0 0 0 0 0 0 0 0 0 0 0 0 0 0 0 0 0 0 0 0 0 0 0 0 0 0 0 0 0 0 0 0 0 0 0 0 0 0 0 0 0 0 14.97652 14.99973 14.82209 14.83291 14.8355 14.82748 14.82252 14.81031
0 0 0 0 0 0 0 0 0 0 0 0 0 0 0 0 0 0 0 0 0 0 0 0 0 0 0 0 0 0 0 0 0 0 0 0 0 0 0 0 0 0 0 0 0 0 0 0 0 0 0 0 0 0 0 0 0 0 0 0 0 0 0 0 0 0 0 0 0 0 0 0 0 0 0 0 0 0 0 0 0 0 0 0 0 0 0 0 0 0 0 0 0 0 0 0 0 0 14.79847 14.81138 14.81915 14.81605 14.8051 14.80064 14.78612 14.76273 14.73421 14.70703 14.68163
0 0 0 0 0 0 0 0 0 0 0 0 0 0 0 0 0 0 0 0 0 0 0 0 0 0 0 0 0 0 0 0 0 0 0 0 0 0 0 0 0 0 0 0 0 0 0 0 0 0 0 0 0 0 0 0 0 0 0 0 0 0 0 0 0 0 0 0 0 0 0 0 0 0 0 0 0 0 0 0 0 0 0 0 0 0 0 0 0 0 0 0 0 0 0 0 0 16.2687 14.80095 14.80077 14.78061 14.75147 14.72465 14.7029 14.67191 14.64346 14.61076 14.58162 14.55018
0 0 0 0 0 0 0 0 0 0 0 0 0 0 0 0 0 0 0 0 0 0 0 0 0 0 0 0 0 0 0 0 0 0 0 0 0 0 0 0 0 0 0 0 0 0 0 0 0 0 0 0 0 0 0 0 0 0 16.34473 15.97074 15.65863 15.78765 0 0 0 0 0 0 0 0 0 0 0 0 0 0 0 0 0 0 0 0 0 0 0 0 0 0 0 0 0 0 0 0 0 15.18067 14.8038 14.80657 14.77639 14.74613 14.70208 14.64692 14.59658 14.55329 14.51536 14.48277 14.46297 14.44177 14.41947
0 0 0 0 0 0 0 0 0 0 0 0 0 0 0 0 0 0 0 0 0 0 0 0 0 0 0 0 0 0 0 0 0 0 0 0 0 0 0 0 0 0 0 0 0 0 0 0 0 0 0 0 0 0 0 0 15.8418 15.88028 15.62113 15.40305 15.31807 15.29801 15.3808 15.58261 15.78134 15.89298 15.88442 0 0 0 0 16.15662 0 0 0 0 0 0 0 0 0 0 0 0 0 0 0 0 0 0 0 0 0 15.67839 14.75833 14.79401 14.78627 14.74655 14.69433 14.63216 14.56797 14.50738 14.46362 14.42398 14.40403 14.38491 14.36961 14.35479 14.34359
0 0 0 0 0 0 0 0 0 0 0 0 0 0 0 0 0 0 0 0 0 0 0 0 0 0 0 0 0 0 0 0 0 0 0 0 0 0 0 0 0 0 0 0 0 0 0 0 0 0 0 0 0 0 0 16.01029 15.62422 15.31772 15.1244 14.85877 14.92016 14.94361 15.1174 15.24601 15.38204 15.47066 15.54379 15.73212 15.92857 15.88435 15.82602 15.56866 15.36133 15.40983 15.55813 15.3042 15.31109 0 0 0 0 0 0 0 0 0 0 0 0 0 0 0 15.07824 14.77938 14.77999 14.76678 14.73299 14.67592 14.60501 14.52915 14.46066 14.3965 14.35096 14.32352 14.31539 14.30869 14.30928 14.30904 14.31515
0 0 0 0 0 0 0 0 0 0 0 0 0 0 0 0 0 0 0 0 0 0 0 0 0 0 0 0 0 0 0 0 0 0 0 0 0 0 0 0 0 0 0 0 0 0 0 0 0 0 0 15.63397 15.78656 15.97648 15.75896 15.35003 15.12844 14.86055 14.73846 14.80771 14.86473 14.88769 14.88195 15.05751 15.02974 15.20607 15.18335 15.17513 15.20097 15.10363 14.99921 15.0256 14.89069 15.07944 15.10322 15.28187 0 0 0 0 0 0 0 0 0 0 0 0 0 0 0 0 14.77652 14.77696 14.7486 14.70549 14.64468 14.56672 14.4897 14.4155 14.36227 14.32017 14.29494 14.27984 14.28019 14.28189 14.28551 14.29143 14.2981
0 0 0 0 0 0 0 0 0 0 0 0 0 0 0 0 0 0 0 0 0 0 0 0 0 0 0 0 0 0 0 0 0 0 0 0 0 0 0 0 0 0 0 0 0 0 0 0 0 0 15.82318 15.66746 15.44787 15.42455 15.33479 15.0558 14.71892 14.79767 14.65772 14.71709 14.75663 14.77671 14.78391 14.96881 14.95277 15.14293 15.13372 15.13622 14.98476 14.85263 14.8879 14.92597 14.79469 14.98392 15.00494 15.20534 15.21166 15.04051 15.0517 15.40707 15.84295 16.57118 0 0 0 0 0 0 0 15.62395 15.13162 14.7812 14.78899 14.75608 14.68978 14.62574 14.55344 14.48013 14.41307 14.35574 14.31287 14.28755 14.27461 14.27055 14.27429 14.28084 14.29337 14.30483 14.31439
0 0 0 0 0 0 0 0 0 0 0 0 0 0 0 0 0 0 0 0 0 0 0 0 0 0 0 0 0 0 0 0 0 0 0 0 0 0 0 0 0 0 0 0 0 0 0 0 0 16.65733 15.52484 15.44308 15.39315 15.10339 14.939 14.7789 14.83313 14.68112 14.72362 14.76958 14.80357 14.82335 14.83483 15.0393 15.04762 15.05708 15.066 15.07096 15.06551 14.90085 14.93314 14.79201 14.65333 14.66659 14.6788 14.69747 14.70931 14.72836 14.75161 14.75795 15.12054 15.63896 0 15.43144 15.96169 16.45011 16.72268 16.46757 15.98396 14.77142 14.79364 14.79509 14.76104 14.69263 14.59779 14.52058 14.45202 14.39518 14.34559 14.31329 14.29198 14.2866 14.28292 14.28738 14.2897 14.30226 14.31559 14.32481 14.3353
0 0 0 0 0 0 0 0 0 0 0 0 0 0 0 0 0 0 0 0 0 0 0 0 0 0 0 0 0 0 0 0 0 0 0 0 0 0 0 0 0 0 0 0 0 0 0 0 0 16.33422 15.49098 15.21518 14.91624 14.78626 14.84019 14.68259 14.72274 14.76919 14.81184 14.84189 14.87408 14.88976 14.89848 14.90433 14.90998 14.75539 14.619 14.76965 14.76463 14.7694 14.77696 14.62886 14.62912 14.63294 14.64574 14.65775 14.67404 14.69062 14.71272 14.72856 14.74701 14.76717 14.7726 14.78676 14.81437 14.82118 15.75155 15.92519 15.5404 14.76358 14.74932 14.71038 14.66199 14.58493 14.51164 14.44741 14.39168 14.34646 14.31506 14.30167 14.30296 14.30781 14.31517 14.32058 14.33202 14.34137 14.35184 14.35863 14.37265
0 0 0 0 0 0 0 0 0 0 0 0 0 0 0 0 0 0 0 0 0 0 0 0 0 0 0 0 0 0 0 0 0 0 0 0 0 0 0 0 0 0 0 0 0 0 0 0 0 16.07631 15.42624 15.1288 14.79743 14.86493 14.71127 14.76049 14.81603 14.85958 14.89118 14.91758 14.7483 14.76226 14.76906 14.77535 14.77447 14.61826 14.62474 14.62171 14.60219 14.59467 14.59652 14.59491 14.59494 14.59682 14.60417 14.60926 14.61358 14.62264 14.63835 14.65592 14.67413 14.69226 14.70649 14.72014 14.74072 14.75775 14.76671 14.7548 14.73064 14.69399 14.65577 14.60784 14.54988 14.48098 14.42628 14.38442 14.35341 14.31877 14.3166 14.32232 14.32982 14.33892 14.35185 14.35895 14.37285 14.38345 14.39013 14.40202 14.4122
0 0 0 0 0 0 0 0 0 0 0 0 0 0 0 0 0 0 0 0 0 0 0 0 0 0 0 0 0 0 0 0 0 0 0 0 0 0 0 0 0 0 0 0 0 0 0 0 0 16.00573 15.3144 15.00274 14.86905 14.72505 14.79282 14.86403 14.72915 14.75787 14.59218 14.59695 14.60345 14.60624 14.60682 14.60699 14.60768 14.60358 14.60717 14.59803 14.57977 14.55427 14.54717 14.53631 14.52288 14.51899 14.52794 14.51955 14.52425 14.53544 14.55096 14.56947 14.5847 14.59152 14.59331 14.60014 14.61232 14.62845 14.63261 14.62119 14.59125 14.56307 14.52694 14.48986 14.44751 14.40872 14.37872 14.35088 14.33614 14.327 14.33518 14.34815 14.36558 14.38001 14.39783 14.4052 14.41509 14.42326 14.43159 14.43481 14.44212
0 0 0 0 0 0 0 0 0 0 0 0 0 0 0 0 0 0 0 0 0 0 0 0 0 0 0 0 0 0 0 0 0 0 0 0 0 0 0 0 0 0 0 0 0 0 0 0 0 15.87921 15.36101 15.0414 14.91731 14.77491 14.84502 14.71618 14.58135 14.60458 14.61835 14.61831 14.61562 14.60345 14.59531 14.59153 14.58508 14.57993 14.57315 14.56228 14.5468 14.52668 14.51629 14.50024 14.48171 14.46856 14.45366 14.43267 14.42217 14.42599 14.43909 14.45626 14.46534 14.46346 14.45935 14.46324 14.48327 14.50687 14.51824 14.51028 14.47863 14.44583 14.41718 14.39247 14.37161 14.35887 14.34865 14.34347 14.34944 14.35879 14.36799 14.38237 14.39837 14.41816 14.4341 14.44529 14.4527 14.45889 14.46492 14.47249 14.48028
0 0 0 0 0 0 0 0 0 0 0 0 0 0 0 0 0 0 0 0 0 0 0 0 0 0 0 0 0 0 0 0 0 0 0 0 0 0 0 0 0 0 0 0 0 0 0 0 0 15.92212 15.1642 14.85205 14.96406 14.8309 14.90164 14.74237 14.60013 14.61058 14.60999 14.59961 14.58302 14.57026 14.55843 14.55193 14.54523 14.5335 14.51656 14.50059 14.47895 14.4566 14.43632 14.41629 14.39787 14.38764 14.3755 14.36577 14.36433 14.36575 14.36866 14.37112 14.36735 14.36957 14.36994 14.37177 14.37527 14.3858 14.39025 14.38291 14.37466 14.36231 14.35032 14.34171 14.33738 14.34152 14.34984 14.35907 14.37269 14.38677 14.40281 14.4144 14.42777 14.44796 14.46704 14.48132 14.48539 14.49054 14.49235 14.49976 14.50878
0 0 0 0 0 0 0 0 0 0 0 0 0 0 0 0 0 0 0 0 0 0 0 0 0 0 0 0 0 0 0 0 0 0 0 0 0 0 0 0 0 0 0 0 0 0 0 0 0 15.43155 15.20834 14.87662 14.79126 14.69413 14.75878 14.60024 14.60804 14.60231 14.59336 14.57168 14.55023 14.5323 14.51984 14.51055 14.49822 14.4836 14.46784 14.45212 14.43191 14.4058 14.37678 14.34914 14.33322 14.31853 14.30763 14.29635 14.28637 14.28592 14.29306 14.30047 14.30171 14.30606 14.31363 14.31878 14.32299 14.32389 14.32368 14.31539 14.30822 14.30184 14.29681 14.30734 14.31994 14.33736 14.35536 14.37486 14.39359 14.40879 14.42852 14.44275 14.45531 14.47348 14.49009 14.50896 14.517 14.52222 14.52536 14.53331 14.54431
0 0 0 0 0 0 0 0 0 0 0 0 0 0 0 0 0 0 0 0 0 0 0 0 0 0 0 0 0 0 0 0 0 0 0 0 0 0 0 0 0 0 0 0 0 0 0 0 0 0 14.97449 14.93368 14.85176 14.57013 14.60997 14.60315 14.60614 14.59286 14.57366 14.55239 14.52211 14.49985 14.48256 14.47109 14.45758 14.44335 14.43247 14.41603 14.39356 14.37117 14.33968 14.31617 14.30295 14.29024 14.27505 14.2647 14.25588 14.25237 14.25323 14.26189 14.26201 14.26688 14.26818 14.27124 14.27639 14.2788 14.27764 14.27641 14.27283 14.27483 14.28335 14.2986 14.31813 14.33913 14.36392 14.39153 14.41377 14.43349 14.45252 14.46972 14.48561 14.50159 14.51741 14.53537 14.54572 14.54897 14.55509 14.56515 14.57504
0 0 0 0 0 0 0 0 0 0 0 0 0 0 0 0 0 0 0 0 0 0 0 0 0 0 0 0 0 0 0 0 0 0 0 0 0 0 0 0 0 0 0 0 0 0 0 0 0 0 15.10465 14.74917 14.51063 14.58105 14.60472 14.60954 14.60265 14.57966 14.55573 14.52384 14.49414 14.47116 14.45303 14.44647 14.43801 14.42572 14.41247 14.39404 14.37481 14.35307 14.33003 14.30788 14.29551 14.27839 14.26076 14.24894 14.24083 14.23889 14.24155 14.24493 14.24754 14.25213 14.25631 14.25841 14.2571 14.26218 14.261 14.26473 14.26386 14.26774 14.2776 14.29719 14.32099 14.34839 14.38163 14.40789 14.43577 14.45609 14.47769 14.49619 14.51165 14.52787 14.5457 14.5604 14.57205 14.58072 14.58955 14.59826 14.61483
0 0 0 0 0 0 0 0 0 0 0 0 0 0 0 0 0 0 0 0 0 0 0 0 0 0 0 0 0 0 0 0 0 0 0 0 0 0 0 0 0 0 0 0 0 0 0 0 0 0 0 0 14.52041 14.56785 14.59319 14.60264 14.60453 14.57384 14.54012 14.50811 14.47461 14.44533 14.43266 14.4258 14.41814 14.41457 14.40761 14.39233 14.37602 14.35855 14.33518 14.31468 14.29561 14.2807 14.26312 14.24924 14.23745 14.23507 14.2341 14.23621 14.24026 14.24568 14.24703 14.25003 14.25418 14.25803 14.25979 14.26353 14.26911 14.27711 14.28885 14.30707 14.33289 14.36769 14.39973 14.43295 14.46573 14.48712 14.50414 14.52348 14.53794 14.55554 14.57221 14.58326 14.59782 14.60635 14.6182 14.63049 14.64815
0 0 0 0 0 0 0 0 0 0 0 0 0 0 0 0 0 0 0 0 0 0 0 0 0 0 0 0 0 0 0 0 0 0 0 0 0 0 0 0 0 0 0 0 0 0 0 0 0 0 16.60468 15.1202 14.73388 14.58189 14.60025 14.60527 14.59279 14.55981 14.52548 14.49279 14.46562 14.44429 14.43181 14.42634 14.4233 14.42174 14.41807 14.40204 14.39163 14.38081 14.3581 14.33493 14.31244 14.29636 14.28424 14.26709 14.25538 14.24792 14.24323 14.24686 14.24968 14.24973 14.25602 14.25378 14.25791 14.26363 14.26668 14.26834 14.28009 14.29178 14.30953 14.33531 14.36475 14.3981 14.4335 14.46765 14.49506 14.51479 14.53475 14.54859 14.56368 14.57883 14.59714 14.61274 14.62554 14.63651 14.65018 14.67225 14.69113
0 0 0 0 0 0 0 0 0 0 0 0 0 0 0 0 0 0 0 0 0 0 0 0 0 0 0 0 0 0 0 0 0 0 0 0 0 0 0 0 0 0 0 0 0 0 0 0 0 0 15.98405 15.13895 14.96035 14.59397 14.60038 14.59343 14.58111 14.54664 14.51862 14.49467 14.47683 14.45891 14.44915 14.44804 14.44659 14.45468 14.44965 14.43566 14.42926 14.40817 14.38077 14.35741 14.33388 14.31767 14.30267 14.28688 14.28056 14.27234 14.26439 14.2621 14.26486 14.26732 14.26849 14.27187 14.27396 14.27864 14.28467 14.29223 14.30143 14.31791 14.3425 14.37487 14.40661 14.44361 14.47721 14.50859 14.53536 14.55479 14.57264 14.58882 14.6036 14.6155 14.6331 14.64718 14.65746 14.66881 14.68661 14.70982 14.73545
0 0 0 0 0 0 0 0 0 0 0 0 0 0 0 0 0 0 0 0 0 0 0 0 0 0 0 0 0 0 0 0 0 0 0 0 0 0 0 0 0 0 0 0 0 0 0 0 0 0 0 15.17258 14.78063 14.61445 14.60554 14.59133 14.57766 14.55225 14.53047 14.51425 14.49533 14.47957 14.47523 14.47959 14.48397 14.48873 14.48839 14.48169 14.46733 14.44802 14.42095 14.39602 14.37409 14.35283 14.32905 14.31174 14.30118 14.29443 14.2913 14.29108 14.29056 14.29435 14.29758 14.2987 14.3049 14.31182 14.3187 14.32837 14.34607 14.36939 14.3987 14.4302 14.46379 14.49719 14.52915 14.55809 14.58228 14.59861 14.61478 14.63105 14.6466 14.66087 14.67641 14.69168 14.70108 14.71382 14.73072 14.75631 14.78574
0 0 0 0 0 0 0 0 0 0 0 0 0 0 0 0 0 0 0 0 0 0 0 0 0 0 0 0 0 0 0 0 0 0 0 0 0 0 0 0 0 0 0 0 0 0 0 0 0 0 0 14.97872 14.61496 14.62964 14.61153 14.58846 14.57938 14.55745 14.54106 14.53312 14.52453 14.52415 14.52886 14.53527 14.53657 14.54012 14.54115 14.53361 14.51621 14.48793 14.46283 14.43733 14.41053 14.38652 14.36856 14.34439 14.33019 14.32086 14.32385 14.32518 14.3279 14.33474 14.33621 14.34319 14.34898 14.35577 14.36384 14.38129 14.40294 14.42946 14.46476 14.49815 14.53338 14.56292 14.59391 14.61712 14.63939 14.65688 14.67356 14.68162 14.68783 14.70058 14.71415 14.72718 14.74152 14.75547 14.77682 14.80366 14.83165
0 0 0 0 0 0 0 0 0 0 0 0 0 0 0 0 0 0 0 0 0 0 0 0 0 0 0 0 0 0 0 0 0 0 0 0 0 0 0 0 0 0 0 0 0 0 0 0 0 0 0 14.6506 14.65066 14.64501 14.61708 14.59267 14.57974 14.5602 14.5539 14.55165 14.55295 14.56474 14.5783 14.58373 14.59335 14.61012 14.60693 14.59619 14.5775 14.55269 14.52242 14.49007 14.45909 14.43065 14.40744 14.38105 14.36111 14.35321 14.35345 14.35852 14.36767 14.38025 14.3883 14.39716 14.40625 14.41894 14.43361 14.45473 14.47971 14.50931 14.54096 14.57019 14.59662 14.62657 14.65043 14.67377 14.6965 14.71203 14.72642 14.73527 14.74077 14.74763 14.75908 14.77295 14.78567 14.80224 14.82321 14.84768 14.87221
0 0 0 0 0 0 0 0 0 0 0 0 0 0 0 0 0 0 0 0 0 0 0 0 0 0 0 0 0 0 0 0 0 0 0 0 0 0 0 0 0 0 0 0 0 0 0 0 0 16.52847 15.59783 14.69797 14.67955 14.6535 14.62913 14.60239 14.5872 14.56602 14.57413 14.58302 14.59782 14.61699 14.62961 14.64103 14.64966 14.66091 14.6578 14.65456 14.63396 14.61144 14.58222 14.55267 14.52531 14.49411 14.45271 14.43753 14.41626 14.40517 14.4049 14.41007 14.42121 14.42942 14.4385 14.4481 14.46119 14.47721 14.49794 14.52619 14.55592 14.5891 14.6214 14.6509 14.67073 14.69333 14.71698 14.73812 14.75667 14.7708 14.77986 14.78401 14.78958 14.79683 14.80526 14.81734 14.83222 14.84938 14.8669 14.88871 14.90907
0 0 0 0 0 0 0 0 0 0 0 0 0 0 0 0 0 0 0 0 0 0 0 0 0 0 0 0 0 0 0 0 0 0 0 0 0 0 0 0 0 0 0 0 0 0 0 0 15.65673 15.17906 14.94123 14.72631 14.69733 14.66456 14.63246 14.61555 14.60474 14.5945 14.60209 14.62192 14.64423 14.66559 14.68475 14.70019 14.71224 14.71897 14.72377 14.71944 14.70468 14.67697 14.64593 14.61319 14.57717 14.54682 14.51335 14.49617 14.48326 14.47136 14.47263 14.47645 14.48413 14.49694 14.50214 14.51744 14.53328 14.55341 14.57232 14.59653 14.62346 14.65233 14.6821 14.70547 14.72916 14.75267 14.77183 14.79333 14.81227 14.82838 14.8415 14.84527 14.84979 14.85856 14.86345 14.86951 14.87672 14.88764 14.90398 14.921 14.93808
0 0 0 0 0 0 0 0 0 0 0 0 0 0 0 0 0 0 0 0 0 0 0 0 0 0 0 0 0 0 0 0 0 0 0 0 0 0 0 0 0 0 0 0 0 15.30495 15.17932 15.709 15.23529 15.25572 15.00527 14.7622 14.72429 14.68431 14.65639 14.64295 14.63539 14.63488 14.63924 14.65577 14.67712 14.70026 14.73082 14.74736 14.76198 14.77187 14.78189 14.78292 14.7659 14.74632 14.71325 14.68319 14.64841 14.62087 14.59199 14.56712 14.54758 14.5345 14.53083 14.53152 14.53788 14.54914 14.56358 14.58139 14.6037 14.62537 14.64582 14.66981 14.69558 14.72102 14.74614 14.76998 14.7933 14.81473 14.83324 14.85053 14.86639 14.88312 14.89736 14.9037 14.90872 14.91531 14.92227 14.92667 14.92774 14.93534 14.94288 14.95718 14.97373
0 0 0 0 0 0 0 0 0 0 0 0 0 0 0 0 0 0 0 0 0 0 0 0 0 0 0 0 0 0 0 0 0 0 0 0 0 0 0 0 0 0 17.26598 16.97948 16.00053 15.24591 14.79403 14.81856 15.31031 15.05709 14.82452 14.79072 14.75121 14.71271 14.69707 14.68778 14.67997 14.68046 14.68809 14.70388 14.73037 14.75697 14.78236 14.80592 14.81966 14.83368 14.84193 14.83643 14.81938 14.79639 14.7675 14.73989 14.71087 14.68512 14.65661 14.63341 14.61052 14.60433 14.59892 14.60309 14.6125 14.62357 14.63927 14.65833 14.67603 14.69539 14.71319 14.72985 14.75419 14.7784 14.80119 14.8257 14.85021 14.87481 14.89374 14.91556 14.93218 14.94749 14.96296 14.97716 14.97926 14.98038 14.97926 14.97769 14.97591 14.97671 14.98247 14.99364 15.00861
0 0 0 0 0 0 0 0 0 0 0 0 0 0 0 0 0 0 0 0 0 0 0 0 0 0 0 0 0 0 0 0 0 0 0 0 0 0 0 0 16.36193 16.74372 17.03952 16.07635 15.31839 14.82976 14.8575 14.87962 14.87714 14.85881 14.84035 14.81693 14.77904 14.74786 14.72678 14.71533 14.71626 14.71635 14.73088 14.75178 14.78442 14.81303 14.84067 14.86076 14.87836 14.89131 14.8963 14.89312 14.88196 14.86469 14.84045 14.8145 14.7873 14.75864 14.72659 14.69772 14.67152 14.65642 14.66139 14.66744 14.67886 14.68687 14.70824 14.73093 14.75028 14.76719 14.78657 14.80594 14.8204 14.83851 14.86075 14.8802 14.90086 14.92422 14.94449 14.9674 14.98625 15.00299 15.01817 15.03109 15.0381 15.04082 15.03814 15.03304 15.03047 15.02838 15.03016 15.04097 15.05569
0 0 0 0 0 0 0 0 0 0 0 0 0 0 0 0 0 0 0 0 0 0 0 0 0 0 0 0 0 0 0 0 0 0 0 0 0 0 0 16.57004 16.32968 15.80429 15.59402 14.8357 14.8528 14.87154 14.88472 14.90426 14.90131 14.87929 14.84504 14.82573 14.80049 14.77431 14.7603 14.75582 14.75978 14.77805 14.79281 14.82513 14.85252 14.88086 14.90083 14.91219 14.93287 14.9513 14.95651 14.95626 14.94648 14.93392 14.91627 14.89006 14.86408 14.83791 14.80755 14.78184 14.75998 14.74166 14.73785 14.73827 14.74565 14.75358 14.76716 14.78903 14.80823 14.82661 14.84555 14.86451 14.87902 14.89479 14.91609 14.93779 14.95819 14.98264 15.00313 15.02809 15.04783 15.06191 15.07395 15.08419 15.08901 15.08815 15.08448 15.07881 15.07643 15.07381 15.0772 15.08902 15.09847
0 0 0 0 0 0 0 0 0 0 0 0 0 0 0 0 0 0 0 0 0 0 0 0 0 0 0 0 0 0 0 0 0 0 0 0 0 0 15.81627 15.55708 15.33815 14.86682 14.89173 14.90218 14.90254 14.90649 14.90968 14.91809 14.90577 14.89216 14.87017 14.85766 14.84551 14.81846 14.80959 14.80052 14.81316 14.82991 14.85532 14.88935 14.9182 14.94547 14.96135 14.97201 14.99036 15.0063 15.01782 15.02553 15.01784 15.0016 14.98528 14.95878 14.9309 14.90482 14.87396 14.84901 14.82937 14.81284 14.80931 14.80897 14.81717 14.82863 14.84231 14.86172 14.87943 14.8961 14.91498 14.92521 14.94085 14.95711 14.96862 14.98807 15.00951 15.03485 15.05777 15.08298 15.09958 15.11641 15.12394 15.13518 15.13753 15.13742 15.13431 15.12933 15.12619 15.12581 15.13137 15.14069 15.14734
0 0 0 0 0 0 0 0 0 0 0 0 0 0 0 0 0 0 0 0 0 0 0 0 0 0 0 0 0 0 0 0 0 0 17.43629 18.03485 17.19256 15.6007 14.83926 14.86756 14.89575 14.90616 14.91789 14.91772 14.9221 14.91406 14.92152 14.93166 14.94042 14.93347 14.91729 14.91264 14.90588 14.89604 14.88813 14.8895 14.89892 14.90883 14.93287 14.95143 14.97601 14.99474 15.00971 15.02076 15.03792 15.06183 15.07814 15.0908 15.08736 15.08043 15.06534 15.04104 15.01434 14.98571 14.95649 14.93112 14.91237 14.89584 14.88368 14.88218 14.88375 14.89255 14.90836 14.92388 14.94212 14.95842 14.9733 14.98695 15.00132 15.01607 15.03142 15.04951 15.07275 15.09681 15.12122 15.14057 15.15395 15.16306 15.1693 15.17282 15.17668 15.17481 15.17136 15.17108 15.1739 15.17698 15.1879 15.20036 15.20596
0 0 0 0 0 0 0 0 0 0 0 0 0 0 0 0 0 0 0 0 0 0 0 0 0 0 0 0 0 17.90169 17.50454 17.30426 17.30001 17.08357 16.79342 16.22525 14.8677 14.88302 14.89939 14.91934 14.92383 14.92513 14.93019 14.93306 14.94901 14.94634 14.9503 14.95031 14.95601 14.95676 14.96086 14.9584 14.95521 14.95633 14.95163 14.9607 14.97572 14.98839 15.01314 15.02449 15.03983 15.05744 15.06739 15.07842 15.09341 15.11355 15.13221 15.14225 15.14129 15.13586 15.12413 15.10495 15.08282 15.06311 15.03401 15.01172 14.99551 14.98182 14.97838 14.97708 14.97698 14.98203 14.99293 15.00415 15.01739 15.02567 15.03744 15.04969 15.06057 15.07127 15.08164 15.101 15.12852 15.15296 15.17603 15.1933 15.20242 15.20947 15.21726 15.22146 15.22431 15.22284 15.22263 15.22368 15.22602 15.23379 15.24064 15.25106 15.24027
0 0 0 0 0 0 0 0 0 0 0 0 0 0 0 0 0 0 0 0 0 0 0 0 0 17.72111 17.02459 17.0416 16.13863 15.52181 15.22767 14.94431 14.9353 14.94046 14.92767 14.90983 14.90307 14.90949 14.92086 14.93135 14.93838 14.94485 14.95334 14.95719 14.95414 14.9438 14.95181 14.96722 14.97775 14.99259 15.00635 15.01527 15.01553 15.01231 15.00764 15.02132 15.03024 15.04794 15.05589 15.07362 15.08932 15.1008 15.11473 15.12917 15.14195 15.1649 15.18443 15.19748 15.20194 15.20143 15.19531 15.17639 15.15759 15.13991 15.11669 15.09647 15.07724 15.06237 15.06236 15.05796 15.0533 15.05792 15.06962 15.0796 15.08949 15.0987 15.11145 15.11997 15.12748 15.14247 15.15287 15.16801 15.18856 15.20793 15.22767 15.23909 15.24759 15.25168 15.25863 15.26372 15.26513 15.26847 15.27175 15.27865 15.28645 15.29518 15.30347 15.29464 15.2571
0 0 0 0 0 0 0 0 0 0 0 0 0 0 0 0 0 0 0 0 0 0 0 17.88859 17.06576 16.50789 16.21725 15.91657 15.0229 15.01224 14.99548 14.98445 14.97409 14.95517 14.93892 14.92558 14.92781 14.93475 14.95096 14.95707 14.95117 14.95701 14.94872 14.94463 14.94515 14.95411 14.96361 14.97744 15.00034 15.0256 15.05652 15.0605 15.06026 15.07029 15.06946 15.07351 15.08419 15.10228 15.11164 15.12313 15.14218 15.15102 15.15816 15.16809 15.18691 15.2108 15.22942 15.24245 15.24859 15.25362 15.24942 15.2385 15.22975 15.21387 15.19916 15.18844 15.17541 15.16827 15.1609 15.14898 15.14411 15.141 15.14579 15.15116 15.15827 15.16197 15.16847 15.17573 15.18554 15.20193 15.21457 15.23229 15.2524 15.2678 15.28242 15.29353 15.29904 15.30416 15.30573 15.31337 15.31554 15.31915 15.32476 15.33283 15.34018 15.34575 15.33977 15.31538 15.26031
0 0 0 0 0 0 0 0 0 0 0 0 0 0 0 0 0 0 0 0 0 0 17.32701 16.47945 16.20387 16.23084 15.92209 15.60607 15.01751 15.00722 14.99983 14.98753 14.97817 14.96129 14.96411 14.95904 14.95126 14.9371 14.92979 14.95028 14.94585 14.95033 14.95552 14.95655 14.95724 14.97739 14.9891 15.00685 15.03312 15.05993 15.07637 15.08476 15.09405 15.09711 15.10843 15.11592 15.12398 15.13477 15.14888 15.16232 15.17829 15.18564 15.1988 15.20804 15.22555 15.25195 15.27683 15.28834 15.29876 15.30261 15.30369 15.29097 15.2889 15.27859 15.27147 15.25928 15.24729 15.24447 15.24159 15.23265 15.2302 15.22532 15.22548 15.23044 15.23435 15.23656 15.24473 15.25289 15.26077 15.27055 15.27799 15.29185 15.30695 15.31821 15.32993 15.33707 15.34126 15.34557 15.34914 15.35533 15.36562 15.37325 15.38186 15.3882 15.39544 15.3957 15.37631 15.33143 15.25487
0 0 0 0 0 0 0 0 0 0 0 0 0 0 0 0 0 0 0 0 0 18.49662 17.53159 16.47285 15.88098 15.90206 15.5994 15.60202 15.01339 14.9989 14.9888 14.97251 14.96089 14.955 14.94958 14.93725 14.92702 14.92185 14.92964 14.94247 14.95168 14.95875 14.9641 14.97564 14.98515 15.00479 15.02498 15.04617 15.06299 15.08142 15.09814 15.11361 15.12708 15.13538 15.15625 15.16692 15.1666 15.17194 15.18181 15.19546 15.20327 15.21421 15.22208 15.2351 15.25497 15.28467 15.30945 15.32326 15.33738 15.34709 15.35559 15.34997 15.34918 15.34688 15.34542 15.34011 15.33282 15.32803 15.31854 15.30497 15.29364 15.28994 15.28497 15.29 15.29471 15.30208 15.31347 15.32507 15.33451 15.34319 15.34903 15.3595 15.36936 15.37735 15.38251 15.38987 15.39295 15.39519 15.39491 15.4017 15.40707 15.41009 15.41813 15.42872 15.4333 15.42796 15.39458 15.33392 15.24591
0 0 0 0 0 0 0 0 0 0 0 0 0 0 0 0 0 0 0 0 0 0 0 17.05643 16.20058 15.89403 15.5883 15.30086 14.99088 14.98353 14.97169 14.96386 14.95756 14.94396 14.93465 14.93278 14.92895 14.92789 14.92792 14.95234 14.96331 14.9726 14.98989 15.00104 15.00942 15.03037 15.05017 15.06746 15.08527 15.10253 15.12012 15.13706 15.15417 15.16998 15.18749 15.20094 15.21183 15.21639 15.22057 15.23032 15.24078 15.25122 15.25438 15.26854 15.29044 15.3119 15.33648 15.35417 15.36984 15.38067 15.38864 15.39018 15.39478 15.40465 15.40899 15.40903 15.40848 15.40198 15.39435 15.38415 15.375 15.37231 15.36868 15.37039 15.37346 15.38125 15.3913 15.39784 15.40045 15.40181 15.40711 15.41644 15.42172 15.42536 15.431 15.44112 15.44937 15.45283 15.45242 15.45402 15.45681 15.46235 15.46932 15.47711 15.47461 15.45429 15.40907 15.33455 15.24627
0 0 0 0 0 0 0 0 0 0 0 0 0 0 0 0 0 0 0 0 0 18.94154 18.64587 17.68043 16.23518 15.91175 15.58263 15.59475 15.26551 14.97613 14.96142 14.9516 14.95008 14.94315 14.92934 14.9153 14.92508 14.93963 14.94698 14.96089 14.97429 14.98546 14.99969 15.01126 15.02358 15.05129 15.0627 15.08843 15.11943 15.14077 15.15975 15.17818 15.18965 15.20395 15.2168 15.24092 15.25142 15.25594 15.25708 15.26311 15.26455 15.2802 15.29177 15.30665 15.32577 15.34585 15.371 15.39194 15.40611 15.41625 15.4259 15.4354 15.44393 15.45757 15.46281 15.46534 15.46546 15.45742 15.44852 15.44063 15.43806 15.4398 15.44732 15.45102 15.45787 15.4639 15.47331 15.47616 15.47682 15.47728 15.47816 15.47655 15.48091 15.48863 15.491 15.49604 15.50155 15.50241 15.5017 15.50116 15.50196 15.50376 15.51088 15.51349 15.50535 15.47574 15.42291 15.347 15.24855
0 0 0 0 0 0 0 0 0 0 0 0 0 0 0 0 0 0 0 18.93508 18.88811 18.81318 18.00388 16.91988 16.26608 15.94027 15.61534 15.90911 14.99899 14.97091 14.95326 14.94614 14.9438 14.93862 14.91914 14.91468 14.91847 14.93359 14.96602 14.97795 14.98523 14.99255 15.00475 15.02311 15.03936 15.06279 15.09016 15.11206 15.14229 15.17057 15.19188 15.22008 15.23894 15.25435 15.27107 15.28509 15.29941 15.29975 15.30374 15.29299 15.29639 15.30318 15.32091 15.33497 15.35068 15.36576 15.38971 15.41356 15.42661 15.44048 15.45641 15.47305 15.49355 15.50529 15.51686 15.52291 15.5283 15.52675 15.52312 15.51742 15.5188 15.52159 15.52673 15.53076 15.53105 15.53309 15.53613 15.53589 15.53579 15.53708 15.53514 15.54018 15.54672 15.55307 15.55708 15.56097 15.56692 15.56826 15.56491 15.56477 15.56141 15.55764 15.55282 15.5478 15.52871 15.49381 15.44182 15.35524 15.25705
0 0 0 0 0 0 0 0 0 0 0 0 0 0 0 0 0 0 18.42028 18.32379 18.02176 17.58825 17.00038 16.33621 16.01366 15.981 15.65247 15.32528 15.01075 14.96788 14.94848 14.93425 14.93466 14.92725 14.92248 14.92831 14.93128 14.94887 14.98235 15.00422 15.01564 15.02405 15.04011 15.0559 15.06987 15.09171 15.1142 15.14304 15.17635 15.20475 15.23982 15.26492 15.28627 15.31098 15.32519 15.34159 15.34991 15.35187 15.35203 15.3542 15.35124 15.35601 15.36391 15.3702 15.38588 15.40038 15.41979 15.43351 15.44603 15.46362 15.48503 15.50292 15.51979 15.53667 15.55401 15.56566 15.57815 15.5877 15.59385 15.59748 15.60391 15.61025 15.61675 15.62036 15.6186 15.61604 15.60658 15.60143 15.59779 15.59695 15.59441 15.59476 15.59651 15.60253 15.60932 15.61643 15.61999 15.6222 15.62299 15.6177 15.61204 15.60587 15.59929 15.58554 15.56575 15.52538 15.46507 15.38226 15.29434
0 0 0 0 0 0 0 0 0 0 0 0 0 0 0 0 0 18.81056 18.28183 17.75012 17.29635 16.69921 16.3826 16.37365 16.36697 16.0003 15.65209 15.03408 14.99898 14.96256 14.94639 14.95071 14.94487 14.92645 14.92591 14.94145 14.94479 14.97221 15.00022 15.02173 15.0373 15.04692 15.05958 15.09154 15.10472 15.12983 15.15252 15.17955 15.21161 15.24784 15.28168 15.3176 15.34159 15.35828 15.37238 15.3822 15.39152 15.38951 15.38729 15.39277 15.39747 15.40139 15.40108 15.40301 15.41448 15.43462 15.44971 15.46468 15.47098 15.4902 15.51358 15.53611 15.55489 15.5744 15.59373 15.61021 15.6257 15.6421 15.65285 15.66226 15.67135 15.6773 15.6786 15.68037 15.68231 15.67621 15.665 15.6593 15.65745 15.65389 15.6522 15.65289 15.65594 15.66279 15.66963 15.6739 15.67745 15.6729 15.66654 15.65817 15.6515 15.64407 15.63499 15.61899 15.59299 15.55055 15.49401 15.42072 15.34045
0 0 0 0 0 0 0 0 0 0 0 0 0 0 0 0 18.27373 18.25426 17.48527 16.95605 16.67697 16.37237 16.37492 16.36242 16.32887 15.99969 15.63633 15.03004 14.98288 14.95751 14.94127 14.94664 14.94562 14.94617 14.95844 14.97036 14.98538 15.00207 15.01126 15.02087 15.04472 15.06788 15.08648 15.10638 15.13417 15.16162 15.19033 15.21924 15.25388 15.29161 15.32854 15.36064 15.38859 15.40957 15.42237 15.43547 15.44015 15.44213 15.44577 15.45216 15.45041 15.45102 15.44632 15.44445 15.44839 15.45556 15.47127 15.48335 15.4928 15.51206 15.53107 15.55288 15.57704 15.60511 15.6284 15.65263 15.67334 15.69227 15.71175 15.72885 15.73925 15.74722 15.74922 15.74535 15.74413 15.73484 15.71792 15.70903 15.70217 15.69969 15.69673 15.69991 15.7006 15.70729 15.71413 15.71634 15.7205 15.71765 15.70926 15.70072 15.69297 15.68195 15.67355 15.65885 15.6295 15.59663 15.54236 15.47249 15.38836
0 0 0 0 0 0 0 0 0 0 0 0 0 0 0 18.8076 18.07739 17.41886 16.88548 16.62669 16.33923 16.3472 16.35674 16.01919 16.01123 15.67566 15.04367 15.00908 14.97371 14.95268 14.93679 14.94058 14.94785 14.95109 14.95709 14.98239 14.99159 15.01797 15.03719 15.05437 15.08357 15.10957 15.13525 15.15992 15.19084 15.22067 15.25037 15.28206 15.31496 15.34847 15.37294 15.39935 15.42077 15.44123 15.45875 15.47447 15.48169 15.49037 15.50118 15.51098 15.51107 15.50745 15.50747 15.49288 15.48459 15.48307 15.49265 15.50187 15.51425 15.53119 15.55113 15.57248 15.60022 15.6316 15.66104 15.68781 15.70972 15.73611 15.75835 15.77458 15.78955 15.79749 15.80346 15.80453 15.80251 15.79734 15.78768 15.77293 15.76204 15.75418 15.75298 15.7531 15.75121 15.753 15.75432 15.75496 15.75344 15.74905 15.74163 15.72848 15.71978 15.71563 15.70591 15.69451 15.67103 15.63876 15.59316 15.52334 15.44504
0 0 0 0 0 0 0 0 0 0 0 0 0 0 18.10446 18.1028 17.41432 16.8514 16.5601 16.26319 16.28109 15.9711 15.99292 15.98066 15.66118 15.33299 15.02613 14.99168 14.96352 14.95316 14.94343 14.94962 14.9558 14.96124 14.98479 15.00196 15.01563 15.0393 15.07442 15.10433 15.12899 15.15812 15.18903 15.22333 15.25635 15.29247 15.33007 15.36868 15.39573 15.41953 15.43518 15.45486 15.47345 15.49018 15.5058 15.52258 15.52444 15.53445 15.54394 15.55803 15.56377 15.56665 15.56617 15.55394 15.53643 15.5225 15.51932 15.52508 15.53666 15.54792 15.56495 15.59145 15.62416 15.65833 15.69861 15.73 15.76082 15.78779 15.80688 15.82071 15.8328 15.84086 15.84731 15.84945 15.85246 15.84891 15.8399 15.82484 15.81312 15.80271 15.8003 15.80065 15.79885 15.79764 15.79679 15.79343 15.78894 15.78032 15.77138 15.75912 15.74908 15.74404 15.73893 15.72696 15.70269 15.66888 15.62243 15.55805 15.47914
0 0 0 0 0 0 0 0 0 0 0 0 0 17.9583 18.11775 17.3897 16.80834 16.52421 16.22244 16.23355 15.93043 15.92968 15.9468 15.96714 15.63852 15.01602 14.99194 14.97079 14.96167 14.9614 14.96209 14.97206 14.98654 14.99974 15.0229 15.04518 15.06004 15.09293 15.12374 15.1517 15.18426 15.22517 15.26622 15.30105 15.34019 15.37722 15.41142 15.43823 15.45938 15.47791 15.49128 15.50697 15.52721 15.5411 15.5543 15.56299 15.56491 15.57473 0 0 0 15.56553 15.57814 15.62581 15.60744 15.58128 15.56041 15.5499 15.55326 15.56025 15.57538 15.60302 15.64227 15.68089 15.72072 15.76356 15.79577 15.82923 15.85112 15.86668 15.88373 15.8942 15.90091 15.90597 15.90914 15.90823 15.89724 15.88691 15.87432 15.85775 15.85149 15.84669 15.83819 15.83518 15.83346 15.82389 15.81795 15.809 15.79708 15.78801 15.7821 15.77788 15.77645 15.76456 15.74317 15.70909 15.65823 15.59125 15.50992
0 0 0 0 0 0 0 0 0 0 0 0 0 18.32762 17.42952 16.79821 16.48969 16.18453 16.2052 15.90736 15.91883 15.93 15.94933 15.02404 15.0098 14.99727 14.97682 14.96496 14.96869 14.97024 14.98391 14.99693 15.01121 15.02374 15.04115 15.06733 15.10605 15.1329 15.17932 15.2165 15.26324 15.31069 15.35012 15.39412 15.43858 15.4631 15.49163 15.51623 15.53032 15.54219 15.55202 16.30156 15.57554 15.57622 15.58574 15.94616 16.69648 17.4596 0 0 0 0 0 16.03111 15.65433 15.62691 15.5975 15.58005 15.5703 15.57566 15.59326 15.62087 15.65873 15.69973 15.74687 15.79172 15.8281 15.85762 15.88557 15.9076 15.92031 15.92931 15.93908 15.94782 15.95569 15.95725 15.95215 15.94491 15.93521 15.92503 15.91691 15.90929 15.9037 15.89352 15.88472 15.87276 15.85894 15.84539 15.8331 15.82513 15.81842 15.81305 15.80723 15.79751 15.77403 15.74201 15.68888 15.61567 15.52902
0 0 0 0 0 0 0 0 0 0 0 0 18.47831 17.68164 16.78798 16.47218 16.16007 15.89131 15.896 15.90855 15.9199 15.94478 15.6309 15.01449 15.0069 14.98584 14.97782 14.97392 14.98135 14.99536 15.0122 15.02721 15.03921 15.04887 15.06946 15.09902 15.12161 15.16898 15.22038 15.26461 15.31653 15.36772 15.41744 15.45791 15.49331 15.52247 15.53467 0 0 15.54151 0 17.18452 16.38182 15.98045 16.36019 16.34765 17.10413 17.51187 18.46571 16.32504 15.61691 0 0 0 17.23686 15.64522 15.61625 15.59994 15.58587 15.58879 15.60838 15.63706 15.67522 15.71952 15.77192 15.81211 15.85457 15.88948 15.91932 15.94546 15.96123 15.97474 15.98244 15.98409 15.99176 15.99216 15.99496 15.98933 15.98382 15.97348 15.97117 15.9644 15.95488 15.94245 15.93084 15.9191 15.90448 15.89478 15.88276 15.87259 15.86321 15.85675 15.84526 15.8356 15.81391 15.77953 15.71978 15.6418 15.54775
0 0 0 0 0 0 0 0 0 0 0 17.71324 17.68937 16.80632 16.48216 15.86939 15.88779 15.90059 15.89791 15.91463 15.94956 15.32332 15.01728 15.00724 14.99469 14.97885 14.98066 14.99048 15.00762 15.02519 15.04199 15.05424 15.06714 15.08232 15.10761 15.13907 15.1794 15.24013 15.29275 15.33985 15.39017 15.43589 15.46827 15.49975 16.27698 0 0 0 0 0 17.94512 18.70573 18.47698 17.92831 17.56444 17.13672 17.12329 15.96477 15.60473 15.61349 15.61623 15.62103 15.62449 17.59284 17.95224 15.64157 15.61979 15.60703 15.60142 15.60206 15.62293 15.65251 15.6893 15.73494 15.78733 15.83408 15.87418 15.91196 15.94896 15.97569 15.99571 16.00817 16.01653 16.0239 16.03097 16.03785 16.04127 16.04448 16.04276 16.03829 16.03147 16.01909 16.00465 15.98801 15.97511 15.96271 15.9474 15.93683 15.92567 15.91336 15.90207 15.89095 15.88166 15.86808 15.8476 15.80771 15.75268 15.67585 15.57537
0 0 0 0 0 0 0 0 0 0 18.4134 17.7038 16.80535 16.15786 15.88967 15.58769 15.58894 15.61181 15.63167 15.63996 15.64863 15.03787 15.02345 15.01541 15.00315 14.99214 14.99221 15.01351 15.03529 15.05459 15.0763 15.08769 15.10031 15.11288 15.13583 15.1794 15.23755 15.30273 15.35001 15.40082 15.45366 15.48852 15.8684 0 0 0 0 0 0 0 0 0 0 0 17.93059 17.55993 16.76066 15.60232 15.61645 15.62806 15.63143 15.6286 15.62828 15.63387 15.63787 15.64033 15.62969 15.62239 15.62604 15.63041 15.64523 15.67654 15.71454 15.75698 15.80492 15.85041 15.89462 15.93304 15.97283 15.9969 16.0187 16.0327 16.04245 16.05305 16.06317 16.07103 16.0782 16.08471 16.0849 16.08623 16.07708 16.06347 16.04778 16.03357 16.02412 16.0133 16.00116 15.98729 15.9772 15.96203 15.94836 15.93413 15.91969 15.89885 15.87185 15.82943 15.77373 15.69636 15.60015
0 0 0 0 0 0 0 0 0 0 17.95397 16.78908 16.14974 15.87138 15.2879 15.30525 15.02951 15.0362 15.038 15.04174 15.04616 15.0388 15.0308 15.02789 15.01938 15.01386 15.02985 15.05199 15.07071 15.09567 15.10799 15.11689 15.12729 15.14825 15.17761 15.22691 15.28306 15.33054 15.38462 15.43977 16.61373 0 0 0 0 0 0 0 0 0 0 0 0 0 18.5647 17.20552 15.62888 15.63183 15.64192 15.65661 15.67223 15.67091 15.66133 15.65376 15.65004 15.65188 15.64649 15.64737 15.64853 15.65534 15.67197 15.69827 15.73129 15.77446 15.82387 15.87353 15.91787 15.95811 15.99325 16.02209 16.04009 16.05588 16.0685 16.08323 16.09636 16.10219 16.1101 16.11823 16.11985 16.11523 16.10816 16.09299 16.07788 16.06647 16.05876 16.05004 16.04147 16.03498 16.02259 16.01264 16.00025 15.98349 15.96596 15.93609 15.90209 15.85565 15.79507 15.71839 15.62555
0 0 0 0 0 0 0 0 0 18.03242 17.44093 16.46173 15.83693 15.25537 15.01116 15.01803 15.0077 15.01384 15.02589 15.03952 15.03831 15.03521 15.04181 15.03894 15.03286 15.03501 15.05438 15.0723 15.10379 15.11678 15.12924 15.14245 15.15553 15.17846 15.21541 15.2736 15.31638 15.37081 15.42681 16.19635 16.41967 0 0 0 0 0 0 0 0 0 0 0 0 17.85256 17.62373 16.41006 15.64501 15.6529 15.67101 15.69274 15.70729 15.70852 15.7021 15.68837 15.68106 15.68742 15.68267 15.68 15.68152 15.68326 15.7005 15.72501 15.75521 15.7992 15.8434 15.88829 15.93574 15.97599 16.01204 16.0393 16.06 16.0762 16.09038 16.10729 16.12617 16.13617 16.14191 16.14975 16.15289 16.1482 16.14235 16.13015 16.11205 16.10176 16.09356 16.08663 16.08284 16.07488 16.06197 16.05205 16.03749 16.02089 15.9966 15.96039 15.92107 15.87126 15.80922 15.73289 15.64301
0 0 0 0 0 0 0 0 18.98627 17.77773 16.43426 15.80494 15.49409 14.9564 14.96143 14.97351 14.98596 14.99609 15.00659 15.01696 15.03478 15.04922 15.05603 15.05163 15.05365 15.06955 15.09396 15.10859 15.12786 15.14045 15.14927 15.15857 15.17878 15.20555 15.25064 15.30626 15.3435 15.39205 15.78631 16.19637 16.62764 17.44417 0 18.27819 18.86216 0 0 0 0 0 0 0 18.61495 17.6284 16.83102 15.6454 15.65763 15.67868 15.70403 15.72403 15.73082 15.7323 15.72442 15.71643 15.71313 15.70866 15.70646 15.70672 15.71458 15.72315 15.73958 15.76172 15.79152 15.82474 15.87258 15.91622 15.96202 16.00312 16.03889 16.06715 16.08567 16.09962 16.11419 16.12686 16.14285 16.1517 16.15878 16.16784 16.17057 16.17003 16.16331 16.1549 16.14343 16.13473 16.12806 16.12129 16.11661 16.11129 16.10216 16.09047 16.07623 16.05133 16.02216 15.98226 15.93725 15.88193 15.81617 15.73692 15.64954
0 0 0 0 0 0 0 0 18.99395 17.78819 16.43929 15.79698 14.9241 14.93266 14.93942 14.94491 14.95973 14.97377 14.99411 15.01999 15.03563 15.05034 15.06082 15.07883 15.08194 15.10532 15.12412 15.14136 15.15923 15.18083 15.1973 15.21496 15.23108 15.25922 15.30239 15.34488 15.37827 15.40893 15.44491 15.82718 16.22437 16.64978 17.08578 17.51464 18.28635 0 0 0 0 0 0 18.00919 17.22341 17.22587 15.63829 15.6577 15.68755 15.71986 15.74289 15.75384 15.75747 15.7554 15.7507 15.7455 15.74159 15.73589 15.72963 15.72997 15.73878 15.75287 15.76607 15.7942 15.82343 15.85469 15.89853 15.94503 15.98941 16.03108 16.0696 16.09955 16.11765 16.13014 16.14092 16.1539 16.16688 16.17904 16.18562 16.19208 16.19359 16.19183 16.18681 16.18118 16.17021 16.15837 16.14999 16.14444 16.14123 16.13597 16.12862 16.11931 16.10063 16.07297 16.04166 16.00151 15.95233 15.89161 15.82147 15.74133 15.65493
0 0 0 0 0 0 0 0 0 17.80276 16.44679 15.79794 14.9186 14.91419 14.91333 14.92623 14.93369 14.94876 14.98573 15.01639 15.04378 15.05881 15.0672 15.09074 15.10974 15.13791 15.1594 15.20621 15.23862 15.25932 15.27536 15.28946 15.30599 15.32513 15.35155 15.38743 15.41176 15.43202 15.46126 15.47528 15.49482 15.51447 15.53289 15.90805 16.7222 17.52964 18.31952 18.65588 0 0 18.29911 17.19597 16.39172 15.63544 15.65311 15.68411 15.72182 15.74743 15.76888 15.77727 15.78141 15.78082 15.77979 15.77624 15.77328 15.76689 15.76432 15.76455 15.77169 15.78447 15.80346 15.82945 15.85747 15.88941 15.92963 15.97239 16.01376 16.05594 16.09488 16.12507 16.14043 16.15474 16.16268 16.17594 16.19186 16.20398 16.21197 16.21907 16.22114 16.21805 16.2151 16.20982 16.19982 16.18623 16.17521 16.17158 16.16838 16.16167 16.15272 16.14 16.11888 16.08854 16.05296 16.008 15.95731 15.89401 15.81862 15.74128 15.65395
0 0 0 0 0 0 0 0 0 18.88756 17.18358 16.1445 15.19064 14.9225 14.90236 14.91226 14.90992 14.93563 14.97969 15.01832 15.05589 15.07056 15.08676 15.11861 15.14156 15.17089 15.22801 15.27881 15.3151 15.34036 15.35828 15.36671 15.37703 15.38456 15.39932 15.42267 15.44559 15.45883 15.47616 15.48396 15.49488 15.51132 15.53415 15.54807 15.92245 16.32653 16.7372 17.13858 18.30378 17.17531 15.96401 15.61074 15.63267 15.65718 15.6863 15.71656 15.74711 15.77246 15.78641 15.79432 15.79824 15.79596 15.79246 15.79127 15.78942 15.79659 15.79534 15.7955 15.80465 15.82054 15.83954 15.86531 15.89119 15.92676 15.96667 16.00799 16.04735 16.08615 16.1234 16.14781 16.16221 16.17399 16.18507 16.19685 16.20971 16.2236 16.23105 16.23636 16.24137 16.24121 16.23743 16.23376 16.22279 16.21173 16.20226 16.19723 16.19335 16.18311 16.17037 16.15726 16.1341 16.10165 16.06402 16.01686 15.95781 15.89044 15.8154 15.72831 15.63904
0 0 0 0 0 0 0 0 0 19.0417 18.14444 16.49573 15.50205 14.93297 14.91886 14.91911 14.90746 14.93889 14.98353 15.02652 15.05287 15.07992 15.10511 15.1262 15.17101 15.23215 15.29641 15.35068 15.39725 15.42103 15.43212 15.43633 15.44353 15.45135 15.45116 15.46578 15.48157 15.49327 15.49673 15.50088 15.50691 15.51819 15.53385 15.55203 15.56274 15.57911 15.95884 0 17.17916 15.97727 15.62282 15.64591 15.67364 15.70286 15.73243 15.75759 15.78304 15.8011 15.81214 15.81714 15.81789 15.81764 15.81973 15.82283 15.82392 15.82618 15.82294 15.82561 15.83361 15.84913 15.86907 15.89191 15.92133 15.95858 15.9961 16.03351 16.07085 16.11122 16.14033 16.16483 16.17737 16.18711 16.2012 16.21331 16.22711 16.24238 16.25117 16.26024 16.26092 16.26097 16.25849 16.25058 16.24304 16.2308 16.22068 16.21501 16.21019 16.19912 16.18008 16.16307 16.14049 16.1077 16.06774 16.02156 15.95906 15.88735 15.80859 15.71863 15.62384
0 0 0 0 0 0 0 0 0 0 18.71817 17.24563 15.84072 15.22517 14.94769 14.93283 14.93166 14.94874 14.98502 15.00523 15.04947 15.08298 15.11459 15.14998 15.20305 15.27196 15.34459 15.39777 0 0 0 15.67515 15.48102 15.49002 15.49266 15.4944 15.50732 15.52067 15.52483 15.52436 15.52346 15.53321 15.54548 15.55935 15.57441 15.59385 15.61341 15.99958 15.63272 15.64212 15.66751 15.69185 15.72238 15.74906 15.76919 15.78873 15.80236 15.82065 15.83163 15.8368 15.84204 15.85078 15.84824 15.85518 15.85568 15.85655 15.85874 15.86278 15.86872 15.88577 15.90785 15.92979 15.9542 15.98764 16.02097 16.05932 16.09404 16.13063 16.15445 16.17399 16.1866 16.19643 16.21057 16.22123 16.23762 16.25339 16.26487 16.27359 16.27685 16.27925 16.27522 16.27009 16.26088 16.2493 16.23762 16.22636 16.22077 16.21126 16.1979 16.17205 16.14402 16.10889 16.07082 16.02133 15.95903 15.88483 15.8036 15.71056 15.60866
0 0 0 0 0 0 0 0 0 0 0 18.61507 17.26315 15.85723 15.23122 14.95136 14.93909 14.95154 14.97342 14.99873 15.04063 15.0832 15.12903 15.16589 15.2203 15.29793 15.71344 16.11406 0 0 0 16.29918 16.58275 15.49698 15.50622 15.50485 15.51891 15.53179 15.53946 15.5394 15.53591 15.53685 15.55192 15.57145 15.59191 15.61407 15.63245 15.65094 15.66304 15.67982 15.7069 15.73463 15.7629 15.78915 15.80711 15.82578 15.83606 15.84489 15.85145 15.85649 15.86332 15.86713 15.87407 15.87442 15.8782 15.88018 15.88776 15.89323 15.90601 15.92256 15.94032 15.96886 15.99246 16.02262 16.05629 16.08452 16.11701 16.14688 16.16978 16.18734 16.1999 16.20946 16.221 16.23626 16.24884 16.26147 16.26937 16.28057 16.28815 16.28782 16.28392 16.27917 16.26924 16.25907 16.24966 16.24118 16.23523 16.22306 16.20491 16.17995 16.1507 16.11484 16.07603 16.02776 15.96465 15.8896 15.80223 15.70764 15.60711
0 0 0 0 0 0 0 0 0 0 0 0 18.85305 17.61088 15.83851 15.23005 14.93693 14.94692 14.96823 14.99999 15.03016 15.08308 15.1322 15.17827 15.23155 15.31154 16.06711 0 0 17.63873 17.74866 16.20079 15.48269 15.49312 15.49321 15.51449 15.52533 15.53751 15.54759 15.55058 15.54433 15.54724 15.55842 15.57939 15.60452 15.63413 15.65273 15.6682 15.68396 15.70789 15.73202 15.7598 15.79165 15.81736 15.83864 15.85222 15.86811 15.87825 15.88256 15.88596 15.89069 15.8969 15.90486 15.90205 15.90471 15.90882 15.91901 15.9251 15.93626 15.95505 15.97329 15.99885 16.02462 16.05368 16.08004 16.10814 16.13725 16.16477 16.18356 16.20048 16.21133 16.22358 16.23623 16.25097 16.26092 16.27201 16.27904 16.287 16.29206 16.29542 16.29193 16.28748 16.28162 16.27386 16.26642 16.25719 16.24637 16.23305 16.21456 16.18917 16.15551 16.11984 16.08013 16.0305 15.96664 15.89272 15.8091 15.72045 15.62868
0 0 0 0 0 0 0 0 0 0 0 0 0 0 0 15.81977 15.19012 14.93808 14.96347 14.98831 15.03441 15.08248 15.13295 15.18351 15.22562 15.63267 15.70686 16.10751 16.50596 18.55037 17.74993 16.18826 15.48316 15.48962 15.49529 15.51501 15.53016 15.54445 15.55279 15.55833 15.56064 15.56151 15.57566 15.59212 15.61573 15.64263 15.66074 15.6794 15.69981 15.72473 15.75269 15.78675 15.81865 15.84448 15.86887 15.88508 15.89849 15.90829 15.91501 15.91655 15.91951 15.92267 15.92221 15.92081 15.92759 15.93542 15.94637 15.9606 15.97537 15.99243 16.00831 16.03269 16.05884 16.08812 16.11462 16.139 16.16386 16.18408 16.20126 16.21897 16.22813 16.24119 16.2529 16.2665 16.27582 16.28267 16.28741 16.29319 16.29666 16.29899 16.2981 16.2968 16.28983 16.28406 16.28017 16.27272 16.26296 16.246 16.22475 16.20032 16.17036 16.13439 16.0944 16.04219 15.982 15.90971 15.82905 15.74515 15.66142
0 0 0 0 0 0 0 0 0 0 0 0 0 0 0 16.45188 15.80021 14.92962 14.96577 14.99405 15.04502 15.09515 15.1463 15.1938 15.23256 15.29215 16.05915 16.11902 16.52732 0 17.80322 15.47468 15.4835 15.48607 15.50794 15.51508 15.53253 15.54752 15.55547 15.56422 15.57492 15.57918 15.59199 15.60543 15.62596 15.64705 15.6674 15.68539 15.7138 15.74324 15.78657 15.81634 15.84351 15.87021 15.89793 15.91539 15.92704 15.9329 15.93782 15.94389 15.9445 15.9427 15.94357 15.94414 15.95111 15.958 15.97448 15.98794 16.00124 16.01722 16.03488 16.06174 16.09342 16.12433 16.14629 16.16727 16.1905 16.21145 16.2281 16.24312 16.25472 16.2648 16.27569 16.28441 16.28989 16.29582 16.30108 16.30301 16.30136 16.30035 16.30036 16.29545 16.29318 16.28742 16.28356 16.27777 16.26636 16.25064 16.23279 16.2108 16.18426 16.15251 16.11476 16.06856 16.01481 15.946 15.87031 15.79506 15.7171
0 0 0 0 0 0 0 0 0 0 0 0 0 17.57896 17.23875 16.47921 15.83411 14.95965 14.99845 15.03133 15.07542 15.11958 15.16965 15.21853 15.25679 15.30497 16.42208 16.85617 17.31009 17.24046 18.20452 15.81316 15.47266 15.48785 15.50857 15.52687 15.54545 15.5602 15.56972 15.57762 15.58213 15.59104 15.60641 15.62456 15.6405 15.6572 15.67673 15.70186 15.73627 15.77188 15.80363 15.8323 15.86311 15.88514 15.90188 15.92534 15.94175 15.95564 15.95811 15.96109 15.96509 15.96688 15.96782 15.97582 15.97747 15.98311 15.99767 16.01009 16.027 16.04155 16.06493 16.09306 16.12159 16.14908 16.17141 16.19106 16.21448 16.23266 16.25181 16.26905 16.28083 16.2895 16.29637 16.30302 16.31059 16.31459 16.31523 16.31419 16.31143 16.30527 16.30364 16.30083 16.29534 16.29087 16.28418 16.27729 16.27024 16.26141 16.24524 16.22423 16.19919 16.1713 16.13512 16.09053 16.03793 15.97297 15.90812 15.8395 15.77066
0 0 0 0 0 0 0 0 0 0 0 0 16.88201 16.51126 16.53464 16.20604 15.58784 15.00894 15.04837 15.08446 15.1263 15.17759 15.21863 15.25796 15.29775 15.34155 16.09122 16.13855 16.93075 17.7313 16.17604 15.45571 15.47779 15.50848 15.53828 15.55724 15.57208 15.58316 15.59 15.59648 15.60642 15.61664 15.62497 15.64408 15.66427 15.68384 15.70774 15.73165 15.76276 15.79251 15.82182 15.8504 15.87321 15.89421 15.91484 15.93378 15.94961 15.96306 15.96774 15.972 15.97689 15.98395 15.98773 15.99478 16.00215 16.01049 16.02121 16.03357 16.05094 16.07223 16.09783 16.12585 16.15576 16.19051 16.20966 16.22697 16.24444 16.26135 16.27808 16.29607 16.30585 16.31057 16.31833 16.32113 16.32592 16.3287 16.33051 16.32473 16.32035 16.31481 16.3088 16.302 16.29838 16.29566 16.28817 16.28324 16.27872 16.26748 16.25587 16.23755 16.21743 16.19278 16.16128 16.12019 16.0685 16.01032 15.94635 15.8813 15.81608
0 0 0 0 0 0 0 0 18.50421 17.87935 16.86503 16.1594 16.1848 16.19182 15.90113 15.95112 15.67825 15.08106 15.11899 15.15963 15.20465 15.25011 15.29295 15.32538 15.35509 15.39036 15.42414 15.44163 15.45762 15.46995 15.47246 15.48407 15.50788 15.54048 15.56285 15.58085 15.59274 15.60165 15.60759 15.60825 15.61778 15.63433 15.64717 15.66515 15.68647 15.71242 15.73718 15.75889 15.78193 15.81187 15.8308 15.85832 15.88039 15.90133 15.92406 15.93563 15.9505 15.96752 15.97776 15.98474 15.99527 16.00033 16.00483 16.00934 16.01835 16.02544 16.04221 16.05841 16.07874 16.10705 16.13485 16.16653 16.19861 16.23028 16.2491 16.26181 16.28146 16.29577 16.31199 16.32339 16.32842 16.3368 16.34341 16.34341 16.34366 16.34126 16.33808 16.33485 16.32499 16.31855 16.31329 16.30351 16.29718 16.29298 16.28777 16.28536 16.27764 16.27121 16.26326 16.25053 16.23258 16.20992 16.18361 16.15017 16.10328 16.05116 15.99266 15.93216 15.87061
0 0 0 0 0 0 0 17.5475 17.57508 16.14864 15.83827 15.85188 15.86821 15.91508 15.98099 15.72111 15.11798 15.15002 15.18578 15.2308 15.28167 15.31638 15.35536 15.38852 15.41362 15.44078 15.46601 15.48479 15.50321 15.51932 15.53265 15.5464 15.56451 15.57984 15.59334 15.60352 15.61156 15.61705 15.61993 15.62106 15.63129 15.6481 15.66573 15.68334 15.70653 15.7314 15.75171 15.77026 15.78914 15.80419 15.82004 15.84806 15.87386 15.89738 15.92083 15.93831 15.9548 15.972 15.99165 15.99718 16.00802 16.01143 16.01563 16.02335 16.03292 16.04624 16.06701 16.08932 16.11511 16.14603 16.17381 16.20513 16.23186 16.25467 16.27374 16.28989 16.30583 16.32325 16.33048 16.33995 16.34847 16.35308 16.35685 16.36047 16.358 16.35032 16.34384 16.33798 16.3307 16.3239 16.3218 16.30953 16.30129 16.29959 16.29687 16.2915 16.28939 16.28301 16.27775 16.26797 16.24967 16.22995 16.2041 16.17058 16.13274 16.08476 16.03024 15.96987 15.9145
0 0 0 0 0 0 18.06071 17.94989 16.16081 15.83218 15.82739 15.85612 15.92646 15.67454 15.43409 15.1791 15.18454 15.22712 15.26694 15.3107 15.34949 15.37955 15.41676 15.43899 15.46218 15.47527 15.49752 15.52386 15.54623 15.56469 15.58024 15.59701 15.60921 15.61641 15.61994 15.62503 15.63366 15.63534 15.64097 15.64782 15.65537 15.66865 15.68585 15.70352 15.72179 15.73626 15.75071 15.76735 15.78488 15.80115 15.82248 15.84438 15.86732 15.88748 15.90945 15.92626 15.94445 15.96353 15.9796 15.99618 16.01019 16.01849 16.02189 16.03715 16.05124 16.07353 16.09972 16.12343 16.14719 16.17965 16.2079 16.23703 16.25632 16.27703 16.29816 16.31858 16.33473 16.34723 16.35463 16.35834 16.36489 16.36418 16.36271 16.35968 16.3565 16.34971 16.34114 16.3325 16.32659 16.32073 16.31896 16.31533 16.30894 16.3052 16.30324 16.30513 16.30031 16.29627 16.29057 16.28215 16.27294 16.25579 16.23342 16.2042 16.16999 16.12695 16.07506 16.02145 15.96565
0 0 0 0 0 0 19.00241 17.22983 16.15787 15.81957 15.53556 15.60375 15.37076 15.13839 15.1887 15.23401 15.27041 15.30135 15.34161 15.38072 15.41585 15.44921 15.47324 15.48734 15.50626 15.51701 15.53216 15.56015 15.58088 15.59615 15.61085 15.62716 15.63381 15.6387 15.63938 15.64313 15.64824 15.64921 15.65506 15.66251 15.67357 15.68493 15.70182 15.7145 15.72584 15.73365 15.74334 15.75717 15.77664 15.79619 15.81228 15.83293 15.85434 15.87089 15.89155 15.90836 15.9272 15.94728 15.96857 15.98655 16.00409 16.01334 16.02667 16.04702 16.07191 16.09198 16.12282 16.1515 16.1775 16.20363 16.22722 16.2568 16.28109 16.3014 16.32482 16.34431 16.36232 16.37164 16.37801 16.37961 16.37848 16.37094 16.36245 16.35549 16.34706 16.33845 16.33507 16.32904 16.3262 16.32093 16.31775 16.31392 16.31181 16.30976 16.31196 16.31525 16.30854 16.30272 16.29977 16.29441 16.28605 16.27227 16.25451 16.2315 16.20419 16.16915 16.12866 16.08207 16.03072
0 0 0 0 0 19.04771 18.46224 17.19931 16.17516 15.86258 15.30871 15.07418 15.13048 15.19143 15.25014 15.29068 15.32581 15.36294 15.40362 15.44035 15.47208 15.49657 15.5189 15.5339 15.55084 15.56553 15.58091 15.603 15.62017 15.63465 15.64716 15.65358 15.66217 15.66315 15.66031 15.66068 15.66462 15.66427 15.66828 15.67834 15.68907 15.69885 15.70872 15.71479 15.72302 15.73422 15.74201 15.75562 15.77219 15.78974 15.8056 15.82444 15.84123 15.86271 15.87751 15.89446 15.91483 15.93874 15.9601 15.9799 15.99618 16.013 16.03111 16.06255 16.08654 16.1144 16.1477 16.17659 16.20405 16.23004 16.25346 16.27691 16.29936 16.32016 16.34535 16.36109 16.37878 16.38551 16.392 16.39281 16.38394 16.37596 16.36405 16.35438 16.34275 16.32963 16.32284 16.32603 16.32429 16.32313 16.32239 16.31719 16.31658 16.31687 16.32469 16.32461 16.31888 16.31509 16.31313 16.30926 16.30237 16.29012 16.26986 16.25074 16.22638 16.19836 16.16417 16.12671 16.0817
0 0 0 0 18.03683 17.53856 16.09936 15.79857 15.53264 15.01859 15.0687 15.12573 15.19202 15.24674 15.29558 15.33464 15.37015 15.40763 15.44606 15.47685 15.50138 15.53198 15.55457 15.56652 15.59132 15.60877 15.62207 15.63878 15.65415 15.66746 15.67086 15.67837 15.67864 15.68138 15.67896 15.67951 15.67695 15.67664 15.68316 15.68939 15.69352 15.70197 15.70805 15.71049 15.71578 15.72526 15.73694 15.75055 15.77261 15.79008 15.8047 15.81869 15.8352 15.85733 15.87778 15.8944 15.91008 15.92859 15.95272 15.9706 15.98721 16.00697 16.02979 16.06466 16.0963 16.13097 16.16378 16.19353 16.22372 16.25273 16.27895 16.29926 16.32031 16.34143 16.36377 16.37996 16.39459 16.39786 16.39962 16.39968 16.39727 16.38523 16.37532 16.36232 16.34763 16.33676 16.33105 16.32545 16.32602 16.32514 16.32385 16.32251 16.32103 16.32571 16.33233 16.33526 16.33211 16.32904 16.32838 16.32805 16.3261 16.31756 16.30214 16.28361 16.26356 16.24234 16.21409 16.18179 16.14604
0 0 0 0 19.13628 16.42478 14.94126 14.95915 15.01276 15.06457 15.13172 15.20384 15.25859 15.3027 15.34897 15.39426 15.42971 15.45506 15.4855 15.51168 15.5375 15.56652 15.58605 15.60647 15.62077 15.63184 15.64434 15.66022 15.67395 15.6832 15.69197 15.69526 15.69789 15.69638 15.69291 15.68944 15.6893 15.69108 15.69187 15.69614 15.70118 15.7007 15.70134 15.70231 15.70977 15.72183 15.73543 15.74769 15.76577 15.78105 15.79521 15.8112 15.83151 15.85151 15.86859 15.88707 15.90344 15.9226 15.94477 15.9656 15.98326 16.00261 16.03185 16.06746 16.10239 16.13793 16.17335 16.20574 16.23825 16.26802 16.29449 16.31331 16.33098 16.35274 16.37623 16.39334 16.40453 16.40296 16.40594 16.4104 16.40649 16.39667 16.38993 16.38079 16.36503 16.35117 16.3421 16.33517 16.33853 16.34139 16.33997 16.33821 16.33847 16.34175 16.34706 16.34797 16.3431 16.34426 16.34476 16.344 16.34288 16.33908 16.32554 16.31596 16.30477 16.28764 16.26551 16.2403 16.20788
0 0 0 18.05186 17.57106 16.07348 14.93322 14.98458 15.04923 15.12417 15.19547 15.2517 15.30428 15.3526 15.39623 15.43471 15.46298 15.48666 15.51682 15.54964 15.57925 15.60397 15.61492 15.62695 15.63953 15.64747 15.66194 15.67133 15.68495 15.69422 15.69922 15.70587 15.70742 15.71164 15.7101 15.70567 15.70073 15.70157 15.70291 15.70452 15.70344 15.70117 15.70086 15.70231 15.70761 15.71877 15.73055 15.74315 15.75802 15.77013 15.78868 15.8091 15.82788 15.84311 15.86061 15.87942 15.89955 15.92212 15.94335 15.96324 15.98306 16.00813 16.03899 16.0684 16.10301 16.14116 16.17635 16.20981 16.24265 16.2741 16.30198 16.32194 16.3406 16.35817 16.37898 16.39282 16.40129 16.40303 16.40834 16.41795 16.41188 16.40776 16.39227 16.38771 16.37984 16.36827 16.35876 16.3547 16.36378 16.36235 16.36965 16.37368 16.36753 16.3677 16.37043 16.36785 16.36321 16.36121 16.36266 16.36262 16.36221 16.35611 16.34956 16.34293 16.33635 16.32122 16.29858 16.27838 16.24763
0 0 0 17.95637 17.54373 16.05441 15.46846 15.0099 15.10337 15.17922 15.23899 15.29135 15.34215 15.38912 15.42893 15.4574 15.49386 15.51896 15.54525 15.57197 15.59573 15.62151 15.63376 15.64212 15.65257 15.66029 15.66504 15.67504 15.68683 15.69394 15.70295 15.71034 15.71735 15.72057 15.7199 15.71615 15.71196 15.70812 15.71217 15.71184 15.71058 15.70599 15.70402 15.70316 15.70701 15.71972 15.73265 15.74492 15.75511 15.76774 15.78433 15.8005 15.82172 15.83752 15.85319 15.87521 15.89895 15.9243 15.94285 15.96278 15.98396 16.01291 16.03371 16.07281 16.10957 16.14279 16.17766 16.21807 16.25116 16.27917 16.30983 16.33281 16.34957 16.35999 16.37655 16.38801 16.40109 16.40488 16.41067 16.411 16.40596 16.40299 16.40372 16.39812 16.39552 16.38582 16.38188 16.3824 16.38756 16.39447 16.40224 16.40084 16.39805 16.3976 16.39849 16.39711 16.39495 16.39681 16.39327 16.39457 16.39646 16.39232 16.38578 16.38243 16.37802 16.36841 16.35281 16.33159 16.29865
0 0 0 18.97097 17.79396 16.04011 15.20789 15.02802 15.12329 15.20985 15.28809 15.32974 15.37447 15.41876 15.45529 15.48354 15.51372 15.54238 15.56704 15.59399 15.61428 15.62717 15.63316 15.63832 15.65058 15.65409 15.66224 15.67648 15.68823 15.69303 15.70079 15.71021 15.71716 15.72074 15.71932 15.71713 15.7144 15.71286 15.71456 15.71695 15.70947 15.70481 15.70041 15.70263 15.70621 15.71852 15.72935 15.74069 15.74953 15.76165 15.77667 15.79597 15.81506 15.83199 15.85192 15.87497 15.90203 15.92735 15.94445 15.96514 15.99033 16.01569 16.04574 16.07823 16.10906 16.143 16.18276 16.22119 16.25255 16.28449 16.30886 16.32809 16.34389 16.35479 16.36467 16.37571 16.38795 16.39696 16.40414 16.40585 16.40705 16.4084 16.41433 16.416 16.41267 16.4124 16.41057 16.41447 16.41748 16.4197 16.42953 16.43009 16.42747 16.43105 16.42836 16.43037 16.42588 16.42557 16.42811 16.43204 16.43038 16.42649 16.42163 16.42021 16.41746 16.40838 16.39545 16.37605 16.35289
0 0 0 18.98841 16.65094 15.4318 14.97295 15.07181 15.17199 15.24896 15.31378 15.35283 15.39695 15.43213 15.46842 15.49652 15.52141 15.54654 15.57023 15.58389 15.59887 15.6117 15.61233 15.62 15.62512 15.63563 15.64912 15.66161 15.67814 15.68811 15.69762 15.7106 15.71841 15.72318 15.72046 15.71575 15.71579 15.71517 15.71459 15.71075 15.70553 15.70006 15.69941 15.70072 15.70492 15.70921 15.71973 15.73215 15.74239 15.75511 15.77572 15.79487 15.81125 15.83199 15.84994 15.87384 15.90088 15.92717 15.95135 15.97241 15.99438 16.02283 16.05286 16.08148 16.11749 16.14666 16.17717 16.21194 16.24424 16.272 16.29677 16.31555 16.32948 16.34143 16.34928 16.35976 16.37244 16.37759 16.38736 16.39553 16.39562 16.39994 16.40426 16.41769 16.42511 16.43366 16.44295 16.4425 16.44299 16.44358 16.45227 16.45965 16.46513 16.46543 16.46866 16.46581 16.46544 16.46756 16.4733 16.47698 16.47605 16.47242 16.46354 16.45717 16.44727 16.43844 16.42699 16.40955 16.38601
15 14.9992 16.13243 16.67085 15.11587 14.93548 15.03143 15.1405 15.22536 15.29585 15.34332 15.37975 15.41568 15.44511 15.47386 15.50011 15.51736 15.53655 15.55114 15.56098 15.57272 15.57913 15.58567 15.59427 15.60235 15.60799 15.62596 15.64255 15.66437 15.68557 15.69439 15.70452 15.71451 15.71579 15.71391 15.71243 15.71666 15.71745 15.71633 15.71202 15.70518 15.70162 15.70279 15.70561 15.70499 15.70983 15.71836 15.72968 15.74543 15.76154 15.77872 15.7953 15.81692 15.83454 15.8574 15.88421 15.90682 15.93564 15.96089 15.98163 16.00381 16.0294 16.06182 16.09231 16.12316 16.15138 16.17599 16.20619 16.23792 16.26468 16.28798 16.30197 16.31785 16.32886 16.33992 16.34784 16.35436 16.36139 16.36801 16.37544 16.38695 16.39398 16.40786 16.42484 16.43059 16.43726 16.44827 16.45456 16.46061 16.46608 16.47758 16.48993 16.49781 16.50072 16.50372 16.50508 16.50811 16.51431 16.51936 16.52052 16.51934 16.51302 16.50704 16.5021 16.49346 16.47885 16.46352 16.44727 16.43172
15.007 14.99299 14.99759 15.01232 15.01673 15.08065 15.15875 15.24284 15.3033 15.3499 15.38507 15.40959 15.43032 15.44806 15.46813 15.49364 15.50644 15.51492 15.52522 15.53431 15.54281 15.5565 15.56269 15.56978 15.57649 15.59054 15.60629 15.62773 15.64667 15.66946 15.68609 15.69699 15.7069 15.7148 15.72063 15.72033 15.71861 15.71833 15.72043 15.71896 15.71372 15.7116 15.71463 15.71524 15.71745 15.71947 15.71982 15.73167 15.74407 15.76511 15.78595 15.8111 15.82868 15.84766 15.87023 15.89661 15.92184 15.94755 15.97434 15.99869 16.01855 16.04797 16.07252 16.09903 16.12174 16.14889 16.17557 16.20209 16.22657 16.25237 16.27538 16.29136 16.30539 16.3173 16.32695 16.3309 16.3336 16.34108 16.35049 16.35799 16.36993 16.38506 16.40541 16.42828 16.43599 16.44853 16.45794 16.46611 16.48243 16.49731 16.51241 16.52562 16.53342 16.53333 16.53631 16.53748 16.54382 16.54619 16.54831 16.55195 16.55315 16.54837 16.54298 16.53889 16.5346 16.52839 16.51457 16.49157 16.47378
15.12544 15.13224 15.14661 15.16435 15.18184 15.22863 15.27663 15.32596 15.35649 15.39516 15.41784 15.42751 15.43758 15.4555 15.47195 15.49433 15.50808 15.5112 15.50876 15.50897 15.51386 15.52604 15.53131 15.54219 15.55279 15.57371 15.60074 15.62276 15.63739 15.65419 15.67398 15.68864 15.70115 15.71635 15.72102 15.72037 15.72176 15.72387 15.72592 15.72968 15.73119 15.72977 15.73133 15.73527 15.737 15.73574 15.7372 15.74584 15.76197 15.7766 15.80004 15.82636 15.84995 15.86963 15.89097 15.91529 15.94113 15.96907 15.9939 16.01675 16.04133 16.06332 16.08871 16.11073 16.13126 16.15236 16.17887 16.20062 16.22237 16.24617 16.26681 16.28519 16.29944 16.31599 16.32452 16.32408 16.32885 16.33174 16.33756 16.34491 16.36357 16.37672 16.3945 16.40881 16.42744 16.44849 16.4725 16.49319 16.51485 16.53813 16.55671 16.56729 16.57589 16.58108 16.58147 16.58344 16.5849 16.5888 16.59429 16.5972 16.59971 16.59708 16.58929 16.58701 16.58054 16.5698 16.55194 16.53414 16.52256
15.20243 15.2212 15.24214 15.2608 15.28272 15.30615 15.33594 15.35835 15.38088 15.4027 15.41471 15.42422 15.43069 15.4447 15.46383 15.4772 15.48462 15.48199 15.48521 15.48972 15.49606 15.49936 15.50596 15.52167 15.54216 15.5694 15.58441 15.61038 15.62577 15.65233 15.67231 15.69209 15.70563 15.71879 15.7294 15.73638 15.74163 15.74586 15.74749 15.74681 15.74631 15.75059 15.75457 15.7549 15.75671 15.75723 15.75942 15.76971 15.78735 15.80302 15.82478 15.84718 15.87007 15.89958 15.9181 15.94232 15.96901 15.99154 16.0125 16.04589 16.06789 16.09176 16.11646 16.13701 16.15694 16.17446 16.19381 16.21462 16.23289 16.25381 16.26846 16.28742 16.30602 16.32019 16.32708 16.3297 16.33146 16.33437 16.3333 16.33778 16.3492 16.36386 16.38255 16.40324 16.42589 16.45313 16.4878 16.51842 16.54809 16.57787 16.60006 16.61413 16.6258 16.62943 16.63518 16.63727 16.64359 16.6541 16.66587 16.68213 16.68974 16.68457 16.66968 16.65797 16.64679 16.63416 16.61892 16.60422 16.59376
15.27889 15.29517 15.30292 15.30756 15.3187 15.33445 15.35331 15.36929 15.38123 15.38944 15.40074 15.40671 15.41165 15.42881 15.44722 15.46056 15.47099 15.47806 15.48261 15.48465 15.48515 15.49682 15.5054 15.52595 15.54613 15.57402 15.59115 15.60929 15.62824 15.65366 15.67139 15.69126 15.70948 15.72592 15.73942 15.75174 15.75673 15.76698 15.77198 15.77109 15.77158 15.77574 15.7785 15.78373 15.7903 15.79631 15.8044 15.81667 15.82902 15.84578 15.86775 15.88657 15.911 15.93473 15.95495 15.98106 16.00682 16.02818 16.05823 16.08497 16.10932 16.1358 16.15494 16.17825 16.19816 16.21515 16.234 16.24382 16.25759 16.28008 16.29616 16.31745 16.33103 16.33786 16.33682 16.34329 16.3451 16.34433 16.34795 16.35203 16.37128 16.39141 16.41712 16.44357 16.46797 16.49835 16.53683 16.57696 16.61626 16.64434 16.66397 16.67436 16.68357 16.69513 16.69566 16.69401 16.7009 16.71461 16.73876 16.76295 16.77879 16.77663 16.76475 16.74899 16.73793 16.72736 16.71481 16.70355 16.69588
15.31017 15.3119 15.31487 15.31872 15.32496 15.33677 15.35058 15.3623 15.36543 15.37068 15.38257 15.38927 15.39109 15.41299 15.42594 15.43842 15.45878 15.47071 15.47236 15.48149 15.48527 15.50289 15.51095 15.54063 15.55793 15.58109 15.59911 15.62223 15.64464 15.66732 15.68591 15.70896 15.72491 15.74182 15.75804 15.7706 15.77871 15.78509 15.79423 15.7993 15.80413 15.80978 15.81586 15.82319 15.83869 15.85076 15.86685 15.8847 15.89836 15.91721 15.93306 15.95497 15.977 16.00041 16.02207 16.04289 16.07674 16.10088 16.12086 16.14353 16.17286 16.18951 16.21046 16.22231 16.24256 16.25625 16.2695 16.28252 16.2948 16.30894 16.32742 16.34013 16.35152 16.35793 16.35432 16.35897 16.36109 16.36449 16.36984 16.38406 16.41353 16.43821 16.46451 16.49525 16.53031 16.56494 16.60151 16.64831 16.6873 16.71672 16.73882 16.75298 16.76435 16.76738 16.76903 16.76345 16.76266 16.77176 16.79177 16.81345 16.82724 16.8258 16.82401 16.82287 16.81582 16.81034 16.80167 16.79047 16.78011
15.31451 15.3166 15.31683 15.31149 15.31366 15.32322 15.33544 15.34488 15.35514 15.36337 15.38061 15.37935 15.38316 15.40167 15.4137 15.42843 15.44719 15.46157 15.4727 15.4819 15.49443 15.5064 15.52862 15.55735 15.58017 15.6041 15.63132 15.65764 15.68106 15.70373 15.71809 15.73398 15.75153 15.77178 15.78608 15.79958 15.80937 15.81747 15.82538 15.83328 15.84166 15.85312 15.86595 15.88318 15.89958 15.91706 15.93612 15.95507 15.97403 15.98658 16.01207 16.03112 16.05151 16.07755 16.10001 16.11956 16.14516 16.17067 16.19584 16.21164 16.23494 16.25381 16.27755 16.29237 16.3111 16.31478 16.32766 16.33622 16.348 16.3611 16.37853 16.39022 16.3989 16.40388 16.3933 16.39416 16.39767 16.40095 16.41472 16.43342 16.46085 16.48362 16.51708 16.54541 16.57785 16.61454 16.65283 16.68952 0 0 16.77654 16.81292 16.81816 16.82186 16.82733 16.82083 16.8245 16.83306 16.83012 0 0 16.83694 16.87069 16.87042 16.87153 16.87359 16.87539 16.87533 16.86184
