ncols        109
nrows        82
xllcorner    -1.041666666667
yllcorner    37.041665395101
cellsize     0.083333333333
NODATA_value -9999
0.0 0 0 0 0 0 0 0 0 0 0 0 0 0 0 0 0 0 0 0 0 0 0 0 0 0 0 0 0 0 0 0 0 0 0 0 0 0 0 0 0 0 0 0 0 0 0 0 0 0 0 0 0 0 0 0 0 0 0 0 0 0 0 0 0 0 0 0 0 0 0 0 0 0 0 0 0 0 0 0 0 0 0 0 0 0 0 0 0 0 0 0 0 0 0 0 0 0 0 0 0 0 0 0 0 18.79782 17.46411 16.00987 15.99792
0 0 0 0 0 0 0 0 0 0 0 0 0 0 0 0 0 0 0 0 0 0 0 0 0 0 0 0 0 0 0 0 0 0 0 0 0 0 0 0 0 0 0 0 0 0 0 0 0 0 0 0 0 0 0 0 0 0 0 0 0 0 0 0 0 0 0 0 0 0 0 0 0 0 0 0 0 0 0 0 0 0 0 0 0 0 0 0 0 0 0 0 0 0 0 0 0 0 0 0 0 16.21999 16.23689 16.00626 16.00617 15.99858 15.98155 15.95392 15.91559
0 0 0 0 0 0 0 0 0 0 0 0 0 0 0 0 0 0 0 0 0 0 0 0 0 0 0 0 0 0 0 0 0 0 0 0 0 0 0 0 0 0 0 0 0 0 0 0 0 0 0 0 0 0 0 0 0 0 0 0 0 0 0 0 0 0 0 0 0 0 0 0 0 0 0 0 0 0 0 0 0 0 0 0 0 0 0 0 0 0 0 0 0 0 0 0 0 0 16.03251 16.0198 16.00389 15.97991 15.95423 15.93456 15.91237 15.87724 15.83028 15.78758 15.75466
0 0 0 0 0 0 0 0 0 0 0 0 0 0 0 0 0 0 0 0 0 0 0 0 0 0 0 0 0 0 0 0 0 0 0 0 0 0 0 0 0 0 0 0 0 0 0 0 0 0 0 0 0 0 0 0 0 0 0 0 0 0 0 0 0 0 0 0 0 0 0 0 0 0 0 0 0 0 0 0 0 0 0 0 0 0 0 0 0 0 0 0 0 0 0 0 0 17.85954 16.02091 15.98417 15.93039 15.87538 15.83893 15.8144 15.78011 15.74682 15.70736 15.672 15.6389
0 0 0 0 0 0 0 0 0 0 0 0 0 0 0 0 0 0 0 0 0 0 0 0 0 0 0 0 0 0 0 0 0 0 0 0 0 0 0 0 0 0 0 0 0 0 0 0 0 0 0 0 0 0 0 0 0 0 17.84012 17.46891 17.1734 17.30475 0 0 0 0 0 0 0 0 0 0 0 0 0 0 0 0 0 0 0 0 0 0 0 0 0 0 0 0 0 0 0 0 0 16.57415 16.08308 16.04938 15.98285 15.91868 15.85586 15.79012 15.73284 15.68016 15.6403 15.60694 15.57748 15.55704 15.54101
0 0 0 0 0 0 0 0 0 0 0 0 0 0 0 0 0 0 0 0 0 0 0 0 0 0 0 0 0 0 0 0 0 0 0 0 0 0 0 0 0 0 0 0 0 0 0 0 0 0 0 0 0 0 0 0 17.38769 17.41494 17.09538 16.84837 16.7429 16.7321 16.83684 17.05445 17.27336 17.38303 17.36476 0 0 0 0 17.73396 0 0 0 0 0 0 0 0 0 0 0 0 0 0 0 0 0 0 0 0 0 17.24403 16.06291 16.08088 16.03581 15.9659 15.88492 15.80908 15.73847 15.67661 15.62811 15.57245 15.54514 15.52599 15.50857 15.49554 15.484
0 0 0 0 0 0 0 0 0 0 0 0 0 0 0 0 0 0 0 0 0 0 0 0 0 0 0 0 0 0 0 0 0 0 0 0 0 0 0 0 0 0 0 0 0 0 0 0 0 0 0 0 0 0 0 17.51799 17.09704 16.73866 16.50899 16.21501 16.26538 16.29226 16.48587 16.63451 16.79031 16.90703 16.9983 17.20219 17.42374 17.39896 17.34883 17.08426 16.83936 16.89408 17.08103 16.79839 16.81353 0 0 0 0 0 0 0 0 0 0 0 0 0 0 0 16.4774 16.09557 16.06663 16.01802 15.95386 15.88073 15.80098 15.72608 15.65775 15.58421 15.53853 15.48529 15.4699 15.46319 15.4609 15.46138 15.46193
0 0 0 0 0 0 0 0 0 0 0 0 0 0 0 0 0 0 0 0 0 0 0 0 0 0 0 0 0 0 0 0 0 0 0 0 0 0 0 0 0 0 0 0 0 0 0 0 0 0 0 17.11423 17.32741 17.46174 17.19284 16.76046 16.50539 16.19819 16.05249 16.11434 16.15548 16.17562 16.17871 16.3928 16.3911 16.59289 16.57078 16.5706 16.59727 16.48084 16.34463 16.37113 16.19456 16.41646 16.45568 16.68529 0 0 0 0 0 0 0 0 0 0 0 0 0 0 0 0 16.0988 16.0926 16.00806 15.92275 15.84495 15.76258 15.68643 15.6188 15.56055 15.51541 15.48988 15.45889 15.45364 15.45005 15.45756 15.46218 15.46734
0 0 0 0 0 0 0 0 0 0 0 0 0 0 0 0 0 0 0 0 0 0 0 0 0 0 0 0 0 0 0 0 0 0 0 0 0 0 0 0 0 0 0 0 0 0 0 0 0 0 17.25286 17.13672 16.87856 16.818 16.72291 16.40617 16.03298 16.09588 15.92446 15.97035 16.00961 16.03237 16.04709 16.25096 16.2477 16.47192 16.46409 16.47055 16.2994 16.13434 16.16522 16.19724 16.02257 16.24318 16.26633 16.52044 16.54335 16.33885 16.36836 16.83726 17.3994 18.30677 0 0 0 0 0 0 0 17.24974 16.59366 16.13692 16.11926 16.04968 15.9339 15.83501 15.74986 15.67626 15.60401 15.54337 15.5042 15.47761 15.46142 15.45958 15.46055 15.46723 15.47748 15.48518 15.49667
0 0 0 0 0 0 0 0 0 0 0 0 0 0 0 0 0 0 0 0 0 0 0 0 0 0 0 0 0 0 0 0 0 0 0 0 0 0 0 0 0 0 0 0 0 0 0 0 0 18.08807 16.94971 16.83695 16.7727 16.44891 16.28329 16.09475 16.12896 15.94505 15.98183 16.02578 16.06403 16.0889 16.10016 16.31853 16.32951 16.32832 16.33154 16.32841 16.33617 16.15768 16.18094 16.00855 15.82282 15.83694 15.85261 15.87511 15.89451 15.92677 15.95958 15.97837 16.43822 17.10107 0 16.91318 17.58339 18.16994 18.4925 18.19831 17.65133 16.14017 16.16012 16.1482 16.07566 15.97326 15.84311 15.75354 15.66766 15.61042 15.5556 15.51725 15.49669 15.49031 15.48879 15.49412 15.49798 15.50998 15.52004 15.53005 15.54219
0 0 0 0 0 0 0 0 0 0 0 0 0 0 0 0 0 0 0 0 0 0 0 0 0 0 0 0 0 0 0 0 0 0 0 0 0 0 0 0 0 0 0 0 0 0 0 0 0 17.78629 16.8818 16.58956 16.26848 16.113 16.15617 15.96327 15.99425 16.0294 16.07255 16.10326 16.13364 16.14551 16.15029 16.15016 16.15782 15.96517 15.78688 15.95966 15.96057 15.96291 15.97047 15.78137 15.78347 15.78576 15.80739 15.82114 15.84277 15.86709 15.89249 15.91909 15.94942 15.98596 16.01677 16.04603 16.0819 16.09807 17.26287 17.49485 17.0612 16.09563 16.08045 16.02969 15.95982 15.8606 15.78434 15.70766 15.63802 15.58906 15.54809 15.52641 15.52753 15.53179 15.53921 15.54652 15.55527 15.56615 15.57421 15.58556 15.59418
0 0 0 0 0 0 0 0 0 0 0 0 0 0 0 0 0 0 0 0 0 0 0 0 0 0 0 0 0 0 0 0 0 0 0 0 0 0 0 0 0 0 0 0 0 0 0 0 0 17.51763 16.80557 16.48519 16.12249 16.17471 15.98525 16.03123 16.06643 16.10384 16.13321 16.16008 15.9638 15.97554 15.97793 15.97764 15.96689 15.76655 15.76307 15.75551 15.73464 15.72503 15.72132 15.71802 15.72081 15.72624 15.75178 15.76007 15.76846 15.77424 15.78631 15.81004 15.83986 15.87888 15.91435 15.94372 15.97257 15.99415 16.01362 16.0314 16.03036 15.99749 15.95744 15.89931 15.83361 15.76968 15.70932 15.65999 15.62359 15.57633 15.56517 15.56538 15.56992 15.58036 15.59076 15.59988 15.61004 15.61764 15.6258 15.63879 15.64978
0 0 0 0 0 0 0 0 0 0 0 0 0 0 0 0 0 0 0 0 0 0 0 0 0 0 0 0 0 0 0 0 0 0 0 0 0 0 0 0 0 0 0 0 0 0 0 0 0 17.4221 16.67179 16.33777 16.17147 15.99387 16.04466 16.09472 15.92001 15.9443 15.74855 15.75406 15.75867 15.75657 15.75448 15.75044 15.73927 15.72883 15.71731 15.69963 15.67453 15.6552 15.65034 15.64186 15.63753 15.62942 15.64244 15.64611 15.65652 15.67245 15.6879 15.71173 15.73777 15.76753 15.79479 15.81357 15.81994 15.83466 15.84603 15.85041 15.84444 15.82711 15.79692 15.76002 15.71906 15.68216 15.6536 15.62875 15.61664 15.59347 15.60201 15.60958 15.61423 15.62588 15.64074 15.65666 15.66556 15.67203 15.68035 15.68982 15.70195
0 0 0 0 0 0 0 0 0 0 0 0 0 0 0 0 0 0 0 0 0 0 0 0 0 0 0 0 0 0 0 0 0 0 0 0 0 0 0 0 0 0 0 0 0 0 0 0 0 17.28324 16.72054 16.37096 16.20249 16.02169 16.07047 15.89212 15.71933 15.73628 15.73766 15.73086 15.72302 15.71435 15.70103 15.69035 15.67748 15.65972 15.64526 15.63071 15.61791 15.60704 15.59518 15.58328 15.56928 15.55047 15.54246 15.53731 15.54297 15.54751 15.56144 15.57337 15.59599 15.62246 15.64409 15.65661 15.67047 15.68811 15.70242 15.7146 15.71621 15.6991 15.67508 15.64967 15.62798 15.61149 15.6042 15.60942 15.62364 15.62946 15.64057 15.65191 15.66113 15.67283 15.68364 15.7004 15.71026 15.72243 15.73248 15.74393 15.75692
0 0 0 0 0 0 0 0 0 0 0 0 0 0 0 0 0 0 0 0 0 0 0 0 0 0 0 0 0 0 0 0 0 0 0 0 0 0 0 0 0 0 0 0 0 0 0 0 0 17.33693 16.52379 16.1403 16.23372 16.06274 16.10789 15.90384 15.71261 15.71613 15.71769 15.70629 15.68942 15.6765 15.66466 15.6547 15.64023 15.62138 15.60616 15.59107 15.57018 15.54872 15.52704 15.50082 15.48647 15.47627 15.46885 15.4669 15.46713 15.47688 15.4853 15.4945 15.50589 15.512 15.52136 15.5279 15.54305 15.55072 15.56533 15.58105 15.58868 15.58948 15.59287 15.59333 15.5931 15.60023 15.60368 15.61555 15.63352 15.65165 15.6716 15.68218 15.69388 15.69963 15.71715 15.73291 15.74808 15.76021 15.76976 15.77804 15.79036
0 0 0 0 0 0 0 0 0 0 0 0 0 0 0 0 0 0 0 0 0 0 0 0 0 0 0 0 0 0 0 0 0 0 0 0 0 0 0 0 0 0 0 0 0 0 0 0 0 16.81125 16.57302 16.16689 16.03258 15.89382 15.92871 15.71771 15.70849 15.70143 15.68741 15.6726 15.6496 15.63307 15.61905 15.61161 15.60213 15.59345 15.57792 15.56044 15.54261 15.52082 15.48589 15.45654 15.43147 15.424 15.41707 15.41319 15.41409 15.41626 15.42186 15.42855 15.43875 15.44261 15.45241 15.46419 15.47921 15.49101 15.5092 15.52267 15.53203 15.54203 15.55516 15.56563 15.58042 15.59743 15.61606 15.63824 15.66136 15.68169 15.69105 15.70582 15.71956 15.7273 15.74425 15.76263 15.77797 15.79356 15.80404 15.8171 15.83102
0 0 0 0 0 0 0 0 0 0 0 0 0 0 0 0 0 0 0 0 0 0 0 0 0 0 0 0 0 0 0 0 0 0 0 0 0 0 0 0 0 0 0 0 0 0 0 0 0 0 16.29094 16.22898 16.08933 15.72933 15.74231 15.72904 15.70141 15.68785 15.67097 15.65077 15.62948 15.61588 15.60046 15.58559 15.57511 15.56897 15.55586 15.54312 15.52287 15.4979 15.46899 15.44405 15.424 15.41025 15.40048 15.39998 15.40039 15.40219 15.40069 15.40024 15.40262 15.40444 15.40907 15.42 15.43122 15.44467 15.46696 15.48738 15.5067 15.52151 15.54445 15.56281 15.5802 15.60547 15.63019 15.66026 15.68339 15.69646 15.7081 15.72536 15.74107 15.75814 15.77531 15.79442 15.80851 15.82 15.82852 15.84354 15.86477
0 0 0 0 0 0 0 0 0 0 0 0 0 0 0 0 0 0 0 0 0 0 0 0 0 0 0 0 0 0 0 0 0 0 0 0 0 0 0 0 0 0 0 0 0 0 0 0 0 0 16.46313 16.0227 15.69587 15.7328 15.73163 15.71797 15.68855 15.66516 15.64505 15.62109 15.60586 15.59074 15.5809 15.5777 15.57465 15.57095 15.56452 15.54997 15.53035 15.51014 15.4858 15.46208 15.44014 15.42308 15.41102 15.40638 15.40571 15.40159 15.39856 15.3989 15.39677 15.39807 15.40352 15.41 15.41733 15.43122 15.45432 15.47547 15.49439 15.5161 15.54112 15.57007 15.59242 15.61735 15.6461 15.67593 15.69907 15.70944 15.72425 15.74558 15.76694 15.78179 15.79799 15.81554 15.83005 15.84175 15.85731 15.87374 15.89249
0 0 0 0 0 0 0 0 0 0 0 0 0 0 0 0 0 0 0 0 0 0 0 0 0 0 0 0 0 0 0 0 0 0 0 0 0 0 0 0 0 0 0 0 0 0 0 0 0 0 0 0 15.70866 15.71929 15.71013 15.69513 15.67323 15.65015 15.62666 15.60799 15.59118 15.57964 15.57497 15.57693 15.58353 15.58969 15.59266 15.58586 15.56838 15.55046 15.52639 15.49903 15.4746 15.45152 15.43642 15.42801 15.42458 15.41549 15.41235 15.40917 15.40722 15.4029 15.40307 15.40868 15.41985 15.43315 15.45553 15.4771 15.50037 15.52633 15.55441 15.58796 15.61808 15.64971 15.68045 15.70688 15.73393 15.74388 15.76306 15.77886 15.79809 15.81184 15.82279 15.83722 15.85309 15.86074 15.87582 15.8889 15.91271
0 0 0 0 0 0 0 0 0 0 0 0 0 0 0 0 0 0 0 0 0 0 0 0 0 0 0 0 0 0 0 0 0 0 0 0 0 0 0 0 0 0 0 0 0 0 0 0 0 0 18.15208 16.45412 15.96854 15.75158 15.71701 15.69191 15.66518 15.63773 15.61864 15.60255 15.59371 15.58896 15.58799 15.59468 15.60393 15.61575 15.62081 15.61814 15.60875 15.5966 15.57191 15.54608 15.51873 15.49436 15.4798 15.46347 15.44788 15.43965 15.43071 15.42488 15.42104 15.41822 15.41897 15.42379 15.43533 15.45129 15.47024 15.49199 15.51851 15.55101 15.58542 15.62522 15.65751 15.69119 15.71929 15.74781 15.7681 15.78045 15.79725 15.81197 15.82636 15.83944 15.85082 15.86329 15.87508 15.88221 15.89657 15.911 15.933
0 0 0 0 0 0 0 0 0 0 0 0 0 0 0 0 0 0 0 0 0 0 0 0 0 0 0 0 0 0 0 0 0 0 0 0 0 0 0 0 0 0 0 0 0 0 0 0 0 0 17.48431 16.48455 16.24045 15.77414 15.73738 15.70171 15.67471 15.6458 15.631 15.6223 15.61993 15.61991 15.62514 15.63959 15.65229 15.66051 15.66804 15.66918 15.66102 15.64713 15.62665 15.59871 15.5679 15.54303 15.52043 15.49936 15.48299 15.47118 15.45804 15.45246 15.44934 15.44811 15.44806 15.45659 15.46897 15.48014 15.49894 15.51871 15.54713 15.58559 15.62896 15.66818 15.70389 15.7365 15.76257 15.79752 15.82041 15.83059 15.84328 15.85474 15.86054 15.86734 15.87828 15.88691 15.89836 15.90911 15.92055 15.93852 15.96156
0 0 0 0 0 0 0 0 0 0 0 0 0 0 0 0 0 0 0 0 0 0 0 0 0 0 0 0 0 0 0 0 0 0 0 0 0 0 0 0 0 0 0 0 0 0 0 0 0 0 0 16.5443 16.04369 15.79979 15.76259 15.7263 15.68796 15.6668 15.6523 15.65026 15.65242 15.65759 15.67061 15.6854 15.70377 15.71786 15.72891 15.73427 15.73 15.71337 15.6883 15.65837 15.62253 15.59025 15.56102 15.53782 15.51622 15.50032 15.48876 15.4813 15.47661 15.47861 15.48337 15.48633 15.49893 15.51649 15.53823 15.56346 15.60132 15.64677 15.68981 15.72941 15.76073 15.79014 15.8137 15.83525 15.85783 15.87132 15.8843 15.88732 15.89447 15.90492 15.90895 15.91937 15.92863 15.94096 15.95275 15.96901 15.9964
0 0 0 0 0 0 0 0 0 0 0 0 0 0 0 0 0 0 0 0 0 0 0 0 0 0 0 0 0 0 0 0 0 0 0 0 0 0 0 0 0 0 0 0 0 0 0 0 0 0 0 16.3199 15.85356 15.82502 15.78747 15.75743 15.71026 15.69505 15.68858 15.69296 15.70091 15.71821 15.7371 15.75179 15.76809 15.78491 15.79292 15.79791 15.79114 15.77341 15.74717 15.7117 15.67971 15.64155 15.60698 15.58183 15.56038 15.54528 15.53209 15.52601 15.52246 15.52345 15.52755 15.53432 15.54328 15.55856 15.58151 15.6162 15.66021 15.71168 15.75452 15.7914 15.82591 15.84692 15.8692 15.88654 15.90646 15.91734 15.92328 15.92749 15.92701 15.93569 15.94175 15.94738 15.96022 15.97081 15.97912 16.00113 16.02415
0 0 0 0 0 0 0 0 0 0 0 0 0 0 0 0 0 0 0 0 0 0 0 0 0 0 0 0 0 0 0 0 0 0 0 0 0 0 0 0 0 0 0 0 0 0 0 0 0 0 0 15.9174 15.88393 15.84854 15.81299 15.77804 15.7368 15.72309 15.72542 15.73715 15.75087 15.77189 15.80064 15.82172 15.83611 15.85872 15.87127 15.86941 15.86288 15.83904 15.814 15.77396 15.72889 15.68761 15.6489 15.61817 15.59783 15.58035 15.5703 15.56751 15.57366 15.57906 15.58858 15.59969 15.61417 15.63383 15.6599 15.6972 15.73845 15.78513 15.81802 15.85071 15.87454 15.89633 15.91735 15.93748 15.95448 15.9639 15.96633 15.97007 15.96965 15.9682 15.97675 15.98587 15.99463 16.00805 16.01425 16.02802 16.04944
0 0 0 0 0 0 0 0 0 0 0 0 0 0 0 0 0 0 0 0 0 0 0 0 0 0 0 0 0 0 0 0 0 0 0 0 0 0 0 0 0 0 0 0 0 0 0 0 0 18.03875 17.00798 15.94521 15.91199 15.87118 15.83221 15.79808 15.76876 15.75939 15.77157 15.79073 15.8125 15.83872 15.86694 15.8856 15.90191 15.92862 15.93877 15.94145 15.92727 15.91118 15.8832 15.84438 15.802 15.75118 15.7136 15.67658 15.64784 15.62856 15.62208 15.62392 15.63172 15.63886 15.64736 15.66083 15.67711 15.6984 15.73239 15.77214 15.818 15.84766 15.88149 15.911 15.93446 15.95808 15.98072 15.99731 16.01239 16.01915 16.01633 16.0143 16.01231 16.00959 16.01298 16.02088 16.02864 16.04039 16.04899 16.05978 16.0763
0 0 0 0 0 0 0 0 0 0 0 0 0 0 0 0 0 0 0 0 0 0 0 0 0 0 0 0 0 0 0 0 0 0 0 0 0 0 0 0 0 0 0 0 0 0 0 0 17.10717 16.51754 16.24786 15.97946 15.94201 15.89747 15.85168 15.82227 15.79929 15.80229 15.81381 15.84222 15.87086 15.90255 15.93456 15.96034 15.98792 16.00807 16.02093 16.01647 16.00474 15.97096 15.94702 15.90501 15.86209 15.81285 15.76578 15.72837 15.69897 15.68227 15.67959 15.68817 15.70168 15.71384 15.72737 15.7401 15.7529 15.77436 15.80603 15.84372 15.87372 15.9017 15.9293 15.95585 15.9801 16.0087 16.03277 16.05131 16.06404 16.07065 16.06884 16.06351 16.06033 16.06212 16.06099 16.064 16.07001 16.07153 16.07823 16.08476 16.09991
0 0 0 0 0 0 0 0 0 0 0 0 0 0 0 0 0 0 0 0 0 0 0 0 0 0 0 0 0 0 0 0 0 0 0 0 0 0 0 0 0 0 0 0 0 16.74965 16.62882 17.18396 16.59837 16.60363 16.31378 16.03149 15.99075 15.94347 15.89781 15.86105 15.84425 15.84434 15.86974 15.89539 15.92258 15.95504 15.99313 16.01884 16.04828 16.06454 16.08948 16.09745 16.0788 16.04776 16.01479 15.97209 15.92753 15.88033 15.83166 15.78678 15.75739 15.74388 15.74346 15.75061 15.76221 15.78008 15.7924 15.80258 15.82796 15.84835 15.88405 15.91582 15.94233 15.9679 15.99137 16.01528 16.03712 16.06562 16.08936 16.10367 16.11424 16.11612 16.11476 16.11149 16.1087 16.10907 16.10737 16.10975 16.10981 16.11116 16.1126 16.11862 16.13092
0 0 0 0 0 0 0 0 0 0 0 0 0 0 0 0 0 0 0 0 0 0 0 0 0 0 0 0 0 0 0 0 0 0 0 0 0 0 0 0 0 0 18.94813 18.61398 17.57655 16.67525 16.11796 16.12484 16.68051 16.38422 16.10532 16.07002 16.03548 15.99398 15.94571 15.91845 15.90103 15.90699 15.93075 15.96622 15.99685 16.02359 16.05377 16.08018 16.10953 16.13915 16.1588 16.15677 16.13318 16.09506 16.06794 16.03355 15.98911 15.94306 15.89869 15.85861 15.8348 15.82038 15.82212 15.83631 15.84551 15.86137 15.87614 15.88524 15.90585 15.92175 15.95282 15.97732 16.00117 16.02442 16.04083 16.0656 16.08786 16.1173 16.13664 16.15439 16.16312 16.169 16.17331 16.17298 16.1704 16.16313 16.15311 16.14717 16.14498 16.14205 16.14664 16.14985 16.15862
0 0 0 0 0 0 0 0 0 0 0 0 0 0 0 0 0 0 0 0 0 0 0 0 0 0 0 0 0 0 0 0 0 0 0 0 0 0 0 0 18.03451 18.43633 18.66465 17.66005 16.72284 16.15568 16.1741 16.18764 16.18648 16.17294 16.15089 16.1112 16.07157 16.03113 15.99129 15.96712 15.9564 15.96342 15.98498 16.01996 16.05257 16.08356 16.11367 16.14937 16.17321 16.19575 16.20706 16.20416 16.18507 16.16359 16.1306 16.10455 16.07056 16.01588 15.96615 15.92992 15.90368 15.88459 15.8871 15.89422 15.91179 15.92388 15.94705 15.96044 15.97571 15.99862 16.02704 16.04886 16.06429 16.08184 16.10103 16.11569 16.1347 16.14987 16.17118 16.18681 16.20026 16.20611 16.2136 16.21445 16.21137 16.20267 16.19023 16.18514 16.18353 16.1863 16.18903 16.18934 16.19384
0 0 0 0 0 0 0 0 0 0 0 0 0 0 0 0 0 0 0 0 0 0 0 0 0 0 0 0 0 0 0 0 0 0 0 0 0 0 0 18.29509 18.01349 17.39311 17.0821 16.17524 16.17471 16.18837 16.21216 16.23095 16.22956 16.21112 16.18267 16.15256 16.11128 16.07716 16.05208 16.03601 16.03403 16.0441 16.06229 16.08687 16.1166 16.14547 16.18255 16.2101 16.2392 16.26226 16.27255 16.26628 16.24904 16.23075 16.20923 16.18431 16.14668 16.09902 16.05941 16.02394 15.9931 15.96939 15.96679 15.96717 15.97804 15.98764 15.99966 16.01203 16.02983 16.05106 16.08153 16.1034 16.11998 16.13592 16.15422 16.16379 16.1782 16.19529 16.21087 16.23017 16.24319 16.24583 16.25138 16.24762 16.23789 16.22999 16.2184 16.21456 16.21515 16.21878 16.22638 16.22922 16.2326
0 0 0 0 0 0 0 0 0 0 0 0 0 0 0 0 0 0 0 0 0 0 0 0 0 0 0 0 0 0 0 0 0 0 0 0 0 0 17.4585 17.12206 16.81973 16.21448 16.21833 16.22584 16.23168 16.24597 16.25931 16.26455 16.2578 16.2464 16.22326 16.19978 16.17411 16.13872 16.1154 16.10398 16.1013 16.11512 16.13486 16.16406 16.1941 16.21731 16.25284 16.28558 16.30244 16.32416 16.33788 16.33491 16.32861 16.31256 16.29086 16.26306 16.22198 16.18207 16.13316 16.10133 16.07593 16.05247 16.04337 16.03923 16.04963 16.06157 16.0703 16.08351 16.09737 16.11766 16.14098 16.15559 16.16929 16.18513 16.19487 16.207 16.2186 16.23466 16.25223 16.27026 16.28207 16.28309 16.28103 16.2832 16.27514 16.26975 16.26311 16.25962 16.26351 16.26922 16.27477 16.28201 16.2762
0 0 0 0 0 0 0 0 0 0 0 0 0 0 0 0 0 0 0 0 0 0 0 0 0 0 0 0 0 0 0 0 0 0 19.22682 19.86085 18.95403 17.17185 16.23488 16.23831 16.24695 16.25834 16.26415 16.26863 16.2826 16.28986 16.29816 16.30847 16.31174 16.31043 16.29578 16.27975 16.26018 16.23146 16.21261 16.19921 16.19192 16.19684 16.21874 16.23914 16.26469 16.28329 16.3071 16.33411 16.36004 16.38792 16.39412 16.39716 16.39682 16.38765 16.37114 16.34644 16.31019 16.28716 16.24698 16.20206 16.18072 16.15459 16.12929 16.12035 16.1225 16.12447 16.12983 16.14167 16.15604 16.17438 16.19499 16.20652 16.22128 16.23359 16.25005 16.26591 16.27381 16.29004 16.3022 16.31097 16.32082 16.31939 16.31916 16.31573 16.31122 16.30531 16.29921 16.29813 16.30421 16.31394 16.32806 16.337 16.32821
0 0 0 0 0 0 0 0 0 0 0 0 0 0 0 0 0 0 0 0 0 0 0 0 0 0 0 0 0 19.78237 19.35268 19.1167 19.08926 18.85319 18.53421 17.90887 16.27809 16.2674 16.26253 16.26476 16.27704 16.28914 16.30503 16.31897 16.33163 16.32456 16.34253 16.35284 16.36347 16.36296 16.35189 16.34618 16.33415 16.31866 16.29981 16.29478 16.29211 16.29866 16.32305 16.32583 16.33792 16.3561 16.37608 16.40546 16.4299 16.44347 16.44879 16.44725 16.44322 16.44116 16.42918 16.411 16.38741 16.36721 16.33757 16.30606 16.27578 16.25067 16.23511 16.22026 16.21679 16.21404 16.21348 16.22071 16.23016 16.23889 16.24557 16.25141 16.26554 16.28201 16.29515 16.31012 16.32675 16.33786 16.35259 16.35867 16.36196 16.36549 16.36704 16.36204 16.35926 16.35498 16.34473 16.34803 16.35361 16.36294 16.37176 16.37346 16.35527
0 0 0 0 0 0 0 0 0 0 0 0 0 0 0 0 0 0 0 0 0 0 0 0 0 19.57891 18.83893 18.81196 17.81117 17.08885 16.71928 16.37389 16.36368 16.34426 16.32222 16.30195 16.29111 16.27975 16.28614 16.2965 16.30616 16.31931 16.34141 16.36645 16.38468 16.3891 16.40935 16.42043 16.42547 16.43028 16.43247 16.42398 16.41814 16.4015 16.37721 16.37256 16.36788 16.3733 16.37779 16.37937 16.39954 16.42018 16.44188 16.46514 16.4836 16.49972 16.50391 16.49947 16.50221 16.49878 16.4916 16.4754 16.45846 16.43743 16.41459 16.39152 16.36809 16.34122 16.31645 16.30415 16.30245 16.29697 16.29817 16.30126 16.30273 16.306 16.30716 16.31252 16.32694 16.33886 16.35466 16.36317 16.37171 16.38368 16.39375 16.39726 16.40125 16.39986 16.40125 16.39867 16.39615 16.39562 16.39191 16.39769 16.40712 16.41656 16.42005 16.40491 16.36179
0 0 0 0 0 0 0 0 0 0 0 0 0 0 0 0 0 0 0 0 0 0 0 19.80228 18.92074 18.29452 17.9102 17.53553 16.46499 16.43425 16.40162 16.37496 16.35529 16.34037 16.32175 16.31433 16.3081 16.30613 16.30718 16.31835 16.32639 16.34039 16.36544 16.38443 16.40797 16.42307 16.44574 16.46319 16.47813 16.48964 16.49928 16.50201 16.4953 16.48523 16.46206 16.4437 16.44421 16.43995 16.43748 16.43589 16.45534 16.46727 16.48143 16.49808 16.51539 16.52878 16.53587 16.54053 16.53946 16.54659 16.5469 16.54312 16.53593 16.52626 16.50919 16.48704 16.47004 16.44477 16.42354 16.4053 16.40007 16.38943 16.38319 16.37424 16.3679 16.35972 16.35879 16.36756 16.37703 16.39029 16.40054 16.41362 16.42683 16.43452 16.44277 16.44412 16.44292 16.44635 16.4404 16.43789 16.43782 16.43653 16.43403 16.44378 16.45064 16.45693 16.44772 16.41893 16.35944
0 0 0 0 0 0 0 0 0 0 0 0 0 0 0 0 0 0 0 0 0 0 19.26199 18.37179 17.99323 17.94816 17.57115 17.17561 16.44362 16.41049 16.38426 16.36332 16.34617 16.3328 16.32405 16.31892 16.31656 16.31734 16.32379 16.32828 16.33073 16.34324 16.36751 16.39576 16.41551 16.44271 16.46421 16.49591 16.521 16.53516 16.53744 16.53691 16.53775 16.52992 16.51884 16.50658 16.49348 16.48553 16.47998 16.4848 16.49116 16.50208 16.51639 16.53123 16.55089 16.56571 16.5796 16.58468 16.59138 16.59349 16.59662 16.59548 16.59908 16.59674 16.58031 16.56211 16.54516 16.52687 16.50666 16.49395 16.4871 16.48369 16.47339 16.46176 16.44627 16.44327 16.43731 16.44263 16.44666 16.44996 16.45698 16.46691 16.46898 16.47411 16.47876 16.47959 16.48068 16.47717 16.47781 16.4729 16.47342 16.47666 16.47938 16.49137 16.50042 16.49934 16.4754 16.42655 16.35524
0 0 0 0 0 0 0 0 0 0 0 0 0 0 0 0 0 0 0 0 0 20.51988 19.47424 18.36925 17.65765 17.59904 17.18978 17.15632 16.42038 16.39605 16.37285 16.35604 16.34162 16.33569 16.32815 16.32691 16.32379 16.32898 16.3304 16.33682 16.3438 16.36074 16.37877 16.39161 16.41425 16.45104 16.48686 16.51613 16.52891 16.54321 16.54603 16.54596 16.55359 16.55436 16.54795 16.53558 16.53336 16.52807 16.52276 16.52211 16.52528 16.5313 16.54035 16.56245 16.58742 16.60096 16.61394 16.6218 16.63395 16.64589 16.65013 16.65377 16.65487 16.65971 16.6594 16.65199 16.63297 16.61415 16.5943 16.5838 16.56671 16.55458 16.54161 16.52982 16.52446 16.5133 16.51561 16.52061 16.52357 16.51755 16.51912 16.52079 16.52084 16.52011 16.52419 16.52897 16.52241 16.51776 16.51462 16.51192 16.51104 16.51213 16.51553 16.52587 16.53079 16.52497 16.49028 16.42778 16.34488
0 0 0 0 0 0 0 0 0 0 0 0 0 0 0 0 0 0 0 0 0 0 0 18.98296 18.02546 17.61146 17.19464 16.79783 16.40862 16.38456 16.36538 16.3533 16.34043 16.33144 16.32229 16.3191 16.32097 16.32482 16.32853 16.33696 16.35167 16.36942 16.37418 16.39245 16.42331 16.45776 16.48945 16.50574 16.52068 16.53336 16.54809 16.56695 16.58146 16.57831 16.56735 16.56882 16.57932 16.58056 16.5743 16.57655 16.57969 16.58136 16.58391 16.60149 16.6272 16.63352 16.64737 16.65228 16.6609 16.67813 16.68871 16.69749 16.69888 16.70428 16.72168 16.72483 16.70813 16.7011 16.68369 16.66989 16.65893 16.64502 16.63184 16.61733 16.60537 16.5955 16.59559 16.5949 16.58865 16.57742 16.57176 16.5703 16.56854 16.56985 16.57477 16.57377 16.57329 16.56774 16.56236 16.56104 16.56186 16.56042 16.56406 16.56982 16.56646 16.54774 16.50205 16.42883 16.34007
0 0 0 0 0 0 0 0 0 0 0 0 0 0 0 0 0 0 0 0 0 20.94262 20.59929 19.57615 18.05837 17.63832 17.21194 17.16314 16.7555 16.37763 16.36165 16.34153 16.336 16.32745 16.31629 16.31909 16.32833 16.33301 16.33564 16.34361 16.35232 16.37062 16.37939 16.40269 16.41975 16.44076 16.46959 16.49639 16.51419 16.53522 16.56119 16.58022 16.59323 16.60126 16.59509 16.60881 16.61484 16.61821 16.62143 16.62617 16.62661 16.62649 16.63629 16.645 16.66386 16.67735 16.68943 16.69768 16.70197 16.70809 16.72509 16.72806 16.74212 16.76316 16.7741 16.78203 16.77824 16.76236 16.75241 16.74458 16.73013 16.71906 16.71012 16.70229 16.69251 16.68088 16.67833 16.67238 16.66317 16.65572 16.65349 16.63881 16.63256 16.63004 16.6283 16.62231 16.61859 16.61292 16.60909 16.60421 16.60321 16.60018 16.60558 16.60904 16.59653 16.56721 16.51688 16.44029 16.34061
0 0 0 0 0 0 0 0 0 0 0 0 0 0 0 0 0 0 0 20.99572 20.89438 20.77164 19.89775 18.77526 18.07128 17.65861 17.22591 17.53744 16.41613 16.37502 16.35483 16.33953 16.32802 16.31677 16.31237 16.3175 16.32518 16.3377 16.34303 16.35217 16.35962 16.37126 16.3852 16.39703 16.40779 16.42902 16.45323 16.48379 16.51064 16.53362 16.5654 16.58951 16.61321 16.63435 16.64164 16.64718 16.65364 16.65599 16.66968 16.67256 16.67048 16.67052 16.67968 16.6827 16.69176 16.70489 16.70985 16.72471 16.73515 16.74904 16.76263 16.76457 16.78848 16.8177 16.83123 16.8406 16.8444 16.84637 16.84177 16.83528 16.81808 16.80152 16.79034 16.77926 16.7675 16.74974 16.74378 16.73262 16.72505 16.71815 16.7099 16.70223 16.69675 16.69294 16.69143 16.68317 16.68323 16.67644 16.66732 16.6626 16.65882 16.65278 16.65044 16.64734 16.63029 16.58667 16.53266 16.45079 16.35334
0 0 0 0 0 0 0 0 0 0 0 0 0 0 0 0 0 0 20.46799 20.33024 19.94693 19.4593 18.82041 18.12104 17.7354 17.66645 17.24264 16.82217 16.42041 16.37889 16.35274 16.33373 16.32356 16.31568 16.31696 16.32631 16.33802 16.35237 16.36957 16.37254 16.37599 16.38683 16.39575 16.41551 16.42115 16.43721 16.46552 16.49291 16.524 16.55295 16.58285 16.61115 16.6349 16.65732 16.68134 16.68284 16.69628 16.70526 16.70972 16.71308 16.71691 16.71712 16.72652 16.72817 16.73475 16.73869 16.74246 16.75105 16.76 16.77166 16.78596 16.79798 16.83097 16.85857 16.87399 16.89299 16.90484 16.91244 16.90804 16.9206 16.9103 16.89661 16.88261 16.86871 16.85099 16.83632 16.81956 16.80066 16.78965 16.77642 16.76623 16.75586 16.74661 16.7401 16.73778 16.73239 16.73307 16.72725 16.71616 16.71291 16.71021 16.70497 16.69542 16.68654 16.66912 16.62567 16.56106 16.47995 16.39175
0 0 0 0 0 0 0 0 0 0 0 0 0 0 0 0 0 20.9426 20.36171 19.70969 19.16712 18.49799 18.14036 18.11463 18.09874 17.67413 17.25063 16.4785 16.41639 16.37915 16.35301 16.33383 16.32827 16.32033 16.32803 16.33713 16.35062 16.36417 16.37639 16.38557 16.39646 16.41114 16.4223 16.43922 16.45438 16.47271 16.49415 16.52184 16.5572 16.59083 16.62489 16.6555 16.67468 16.70053 16.71032 16.71989 16.72536 16.73502 16.74289 16.7559 16.75539 16.7563 16.75969 16.76453 16.76664 16.77312 16.77935 16.77724 16.79486 16.81044 16.82678 16.84382 16.88139 16.90385 16.92567 16.94523 16.95718 16.96684 16.97314 16.99121 16.98754 16.97301 16.95816 16.94364 16.92436 16.90296 16.88052 16.86718 16.84866 16.83178 16.82015 16.81024 16.80519 16.80267 16.79547 16.78967 16.78849 16.77497 16.76428 16.75543 16.75086 16.7451 16.73255 16.72386 16.69961 16.65801 16.59435 16.52019 16.44267
0 0 0 0 0 0 0 0 0 0 0 0 0 0 0 0 20.46137 20.43175 19.55173 18.91507 18.54258 18.1718 18.13555 18.12029 18.09976 17.68018 17.24405 16.47441 16.4144 16.38429 16.35901 16.3404 16.33847 16.33878 16.34965 16.35985 16.37405 16.38182 16.38908 16.39532 16.41427 16.43243 16.4492 16.47343 16.50101 16.52528 16.54744 16.57463 16.59962 16.62947 16.66499 16.69423 16.72238 16.74221 16.7557 16.76437 16.77547 16.78332 16.79255 16.79555 16.80143 16.79818 16.80367 16.80099 16.79905 16.80206 16.79796 16.81057 16.81848 16.83528 16.85804 16.88803 16.91425 16.94317 16.976 16.99796 17.01605 17.02748 17.04034 17.06344 17.06598 17.06012 17.04505 17.02293 16.99933 16.97013 16.94231 16.92335 16.9016 16.88372 16.86685 16.85578 16.84751 16.84277 16.8413 16.8346 16.82882 16.82121 16.80909 16.80046 16.79829 16.79036 16.77467 16.76259 16.74183 16.70559 16.64854 16.57427 16.49203
0 0 0 0 0 0 0 0 0 0 0 0 0 0 0 21.04731 20.3013 19.58392 18.94254 18.57295 18.19903 18.16926 18.13737 17.74628 17.70926 17.29526 16.50886 16.45921 16.41236 16.39034 16.3644 16.34914 16.34645 16.34901 16.36052 16.37408 16.38943 16.40269 16.40892 16.42317 16.44785 16.47344 16.49811 16.52766 16.56111 16.58855 16.61067 16.63772 16.65846 16.68157 16.71134 16.74212 16.76334 16.78485 16.79767 16.81064 16.83034 16.84074 16.85458 16.86591 16.86581 16.86699 16.86612 16.85978 16.85357 16.84529 16.8381 16.84057 16.83936 16.85969 16.88182 16.91356 16.93962 16.97394 17.00854 17.03529 17.05628 17.07141 17.09116 17.1091 17.1191 17.12594 17.11133 17.10078 17.07679 17.04866 17.02539 16.99374 16.96897 16.94799 16.92567 16.90616 16.8969 16.88675 16.8769 16.86978 16.86224 16.85657 16.84178 16.83192 16.825 16.81965 16.80638 16.79707 16.78395 16.75313 16.70156 16.62918 16.55293
0 0 0 0 0 0 0 0 0 0 0 0 0 0 20.37818 20.37276 19.65379 18.97461 18.58906 18.20638 18.16657 17.77411 17.73757 17.71773 17.31598 16.88626 16.49397 16.45525 16.42105 16.39496 16.37641 16.36586 16.36617 16.37058 16.38141 16.39473 16.40999 16.42345 16.44377 16.46468 16.4964 16.52565 16.56065 16.60116 16.62826 16.65835 16.68445 16.71011 16.73853 16.76631 16.78679 16.81164 16.82849 16.83942 16.85201 16.86219 16.87633 16.89211 16.90356 16.91893 16.93185 16.93607 16.93772 16.92924 16.90731 16.88938 16.88561 16.87561 16.86363 16.87312 16.8955 16.9226 16.96127 16.99991 17.03634 17.07594 17.10905 17.13206 17.15126 17.16247 17.16936 17.17051 17.16449 17.15212 17.13467 17.10644 17.08284 17.05237 17.02302 16.9974 16.9736 16.95319 16.93663 16.92245 16.91061 16.90214 16.89946 16.88547 16.87561 16.86834 16.85844 16.85287 16.8391 16.83012 16.81177 16.78044 16.72918 16.66337 16.58195
0 0 0 0 0 0 0 0 0 0 0 0 0 20.24173 20.42249 19.67018 18.98795 18.61629 18.21309 18.16828 17.77585 17.7407 17.72181 17.71086 17.29132 16.50718 16.47967 16.45412 16.43455 16.41015 16.39835 16.39871 16.40026 16.40804 16.41429 16.43328 16.44303 16.45678 16.48105 16.51023 16.55466 16.59085 16.62525 16.65955 16.69346 16.7211 16.75936 16.79695 16.81931 16.84331 16.8595 16.87009 16.88348 16.89505 16.8977 16.89977 16.90769 16.92926 0 0 0 16.93521 16.95298 17.00888 16.98855 16.95566 16.92347 16.90543 16.88421 16.88779 16.90169 16.93487 16.97565 17.02003 17.06832 17.11272 17.14996 17.17691 17.19859 17.20935 17.22268 17.22017 17.21952 17.21394 17.19786 17.17104 17.14147 17.1084 17.07971 17.04722 17.01882 16.99538 16.97151 16.96032 16.94835 16.9344 16.92455 16.91358 16.9025 16.89738 16.89325 16.88488 16.87934 16.86804 16.85321 16.82056 16.76793 16.69744 16.61334
0 0 0 0 0 0 0 0 0 0 0 0 0 20.61958 19.68312 19.00979 18.59583 18.18674 18.15659 17.73932 17.7233 17.71422 17.71181 16.54864 16.52429 16.50135 16.47448 16.45907 16.43995 16.4233 16.42573 16.43001 16.43786 16.44774 16.45764 16.46942 16.48736 16.51157 16.53569 16.56887 16.6172 16.66564 16.70593 16.74488 16.78139 16.81499 16.84865 16.87924 16.89764 16.91523 16.92787 17.77106 16.94073 16.93516 16.93056 17.32704 18.19728 19.06554 0 0 0 0 0 17.48014 17.04584 17.00739 16.96336 16.92128 16.91269 16.91586 16.93199 16.95663 16.99016 17.05193 17.10766 17.14588 17.18928 17.22425 17.24259 17.24969 17.25909 17.25644 17.25686 17.25578 17.2475 17.221 17.19395 17.1633 17.13508 17.09776 17.07532 17.04928 17.03578 17.01294 16.99841 16.98446 16.96562 16.94778 16.93851 16.93234 16.92792 16.91814 16.9108 16.9026 16.88763 16.85494 16.79946 16.72549 16.63434
0 0 0 0 0 0 0 0 0 0 0 0 20.78196 19.98076 19.00142 18.59231 18.15835 17.73747 17.72666 17.71928 17.71184 17.70506 17.31112 16.54112 16.51944 16.49939 16.48619 16.47248 16.45654 16.45141 16.46125 16.46595 16.47401 16.4893 16.49823 16.51204 16.52888 16.55238 16.59007 16.63155 16.68356 16.73238 16.77512 16.81277 16.8527 16.88281 16.90056 0 0 16.91358 0 18.73034 17.84672 17.39309 17.80737 17.78143 18.63617 19.11183 20.17762 17.79344 17.00664 0 0 0 18.87729 17.03352 16.98331 16.95385 16.94604 16.95558 16.96531 16.99107 17.02946 17.0827 17.14549 17.19134 17.23752 17.27767 17.2972 17.30583 17.30274 17.30115 17.30079 17.28981 17.28657 17.26182 17.23682 17.21083 17.17977 17.14735 17.1282 17.10712 17.0929 17.06683 17.05273 17.0316 17.01333 17.00067 16.98894 16.98234 16.97859 16.96824 16.95761 16.94533 16.92921 16.89764 16.84315 16.76158 16.65748
0 0 0 0 0 0 0 0 0 0 0 20.09521 20.02732 19.00903 18.57637 17.73922 17.72649 17.71873 17.71033 17.70907 17.71864 16.94631 16.56536 16.55291 16.52409 16.51713 16.5067 16.49923 16.49275 16.49451 16.50225 16.5128 16.52122 16.53159 16.54215 16.56016 16.58526 16.62174 16.66536 16.71328 16.77248 16.81866 16.85154 16.87562 17.75072 0 0 0 0 0 19.58789 20.44544 20.17972 19.54781 19.14571 18.67292 18.65855 17.37126 16.98485 17.00172 17.00956 17.00864 17.01246 19.21812 19.61195 17.03201 17.01066 16.98725 16.98367 16.98929 16.99443 17.02285 17.06882 17.11085 17.1756 17.23848 17.28878 17.3239 17.34192 17.34101 17.34858 17.34781 17.34157 17.33444 17.32239 17.29949 17.2762 17.2618 17.24105 17.21544 17.19267 17.16961 17.14691 17.12162 17.10038 17.08304 17.05867 17.04998 17.0355 17.02776 17.02081 17.01135 16.99562 16.98313 16.96747 16.93794 16.88457 16.80353 16.69287
0 0 0 0 0 0 0 0 0 0 20.80818 20.08684 19.03571 18.20002 17.74481 17.33959 17.32609 17.33259 17.33929 17.34898 17.35042 16.58657 16.58239 16.5685 16.54584 16.54305 16.54212 16.54092 16.53492 16.53193 16.54 16.54551 16.55642 16.56572 16.58342 16.61095 16.64209 16.69094 16.73279 16.80166 16.8605 16.89659 17.33104 0 0 0 0 0 0 0 0 0 0 0 19.55903 19.15858 18.27004 16.98823 17.00657 17.02413 17.03474 17.03718 17.03517 17.04235 17.04422 17.04862 17.02865 17.03027 17.01283 17.02495 17.04353 17.07799 17.12363 17.17013 17.21567 17.26736 17.31827 17.35084 17.37641 17.38362 17.38238 17.37316 17.36609 17.35802 17.34587 17.32426 17.30766 17.30045 17.28603 17.27023 17.25404 17.23367 17.20686 17.18395 17.16295 17.14181 17.12598 17.11217 17.0987 17.08732 17.07926 17.06106 17.04526 17.02216 17.00278 16.96632 16.91404 16.83364 16.72713
0 0 0 0 0 0 0 0 0 0 20.38284 19.06997 18.24454 17.76751 16.96891 16.94425 16.57486 16.58571 16.62127 16.62388 16.61178 16.60128 16.60075 16.59871 16.5901 16.58964 16.59211 16.59974 16.59375 16.58095 16.58493 16.59948 16.60367 16.61626 16.63991 16.66226 16.6967 16.73713 16.79157 16.85885 18.20338 0 0 0 0 0 0 0 0 0 0 0 0 0 20.24224 18.77101 17.01538 17.02148 17.04587 17.06963 17.07691 17.0763 17.07714 17.07183 17.07088 17.06382 17.06957 17.06537 17.06047 17.07448 17.09677 17.14232 17.17872 17.22016 17.25964 17.29989 17.34763 17.38221 17.40266 17.40828 17.40537 17.39544 17.38583 17.37674 17.37066 17.35627 17.3455 17.33691 17.32374 17.31041 17.2956 17.27336 17.24949 17.22527 17.2076 17.19336 17.18306 17.17193 17.15883 17.14898 17.13788 17.11886 17.09793 17.0679 17.04074 16.99837 16.94491 16.8719 16.76897
0 0 0 0 0 0 0 0 0 20.4819 19.83034 18.66458 17.78526 16.96379 16.57672 16.56402 16.57234 16.58889 16.60413 16.61164 16.6169 16.62038 16.61946 16.62816 16.63407 16.63276 16.63518 16.64855 16.64887 16.64269 16.6448 16.65152 16.66179 16.67525 16.69861 16.72228 16.7523 16.7957 16.84478 17.73087 17.98526 0 0 0 0 0 0 0 0 0 0 0 0 19.49134 19.2427 17.91708 17.03115 17.04866 17.08063 17.10449 17.11323 17.11794 17.11566 17.11246 17.10945 17.10711 17.10279 17.0966 17.11588 17.12476 17.15827 17.19808 17.23896 17.27033 17.30193 17.32876 17.36446 17.39892 17.4221 17.42942 17.42687 17.41641 17.40021 17.39324 17.38887 17.38328 17.38291 17.37748 17.36594 17.35 17.33072 17.30916 17.28782 17.26994 17.25655 17.24238 17.22959 17.22258 17.20855 17.19657 17.18174 17.15961 17.13376 17.10418 17.06804 17.02534 16.96552 16.89293 16.79708
0 0 0 0 0 0 0 0 21.24025 20.20371 18.70851 17.78793 17.32637 16.55869 16.54808 16.54583 16.55766 16.58375 16.60413 16.61842 16.62698 16.63177 16.63696 16.64015 16.65224 16.6567 16.67366 16.68779 16.69305 16.69329 16.69731 16.70128 16.71125 16.72342 16.74102 16.76404 16.79103 16.82838 17.26587 17.73634 18.23232 19.14983 0 20.05535 20.69261 0 0 0 0 0 0 0 20.32063 19.26713 18.38401 17.05059 17.05961 17.08649 17.12069 17.14513 17.15488 17.15011 17.14707 17.14452 17.14666 17.14579 17.14345 17.14739 17.15108 17.18171 17.22072 17.26048 17.30365 17.32758 17.35054 17.3706 17.39025 17.42637 17.44734 17.45636 17.45394 17.44144 17.42585 17.41743 17.41044 17.40851 17.4087 17.40579 17.39463 17.38074 17.36332 17.34258 17.32394 17.31372 17.30381 17.28929 17.28526 17.27636 17.26611 17.24787 17.23105 17.20657 17.18006 17.14115 17.09736 17.04635 16.98974 16.9117 16.82061
0 0 0 0 0 0 0 0 21.2542 20.21747 18.69665 17.75972 16.55877 16.53192 16.52366 16.52575 16.54753 16.57437 16.60033 16.62509 16.6427 16.65445 16.65519 16.65937 16.67239 16.68953 16.71382 16.73453 16.74843 16.76248 16.7753 16.77753 16.77581 16.78203 16.79477 16.81136 16.83639 16.85041 16.86949 17.3282 17.78556 18.26084 18.74132 19.21024 20.05901 0 0 0 0 0 0 19.71962 18.86908 18.84706 17.06396 17.08217 17.10726 17.14005 17.16928 17.19578 17.20808 17.20828 17.19376 17.18826 17.1878 17.18606 17.18428 17.18434 17.19182 17.2202 17.26233 17.3001 17.33191 17.36101 17.38401 17.40421 17.42487 17.44809 17.46916 17.47946 17.47654 17.46856 17.46035 17.44918 17.4404 17.44162 17.44219 17.44068 17.42585 17.41289 17.39373 17.38056 17.3689 17.35948 17.34619 17.33392 17.32936 17.32303 17.31133 17.29077 17.27747 17.25338 17.21726 17.17334 17.12918 17.0682 17.00383 16.92524 16.8346
0 0 0 0 0 0 0 0 0 20.24753 18.70242 17.77443 16.54531 16.5111 16.50282 16.51415 16.53514 16.56133 16.59734 16.62445 16.64866 16.66484 16.66838 16.67997 16.69734 16.724 16.75101 16.78097 16.80424 16.83294 16.84941 16.85445 16.84883 16.84786 16.85923 16.87208 16.88146 16.89037 16.90026 16.92782 16.938 16.95019 16.96793 17.40058 18.33426 19.22793 20.10193 20.46225 0 0 20.06324 18.86577 17.95775 17.07521 17.09363 17.12612 17.15881 17.19168 17.2178 17.23833 17.25096 17.25632 17.24971 17.23803 17.23062 17.22515 17.22081 17.22431 17.23137 17.25911 17.29563 17.32972 17.35961 17.38619 17.40997 17.43246 17.45117 17.46838 17.48743 17.49676 17.4998 17.50907 17.49695 17.48796 17.476 17.46686 17.46578 17.47294 17.46854 17.45643 17.44576 17.43993 17.42888 17.41868 17.40625 17.38814 17.37456 17.35892 17.35301 17.34113 17.31388 17.28514 17.24102 17.19737 17.14611 17.08497 17.01459 16.93713 16.84792
0 0 0 0 0 0 0 0 0 21.10644 19.53141 18.25081 16.92055 16.50177 16.48996 16.4884 16.51551 16.54785 16.58404 16.62095 16.64695 16.6726 16.68647 16.71088 16.73766 16.77002 16.80486 16.8491 16.87857 16.90328 16.91399 16.90987 16.89651 16.89984 16.90642 16.91242 16.91725 16.92179 16.92665 16.94787 16.96623 16.97471 16.98514 16.98919 17.42411 17.88866 18.35343 18.79852 20.08535 18.86365 17.48676 17.0637 17.07997 17.11363 17.15195 17.17548 17.20005 17.22955 17.24829 17.26473 17.28415 17.28888 17.28329 17.27944 17.26693 17.2525 17.25133 17.25311 17.26338 17.29021 17.31858 17.35279 17.38461 17.41201 17.43458 17.46062 17.47552 17.50125 17.50914 17.51179 17.52424 17.53416 17.53724 17.52581 17.51798 17.50896 17.50306 17.49633 17.49856 17.49108 17.48786 17.48018 17.46509 17.46275 17.45134 17.43441 17.41183 17.39733 17.39112 17.37399 17.34053 17.30474 17.27069 17.22527 17.17188 17.10283 17.02773 16.93248 16.84935
0 0 0 0 0 0 0 0 0 21.22388 20.50886 18.71276 17.33568 16.51779 16.48543 16.47939 16.49505 16.52661 16.5619 16.60309 16.64133 16.68106 16.71297 16.74414 16.78037 16.82373 16.87587 16.92319 16.96138 16.96973 16.97351 16.96789 16.96111 16.95015 16.94312 16.9456 16.94534 16.94865 16.95 16.95595 16.97598 16.99473 17.00481 17.01485 17.01309 17.02108 17.46316 0 18.85418 17.49966 17.07399 17.09498 17.12698 17.16192 17.20699 17.23088 17.25372 17.27847 17.29394 17.30552 17.31224 17.31508 17.31367 17.30702 17.30009 17.28528 17.27289 17.27201 17.28887 17.30994 17.3402 17.36236 17.39834 17.42813 17.4584 17.48806 17.50834 17.52244 17.52141 17.52793 17.54049 17.54717 17.55408 17.55304 17.54346 17.54176 17.5349 17.52198 17.51466 17.51722 17.51339 17.50151 17.49517 17.48899 17.47901 17.45945 17.43963 17.4299 17.40976 17.39262 17.36143 17.3224 17.28716 17.24332 17.18112 17.10813 17.03126 16.94096 16.84173
0 0 0 0 0 0 0 0 0 0 20.96561 19.58672 17.82967 16.96025 16.52319 16.477 16.48329 16.50895 16.54433 16.58688 16.63404 16.68949 16.73065 16.77109 16.8198 16.86814 16.92767 16.97963 0 0 0 17.23313 17.00202 16.99055 16.97964 16.978 16.97531 16.97854 16.97522 16.98409 16.99269 17.00246 17.02147 17.03576 17.04912 17.06188 17.08184 17.52751 17.09606 17.10561 17.12287 17.14941 17.17762 17.2152 17.24446 17.27965 17.30665 17.32525 17.33844 17.34021 17.33792 17.34566 17.34211 17.34501 17.34436 17.32135 17.30566 17.30496 17.31792 17.34055 17.37172 17.38768 17.43271 17.45868 17.48804 17.51177 17.51483 17.53124 17.53254 17.54078 17.55046 17.55595 17.56565 17.56404 17.55219 17.55093 17.54938 17.54686 17.53918 17.53881 17.53059 17.51947 17.51617 17.50972 17.50015 17.48529 17.4723 17.46649 17.44431 17.4149 17.38069 17.34124 17.30101 17.24849 17.18481 17.11732 17.04582 16.95143 16.83836
0 0 0 0 0 0 0 0 0 0 0 20.90686 19.62735 17.86444 16.97282 16.54445 16.50307 16.51021 16.54248 16.58828 16.63513 16.69663 16.74574 16.7978 16.84249 16.89581 17.35485 17.79763 0 0 0 17.95981 18.26111 17.01178 17.00425 17.00243 17.00279 17.0067 17.00972 17.01873 17.02889 17.04362 17.05313 17.07345 17.09546 17.11654 17.13249 17.14195 17.14726 17.1554 17.17898 17.20585 17.23567 17.27212 17.29561 17.31857 17.34174 17.36106 17.36966 17.37493 17.37964 17.37711 17.38086 17.37761 17.37887 17.35498 17.33769 17.33609 17.34057 17.3644 17.40446 17.4473 17.46778 17.49664 17.52334 17.53606 17.54791 17.55324 17.55889 17.55587 17.55928 17.56964 17.5713 17.57191 17.57248 17.56616 17.56167 17.5588 17.55934 17.55714 17.55031 17.53521 17.53378 17.52396 17.51706 17.5095 17.49541 17.48356 17.46996 17.45137 17.41848 17.3748 17.33013 17.27231 17.20332 17.14313 17.06306 16.96715 16.85715
0 0 0 0 0 0 0 0 0 0 0 0 21.06421 20.03625 17.85319 16.99378 16.53843 16.51777 16.54648 16.59147 16.64376 16.71908 16.77499 16.82229 16.8612 16.92812 17.76586 0 0 19.51714 19.58954 17.90272 17.04365 17.01861 17.00863 17.01088 17.0183 17.0265 17.03846 17.0571 17.07091 17.08326 17.10059 17.12304 17.14292 17.16568 17.18283 17.18588 17.18305 17.19927 17.22344 17.25384 17.29642 17.31614 17.3363 17.35794 17.38363 17.39579 17.40504 17.40676 17.41621 17.4229 17.41626 17.41005 17.40558 17.39573 17.37736 17.37148 17.37313 17.39538 17.43561 17.47466 17.51001 17.53414 17.54681 17.55794 17.57611 17.58571 17.58378 17.57636 17.58802 17.59016 17.58394 17.58118 17.58152 17.58344 17.58057 17.57048 17.56668 17.57071 17.55267 17.55207 17.54909 17.54553 17.53263 17.52395 17.50436 17.5016 17.49317 17.47394 17.43766 17.39682 17.3554 17.30219 17.23361 17.16975 17.09645 17.01336 16.9018
0 0 0 0 0 0 0 0 0 0 0 0 0 0 0 17.84458 16.9429 16.53844 16.55319 16.59912 16.66755 16.73246 16.79382 16.83988 16.86759 17.31017 17.38208 17.8268 18.26364 20.62311 19.59226 17.89228 17.04118 17.02116 17.0142 17.0238 17.04486 17.05765 17.0728 17.09169 17.11239 17.13554 17.15752 17.17662 17.19957 17.21008 17.21699 17.21577 17.23341 17.24063 17.27136 17.30556 17.34265 17.35489 17.37153 17.38901 17.39764 17.4162 17.43661 17.44394 17.45162 17.45167 17.44678 17.44169 17.44372 17.43806 17.42653 17.4227 17.42919 17.45039 17.48242 17.52092 17.55109 17.57862 17.59185 17.59783 17.60492 17.60671 17.60834 17.61475 17.62134 17.61597 17.61023 17.60609 17.59504 17.59649 17.59857 17.59101 17.5901 17.57773 17.56786 17.56254 17.56201 17.5604 17.55536 17.54181 17.52749 17.5128 17.50616 17.49499 17.47991 17.44098 17.38772 17.33254 17.27316 17.20005 17.13532 17.05231 16.9496
0 0 0 0 0 0 0 0 0 0 0 0 0 0 0 18.75729 17.79737 16.56273 16.57508 16.62266 16.68942 16.75742 16.82102 16.8569 16.89616 16.94388 17.78445 17.84554 18.2858 0 19.6336 17.06565 17.04338 17.02428 17.04813 17.04208 17.06387 17.08174 17.10324 17.11951 17.14289 17.16724 17.18577 17.21745 17.23436 17.24974 17.25709 17.26766 17.28607 17.30185 17.32574 17.34437 17.36904 17.38528 17.39959 17.42048 17.43247 17.45092 17.46694 17.47459 17.47704 17.47487 17.46628 17.46045 17.45792 17.45594 17.45244 17.45131 17.46501 17.48927 17.52848 17.56492 17.59631 17.60851 17.62368 17.63659 17.64382 17.6449 17.64326 17.65773 17.6653 17.65735 17.64362 17.62797 17.62025 17.62167 17.62595 17.62071 17.61442 17.59893 17.59856 17.58781 17.58262 17.57115 17.56259 17.54977 17.54471 17.5215 17.51527 17.51161 17.50256 17.48251 17.44131 17.38679 17.33423 17.25343 17.19495 17.11972 17.02653
0 0 0 0 0 0 0 0 0 0 0 0 0 20.04845 19.63931 18.73502 17.83947 16.59622 16.59063 16.64714 16.72011 16.79246 16.85684 16.89884 16.936 16.98023 18.25034 18.72382 19.17416 19.07032 20.07535 17.48777 17.0478 17.04445 17.05291 17.07113 17.08908 17.11317 17.12524 17.14185 17.16115 17.19298 17.22318 17.23684 17.26063 17.28311 17.30081 17.31439 17.32587 17.34329 17.37005 17.37885 17.39168 17.41283 17.42978 17.44439 17.46286 17.48434 17.49391 17.49715 17.50354 17.50412 17.49299 17.48843 17.48735 17.48969 17.47872 17.49486 17.50668 17.53512 17.56859 17.60724 17.62996 17.63624 17.65819 17.6654 17.68535 17.67245 17.68122 17.69618 17.70592 17.69463 17.6833 17.66712 17.66563 17.66436 17.65241 17.64277 17.62812 17.61463 17.60714 17.59774 17.58665 17.57779 17.5701 17.56509 17.56227 17.5489 17.54302 17.53919 17.52914 17.5144 17.47731 17.4321 17.37779 17.31646 17.25648 17.18117 17.11186
0 0 0 0 0 0 0 0 0 0 0 0 19.17867 18.74113 18.75771 18.29959 17.42168 16.62511 16.62803 16.68431 16.74578 16.8195 16.87815 16.9315 16.97156 17.02064 17.93159 17.94813 18.77003 19.63633 17.91696 17.05917 17.06843 17.0799 17.10029 17.1213 17.13567 17.13668 17.15432 17.17818 17.19275 17.20988 17.22758 17.2524 17.28199 17.30839 17.327 17.33369 17.34775 17.35814 17.37321 17.39515 17.41307 17.42332 17.4385 17.45632 17.47065 17.48763 17.49803 17.50402 17.50881 17.50935 17.51434 17.51379 17.51422 17.51497 17.52371 17.53205 17.54914 17.57722 17.61964 17.65733 17.6708 17.6909 17.70184 17.70761 17.71207 17.70447 17.70758 17.72986 17.73556 17.72217 17.7088 17.696 17.68835 17.68915 17.68381 17.65571 17.65008 17.63241 17.61453 17.60419 17.59856 17.59536 17.58174 17.58336 17.59266 17.57683 17.57726 17.571 17.56403 17.55148 17.52295 17.48516 17.44017 17.38244 17.32552 17.26774 17.19352
0 0 0 0 0 0 0 0 20.86727 20.33572 19.14999 18.23904 18.24172 18.24103 17.83067 17.84665 17.43596 16.6605 16.68187 16.7415 16.81265 16.87032 16.93514 16.97975 17.01941 17.06667 17.09548 17.10158 17.08969 17.08912 17.0785 17.09601 17.11465 17.12754 17.14228 17.15929 17.17146 17.17187 17.18475 17.19613 17.20708 17.22222 17.24239 17.26294 17.29097 17.31467 17.33626 17.34896 17.36123 17.37096 17.37788 17.39557 17.40352 17.42207 17.42901 17.44074 17.45977 17.47859 17.49113 17.5008 17.50393 17.51256 17.51781 17.51776 17.52659 17.53576 17.54821 17.56051 17.57182 17.60157 17.66028 17.6973 17.72174 17.7368 17.74622 17.74188 17.74601 17.73891 17.74928 17.75914 17.75828 17.76317 17.76124 17.74293 17.72305 17.71083 17.7002 17.6851 17.6645 17.64921 17.63561 17.6237 17.61121 17.60428 17.59823 17.60448 17.60748 17.61561 17.62465 17.61987 17.60711 17.58979 17.57134 17.54237 17.50536 17.44941 17.40178 17.35208 17.29062
0 0 0 0 0 0 0 19.85285 19.97983 18.2206 17.76287 17.75672 17.75322 17.77051 17.80288 17.43402 16.68202 16.7062 16.75707 16.81494 16.88147 16.92777 16.98747 17.02893 17.06695 17.1033 17.12945 17.13958 17.13292 17.12996 17.13375 17.14693 17.16877 17.17162 17.18527 17.1963 17.20321 17.20171 17.2054 17.21227 17.22482 17.2473 17.24901 17.27236 17.29836 17.31378 17.33262 17.34796 17.36191 17.37191 17.38106 17.39643 17.40883 17.42709 17.43168 17.44275 17.45159 17.46503 17.48384 17.50267 17.50979 17.51907 17.52616 17.53863 17.54868 17.55315 17.56473 17.59583 17.61375 17.64695 17.68843 17.72632 17.73733 17.75117 17.7669 17.77357 17.77164 17.76923 17.77737 17.77542 17.792 17.79342 17.78825 17.788 17.76876 17.75129 17.73662 17.72054 17.7024 17.68941 17.66751 17.63952 17.62586 17.63159 17.627 17.6306 17.63567 17.65278 17.66095 17.6593 17.65198 17.64134 17.62086 17.59476 17.56033 17.51828 17.46473 17.41624 17.36717
0 0 0 0 0 0 20.3252 20.35708 18.20721 17.68512 17.63827 17.64536 17.70119 17.34347 17.01693 16.68873 16.71237 16.76935 16.82149 16.87332 16.93263 16.97677 17.02369 17.06117 17.10453 17.13715 17.16044 17.1741 17.18478 17.18876 17.1941 17.21249 17.21911 17.21486 17.22298 17.22455 17.23017 17.23308 17.23275 17.23719 17.24436 17.26125 17.27437 17.28628 17.29574 17.31476 17.33818 17.35048 17.37032 17.38436 17.38662 17.40914 17.42071 17.43369 17.43631 17.44702 17.45319 17.46102 17.47295 17.48866 17.5037 17.517 17.5313 17.54579 17.56466 17.57517 17.59269 17.63022 17.64183 17.67338 17.715 17.73954 17.7541 17.76807 17.78339 17.80219 17.80855 17.80415 17.80263 17.80336 17.80317 17.80406 17.80322 17.79657 17.79477 17.78126 17.75889 17.73767 17.7169 17.69701 17.67909 17.66192 17.64672 17.65229 17.64492 17.66958 17.66905 17.68807 17.69736 17.69611 17.69469 17.68548 17.66414 17.63828 17.60735 17.57985 17.54725 17.50376 17.4502
0 0 0 0 0 0 21.08921 19.52932 18.1204 17.59977 17.16387 17.20644 16.89051 16.60783 16.68326 16.7405 16.79645 16.8459 16.89027 16.93577 16.98301 17.01621 17.05556 17.09509 17.13333 17.15988 17.18247 17.20259 17.21498 17.2191 17.22399 17.2429 17.24213 17.25313 17.25787 17.25169 17.25064 17.24544 17.24199 17.24294 17.27479 17.29583 17.30141 17.31163 17.32019 17.33561 17.34483 17.36004 17.38036 17.39276 17.39414 17.4056 17.42343 17.4396 17.44059 17.45352 17.46521 17.46549 17.4766 17.49181 17.49965 17.51934 17.53157 17.54742 17.56486 17.58837 17.602 17.64722 17.66056 17.69664 17.72502 17.7565 17.77891 17.81036 17.83308 17.8472 17.85365 17.83963 17.84234 17.83016 17.82638 17.82299 17.81468 17.80455 17.79621 17.79252 17.78439 17.76086 17.74142 17.72021 17.70662 17.68797 17.6824 17.67629 17.68739 17.71197 17.70543 17.71646 17.72365 17.72573 17.72853 17.71893 17.6981 17.67429 17.64727 17.62801 17.60715 17.57501 17.53872
0 0 0 0 0 21.16036 20.78061 19.48474 18.08475 17.59659 16.79844 16.48629 16.56398 16.65266 16.73249 16.8177 16.87833 16.9151 16.94987 16.98599 17.02826 17.05909 17.08788 17.12189 17.16522 17.19276 17.21016 17.22436 17.23857 17.24798 17.25668 17.26354 17.27344 17.27868 17.27249 17.26833 17.25949 17.25143 17.25035 17.26487 17.29259 17.30501 17.32371 17.31818 17.32014 17.33476 17.34359 17.35288 17.37018 17.39458 17.40181 17.40997 17.42307 17.43586 17.44834 17.45058 17.46179 17.47077 17.48339 17.4899 17.49689 17.50966 17.5329 17.55372 17.57613 17.60758 17.63382 17.67038 17.69224 17.72252 17.75494 17.78759 17.81723 17.84576 17.86524 17.86934 17.87609 17.86451 17.86722 17.86519 17.85776 17.84676 17.83249 17.81896 17.80681 17.79892 17.79398 17.78492 17.77225 17.76057 17.74423 17.72941 17.72777 17.71161 17.73856 17.75771 17.75864 17.74672 17.75346 17.76345 17.76306 17.75394 17.72162 17.70489 17.6897 17.66325 17.64713 17.62158 17.59102
0 0 0 0 20.2282 19.98135 18.12448 17.63373 17.18813 16.45123 16.45951 16.53005 16.62582 16.70392 16.79224 16.86817 16.91377 16.94722 16.98144 17.01952 17.05791 17.08516 17.11708 17.15412 17.18774 17.2105 17.22562 17.23681 17.25083 17.26461 17.2771 17.27839 17.28594 17.2791 17.28386 17.27418 17.27092 17.26702 17.27436 17.28529 17.29122 17.30473 17.31453 17.31379 17.31907 17.32405 17.34514 17.36212 17.36949 17.38738 17.3983 17.4074 17.42416 17.43964 17.44949 17.45753 17.45831 17.4724 17.48658 17.49771 17.50762 17.52401 17.53852 17.56688 17.59397 17.63057 17.65957 17.70333 17.72872 17.75448 17.79768 17.8308 17.85162 17.87707 17.89321 17.90359 17.89945 17.88858 17.88645 17.88997 17.88517 17.8753 17.85637 17.83642 17.81845 17.81576 17.81073 17.80166 17.79357 17.78352 17.77318 17.76537 17.75433 17.75048 17.76898 17.78456 17.78367 17.77491 17.79185 17.79938 17.80331 17.79238 17.77052 17.75994 17.73738 17.71248 17.69629 17.67698 17.64648
0 0 0 0 21.19964 18.57143 16.49333 16.46267 16.44284 16.46646 16.50559 16.60441 16.68769 16.76759 16.84059 16.90933 16.93864 16.97496 17.013 17.03949 17.06951 17.10392 17.14231 17.16867 17.19354 17.21009 17.22377 17.23626 17.25392 17.2693 17.27085 17.27392 17.27424 17.27275 17.2797 17.27307 17.28183 17.29191 17.29178 17.29662 17.30379 17.29731 17.30083 17.30697 17.32124 17.32245 17.34027 17.35764 17.3698 17.38641 17.40266 17.41109 17.41933 17.43732 17.44497 17.45278 17.46121 17.47118 17.48505 17.50376 17.52249 17.54763 17.57279 17.59123 17.61467 17.64885 17.67895 17.72534 17.7517 17.77974 17.82104 17.84861 17.86995 17.89851 17.91437 17.92095 17.92402 17.90519 17.90371 17.90563 17.9084 17.89344 17.87387 17.85845 17.84214 17.8313 17.82914 17.81397 17.80252 17.79809 17.79737 17.79195 17.77921 17.77928 17.80252 17.81149 17.81183 17.81611 17.8325 17.8363 17.83267 17.81645 17.7982 17.80034 17.77154 17.75592 17.74847 17.72561 17.70016
0 0 0 20.3584 19.97419 18.04914 16.43895 16.42286 16.43676 16.49956 16.56686 16.65772 16.74322 16.81833 16.88371 16.94377 16.97893 16.99631 17.0239 17.05091 17.0831 17.10597 17.13761 17.15843 17.17747 17.18638 17.20572 17.22334 17.25023 17.25509 17.24449 17.24639 17.25376 17.26792 17.27337 17.27915 17.28222 17.28483 17.28832 17.29488 17.29287 17.28149 17.28488 17.29039 17.29651 17.30358 17.32816 17.35608 17.36378 17.37806 17.39466 17.40486 17.42135 17.42519 17.43928 17.45562 17.46341 17.47225 17.49454 17.51872 17.54449 17.57226 17.59449 17.62084 17.64625 17.66956 17.70202 17.72871 17.7565 17.78901 17.82553 17.8556 17.87594 17.90302 17.91981 17.92129 17.92426 17.914 17.9116 17.91103 17.91098 17.90965 17.88311 17.87389 17.85933 17.85563 17.8389 17.81808 17.83226 17.82091 17.82272 17.83528 17.82189 17.82342 17.83648 17.84428 17.84684 17.85519 17.85352 17.86219 17.86492 17.84191 17.831 17.82248 17.81909 17.7965 17.78343 17.75649 17.73171
0 0 0 20.33413 19.92563 17.99512 17.1178 16.40799 16.45711 16.53573 16.606 16.69863 16.77383 16.8471 16.91342 16.96219 16.99791 17.01794 17.04411 17.06001 17.07091 17.08703 17.11653 17.13006 17.14427 17.1671 17.18176 17.20794 17.22721 17.2153 17.22476 17.24137 17.25291 17.25057 17.26932 17.27399 17.27784 17.2745 17.27309 17.26868 17.26381 17.2585 17.24967 17.24747 17.25817 17.28208 17.30922 17.33527 17.34559 17.36776 17.37826 17.40048 17.41064 17.42125 17.43638 17.43961 17.44638 17.47254 17.50016 17.52786 17.57029 17.58857 17.63055 17.654 17.666 17.68691 17.71006 17.74178 17.75785 17.77946 17.81598 17.84736 17.86948 17.89228 17.9037 17.91335 17.91749 17.91865 17.91754 17.91264 17.9121 17.90727 17.9041 17.88883 17.88331 17.86241 17.85057 17.85534 17.85186 17.85739 17.85827 17.86188 17.85527 17.86034 17.87258 17.88261 17.88521 17.89364 17.89059 17.88568 17.88595 17.87342 17.86334 17.86421 17.86206 17.84434 17.83691 17.80868 17.77346
0 0 0 21.06697 20.18829 17.95324 16.70856 16.39905 16.46481 16.55025 16.63924 16.722 16.79213 16.86762 16.93918 16.98235 17.00175 17.02077 17.04313 17.05709 17.0597 17.07287 17.09215 17.10648 17.13119 17.14318 17.1661 17.19867 17.19546 17.19431 17.19885 17.21703 17.22911 17.25339 17.27273 17.27059 17.27233 17.27501 17.25751 17.25225 17.24424 17.23444 17.22253 17.22427 17.22395 17.25349 17.28029 17.30594 17.32154 17.34505 17.36687 17.38935 17.40069 17.40164 17.41072 17.42526 17.44498 17.4795 17.49935 17.53758 17.57937 17.61479 17.63659 17.67387 17.67709 17.69947 17.71747 17.74066 17.7499 17.77076 17.80755 17.83396 17.85308 17.86871 17.88036 17.88658 17.8978 17.90703 17.91842 17.91825 17.91615 17.9201 17.92058 17.91888 17.9086 17.89735 17.8873 17.87693 17.8635 17.85926 17.87394 17.87493 17.87323 17.88983 17.89434 17.90577 17.91016 17.91724 17.91932 17.91261 17.90111 17.88935 17.88951 17.90063 17.89799 17.89232 17.87963 17.86775 17.85357
0 0 0 21.09829 18.84128 17.0735 16.36668 16.42573 16.50057 16.5875 16.66656 16.73924 16.81243 16.87802 16.93965 16.98471 17.00227 17.01474 17.03354 17.02897 17.03601 17.04945 17.05687 17.06084 17.09494 17.12594 17.13835 17.16497 17.17002 17.17556 17.18178 17.19967 17.23339 17.25658 17.27256 17.26922 17.25995 17.26073 17.25904 17.24887 17.23851 17.22349 17.21371 17.21231 17.21444 17.23262 17.26159 17.28231 17.30569 17.33583 17.37192 17.38782 17.39452 17.39845 17.40283 17.4218 17.44158 17.48059 17.50526 17.54726 17.59438 17.62687 17.66147 17.68375 17.7091 17.70997 17.71944 17.7375 17.75252 17.76953 17.79371 17.81939 17.8428 17.85391 17.86039 17.87569 17.8963 17.90508 17.91868 17.92931 17.92801 17.927 17.90785 17.91841 17.92061 17.92194 17.91557 17.90084 17.88342 17.87173 17.87951 17.88802 17.90824 17.91905 17.92958 17.93815 17.93783 17.95034 17.9539 17.94357 17.92472 17.9265 17.92948 17.93669 17.93385 17.93934 17.92519 17.91867 17.90207
16.33998 16.3445 17.79888 18.82969 16.66807 16.32924 16.37802 16.44503 16.53751 16.61927 16.68782 16.75868 16.82778 16.88098 16.93282 16.98234 17.00126 17.01578 17.0317 17.02879 17.0286 17.02443 17.02651 17.02539 17.05749 17.08297 17.11009 17.11512 17.14629 17.16647 17.1743 17.18962 17.22176 17.24207 17.25529 17.2579 17.24841 17.23884 17.24527 17.24717 17.23899 17.22763 17.20283 17.19917 17.19801 17.22052 17.24215 17.26112 17.29893 17.32807 17.36023 17.37813 17.38631 17.40208 17.40659 17.42318 17.44021 17.4752 17.51224 17.55381 17.59144 17.62512 17.65499 17.68175 17.69518 17.69871 17.71958 17.73544 17.7489 17.76416 17.78699 17.80471 17.82261 17.83922 17.85057 17.87117 17.88595 17.89858 17.90927 17.92632 17.92437 17.91489 17.91147 17.91646 17.92161 17.91519 17.9141 17.90461 17.89882 17.8895 17.88864 17.90169 17.92103 17.93526 17.95213 17.96392 17.97531 17.96853 17.9704 17.96489 17.96412 17.97641 17.98416 17.9783 17.98565 17.99281 17.97082 17.95142 17.94734
16.34192 16.33805 16.35352 16.37485 16.35452 16.3733 16.42908 16.50824 16.58619 16.65777 16.7151 16.77402 16.8338 16.88339 16.93008 16.9729 16.99213 17.00737 17.01095 17.00632 17.01535 17.01718 17.02134 17.02404 17.02634 17.05487 17.06862 17.09647 17.11418 17.13855 17.15697 17.18308 17.21451 17.23278 17.24179 17.24706 17.23981 17.23124 17.23568 17.23601 17.23051 17.22032 17.2079 17.19109 17.19538 17.21417 17.22493 17.24519 17.28238 17.31117 17.33175 17.37031 17.38747 17.39991 17.40999 17.42065 17.44648 17.48056 17.51013 17.53725 17.57741 17.61291 17.63985 17.66281 17.6859 17.70153 17.72897 17.73697 17.74895 17.76202 17.78238 17.79922 17.80605 17.82993 17.8449 17.85416 17.87013 17.8781 17.89037 17.90102 17.90527 17.90604 17.92726 17.93629 17.92821 17.9263 17.92098 17.9025 17.90085 17.90383 17.9074 17.91472 17.93954 17.95738 17.9703 17.9829 17.99203 17.99102 17.9853 17.98658 17.99654 17.99547 18.00706 18.02375 18.05017 18.04198 18.01825 18.02092 18.02785
16.37827 16.39802 16.42209 16.44147 16.45069 16.4768 16.52791 16.58768 16.64314 16.69233 16.74339 16.79245 16.83623 16.88068 16.91756 16.9498 16.97492 17.00623 17.0057 16.99783 16.99719 16.99545 17.00755 17.00275 17.00399 17.0324 17.03814 17.0649 17.09978 17.12531 17.1602 17.18277 17.19469 17.20638 17.21358 17.21431 17.21134 17.2111 17.20854 17.21335 17.21536 17.20747 17.18774 17.17879 17.18327 17.19698 17.20965 17.23747 17.27056 17.29725 17.32614 17.35493 17.37485 17.38531 17.40614 17.42853 17.45987 17.49838 17.52403 17.54934 17.57469 17.60096 17.62232 17.65131 17.66901 17.6903 17.71603 17.73552 17.7399 17.7562 17.77168 17.79309 17.79514 17.8177 17.82842 17.8387 17.84779 17.85757 17.87688 17.88453 17.89322 17.89188 17.91519 17.91668 17.90784 17.92532 17.93672 17.94085 17.94033 17.93944 17.94905 17.95906 17.97284 17.98275 17.99251 17.99712 18.00649 18.01161 18.01012 18.02328 18.02882 18.05055 18.0714 18.08761 18.09974 18.09919 18.08283 18.08947 18.08223
16.44134 16.47173 16.50169 16.5335 16.55146 16.57489 16.60445 16.63967 16.67973 16.71142 16.74718 16.793 16.83275 16.86719 16.89975 16.92797 16.95284 16.98581 17.0024 17.00296 16.99403 16.98187 16.98916 16.99666 16.99865 17.01854 17.0246 17.04085 17.06053 17.09515 17.12796 17.16425 17.19532 17.20519 17.20507 17.19558 17.18963 17.18922 17.18442 17.18583 17.19317 17.18924 17.17354 17.1674 17.16969 17.18041 17.1962 17.21728 17.24596 17.28133 17.30866 17.33317 17.36275 17.38003 17.40151 17.4248 17.44938 17.48299 17.51517 17.54883 17.57593 17.59333 17.62124 17.63957 17.65411 17.67545 17.70249 17.72719 17.74807 17.76356 17.76688 17.7805 17.79267 17.80786 17.82257 17.84009 17.8497 17.85958 17.86411 17.87321 17.87725 17.87536 17.87989 17.89294 17.90202 17.92969 17.95856 17.97543 17.9788 17.98316 17.99849 17.99799 18.01171 18.03243 18.04463 18.04382 18.05378 18.09063 18.09228 18.09817 18.11416 18.12982 18.15885 18.15826 18.1475 18.13666 18.12174 18.11898 18.12187
16.52587 16.54607 16.56967 16.59196 16.60886 16.62398 16.64054 16.66016 16.69094 16.71152 16.75081 16.78805 16.8134 16.84704 16.88234 16.91564 16.92903 16.96819 16.97211 16.9882 16.98064 16.97123 16.96951 16.97377 16.98845 17.02689 17.04353 17.04851 17.06611 17.08798 17.12518 17.16667 17.19809 17.22331 17.23281 17.21183 17.20268 17.2014 17.1995 17.20228 17.19811 17.19308 17.18055 17.17921 17.17909 17.19279 17.20913 17.22648 17.25506 17.2825 17.3112 17.33297 17.35404 17.38823 17.41398 17.44052 17.46868 17.49539 17.53634 17.57457 17.6025 17.61863 17.64172 17.6528 17.66572 17.69325 17.71884 17.73794 17.75688 17.76649 17.77567 17.78336 17.77987 17.79735 17.81251 17.82936 17.84506 17.8503 17.85576 17.86514 17.87792 17.89022 17.9017 17.91034 17.9251 17.96125 18.00485 18.02415 18.04166 18.04122 18.04999 18.06242 18.08044 18.10099 18.11924 18.12285 18.12609 18.1378 18.15497 18.17313 18.19969 18.23798 18.23385 18.2212 18.21112 18.19767 18.19207 18.18712 18.17788
16.58072 16.60339 16.61087 16.61307 16.62427 16.63191 16.64535 16.66596 16.68554 16.71171 16.74425 16.7748 16.80521 16.83511 16.8735 16.8997 16.91783 16.93901 16.93969 16.96498 16.96017 16.95111 16.94987 16.96173 16.98001 17.01278 17.0357 17.05559 17.07412 17.09631 17.13126 17.17249 17.20127 17.22726 17.22705 17.22695 17.2256 17.23206 17.23528 17.22208 17.22024 17.2084 17.20614 17.19927 17.20966 17.22239 17.2424 17.26721 17.29192 17.31369 17.33957 17.36575 17.40158 17.42707 17.46021 17.4899 17.52799 17.56226 17.60301 17.62703 17.65833 17.67309 17.68296 17.69241 17.70993 17.71967 17.7374 17.75875 17.77643 17.78795 17.79907 17.80476 17.8041 17.80902 17.80955 17.82491 17.8374 17.84971 17.85877 17.8663 17.88692 17.90347 17.92976 17.95804 17.99207 18.03169 18.07671 18.12057 18.14887 18.16882 18.17478 18.18573 18.18412 18.19015 18.1934 18.18907 18.18994 18.20036 18.2383 18.29197 18.32782 18.33887 18.33437 18.3024 18.28055 18.27275 18.28358 18.282 18.28065
16.58802 16.60012 16.61425 16.62409 16.62241 16.62772 16.64034 16.65238 16.67189 16.69493 16.7186 16.75134 16.77782 16.81822 16.85665 16.8957 16.91679 16.93396 16.93884 16.94336 16.94549 16.9427 16.94873 16.97865 17.00162 17.02486 17.05266 17.06682 17.09415 17.10775 17.14571 17.17901 17.20689 17.22064 17.22885 17.24058 17.24959 17.2536 17.2486 17.24106 17.24011 17.23639 17.23774 17.24033 17.24406 17.26635 17.28877 17.3117 17.34022 17.35932 17.39745 17.43582 17.47292 17.50517 17.53726 17.56597 17.59625 17.62654 17.66672 17.70073 17.73425 17.74602 17.76509 17.77439 17.78658 17.79516 17.80304 17.81504 17.8217 17.8395 17.8539 17.85752 17.85886 17.8524 17.84733 17.85415 17.85751 17.86549 17.88126 17.89651 17.91114 17.93785 17.97501 18.00435 18.04971 18.10419 18.16117 18.21495 0 0 18.28386 18.3159 18.29222 18.27523 18.27044 18.27162 18.29109 18.33266 18.35301 0 0 18.36623 18.46388 18.44746 18.41598 18.40415 18.41206 18.406 18.38845
