ncols        109
nrows        82
xllcorner    -1.041666666667
yllcorner    37.041665395101
cellsize     0.083333333333
NODATA_value -9999
0.0 0 0 0 0 0 0 0 0 0 0 0 0 0 0 0 0 0 0 0 0 0 0 0 0 0 0 0 0 0 0 0 0 0 0 0 0 0 0 0 0 0 0 0 0 0 0 0 0 0 0 0 0 0 0 0 0 0 0 0 0 0 0 0 0 0 0 0 0 0 0 0 0 0 0 0 0 0 0 0 0 0 0 0 0 0 0 0 0 0 0 0 0 0 0 0 0 0 0 0 0 0 0 0 0 19.46202 18.10947 16.63756 16.62149
0 0 0 0 0 0 0 0 0 0 0 0 0 0 0 0 0 0 0 0 0 0 0 0 0 0 0 0 0 0 0 0 0 0 0 0 0 0 0 0 0 0 0 0 0 0 0 0 0 0 0 0 0 0 0 0 0 0 0 0 0 0 0 0 0 0 0 0 0 0 0 0 0 0 0 0 0 0 0 0 0 0 0 0 0 0 0 0 0 0 0 0 0 0 0 0 0 0 0 0 0 16.85285 16.87066 16.63633 16.63494 16.62542 16.60714 16.57365 16.52923
0 0 0 0 0 0 0 0 0 0 0 0 0 0 0 0 0 0 0 0 0 0 0 0 0 0 0 0 0 0 0 0 0 0 0 0 0 0 0 0 0 0 0 0 0 0 0 0 0 0 0 0 0 0 0 0 0 0 0 0 0 0 0 0 0 0 0 0 0 0 0 0 0 0 0 0 0 0 0 0 0 0 0 0 0 0 0 0 0 0 0 0 0 0 0 0 0 0 16.65556 16.64261 16.62997 16.61058 16.5848 16.56397 16.54007 16.49991 16.44483 16.39743 16.36488
0 0 0 0 0 0 0 0 0 0 0 0 0 0 0 0 0 0 0 0 0 0 0 0 0 0 0 0 0 0 0 0 0 0 0 0 0 0 0 0 0 0 0 0 0 0 0 0 0 0 0 0 0 0 0 0 0 0 0 0 0 0 0 0 0 0 0 0 0 0 0 0 0 0 0 0 0 0 0 0 0 0 0 0 0 0 0 0 0 0 0 0 0 0 0 0 0 18.4888 16.63922 16.60033 16.54877 16.50074 16.46177 16.43162 16.39495 16.35954 16.319 16.28497 16.24996
0 0 0 0 0 0 0 0 0 0 0 0 0 0 0 0 0 0 0 0 0 0 0 0 0 0 0 0 0 0 0 0 0 0 0 0 0 0 0 0 0 0 0 0 0 0 0 0 0 0 0 0 0 0 0 0 0 0 18.53711 18.16768 17.87883 18.01514 0 0 0 0 0 0 0 0 0 0 0 0 0 0 0 0 0 0 0 0 0 0 0 0 0 0 0 0 0 0 0 0 0 17.19605 16.69491 16.66069 16.59239 16.53076 16.46794 16.39986 16.34433 16.29463 16.25226 16.21622 16.18321 16.1616 16.14406
0 0 0 0 0 0 0 0 0 0 0 0 0 0 0 0 0 0 0 0 0 0 0 0 0 0 0 0 0 0 0 0 0 0 0 0 0 0 0 0 0 0 0 0 0 0 0 0 0 0 0 0 0 0 0 0 18.06887 18.09902 17.77565 17.52716 17.42369 17.41972 17.5278 17.75519 17.98427 18.0965 18.08043 0 0 0 0 18.45352 0 0 0 0 0 0 0 0 0 0 0 0 0 0 0 0 0 0 0 0 0 17.88285 16.6807 16.69832 16.6542 16.57909 16.49746 16.41827 16.34535 16.27718 16.22749 16.17947 16.15292 16.13242 16.11107 16.09454 16.08066
0 0 0 0 0 0 0 0 0 0 0 0 0 0 0 0 0 0 0 0 0 0 0 0 0 0 0 0 0 0 0 0 0 0 0 0 0 0 0 0 0 0 0 0 0 0 0 0 0 0 0 0 0 0 0 18.18857 17.76269 17.40296 17.18263 16.89831 16.95164 16.97913 17.17454 17.32196 17.4884 17.60987 17.70551 17.91052 18.13629 18.10932 18.06324 17.82018 17.56913 17.62039 17.7961 17.51982 17.53054 0 0 0 0 0 0 0 0 0 0 0 0 0 0 0 17.10001 16.71393 16.6847 16.64057 16.57574 16.50247 16.41962 16.33577 16.26127 16.18271 16.13759 16.08551 16.0699 16.06003 16.05506 16.05153 16.0522
0 0 0 0 0 0 0 0 0 0 0 0 0 0 0 0 0 0 0 0 0 0 0 0 0 0 0 0 0 0 0 0 0 0 0 0 0 0 0 0 0 0 0 0 0 0 0 0 0 0 0 17.77656 17.99534 18.13353 17.8589 17.4151 17.15987 16.85729 16.72406 16.79076 16.8348 16.85721 16.85836 17.07889 17.09099 17.29287 17.28102 17.2825 17.31049 17.19575 17.05341 17.07516 16.89381 17.11983 17.15692 17.39484 0 0 0 0 0 0 0 0 0 0 0 0 0 0 0 0 16.70382 16.70323 16.62963 16.55298 16.4805 16.39868 16.31248 16.22992 16.16121 16.11107 16.08008 16.0521 16.04379 16.04209 16.04284 16.04676 16.05203
0 0 0 0 0 0 0 0 0 0 0 0 0 0 0 0 0 0 0 0 0 0 0 0 0 0 0 0 0 0 0 0 0 0 0 0 0 0 0 0 0 0 0 0 0 0 0 0 0 0 17.89658 17.79321 17.54113 17.48425 17.37752 17.06038 16.6961 16.75909 16.58898 16.64077 16.68479 16.71152 16.72722 16.93065 16.93619 17.16706 17.17104 17.17877 17.00969 16.84028 16.86338 16.89565 16.71361 16.93342 16.95159 17.21229 17.22684 17.00078 17.01795 17.49569 18.04954 18.94027 0 0 0 0 0 0 0 17.83321 17.18855 16.72639 16.71753 16.65804 16.55617 16.46659 16.38845 16.30442 16.22698 16.15668 16.10972 16.07515 16.05359 16.04743 16.04768 16.05092 16.05857 16.06618 16.07314
0 0 0 0 0 0 0 0 0 0 0 0 0 0 0 0 0 0 0 0 0 0 0 0 0 0 0 0 0 0 0 0 0 0 0 0 0 0 0 0 0 0 0 0 0 0 0 0 0 18.72148 17.5869 17.48472 17.42908 17.10836 16.94939 16.75659 16.79779 16.61324 16.65514 16.70282 16.74416 16.77201 16.78541 17.01042 17.02527 17.01573 17.02591 17.02822 17.03536 16.85235 16.86894 16.69866 16.50069 16.50874 16.52452 16.54208 16.55614 16.57804 16.60449 16.61528 17.06586 17.73944 0 17.52754 18.17437 18.74748 19.07203 18.78577 18.23639 16.72054 16.74204 16.73061 16.66923 16.56998 16.45683 16.36768 16.28203 16.22502 16.16166 16.12112 16.0949 16.08027 16.06889 16.06784 16.07056 16.08234 16.0929 16.10295 16.11106
0 0 0 0 0 0 0 0 0 0 0 0 0 0 0 0 0 0 0 0 0 0 0 0 0 0 0 0 0 0 0 0 0 0 0 0 0 0 0 0 0 0 0 0 0 0 0 0 0 18.40441 17.50802 17.2266 16.91563 16.77105 16.82094 16.62842 16.66734 16.70877 16.75438 16.78736 16.82101 16.83717 16.84456 16.8438 16.85191 16.65256 16.47463 16.6448 16.64857 16.65157 16.65487 16.45569 16.44887 16.4492 16.468 16.47638 16.48944 16.50714 16.52787 16.55184 16.5781 16.60998 16.63459 16.65603 16.68934 16.70352 17.85613 18.07844 17.62449 16.67682 16.65898 16.61231 16.54239 16.4486 16.36375 16.29073 16.22521 16.18322 16.14179 16.11674 16.10837 16.10382 16.10391 16.10809 16.11681 16.12947 16.13907 16.14945 16.15774
0 0 0 0 0 0 0 0 0 0 0 0 0 0 0 0 0 0 0 0 0 0 0 0 0 0 0 0 0 0 0 0 0 0 0 0 0 0 0 0 0 0 0 0 0 0 0 0 0 18.11338 17.41768 17.10836 16.75875 16.83364 16.65349 16.71313 16.75161 16.78976 16.82021 16.85266 16.65759 16.67557 16.67883 16.67147 16.65552 16.44744 16.44409 16.43971 16.41533 16.39777 16.3903 16.38169 16.381 16.38321 16.40214 16.40651 16.41005 16.40792 16.41744 16.43522 16.462 16.49566 16.52539 16.55198 16.57908 16.60392 16.62269 16.62986 16.61551 16.58212 16.54266 16.48426 16.41235 16.34049 16.28052 16.22769 16.19126 16.15786 16.14043 16.13454 16.13338 16.1361 16.13837 16.14725 16.16004 16.17275 16.18445 16.19563 16.2074
0 0 0 0 0 0 0 0 0 0 0 0 0 0 0 0 0 0 0 0 0 0 0 0 0 0 0 0 0 0 0 0 0 0 0 0 0 0 0 0 0 0 0 0 0 0 0 0 0 18.00399 17.26974 16.94297 16.79989 16.64977 16.7304 16.80355 16.6217 16.6448 16.44551 16.4529 16.4596 16.4606 16.46025 16.4502 16.43472 16.41853 16.40177 16.37761 16.3467 16.32218 16.3151 16.3019 16.293 16.28072 16.28958 16.29097 16.29243 16.30058 16.30955 16.32684 16.34935 16.37313 16.3972 16.41642 16.42733 16.43962 16.45173 16.45119 16.43952 16.42194 16.3899 16.35336 16.30802 16.26084 16.22144 16.18907 16.17421 16.15618 16.15465 16.15939 16.16772 16.17736 16.18476 16.19403 16.20364 16.21373 16.22506 16.23451 16.24573
0 0 0 0 0 0 0 0 0 0 0 0 0 0 0 0 0 0 0 0 0 0 0 0 0 0 0 0 0 0 0 0 0 0 0 0 0 0 0 0 0 0 0 0 0 0 0 0 0 17.85668 17.30165 16.96159 16.82417 16.67664 16.76381 16.6036 16.4264 16.44634 16.44991 16.442 16.43853 16.43359 16.42125 16.40155 16.38419 16.35985 16.33796 16.3138 16.29022 16.26798 16.25018 16.22857 16.21508 16.19708 16.18719 16.17872 16.17702 16.17369 16.17829 16.18497 16.20416 16.22692 16.24404 16.26111 16.28063 16.29801 16.31305 16.32014 16.31409 16.29796 16.27548 16.25002 16.22179 16.19602 16.17625 16.16827 16.17554 16.18329 16.19033 16.1984 16.20626 16.21469 16.22261 16.23191 16.23878 16.25236 16.26258 16.27502 16.29005
0 0 0 0 0 0 0 0 0 0 0 0 0 0 0 0 0 0 0 0 0 0 0 0 0 0 0 0 0 0 0 0 0 0 0 0 0 0 0 0 0 0 0 0 0 0 0 0 0 17.91444 17.10905 16.74462 16.85877 16.7217 16.79195 16.60112 16.40432 16.41308 16.41697 16.40966 16.3985 16.38939 16.37894 16.35963 16.33695 16.31552 16.28791 16.26491 16.23501 16.20457 16.17531 16.14819 16.12947 16.11669 16.1084 16.10322 16.10082 16.10407 16.10533 16.10587 16.1135 16.11811 16.12748 16.13525 16.14881 16.16206 16.1763 16.18666 16.19052 16.19125 16.19091 16.18605 16.17743 16.17464 16.1733 16.17962 16.1896 16.19974 16.21111 16.22296 16.23415 16.24068 16.25183 16.26059 16.26957 16.27666 16.28452 16.29826 16.31537
0 0 0 0 0 0 0 0 0 0 0 0 0 0 0 0 0 0 0 0 0 0 0 0 0 0 0 0 0 0 0 0 0 0 0 0 0 0 0 0 0 0 0 0 0 0 0 0 0 17.39846 17.17188 16.78164 16.66583 16.54701 16.59269 16.38488 16.38739 16.38276 16.37158 16.36242 16.34897 16.33631 16.32021 16.30382 16.28988 16.27201 16.25164 16.23202 16.20776 16.17437 16.13838 16.10444 16.08061 16.06345 16.05301 16.04848 16.04702 16.04786 16.0456 16.04512 16.05272 16.05788 16.06647 16.07583 16.08674 16.10114 16.11262 16.12307 16.12776 16.13339 16.14491 16.14981 16.1557 16.16661 16.17796 16.19338 16.2074 16.21745 16.23231 16.24145 16.25203 16.26194 16.27314 16.28379 16.29364 16.30203 16.31123 16.32669 16.34416
0 0 0 0 0 0 0 0 0 0 0 0 0 0 0 0 0 0 0 0 0 0 0 0 0 0 0 0 0 0 0 0 0 0 0 0 0 0 0 0 0 0 0 0 0 0 0 0 0 0 16.90696 16.85327 16.72292 16.37193 16.38991 16.37777 16.36738 16.35247 16.34153 16.3332 16.31684 16.30486 16.28892 16.27155 16.25455 16.24059 16.22475 16.20578 16.18168 16.15198 16.11743 16.08823 16.06611 16.04941 16.03973 16.03619 16.03422 16.0307 16.02615 16.02308 16.0221 16.02599 16.02443 16.0318 16.0421 16.05483 16.0702 16.08376 16.0976 16.11078 16.1252 16.1394 16.15168 16.16922 16.18491 16.2027 16.21752 16.2341 16.24793 16.2605 16.27236 16.2812 16.28935 16.29786 16.30706 16.31593 16.32623 16.34263 16.36548
0 0 0 0 0 0 0 0 0 0 0 0 0 0 0 0 0 0 0 0 0 0 0 0 0 0 0 0 0 0 0 0 0 0 0 0 0 0 0 0 0 0 0 0 0 0 0 0 0 0 17.07944 16.64854 16.32493 16.37239 16.37007 16.35723 16.33492 16.32455 16.31558 16.29904 16.28351 16.27004 16.26493 16.25762 16.24897 16.23781 16.22517 16.2135 16.19068 16.16416 16.13347 16.10268 16.07533 16.05461 16.0444 16.03797 16.03595 16.02853 16.02373 16.02033 16.01619 16.01465 16.01714 16.02221 16.0291 16.03944 16.05492 16.06946 16.08535 16.10092 16.11776 16.13762 16.15815 16.17938 16.19911 16.21553 16.23264 16.24748 16.26214 16.27594 16.28347 16.29224 16.30081 16.31108 16.3201 16.33118 16.34534 16.36241 16.3849
0 0 0 0 0 0 0 0 0 0 0 0 0 0 0 0 0 0 0 0 0 0 0 0 0 0 0 0 0 0 0 0 0 0 0 0 0 0 0 0 0 0 0 0 0 0 0 0 0 0 0 0 16.33255 16.35058 16.34671 16.3288 16.31363 16.29949 16.2873 16.27294 16.26057 16.25252 16.24948 16.25027 16.25111 16.24724 16.2417 16.2315 16.2104 16.18496 16.15777 16.13063 16.10325 16.0793 16.06142 16.05432 16.05161 16.04301 16.03914 16.03399 16.02697 16.02199 16.02251 16.02404 16.03057 16.04027 16.05365 16.06923 16.08424 16.10293 16.12341 16.14703 16.17277 16.19659 16.21984 16.24267 16.26125 16.27448 16.28729 16.29576 16.3043 16.31053 16.31651 16.32387 16.33438 16.34795 16.36207 16.37546 16.39586
0 0 0 0 0 0 0 0 0 0 0 0 0 0 0 0 0 0 0 0 0 0 0 0 0 0 0 0 0 0 0 0 0 0 0 0 0 0 0 0 0 0 0 0 0 0 0 0 0 0 18.69809 17.03317 16.56749 16.36187 16.34615 16.3248 16.29123 16.27846 16.26397 16.25322 16.2474 16.24968 16.25435 16.25478 16.26002 16.26245 16.26221 16.254 16.24379 16.22609 16.19369 16.16559 16.13582 16.10934 16.09098 16.07622 16.064 16.05398 16.04664 16.04101 16.03413 16.02527 16.02563 16.03048 16.03508 16.04404 16.05512 16.07025 16.09074 16.11546 16.14081 16.17281 16.19737 16.22585 16.25034 16.26898 16.28672 16.30023 16.30961 16.31875 16.32548 16.32916 16.3347 16.34362 16.35278 16.36444 16.37756 16.39676 16.41898
0 0 0 0 0 0 0 0 0 0 0 0 0 0 0 0 0 0 0 0 0 0 0 0 0 0 0 0 0 0 0 0 0 0 0 0 0 0 0 0 0 0 0 0 0 0 0 0 0 0 17.97928 17.03396 16.80816 16.36958 16.34613 16.324 16.28788 16.26571 16.25464 16.25188 16.25476 16.26562 16.27233 16.27523 16.28152 16.28673 16.2883 16.28885 16.27784 16.25701 16.23136 16.19872 16.16121 16.13352 16.11395 16.09624 16.07979 16.06454 16.05369 16.04789 16.04143 16.03662 16.03292 16.03956 16.04644 16.05566 16.07021 16.0856 16.10858 16.13677 16.16984 16.20186 16.23047 16.26111 16.28647 16.3062 16.32398 16.33801 16.34487 16.34852 16.34956 16.3528 16.35483 16.3635 16.37231 16.38236 16.39276 16.41287 16.44004
0 0 0 0 0 0 0 0 0 0 0 0 0 0 0 0 0 0 0 0 0 0 0 0 0 0 0 0 0 0 0 0 0 0 0 0 0 0 0 0 0 0 0 0 0 0 0 0 0 0 0 17.05812 16.584 16.37262 16.34574 16.31888 16.28616 16.26938 16.26189 16.26238 16.27175 16.28529 16.29982 16.31083 16.31788 16.32541 16.3297 16.33202 16.32326 16.30096 16.27239 16.23932 16.2019 16.166 16.13359 16.10797 16.08987 16.07673 16.06451 16.05632 16.04893 16.04691 16.04777 16.05588 16.0665 16.07866 16.09435 16.11523 16.14391 16.17778 16.2133 16.24718 16.27442 16.29752 16.31906 16.3399 16.35829 16.3678 16.3702 16.3739 16.37655 16.37874 16.38078 16.38624 16.39678 16.40592 16.41788 16.43819 16.46233
0 0 0 0 0 0 0 0 0 0 0 0 0 0 0 0 0 0 0 0 0 0 0 0 0 0 0 0 0 0 0 0 0 0 0 0 0 0 0 0 0 0 0 0 0 0 0 0 0 0 0 16.81682 16.38283 16.37417 16.34659 16.32257 16.29355 16.28167 16.27804 16.28424 16.3 16.32833 16.35056 16.36251 16.36774 16.38226 16.38113 16.37296 16.36266 16.33864 16.30839 16.26953 16.23213 16.19287 16.15988 16.13286 16.11232 16.10062 16.08781 16.08252 16.07848 16.07363 16.07334 16.07949 16.08932 16.1011 16.12418 16.15013 16.18284 16.2195 16.26021 16.29647 16.32366 16.345 16.36658 16.38327 16.39871 16.40528 16.40379 16.40354 16.401 16.4025 16.40508 16.41117 16.42168 16.43225 16.44497 16.4641 16.48904
0 0 0 0 0 0 0 0 0 0 0 0 0 0 0 0 0 0 0 0 0 0 0 0 0 0 0 0 0 0 0 0 0 0 0 0 0 0 0 0 0 0 0 0 0 0 0 0 0 0 0 16.42169 16.40278 16.38223 16.35859 16.32959 16.30237 16.29131 16.29319 16.30886 16.33487 16.36467 16.39458 16.40618 16.41782 16.4378 16.44828 16.42803 16.41612 16.38774 16.3572 16.31335 16.26731 16.21655 16.1798 16.14828 16.12853 16.11205 16.10526 16.10255 16.10243 16.10544 16.11003 16.11774 16.12981 16.14916 16.17402 16.20588 16.24141 16.27897 16.31091 16.34354 16.36787 16.3885 16.40624 16.42216 16.43383 16.43865 16.44068 16.43686 16.43446 16.43686 16.44075 16.44856 16.45352 16.46064 16.47308 16.48739 16.50775
0 0 0 0 0 0 0 0 0 0 0 0 0 0 0 0 0 0 0 0 0 0 0 0 0 0 0 0 0 0 0 0 0 0 0 0 0 0 0 0 0 0 0 0 0 0 0 0 0 18.45461 17.46085 16.45695 16.42764 16.394 16.36452 16.33809 16.31701 16.30405 16.31852 16.3461 16.38012 16.4161 16.44936 16.45753 16.4772 16.4997 16.49675 16.48505 16.45225 16.42966 16.40169 16.36124 16.31452 16.25847 16.22218 16.18775 16.1617 16.14336 16.1362 16.13276 16.13602 16.14121 16.14798 16.1564 16.17389 16.19328 16.22336 16.25949 16.30032 16.33896 16.37561 16.40582 16.42302 16.44114 16.45519 16.46484 16.47398 16.47715 16.47572 16.47313 16.46803 16.46585 16.46906 16.47265 16.47887 16.4885 16.49748 16.51115 16.53003
0 0 0 0 0 0 0 0 0 0 0 0 0 0 0 0 0 0 0 0 0 0 0 0 0 0 0 0 0 0 0 0 0 0 0 0 0 0 0 0 0 0 0 0 0 0 0 0 17.5379 16.98824 16.73628 16.48396 16.45014 16.41037 16.36707 16.34818 16.33095 16.32958 16.34397 16.38054 16.41764 16.45763 16.49485 16.51481 16.53633 16.54368 16.54071 16.5308 16.50554 16.45934 16.43614 16.39554 16.34912 16.30032 16.25927 16.22364 16.19786 16.18133 16.17246 16.17335 16.18332 16.19322 16.20305 16.21512 16.23419 16.25452 16.28293 16.31497 16.34782 16.38044 16.41203 16.44004 16.45701 16.47246 16.48568 16.49646 16.50587 16.51154 16.51587 16.51618 16.51011 16.50991 16.50512 16.50657 16.5091 16.51271 16.52109 16.53278 16.5526
0 0 0 0 0 0 0 0 0 0 0 0 0 0 0 0 0 0 0 0 0 0 0 0 0 0 0 0 0 0 0 0 0 0 0 0 0 0 0 0 0 0 0 0 0 17.18546 17.05778 17.59346 17.04988 17.06594 16.79511 16.5248 16.48435 16.43652 16.39725 16.37239 16.36057 16.36051 16.37853 16.41135 16.45197 16.4888 16.52889 16.54345 16.56006 16.56008 16.57511 16.57989 16.54826 16.51207 16.47645 16.43374 16.3952 16.35051 16.30674 16.27032 16.24579 16.22943 16.2195 16.22464 16.23105 16.24021 16.25409 16.26731 16.28453 16.30809 16.33903 16.36654 16.39238 16.42179 16.45254 16.47658 16.49275 16.50555 16.51766 16.52346 16.53367 16.54122 16.54885 16.5511 16.54648 16.54484 16.54332 16.5436 16.54402 16.54814 16.55472 16.56435 16.57969
0 0 0 0 0 0 0 0 0 0 0 0 0 0 0 0 0 0 0 0 0 0 0 0 0 0 0 0 0 0 0 0 0 0 0 0 0 0 0 0 0 0 19.30586 18.98243 17.98253 17.11383 16.58769 16.59551 17.12225 16.84509 16.58503 16.55149 16.50721 16.46503 16.4284 16.40963 16.39513 16.39936 16.42097 16.46323 16.49974 16.53165 16.55818 16.57504 16.58417 16.60009 16.61654 16.60387 16.57196 16.5314 16.50439 16.47464 16.43581 16.39821 16.35795 16.32178 16.30152 16.28292 16.28296 16.28869 16.29299 16.30443 16.31509 16.32515 16.33763 16.35681 16.3822 16.4049 16.42502 16.45258 16.47866 16.50089 16.5177 16.53378 16.54627 16.55936 16.5691 16.5776 16.58695 16.59155 16.58893 16.58129 16.57575 16.57363 16.57083 16.57349 16.58048 16.59072 16.60413
0 0 0 0 0 0 0 0 0 0 0 0 0 0 0 0 0 0 0 0 0 0 0 0 0 0 0 0 0 0 0 0 0 0 0 0 0 0 0 0 18.3953 18.79627 19.04276 18.07798 17.1723 16.63866 16.65281 16.66045 16.65467 16.63477 16.61194 16.57839 16.53341 16.49538 16.46237 16.44083 16.43053 16.43615 16.46472 16.50014 16.53675 16.56824 16.59109 16.604 16.61184 16.62566 16.62656 16.61872 16.59634 16.57406 16.54455 16.52201 16.49427 16.44765 16.40211 16.37101 16.34515 16.32596 16.3289 16.33527 16.34443 16.35325 16.36579 16.38103 16.39957 16.41614 16.43108 16.4533 16.46913 16.49201 16.51135 16.52892 16.54341 16.55543 16.57033 16.58181 16.59472 16.6049 16.6142 16.61978 16.61909 16.61166 16.60718 16.60505 16.60588 16.60689 16.61247 16.62006 16.63618
0 0 0 0 0 0 0 0 0 0 0 0 0 0 0 0 0 0 0 0 0 0 0 0 0 0 0 0 0 0 0 0 0 0 0 0 0 0 0 18.62825 18.37014 17.78654 17.50935 16.65982 16.67395 16.68427 16.69517 16.69986 16.68621 16.66433 16.63661 16.60265 16.56639 16.52962 16.50281 16.48452 16.48071 16.49911 16.51644 16.54857 16.57653 16.60094 16.62803 16.63133 16.65065 16.66734 16.66241 16.64695 16.62763 16.61165 16.59402 16.57444 16.54545 16.50494 16.47232 16.44133 16.41366 16.39286 16.38619 16.39185 16.39746 16.40631 16.41213 16.42511 16.43765 16.45614 16.47164 16.48991 16.50403 16.52262 16.5404 16.5577 16.57124 16.58633 16.60419 16.61802 16.63069 16.6339 16.64263 16.64483 16.64375 16.63836 16.62954 16.62919 16.63027 16.63147 16.64076 16.65459 16.66833
0 0 0 0 0 0 0 0 0 0 0 0 0 0 0 0 0 0 0 0 0 0 0 0 0 0 0 0 0 0 0 0 0 0 0 0 0 0 17.8101 17.50029 17.2278 16.67637 16.70157 16.7134 16.72638 16.73931 16.73941 16.73988 16.72786 16.706 16.67436 16.64649 16.61974 16.57618 16.5479 16.53026 16.52969 16.55193 16.57291 16.60795 16.62953 16.64375 16.67221 16.68313 16.69049 16.70143 16.70446 16.6972 16.68497 16.67002 16.65602 16.62747 16.59141 16.55868 16.51704 16.4921 16.47193 16.45526 16.44457 16.44619 16.45475 16.46381 16.47066 16.48179 16.49262 16.50578 16.52039 16.53372 16.54292 16.55706 16.56938 16.58519 16.59669 16.61306 16.62934 16.64479 16.66018 16.66678 16.67093 16.67615 16.67624 16.67287 16.66748 16.66575 16.66652 16.67059 16.6842 16.70091 16.71167
0 0 0 0 0 0 0 0 0 0 0 0 0 0 0 0 0 0 0 0 0 0 0 0 0 0 0 0 0 0 0 0 0 0 19.50757 20.13831 19.25777 17.53194 16.65941 16.67387 16.69209 16.71252 16.72782 16.74564 16.7609 16.77769 16.77794 16.77803 16.76781 16.7511 16.73038 16.71051 16.69325 16.66137 16.63381 16.61794 16.61777 16.62423 16.64337 16.65848 16.67716 16.68847 16.70256 16.71504 16.72402 16.74225 16.74754 16.74748 16.74273 16.73525 16.71881 16.68636 16.65305 16.6316 16.59526 16.56266 16.54714 16.52856 16.51656 16.51234 16.51223 16.51138 16.51598 16.52075 16.53362 16.54892 16.5646 16.5758 16.58688 16.59878 16.61253 16.62645 16.63804 16.65141 16.66826 16.68214 16.69041 16.69535 16.6998 16.70253 16.70166 16.70109 16.69603 16.69866 16.70418 16.71504 16.73578 16.75715 16.7679
0 0 0 0 0 0 0 0 0 0 0 0 0 0 0 0 0 0 0 0 0 0 0 0 0 0 0 0 0 19.98254 19.57579 19.34841 19.33281 19.10042 18.80826 18.21503 16.68259 16.68915 16.69397 16.70742 16.72333 16.74526 16.76677 16.78161 16.79571 16.80788 16.81267 16.80912 16.80823 16.79921 16.7834 16.77575 16.76293 16.74042 16.71211 16.70595 16.69249 16.69118 16.71525 16.71777 16.72868 16.73944 16.74833 16.75668 16.76875 16.77605 16.78222 16.77904 16.77813 16.77448 16.75937 16.73604 16.71027 16.69352 16.66269 16.64085 16.61926 16.6048 16.60143 16.59208 16.58755 16.58521 16.58443 16.58423 16.59298 16.59975 16.60484 16.61327 16.6257 16.63934 16.64681 16.65658 16.66926 16.68464 16.70265 16.71689 16.72271 16.72695 16.73262 16.73645 16.73683 16.73589 16.73686 16.74144 16.74837 16.76309 16.78068 16.79974 16.79737
0 0 0 0 0 0 0 0 0 0 0 0 0 0 0 0 0 0 0 0 0 0 0 0 0 19.76602 19.02415 19.01667 18.04356 17.36488 17.04022 16.73292 16.72623 16.71737 16.70964 16.70481 16.70321 16.69985 16.70949 16.72439 16.7442 16.76582 16.78908 16.81177 16.83118 16.84791 16.85816 16.86175 16.87095 16.86987 16.86455 16.85718 16.84455 16.81953 16.78268 16.77046 16.74991 16.75239 16.74912 16.75744 16.77161 16.77713 16.78629 16.80001 16.80486 16.8153 16.82263 16.819 16.82171 16.81944 16.81197 16.79183 16.77033 16.74893 16.72488 16.70278 16.68861 16.67403 16.66056 16.65496 16.65039 16.65302 16.65059 16.64729 16.64935 16.65523 16.66164 16.66852 16.67871 16.68291 16.69158 16.6972 16.7092 16.72171 16.73447 16.74323 16.74753 16.75137 16.75939 16.76477 16.7675 16.76988 16.77598 16.78239 16.79734 16.81551 16.83404 16.83746 16.81012
0 0 0 0 0 0 0 0 0 0 0 0 0 0 0 0 0 0 0 0 0 0 0 19.94691 19.0773 18.46724 18.11454 17.76571 16.78187 16.77342 16.7661 16.75296 16.73873 16.72621 16.7133 16.70959 16.7079 16.71023 16.71535 16.72767 16.75076 16.77562 16.80763 16.83443 16.8598 16.86962 16.8865 16.91262 16.92212 16.92867 16.9297 16.92636 16.91319 16.89606 16.85777 16.81732 16.80383 16.79864 16.79227 16.79346 16.81198 16.8163 16.81484 16.82184 16.83149 16.83976 16.84735 16.85106 16.84838 16.85821 16.85898 16.84868 16.83926 16.81797 16.79895 16.78375 16.77443 16.7603 16.74886 16.73851 16.73309 16.72457 16.71755 16.70912 16.70736 16.71114 16.70906 16.70869 16.71521 16.72096 16.72839 16.73878 16.74816 16.75916 16.76901 16.77695 16.77892 16.78774 16.7943 16.80197 16.8059 16.81217 16.81997 16.82775 16.84194 16.85849 16.86923 16.85766 16.81408
0 0 0 0 0 0 0 0 0 0 0 0 0 0 0 0 0 0 0 0 0 0 19.37587 18.50514 18.17002 18.15133 17.79484 17.43547 16.78184 16.76564 16.75122 16.73847 16.72844 16.72101 16.7117 16.70375 16.70026 16.70712 16.71578 16.73261 16.75669 16.78163 16.80991 16.84456 16.87053 16.88699 16.91851 16.95255 16.97368 16.96922 16.96195 16.95266 16.94742 16.93106 16.90149 16.86336 16.83661 16.82497 16.81604 16.82262 16.83263 16.83613 16.83983 16.84321 16.85612 16.8694 16.88076 16.88315 16.89122 16.89438 16.8992 16.88832 16.88329 16.87444 16.85668 16.84368 16.83272 16.82601 16.81766 16.81164 16.80585 16.79751 16.79196 16.78419 16.77539 16.77786 16.77726 16.77641 16.7731 16.7725 16.77233 16.77774 16.7819 16.78913 16.79699 16.80033 16.8065 16.81326 16.82528 16.83499 16.8463 16.85371 16.86609 16.87835 16.89317 16.90774 16.90018 16.86876 16.81418
0 0 0 0 0 0 0 0 0 0 0 0 0 0 0 0 0 0 0 0 0 20.60974 19.58195 18.49619 17.83774 17.81804 17.45099 17.43382 16.77133 16.75947 16.74649 16.73607 16.72732 16.72248 16.71528 16.71176 16.71123 16.71763 16.72535 16.74421 16.76854 16.79503 16.82164 16.84647 16.87428 16.90194 16.93806 16.9695 16.98027 16.97238 16.95986 16.95938 16.95184 16.94141 16.92265 16.89174 16.86539 16.84968 16.84238 16.84721 16.84963 16.85373 16.85649 16.86646 16.87868 16.89477 16.90909 16.91227 16.92024 16.93347 16.93702 16.93614 16.93653 16.93224 16.92358 16.91237 16.89791 16.89058 16.88068 16.87091 16.85751 16.8481 16.83934 16.83718 16.8319 16.83351 16.83601 16.83775 16.8366 16.83127 16.82798 16.83113 16.83439 16.83712 16.84129 16.84488 16.84458 16.85384 16.86238 16.86855 16.87607 16.88818 16.90075 16.91643 16.93263 16.93905 16.92061 16.87136 16.80705
0 0 0 0 0 0 0 0 0 0 0 0 0 0 0 0 0 0 0 0 0 0 0 19.09843 18.1802 17.82915 17.46095 17.10599 16.7673 16.75213 16.74261 16.73693 16.73192 16.72969 16.72342 16.72317 16.72093 16.73205 16.74072 16.75934 16.77922 16.80279 16.81985 16.84544 16.87629 16.90182 16.92315 16.94181 16.95426 16.96215 16.96111 16.96457 16.9602 16.95139 16.93164 16.9132 16.91015 16.90057 16.8858 16.88339 16.88066 16.87561 16.87964 16.89208 16.90551 16.91592 16.92476 16.9258 16.93373 16.95152 16.96318 16.96993 16.97347 16.97399 16.97282 16.97044 16.96035 16.95499 16.94793 16.94022 16.92841 16.91879 16.90718 16.89821 16.89596 16.90105 16.90003 16.89669 16.88816 16.87794 16.87442 16.87215 16.8724 16.87505 16.87936 16.88479 16.89009 16.89718 16.90478 16.91176 16.92387 16.93686 16.95133 16.96464 16.97028 16.96604 16.93427 16.8784 16.80603
0 0 0 0 0 0 0 0 0 0 0 0 0 0 0 0 0 0 0 0 0 20.98927 20.6948 19.71262 18.22497 17.85659 17.49043 17.44982 17.08606 16.75292 16.74514 16.73947 16.74003 16.73908 16.73612 16.73497 16.74025 16.7488 16.75954 16.77182 16.79003 16.81169 16.8298 16.84901 16.87236 16.88445 16.90409 16.92682 16.94154 16.95384 16.96213 16.96099 16.95642 16.95349 16.93691 16.93631 16.93573 16.92921 16.92089 16.91238 16.90182 16.89942 16.90393 16.9096 16.92412 16.93843 16.95079 16.9579 16.96714 16.97763 16.9938 17.00123 17.01079 17.02003 17.02195 17.017 17.01493 17.00597 16.99493 16.98721 16.98039 16.97213 16.9666 16.96462 16.96638 16.96805 16.96373 16.95613 16.94606 16.93637 16.92888 16.92321 16.91989 16.92402 16.92444 16.9279 16.93374 16.94051 16.94934 16.95469 16.96508 16.97806 16.99313 17.00362 17.00157 16.98613 16.95118 16.89305 16.81314
0 0 0 0 0 0 0 0 0 0 0 0 0 0 0 0 0 0 0 21.0002 20.9235 20.82028 19.98811 18.90349 18.25243 17.88609 17.51261 17.81219 16.77932 16.75654 16.74669 16.74661 16.74818 16.74598 16.74427 16.74918 16.75669 16.76384 16.77205 16.78407 16.8017 16.81574 16.83357 16.8514 16.86754 16.88293 16.8955 16.91651 16.93149 16.94509 16.9579 16.96674 16.97157 16.97587 16.9694 16.96522 16.96372 16.96032 16.95384 16.93826 16.92801 16.92251 16.92591 16.92689 16.93647 16.95207 16.9548 16.96834 16.9835 16.99943 17.01211 17.02403 17.04104 17.05801 17.06753 17.06938 17.06949 17.06533 17.05561 17.04807 17.03901 17.03414 17.02799 17.02748 17.02152 17.01374 17.00391 16.99615 16.98416 16.976 16.96982 16.96639 16.96781 16.97094 16.97463 16.98259 16.99156 17.00041 17.00563 17.01181 17.0174 17.02582 17.03583 17.04136 17.03491 17.00873 16.96897 16.90874 16.82868
0 0 0 0 0 0 0 0 0 0 0 0 0 0 0 0 0 0 20.48678 20.35917 19.99679 19.53073 18.92085 18.26872 17.93947 17.90913 17.52925 17.14042 16.79146 16.76739 16.75419 16.75533 16.76082 16.76161 16.76129 16.77094 16.78061 16.79321 16.79983 16.80877 16.82103 16.83466 16.84831 16.86256 16.87322 16.8872 16.9031 16.91967 16.94137 16.95952 16.97691 16.98926 16.99679 17.00153 17.00852 17.00457 17.00156 16.99698 16.98911 16.97887 16.96499 16.95448 16.94783 16.94943 16.95972 16.97186 16.98017 16.98535 16.99407 17.00692 17.02618 17.04228 17.06287 17.07925 17.09034 17.10175 17.1041 17.10281 17.09748 17.09799 17.098 17.09426 17.0952 17.09233 17.08393 17.07403 17.0589 17.04389 17.03049 17.01957 17.01177 17.00515 17.00878 17.01221 17.01709 17.0264 17.03779 17.04489 17.05023 17.05764 17.0635 17.07348 17.08031 17.08198 17.07162 17.04685 17.00158 16.94194 16.86502
0 0 0 0 0 0 0 0 0 0 0 0 0 0 0 0 0 20.93671 20.3802 19.75763 19.24345 18.60998 18.28425 18.28467 18.29036 17.90429 17.52206 16.82411 16.7918 16.77018 16.76173 16.76257 16.77117 16.76963 16.77942 16.78838 16.79821 16.81309 16.8221 16.83569 16.84745 16.86008 16.87219 16.88748 16.89945 16.91435 16.92905 16.94857 16.96873 16.98866 17.00732 17.02702 17.03297 17.03951 17.04194 17.03981 17.03804 17.03616 17.02863 17.01749 17.00466 16.99224 16.98843 16.9875 16.99098 17.00179 17.00812 17.01254 17.01395 17.02795 17.04837 17.06968 17.09525 17.1124 17.12362 17.13719 17.14252 17.14434 17.14419 17.14715 17.15234 17.1471 17.14376 17.13871 17.12931 17.11744 17.10217 17.08932 17.07844 17.06918 17.06201 17.05735 17.06102 17.06328 17.06764 17.07616 17.08473 17.08717 17.09112 17.0961 17.10179 17.10786 17.11229 17.11217 17.0993 17.07334 17.03335 16.97579 16.9106
0 0 0 0 0 0 0 0 0 0 0 0 0 0 0 0 20.42768 20.41551 19.55325 18.97625 18.65309 18.31238 18.29271 18.29825 18.29104 17.90686 17.51919 16.82499 16.79178 16.77496 16.76916 16.7716 16.77811 16.79237 16.80596 16.82012 16.83003 16.83557 16.8467 16.857 16.87052 16.8864 16.89989 16.91638 16.93422 16.94913 16.96175 16.98192 16.99814 17.01796 17.04183 17.06268 17.07676 17.08457 17.08392 17.08171 17.08595 17.08143 17.07818 17.06972 17.06036 17.0474 17.03328 17.02358 17.01778 17.01928 17.02688 17.03349 17.03167 17.04587 17.0661 17.08904 17.11673 17.13926 17.15796 17.17326 17.18133 17.18835 17.19758 17.2067 17.21096 17.20662 17.20251 17.19532 17.18125 17.1653 17.14958 17.13118 17.11465 17.10326 17.09422 17.09159 17.09645 17.10203 17.10949 17.11492 17.12182 17.12406 17.12913 17.13373 17.1397 17.14548 17.14811 17.1471 17.13413 17.11379 17.0734 17.01835 16.95394
0 0 0 0 0 0 0 0 0 0 0 0 0 0 0 20.98566 20.24736 19.55317 18.97018 18.66338 18.32372 18.32131 18.29808 17.9434 17.9248 17.5549 16.84318 16.81646 16.79214 16.78426 16.77819 16.78242 16.79629 16.81256 16.82373 16.83868 16.84805 16.8605 16.87195 16.88367 16.90448 16.92536 16.94458 16.96638 16.99111 17.0083 17.02019 17.03591 17.05006 17.06843 17.08755 17.10408 17.11238 17.11819 17.1205 17.12193 17.12496 17.1289 17.13284 17.13365 17.13019 17.1208 17.09101 17.07215 17.05557 17.04593 17.04388 17.04931 17.04949 17.06056 17.08192 17.10549 17.13273 17.1601 17.18316 17.20071 17.21271 17.22205 17.23459 17.24608 17.25035 17.25008 17.24876 17.24525 17.23526 17.21859 17.20142 17.1839 17.1642 17.14888 17.1362 17.1331 17.13984 17.14123 17.14648 17.14936 17.14932 17.15121 17.15452 17.15872 17.16373 17.16946 17.17121 17.17227 17.16975 17.14744 17.11154 17.06322 17.00468
0 0 0 0 0 0 0 0 0 0 0 0 0 0 20.29762 20.30017 19.58234 18.96808 18.6465 18.30757 18.30441 17.94386 17.91791 17.92436 17.56401 17.18261 16.83734 16.81093 16.79802 16.79248 16.79638 16.80675 16.82518 16.8432 16.85554 16.86506 16.87639 16.89022 16.90833 16.92522 16.95049 16.97413 17.00124 17.03118 17.05366 17.07209 17.09105 17.10897 17.12412 17.1404 17.15253 17.16152 17.16852 17.17118 17.17297 17.17298 17.17441 17.18084 17.18884 17.19423 17.18959 17.17942 17.15772 17.1335 17.10293 17.08105 17.06607 17.06112 17.06658 17.07107 17.09086 17.11824 17.15107 17.18387 17.214 17.23384 17.25189 17.26835 17.27809 17.28562 17.2879 17.2876 17.28542 17.27998 17.26941 17.2562 17.24058 17.22178 17.2045 17.18991 17.17932 17.17441 17.17615 17.17792 17.18191 17.18225 17.18069 17.18245 17.18439 17.18714 17.19026 17.19527 17.19836 17.19771 17.19092 17.17022 17.13435 17.08841 17.03098
0 0 0 0 0 0 0 0 0 0 0 0 0 20.15413 20.33497 19.56967 18.94113 18.62374 18.28304 18.28731 17.93497 17.9186 17.9091 17.91671 17.54392 16.84242 16.82353 16.80991 16.80833 16.81131 16.82453 16.8422 16.86659 16.88665 16.89531 16.91055 16.91866 16.93528 16.95987 16.97886 17.01164 17.04057 17.0666 17.09107 17.1153 17.13583 17.15866 17.18161 17.19758 17.21091 17.21822 17.21962 17.22348 17.2236 17.21791 17.21221 17.20914 17.22456 0 0 0 17.17558 17.16908 17.2057 17.17447 17.13295 17.10339 17.08851 17.07871 17.08013 17.09532 17.12542 17.16109 17.19896 17.2332 17.26164 17.28237 17.30241 17.31691 17.3237 17.33031 17.33266 17.33105 17.32596 17.3164 17.30752 17.29272 17.27628 17.25684 17.23727 17.22568 17.21568 17.21546 17.21495 17.21314 17.20986 17.20631 17.20766 17.21024 17.21404 17.21996 17.224 17.22833 17.22892 17.22002 17.20091 17.16429 17.11628 17.05277
0 0 0 0 0 0 0 0 0 0 0 0 0 20.53869 19.58873 18.9517 18.59267 18.24203 18.25051 17.88975 17.88872 17.89507 17.90727 16.85684 16.84769 16.83293 16.81824 16.81353 16.81718 16.82825 16.85006 16.87229 16.89907 16.92383 16.93111 16.94594 16.96367 16.98523 17.01293 17.04563 17.08152 17.11173 17.13901 17.16808 17.20171 17.23329 17.25609 17.2679 17.27088 17.27497 17.28177 18.0849 17.2885 17.26351 17.24393 17.60986 18.40546 19.21598 0 0 0 0 0 17.61929 17.22437 17.18189 17.14137 17.11571 17.09874 17.09331 17.10824 17.13905 17.17033 17.2111 17.25249 17.28393 17.30876 17.3315 17.34706 17.35839 17.36589 17.36442 17.36488 17.36002 17.35752 17.35039 17.34356 17.33098 17.31643 17.29951 17.28661 17.27601 17.27162 17.26472 17.26168 17.25536 17.24764 17.2443 17.24578 17.2468 17.25012 17.25205 17.25582 17.25674 17.24639 17.22697 17.19008 17.13751 17.06977
0 0 0 0 0 0 0 0 0 0 0 0 20.679 19.87889 18.94424 18.57932 18.19903 17.85024 17.8674 17.87453 17.87881 17.89328 17.53409 16.84454 16.83567 16.8244 16.81544 16.81428 16.82559 16.84314 16.87051 16.89607 16.92475 16.94968 16.95748 16.97186 16.99174 17.01723 17.0572 17.09486 17.13496 17.17531 17.20749 17.24315 17.27841 17.2992 17.30608 0 0 17.27587 0 19.00575 18.14724 17.69242 18.07242 18.03632 18.83118 19.26196 20.25768 17.99662 17.23965 0 0 0 18.87263 17.2018 17.16279 17.13371 17.11246 17.10692 17.12341 17.15211 17.18469 17.22748 17.27147 17.30509 17.33731 17.36327 17.38168 17.39262 17.40318 17.40333 17.40415 17.39894 17.39625 17.39076 17.38294 17.37392 17.36228 17.34731 17.33674 17.32542 17.31842 17.31065 17.30507 17.30082 17.29176 17.28861 17.28686 17.28996 17.29042 17.29183 17.29191 17.29167 17.27775 17.25208 17.21571 17.15865 17.08248
0 0 0 0 0 0 0 0 0 0 0 19.91889 19.88705 18.9412 18.56535 17.82308 17.83448 17.84876 17.85404 17.87142 17.89371 17.19428 16.85872 16.84789 16.83097 16.82868 16.82339 16.82545 16.83982 16.86566 16.89363 16.92491 16.95232 16.98304 16.99483 17.0101 17.03816 17.07035 17.11476 17.15847 17.20821 17.25109 17.28054 17.3067 18.14389 0 0 0 0 0 19.81563 20.62551 20.36104 19.73881 19.34014 18.88289 18.85235 17.62121 17.2416 17.24558 17.24161 17.23175 17.21682 19.24924 19.60331 17.19972 17.16845 17.14734 17.12939 17.12389 17.14155 17.16665 17.19948 17.24193 17.2828 17.32317 17.35759 17.38616 17.40644 17.42122 17.43025 17.43586 17.43587 17.4364 17.43276 17.43094 17.4275 17.42421 17.41464 17.40142 17.38967 17.37851 17.36765 17.35734 17.34855 17.34098 17.32782 17.32364 17.32011 17.32353 17.32329 17.32137 17.3218 17.31794 17.3042 17.27978 17.24297 17.187 17.10499
0 0 0 0 0 0 0 0 0 0 20.62436 19.90605 18.93416 18.19059 17.82436 17.4753 17.48627 17.50547 17.51947 17.53618 17.55003 16.87317 16.8723 16.85867 16.84048 16.84072 16.84333 16.84908 16.86887 16.89018 16.91705 16.94815 16.97809 17.00592 17.02055 17.0465 17.07754 17.12575 17.17096 17.22267 17.28198 17.31958 17.73377 0 0 0 0 0 0 0 0 0 0 0 19.7203 19.32957 18.47321 17.24882 17.25467 17.25702 17.24986 17.23736 17.22735 17.22104 17.21422 17.20258 17.18047 17.16234 17.15323 17.15193 17.16501 17.18704 17.21983 17.26153 17.3003 17.34035 17.37671 17.40074 17.42324 17.43722 17.45134 17.45731 17.45771 17.45716 17.45703 17.45605 17.45667 17.45725 17.45294 17.44497 17.4366 17.42894 17.41529 17.40526 17.3953 17.38429 17.37379 17.3678 17.36424 17.36411 17.36489 17.35949 17.35459 17.34284 17.32701 17.29693 17.26096 17.20458 17.1213
0 0 0 0 0 0 0 0 0 0 20.18303 18.94147 18.19781 17.82482 17.14012 17.13964 16.82197 16.83571 16.86333 16.87413 16.87764 16.87981 16.88013 16.87746 16.87036 16.8668 16.8748 16.88967 16.91182 16.93348 16.95708 16.98788 17.01411 17.03941 17.05947 17.08399 17.11653 17.16037 17.21679 17.26747 18.56991 0 0 0 0 0 0 0 0 0 0 0 0 0 20.38313 18.95636 17.28668 17.28697 17.28713 17.28629 17.27922 17.27084 17.262 17.25325 17.23608 17.21155 17.1911 17.1806 17.17957 17.18103 17.18971 17.2139 17.24082 17.2791 17.32078 17.35822 17.39255 17.41744 17.44067 17.45533 17.46863 17.47457 17.47489 17.4752 17.47822 17.48177 17.48499 17.48646 17.48368 17.47779 17.47121 17.46218 17.45014 17.43941 17.42793 17.4192 17.40998 17.40728 17.4072 17.40827 17.41074 17.40491 17.39298 17.37682 17.35406 17.32045 17.27784 17.22201 17.14139
0 0 0 0 0 0 0 0 0 20.27327 19.64634 18.58401 17.81641 17.1186 16.80692 16.80711 16.81495 16.8313 16.85002 16.86706 16.88381 16.89109 16.89321 16.89709 16.89924 16.89631 16.90336 16.92096 16.95229 16.97362 17.00536 17.02907 17.05654 17.08161 17.09983 17.12962 17.1625 17.20295 17.25771 18.11415 18.35235 0 0 0 0 0 0 0 0 0 0 0 0 19.64797 19.40431 18.12361 17.3074 17.31625 17.32481 17.32822 17.32225 17.31232 17.30293 17.29264 17.27421 17.24646 17.22895 17.21747 17.21645 17.21768 17.2269 17.24517 17.27152 17.30584 17.34054 17.37224 17.40423 17.4305 17.45334 17.46947 17.48644 17.4912 17.49157 17.49587 17.50026 17.50708 17.5121 17.51797 17.52077 17.51557 17.50604 17.4985 17.48656 17.47565 17.46451 17.45519 17.44734 17.44458 17.44529 17.44628 17.4457 17.43469 17.4182 17.39257 17.36826 17.33456 17.28904 17.23254 17.15579
0 0 0 0 0 0 0 0 21.12772 19.99826 18.59711 17.81022 17.41776 16.76464 16.76636 16.78001 16.79281 16.81194 16.83177 16.85303 16.8758 16.89074 16.9018 16.90474 16.91293 16.91506 16.93528 16.95599 16.98227 17.01244 17.03865 17.06235 17.08552 17.10582 17.1235 17.15223 17.18543 17.22568 17.64775 18.11425 18.58812 19.46023 0 20.29923 20.89473 0 0 0 0 0 0 0 20.45927 19.41873 18.57441 17.31816 17.33122 17.3422 17.35944 17.3679 17.36493 17.35263 17.33602 17.31852 17.29967 17.28077 17.26592 17.25463 17.24885 17.25506 17.26931 17.28541 17.3087 17.33458 17.36689 17.40096 17.42804 17.45697 17.48173 17.50142 17.51489 17.51604 17.5162 17.51663 17.52322 17.5286 17.53567 17.54365 17.54885 17.54571 17.53643 17.52721 17.51876 17.51386 17.5062 17.49809 17.49393 17.49167 17.49252 17.4866 17.48304 17.46576 17.44033 17.41167 17.38345 17.34529 17.29546 17.23466 17.16242
0 0 0 0 0 0 0 0 21.13619 20.01173 18.59687 17.79645 16.7528 16.73903 16.74104 16.75201 16.77287 16.79528 16.81843 16.84802 16.87406 16.89715 16.90619 16.91511 16.92723 16.94476 16.97207 17.00006 17.03384 17.06508 17.0943 17.11592 17.13146 17.14785 17.16391 17.18745 17.2109 17.23713 17.26397 17.69775 18.13621 18.58211 19.03497 19.4847 20.27176 0 0 0 0 0 0 19.85829 19.00158 18.9947 17.31958 17.33904 17.36577 17.38552 17.4038 17.40862 17.40215 17.38793 17.36918 17.34879 17.33069 17.30851 17.29481 17.28368 17.27893 17.28623 17.29799 17.31778 17.33744 17.3609 17.39369 17.4239 17.45491 17.48634 17.51326 17.53261 17.54454 17.54622 17.54914 17.55265 17.5589 17.56145 17.56969 17.57889 17.58124 17.5762 17.56657 17.55812 17.55044 17.54425 17.5378 17.53142 17.5246 17.52363 17.5222 17.51526 17.50598 17.48568 17.45947 17.4299 17.39491 17.35127 17.29655 17.23397 17.16468
0 0 0 0 0 0 0 0 0 20.03761 18.6079 17.80951 16.74391 16.71984 16.72106 16.73734 16.75732 16.78126 16.81224 16.84643 16.87299 16.90148 16.91377 16.92832 16.94591 16.97606 17.00809 17.04479 17.08616 17.12148 17.14895 17.17384 17.18892 17.20126 17.21102 17.232 17.24834 17.26444 17.27831 17.28205 17.2976 17.30803 17.31794 17.71995 18.58536 19.43794 20.25449 20.58032 0 0 20.1885 18.99662 18.13277 17.31853 17.34139 17.37161 17.40375 17.42405 17.43424 17.43627 17.43065 17.41579 17.39623 17.37879 17.36165 17.34536 17.33398 17.32182 17.3191 17.32102 17.332 17.3466 17.36462 17.38611 17.41482 17.44748 17.48126 17.51209 17.5386 17.55874 17.5702 17.57543 17.57723 17.5834 17.58605 17.59223 17.60005 17.60916 17.61452 17.60891 17.60384 17.59655 17.58767 17.5813 17.57679 17.56881 17.56405 17.5562 17.54882 17.53898 17.5228 17.50173 17.47103 17.43868 17.39791 17.34708 17.2882 17.22598 17.15757
0 0 0 0 0 0 0 0 0 21.01054 19.38299 18.23136 17.07348 16.72358 16.71256 16.72136 16.74379 16.7704 16.80409 16.84085 16.87259 16.90313 16.92556 16.94821 16.97826 17.01493 17.0609 17.11069 17.15274 17.1888 17.21261 17.22501 17.23252 17.24484 17.25358 17.26132 17.27124 17.28191 17.29154 17.28816 17.29919 17.30533 17.30969 17.30882 17.70814 18.14341 18.57665 18.99076 20.20857 19.01552 17.7004 17.31414 17.32658 17.34832 17.37873 17.40661 17.43742 17.4536 17.45961 17.45752 17.44984 17.43767 17.4168 17.40276 17.3865 17.37461 17.36352 17.35414 17.34886 17.35525 17.36286 17.3813 17.39755 17.41994 17.45112 17.48278 17.51355 17.5442 17.56947 17.58294 17.5912 17.60099 17.60301 17.60858 17.61301 17.62134 17.62756 17.63379 17.63984 17.64033 17.63455 17.62855 17.61903 17.61463 17.60878 17.60144 17.5945 17.58512 17.57484 17.5612 17.54294 17.51748 17.48368 17.44643 17.40284 17.34523 17.2825 17.214 17.14266
0 0 0 0 0 0 0 0 0 21.16346 20.34093 18.65089 17.43664 16.73257 16.71616 16.72067 16.73647 16.76155 16.79458 16.82835 16.8661 16.90072 16.93738 16.97343 17.01816 17.07074 17.13142 17.18455 17.23463 17.25693 17.27292 17.28266 17.28675 17.29109 17.28793 17.2881 17.28931 17.29678 17.29889 17.29562 17.3008 17.30658 17.30825 17.31509 17.31994 17.32406 17.72955 0 19.02745 17.73062 17.34376 17.36284 17.38349 17.40679 17.43459 17.45745 17.47992 17.49102 17.49145 17.48397 17.47281 17.45999 17.44741 17.43542 17.42227 17.40943 17.39275 17.38095 17.37776 17.37968 17.38943 17.40215 17.42473 17.44881 17.47887 17.50947 17.54098 17.57059 17.5869 17.59966 17.60867 17.61567 17.6189 17.62602 17.63537 17.64814 17.65574 17.66297 17.66763 17.66933 17.66509 17.65819 17.65003 17.64162 17.63335 17.62639 17.61834 17.60902 17.59507 17.57756 17.55583 17.52647 17.49304 17.45368 17.40701 17.34579 17.27631 17.2053 17.1273
0 0 0 0 0 0 0 0 0 0 20.85363 19.4388 17.86194 17.10028 16.75378 16.73116 16.73224 16.75009 16.78004 16.81491 16.85715 16.90608 16.94726 16.99237 17.05089 17.11359 17.18008 17.24074 0 0 0 17.53434 17.3169 17.31793 17.31301 17.3076 17.30418 17.30421 17.30172 17.30233 17.29819 17.30551 17.31393 17.32134 17.33132 17.33772 17.3533 17.77019 17.36516 17.37277 17.39031 17.41171 17.43613 17.46234 17.48072 17.50187 17.51419 17.51597 17.51213 17.50835 17.49719 17.48756 17.47712 17.4723 17.46084 17.44713 17.43342 17.42247 17.41835 17.42037 17.42787 17.44304 17.46148 17.48728 17.51187 17.5407 17.56435 17.58843 17.60183 17.6134 17.62105 17.62441 17.63377 17.6407 17.65429 17.66816 17.67795 17.68522 17.68871 17.69264 17.68954 17.67995 17.67691 17.67113 17.66328 17.65153 17.64665 17.63682 17.61613 17.59322 17.56909 17.53942 17.50089 17.45882 17.41151 17.35094 17.2785 17.2018 17.1144
0 0 0 0 0 0 0 0 0 0 0 20.75745 19.44187 17.88388 17.10667 16.75926 16.73281 16.74606 16.77397 16.81256 16.85797 16.91733 16.96163 17.01645 17.07166 17.13676 17.57585 18.00056 0 0 0 18.20353 18.51249 17.32029 17.31645 17.31223 17.30874 17.30565 17.30807 17.30404 17.30755 17.3156 17.31918 17.32685 17.34501 17.36383 17.37803 17.38637 17.39451 17.40758 17.43208 17.45893 17.48278 17.50504 17.51943 17.52854 17.53258 17.53176 17.52794 17.52326 17.52022 17.51171 17.50798 17.50037 17.49297 17.48047 17.46982 17.46173 17.45815 17.46184 17.47452 17.48885 17.50564 17.52888 17.55141 17.57159 17.59042 17.608 17.62334 17.63131 17.63863 17.64515 17.65251 17.66355 17.67415 17.68605 17.69601 17.70466 17.70836 17.70858 17.70488 17.69772 17.69154 17.68506 17.67901 17.67476 17.66753 17.6543 17.63321 17.60699 17.58099 17.55046 17.5139 17.47261 17.42231 17.36241 17.28865 17.2082 17.1231
0 0 0 0 0 0 0 0 0 0 0 0 20.95577 19.83274 17.85978 17.10834 16.74341 16.74686 16.77335 16.81416 16.86939 16.93405 16.98218 17.0337 17.08381 17.15368 17.95131 0 0 19.64683 19.74438 18.12145 17.32241 17.30985 17.30381 17.30474 17.30221 17.3033 17.30864 17.32014 17.32389 17.32543 17.33868 17.35056 17.36762 17.39006 17.40143 17.40517 17.41312 17.43587 17.46323 17.49102 17.52301 17.53619 17.5478 17.55389 17.55796 17.55384 17.54924 17.54422 17.546 17.5444 17.53685 17.5267 17.52192 17.51334 17.50683 17.49918 17.49455 17.49939 17.51136 17.52403 17.54045 17.5582 17.57942 17.59931 17.61692 17.63449 17.64567 17.65373 17.66244 17.66894 17.67719 17.68646 17.6949 17.7038 17.71472 17.72205 17.72378 17.72329 17.71834 17.71388 17.70948 17.70258 17.69578 17.69156 17.68314 17.6684 17.64776 17.62278 17.59408 17.56101 17.5239 17.4838 17.43384 17.37548 17.30254 17.2279 17.14839
0 0 0 0 0 0 0 0 0 0 0 0 0 0 0 17.83086 17.07189 16.75036 16.78086 16.82379 16.88751 16.95086 16.99849 17.0394 17.07842 17.49689 17.57258 17.99665 18.42232 20.68278 19.73783 18.0883 17.30489 17.29687 17.29185 17.29663 17.30488 17.30957 17.32393 17.33653 17.33976 17.35062 17.36267 17.3796 17.39393 17.40466 17.41049 17.41606 17.44162 17.46158 17.49224 17.52353 17.54899 17.55985 17.56907 17.57842 17.57985 17.58191 17.58006 17.57533 17.57331 17.56791 17.55844 17.55042 17.54968 17.5469 17.54228 17.53701 17.53592 17.54483 17.55383 17.56612 17.58482 17.6008 17.61908 17.63249 17.64874 17.66046 17.67005 17.67752 17.68797 17.69535 17.70213 17.71282 17.71898 17.72879 17.73456 17.7383 17.73704 17.73572 17.72884 17.72704 17.72342 17.71818 17.71595 17.71011 17.69963 17.68302 17.66563 17.64236 17.61488 17.58404 17.548 17.50899 17.46165 17.39961 17.33202 17.25698 17.18594
0 0 0 0 0 0 0 0 0 0 0 0 0 0 0 18.61397 17.81171 16.75953 16.7947 16.84364 16.91065 16.97461 17.01992 17.05238 17.08753 17.13673 17.94016 18.00067 18.43009 0 19.77338 17.29425 17.291 17.28245 17.29924 17.29131 17.30396 17.31135 17.33167 17.33744 17.34582 17.36533 17.3759 17.39456 17.40786 17.42031 17.42983 17.44688 17.47289 17.50019 17.52856 17.55064 17.56884 17.58203 17.5901 17.60149 17.6064 17.60725 17.60461 17.60002 17.59417 17.58977 17.58143 17.57387 17.56927 17.56774 17.56372 17.56511 17.57042 17.58012 17.5923 17.60553 17.62492 17.64091 17.65796 17.67546 17.68638 17.69518 17.70357 17.71112 17.72072 17.7298 17.73857 17.74681 17.75071 17.75307 17.75455 17.7524 17.74921 17.74365 17.74097 17.73602 17.73333 17.72934 17.72697 17.72159 17.71187 17.69865 17.68303 17.66413 17.64253 17.61222 17.57867 17.54301 17.50171 17.44573 17.38024 17.31091 17.24459
0 0 0 0 0 0 0 0 0 0 0 0 0 19.8289 19.44199 18.61364 17.84514 16.78228 16.80326 16.86691 16.93744 17.00927 17.04987 17.08255 17.11488 17.15519 18.35163 18.80918 19.26485 19.17193 20.17546 17.66307 17.27302 17.27747 17.28612 17.29617 17.31107 17.32492 17.33511 17.33934 17.34567 17.37016 17.38819 17.39968 17.41836 17.43421 17.45391 17.47547 17.50005 17.53121 17.56194 17.57429 17.58371 17.59819 17.60835 17.61817 17.62685 17.63197 17.62807 17.62176 17.6177 17.61632 17.6073 17.60129 17.59673 17.59466 17.59222 17.59965 17.60321 17.6167 17.62951 17.64174 17.65583 17.67384 17.69273 17.70785 17.72094 17.7281 17.738 17.74252 17.75286 17.76088 17.7673 17.77418 17.77917 17.77832 17.77581 17.77159 17.76277 17.75451 17.7486 17.74618 17.74391 17.74225 17.73675 17.73237 17.72584 17.71572 17.70423 17.68799 17.66523 17.63802 17.6047 17.57089 17.5299 17.48651 17.42798 17.36612 17.30577
0 0 0 0 0 0 0 0 0 0 0 0 19.02095 18.61895 18.64608 18.24823 17.49216 16.81326 16.83597 16.89838 16.95302 17.02233 17.06432 17.1014 17.13477 17.1743 18.00273 18.02484 18.84245 19.68405 18.03323 17.24565 17.26099 17.28141 17.29789 17.31779 17.33072 17.33437 17.34604 17.35936 17.36233 17.37103 17.38377 17.40159 17.426 17.45292 17.47487 17.48829 17.51306 17.53447 17.56128 17.58398 17.59775 17.6057 17.61736 17.62899 17.63726 17.64305 17.64222 17.64015 17.63845 17.63621 17.63015 17.62377 17.62047 17.62144 17.62789 17.63341 17.64245 17.65525 17.67065 17.68425 17.70221 17.72023 17.73513 17.74568 17.75596 17.76633 17.77101 17.77165 17.77835 17.78535 17.79155 17.79259 17.79486 17.79418 17.78979 17.78549 17.77642 17.76705 17.76051 17.75802 17.75726 17.75657 17.75068 17.74959 17.747 17.74024 17.73106 17.71403 17.69585 17.67326 17.64646 17.61443 17.57522 17.53222 17.48133 17.42671 17.37192
0 0 0 0 0 0 0 0 20.77096 20.18004 19.01284 18.17931 18.18301 18.18421 17.84225 17.88498 17.5343 16.85583 16.89063 16.94461 17.00181 17.0591 17.10162 17.13533 17.1695 17.19946 17.22238 17.22789 17.22931 17.23337 17.23393 17.25269 17.28057 17.30103 17.31297 17.32882 17.34034 17.34413 17.35124 17.35598 17.3621 17.37363 17.38671 17.40215 17.42712 17.45674 17.48189 17.49778 17.51619 17.5376 17.55137 17.5748 17.5908 17.60994 17.61632 17.62723 17.64116 17.65205 17.65551 17.6548 17.65298 17.65022 17.64784 17.64489 17.64076 17.64503 17.65264 17.66154 17.67286 17.69039 17.71348 17.7331 17.75189 17.76896 17.77845 17.78512 17.79459 17.80341 17.80603 17.80285 17.80688 17.8112 17.81616 17.81614 17.81418 17.81426 17.80687 17.79941 17.78758 17.78222 17.77322 17.7678 17.76567 17.76354 17.7623 17.76552 17.76204 17.7579 17.75232 17.74213 17.7285 17.71096 17.68914 17.66017 17.63176 17.59391 17.54506 17.49825 17.44573
0 0 0 0 0 0 0 19.77266 19.86103 18.19124 17.78329 17.76891 17.77623 17.79523 17.84298 17.53544 16.87217 16.90453 16.95215 17.00052 17.057 17.10777 17.14495 17.17416 17.20222 17.2257 17.23855 17.24857 17.25485 17.2585 17.26854 17.28575 17.30878 17.31524 17.32194 17.33566 17.34511 17.35027 17.35274 17.35585 17.36244 17.38127 17.39071 17.41419 17.43964 17.45946 17.47624 17.49915 17.52157 17.53362 17.55006 17.56816 17.58598 17.60948 17.61972 17.63275 17.64538 17.65767 17.66627 17.67027 17.67179 17.67132 17.66798 17.66863 17.66875 17.67387 17.686 17.70307 17.71257 17.73591 17.75601 17.7794 17.79217 17.80585 17.81269 17.81895 17.82659 17.83466 17.83224 17.83057 17.83655 17.83941 17.83995 17.83757 17.83295 17.83015 17.82409 17.81585 17.80701 17.798 17.7889 17.77927 17.77681 17.77894 17.77996 17.78149 17.78122 17.78039 17.776 17.7701 17.76152 17.7489 17.72899 17.70462 17.67759 17.64408 17.60285 17.55966 17.50954
0 0 0 0 0 0 20.27665 20.26368 18.19497 17.74632 17.72104 17.73175 17.77146 17.4573 17.17308 16.88482 16.90989 16.9572 17.00154 17.04495 17.09928 17.14543 17.17757 17.20289 17.2235 17.24424 17.25683 17.26839 17.28215 17.28926 17.29371 17.30831 17.31926 17.31879 17.32853 17.33687 17.34733 17.35507 17.35978 17.37024 17.37865 17.39469 17.41098 17.42958 17.44605 17.45888 17.47239 17.48948 17.51157 17.53354 17.54836 17.56842 17.5844 17.60049 17.6147 17.63289 17.64708 17.65559 17.66682 17.67233 17.67758 17.68223 17.68503 17.69102 17.6982 17.70888 17.72439 17.7472 17.75794 17.77733 17.80057 17.81765 17.8307 17.84166 17.84958 17.8538 17.86109 17.86579 17.85914 17.8555 17.85463 17.85729 17.85767 17.84899 17.84655 17.84345 17.83254 17.82432 17.81803 17.80716 17.79941 17.79398 17.78996 17.79332 17.79914 17.8048 17.80491 17.80441 17.80503 17.80192 17.7967 17.78911 17.77368 17.75251 17.72965 17.69796 17.66573 17.62327 17.57694
0 0 0 0 0 0 21.10523 19.46102 18.14313 17.70884 17.33908 17.38205 17.09599 16.83553 16.89352 16.93963 16.97753 17.0192 17.05911 17.09907 17.14674 17.18392 17.2058 17.22356 17.24113 17.25297 17.26437 17.27892 17.28952 17.29426 17.29974 17.31389 17.31869 17.32755 17.33481 17.33619 17.34837 17.35449 17.36242 17.3734 17.39683 17.41642 17.42975 17.44424 17.45814 17.46625 17.47092 17.48301 17.50181 17.52444 17.5341 17.54917 17.57022 17.58963 17.60342 17.62583 17.64553 17.65866 17.66869 17.67546 17.67999 17.69088 17.70518 17.71121 17.72455 17.7377 17.75054 17.77895 17.79386 17.81569 17.83062 17.84836 17.86274 17.87793 17.88812 17.88927 17.89111 17.88724 17.88371 17.8779 17.87574 17.87529 17.87125 17.86375 17.85967 17.85389 17.84269 17.83385 17.82747 17.81875 17.81249 17.807 17.80711 17.8088 17.81938 17.82646 17.82556 17.82801 17.82945 17.83096 17.82983 17.82475 17.81191 17.79566 17.77541 17.75409 17.7258 17.68945 17.64919
0 0 0 0 0 21.18353 20.75443 19.42673 18.12612 17.72249 17.04082 16.76154 16.82744 16.89166 16.94156 16.99051 17.03281 17.0696 17.10537 17.14116 17.17821 17.20483 17.21938 17.23747 17.25568 17.26854 17.28219 17.29096 17.29909 17.30225 17.30921 17.32084 17.33241 17.3412 17.34024 17.34248 17.35131 17.35769 17.36563 17.38018 17.40722 17.4252 17.44194 17.44805 17.4536 17.46395 17.47303 17.47897 17.48757 17.51178 17.52912 17.54713 17.56417 17.5826 17.59956 17.62071 17.6427 17.65632 17.6729 17.68335 17.6911 17.70677 17.72142 17.73836 17.75126 17.77102 17.78442 17.80706 17.82632 17.84292 17.85711 17.87363 17.88997 17.90216 17.90981 17.91155 17.91085 17.90697 17.90241 17.89651 17.89135 17.88786 17.87818 17.8696 17.86355 17.85558 17.84616 17.84171 17.83519 17.83282 17.82809 17.82238 17.8221 17.82173 17.83326 17.84438 17.84766 17.84639 17.85033 17.85289 17.85299 17.84877 17.83483 17.82389 17.80862 17.78658 17.76597 17.73372 17.70018
0 0 0 0 20.2388 19.89099 18.14761 17.71755 17.34663 16.71185 16.75904 16.82454 16.88278 16.92974 16.97695 17.01826 17.05811 17.09548 17.13044 17.16306 17.18973 17.21528 17.23411 17.24936 17.2629 17.27777 17.2922 17.29932 17.3071 17.31079 17.31779 17.32193 17.33333 17.3334 17.34939 17.35132 17.36143 17.37577 17.38137 17.39388 17.4108 17.42588 17.43817 17.4402 17.45521 17.45842 17.47102 17.4806 17.48522 17.50627 17.52599 17.54207 17.56139 17.58139 17.60196 17.61625 17.62548 17.64799 17.67366 17.69553 17.71212 17.73018 17.74266 17.75631 17.77692 17.79804 17.81375 17.83848 17.8547 17.86924 17.89068 17.90401 17.91166 17.9218 17.9297 17.9319 17.92814 17.92166 17.9154 17.91039 17.90599 17.90026 17.89077 17.87577 17.86615 17.86045 17.85235 17.84396 17.84179 17.84081 17.83567 17.83579 17.83596 17.83889 17.84721 17.85307 17.8574 17.86115 17.87101 17.87874 17.881 17.87733 17.87045 17.86452 17.84859 17.8301 17.8122 17.78367 17.75357
0 0 0 0 21.29133 18.58937 16.72187 16.70919 16.71205 16.75464 16.82125 16.88615 16.93728 16.97798 17.01295 17.04941 17.07901 17.11355 17.15135 17.17608 17.19909 17.22544 17.24156 17.25102 17.26628 17.27654 17.28668 17.2935 17.30085 17.31015 17.3122 17.31679 17.32658 17.33726 17.34713 17.34939 17.36347 17.38139 17.38993 17.40119 17.41506 17.42665 17.43856 17.44486 17.46212 17.45916 17.46419 17.47583 17.48558 17.50709 17.53041 17.54354 17.55535 17.57186 17.59301 17.61029 17.63396 17.64941 17.67214 17.69983 17.72481 17.74366 17.75887 17.77362 17.79504 17.81601 17.83532 17.86201 17.88141 17.89606 17.91557 17.92614 17.93142 17.94075 17.9459 17.94485 17.94694 17.93645 17.93056 17.92148 17.9174 17.91103 17.9013 17.89098 17.87423 17.86267 17.86136 17.85009 17.84653 17.84567 17.84536 17.84712 17.84701 17.8511 17.86627 17.87062 17.86922 17.87249 17.88773 17.89713 17.90384 17.9011 17.8957 17.89598 17.88479 17.87192 17.85971 17.83615 17.8095
0 0 0 20.40001 19.96675 18.15802 16.70453 16.70951 16.74649 16.80927 16.88273 16.94279 16.98492 17.0169 17.04889 17.0731 17.10277 17.1302 17.15617 17.18113 17.20488 17.22555 17.24163 17.2467 17.25332 17.26153 17.27514 17.28483 17.29667 17.29966 17.29965 17.30961 17.32888 17.34225 17.34354 17.34832 17.35499 17.37282 17.38627 17.39458 17.40195 17.4069 17.42226 17.44378 17.45673 17.46031 17.46842 17.48063 17.48942 17.5066 17.51946 17.53586 17.56356 17.57137 17.60374 17.63673 17.65835 17.67102 17.69183 17.71787 17.73645 17.75585 17.77012 17.79038 17.81173 17.83272 17.85438 17.87376 17.89469 17.91489 17.93345 17.94229 17.94741 17.95131 17.95372 17.95206 17.95157 17.94148 17.93682 17.93287 17.92371 17.92067 17.9104 17.90119 17.88582 17.87878 17.87361 17.86572 17.8671 17.86641 17.87016 17.87285 17.86837 17.871 17.88196 17.88927 17.88978 17.89433 17.90534 17.91568 17.92622 17.9259 17.92573 17.92203 17.9196 17.90805 17.89492 17.87426 17.85066
0 0 0 20.37954 19.9624 18.14405 17.35011 16.71872 16.78384 16.86803 16.93019 16.98219 17.01417 17.04364 17.07101 17.09144 17.11332 17.14057 17.1634 17.18156 17.19549 17.21213 17.22905 17.23158 17.22841 17.24093 17.25217 17.26331 17.27382 17.27276 17.28583 17.30714 17.33361 17.33476 17.34256 17.34246 17.34799 17.35992 17.37349 17.37842 17.38227 17.38553 17.39443 17.40996 17.43777 17.45825 17.46813 17.4781 17.48279 17.50337 17.51667 17.54597 17.56576 17.59437 17.62324 17.64415 17.66313 17.69053 17.7146 17.73216 17.7575 17.76225 17.79339 17.81041 17.82238 17.84675 17.86348 17.88934 17.90537 17.9187 17.94104 17.95164 17.9525 17.9606 17.95885 17.95883 17.95676 17.95004 17.945 17.94091 17.93681 17.92577 17.92344 17.91354 17.90661 17.89475 17.88786 17.88738 17.88752 17.89008 17.89448 17.89551 17.89469 17.89887 17.9068 17.91848 17.91939 17.92512 17.93219 17.93917 17.95382 17.95917 17.96136 17.96055 17.95928 17.95198 17.94132 17.9213 17.8968
0 0 0 21.20381 20.22481 18.1359 17.01567 16.74516 16.81347 16.89543 16.96473 17.00315 17.03109 17.06253 17.09059 17.10146 17.12021 17.14115 17.15878 17.17661 17.18784 17.19873 17.20522 17.20693 17.21108 17.21791 17.2286 17.24593 17.25512 17.26098 17.27027 17.29415 17.31643 17.33021 17.33639 17.33488 17.33498 17.34936 17.35151 17.36268 17.36324 17.36262 17.36897 17.39075 17.40795 17.43487 17.45564 17.46688 17.46637 17.48094 17.51554 17.54599 17.56726 17.58467 17.61078 17.63949 17.67164 17.70155 17.71375 17.73784 17.75873 17.78298 17.79738 17.82527 17.83782 17.85469 17.86776 17.88934 17.90161 17.9201 17.93933 17.94934 17.95444 17.95522 17.95329 17.95235 17.95052 17.95127 17.95329 17.94678 17.93991 17.93605 17.93265 17.93225 17.93073 17.9255 17.92064 17.9179 17.91333 17.91236 17.92037 17.91789 17.92143 17.93021 17.93653 17.94212 17.94469 17.95381 17.9638 17.97451 17.98108 17.98668 17.99548 17.99976 17.99884 17.99368 17.98523 17.97397 17.9585
0 0 0 21.20334 18.89864 17.31305 16.69805 16.76064 16.8359 16.91742 16.97271 17.0106 17.03988 17.06775 17.09106 17.10809 17.12248 17.13902 17.14813 17.15061 17.15621 17.16533 17.16993 17.16441 17.17812 17.1908 17.19749 17.21573 17.23113 17.24442 17.25967 17.27998 17.3113 17.32654 17.32846 17.32747 17.32729 17.33621 17.35078 17.35916 17.36259 17.36157 17.3593 17.37197 17.38778 17.40275 17.42801 17.44783 17.44997 17.47466 17.52251 17.55018 17.56804 17.58593 17.60645 17.63136 17.66123 17.69207 17.70697 17.73068 17.75618 17.77949 17.80018 17.82098 17.8413 17.84441 17.8562 17.86822 17.88638 17.90375 17.92073 17.93917 17.94646 17.94737 17.94259 17.94081 17.94539 17.94429 17.9443 17.94677 17.94412 17.93895 17.93067 17.93819 17.94727 17.95033 17.95313 17.9514 17.944 17.94004 17.94652 17.95032 17.96087 17.97073 17.98035 17.98478 17.98919 18.00115 18.01233 18.02539 18.0326 18.04008 18.045 18.04742 18.04246 18.04307 18.03602 18.02912 18.01111
16.62396 16.62555 17.9868 18.83876 16.92048 16.63673 16.70374 16.77984 16.86008 16.93374 16.98272 17.01689 17.04718 17.06841 17.08611 17.1035 17.11691 17.12673 17.13367 17.13089 17.1319 17.1311 17.12762 17.12145 17.13535 17.15064 17.16874 17.18001 17.20671 17.23069 17.24496 17.26798 17.29939 17.31418 17.32164 17.32586 17.32816 17.33303 17.35284 17.36223 17.3644 17.37066 17.36063 17.35879 17.37351 17.38987 17.4108 17.41999 17.43656 17.4798 17.51923 17.54377 17.56404 17.58411 17.61108 17.63677 17.66202 17.68579 17.70818 17.73065 17.75231 17.77603 17.79194 17.80687 17.82882 17.83437 17.85053 17.86215 17.87421 17.88712 17.90166 17.91818 17.93225 17.93776 17.93654 17.9384 17.93636 17.93733 17.93291 17.93582 17.93518 17.9307 17.93295 17.94257 17.95282 17.95786 17.96114 17.96521 17.96443 17.9641 17.97166 17.98607 17.9958 18.00532 18.01831 18.02686 18.03911 18.05081 18.06465 18.0777 18.089 18.09736 18.1029 18.10322 18.10296 18.10142 18.08969 18.07742 18.06662
16.6292 16.61872 16.62872 16.64445 16.66351 16.70177 16.76403 16.83767 16.90688 16.96711 17.00601 17.03053 17.05568 17.07081 17.08356 17.09482 17.10736 17.10779 17.10221 17.0991 17.09923 17.09905 17.09419 17.09062 17.09829 17.11638 17.13426 17.16155 17.18208 17.20601 17.22478 17.24944 17.2792 17.29132 17.30598 17.31899 17.32682 17.33335 17.35677 17.36586 17.37038 17.37084 17.37505 17.36641 17.3782 17.39516 17.40236 17.40598 17.4377 17.46499 17.49052 17.53516 17.56051 17.59158 17.61018 17.62902 17.67139 17.69728 17.71086 17.72326 17.74343 17.76873 17.78706 17.80215 17.81587 17.83201 17.84698 17.85525 17.86168 17.87153 17.88641 17.90116 17.90649 17.92208 17.92414 17.92521 17.92542 17.92534 17.92575 17.92436 17.93004 17.93369 17.94886 17.96074 17.96818 17.9726 17.98125 17.98329 17.98939 17.99822 18.01255 18.02142 18.03526 18.04626 18.05458 18.06549 18.07617 18.0863 18.0996 18.11831 18.13317 18.1401 18.15049 18.16068 18.16902 18.16377 18.15133 18.14422 18.13843
16.69416 16.70614 16.72077 16.73587 16.76948 16.80353 16.85253 16.90594 16.9524 16.99415 17.02751 17.0406 17.05306 17.06641 17.07175 17.08316 17.09088 17.09329 17.07878 17.06456 17.05718 17.05172 17.05705 17.05893 17.06371 17.08705 17.10825 17.13845 17.16838 17.19108 17.21448 17.23176 17.25693 17.27406 17.28743 17.30716 17.31581 17.32909 17.35173 17.36258 17.37167 17.37688 17.37333 17.37551 17.39236 17.39901 17.39698 17.40809 17.43578 17.46753 17.49939 17.53389 17.56114 17.57878 17.6174 17.65336 17.69135 17.72352 17.74407 17.75337 17.7616 17.77115 17.78648 17.80337 17.80887 17.82405 17.83628 17.85306 17.8546 17.86644 17.88017 17.89094 17.89484 17.91103 17.91501 17.91605 17.91619 17.9133 17.91663 17.91738 17.92951 17.9332 17.95432 17.96471 17.97364 17.99211 18.00705 18.02189 18.03527 18.05157 18.06639 18.07696 18.08528 18.09411 18.10152 18.11274 18.12539 18.144 18.15709 18.17715 18.1902 18.20773 18.21965 18.22597 18.22757 18.22205 18.20932 18.20406 18.19953
16.76933 16.78452 16.8044 16.82746 16.85 16.87707 16.90893 16.9397 16.97208 16.99492 17.01191 17.02886 17.03935 17.04695 17.05679 17.06768 17.07379 17.07098 17.06152 17.04747 17.0309 17.02062 17.02305 17.03262 17.04131 17.06273 17.08376 17.11239 17.14187 17.16989 17.19396 17.22314 17.25362 17.26865 17.28071 17.30155 17.30806 17.32033 17.34207 17.35133 17.35968 17.36862 17.37506 17.37652 17.39392 17.39887 17.39815 17.40636 17.43388 17.46831 17.48951 17.53041 17.57251 17.60404 17.62492 17.65444 17.68916 17.72269 17.74589 17.76463 17.77669 17.78651 17.7991 17.8084 17.80796 17.8196 17.83669 17.85102 17.86351 17.87538 17.88009 17.88662 17.89832 17.90855 17.91345 17.91776 17.91514 17.91539 17.91569 17.91889 17.92563 17.9314 17.94599 17.96511 17.9855 18.01264 18.04153 18.06549 18.08269 18.10097 18.11893 18.12873 18.14507 18.15912 18.16879 18.1791 18.19629 18.22033 18.24276 18.26952 18.29096 18.3056 18.31556 18.31212 18.30428 18.29547 18.28487 18.27773 18.27559
16.84014 16.85336 16.86781 16.8808 16.89066 16.90475 16.91983 16.93545 16.95961 16.97303 16.99121 17.00263 17.01059 17.02002 17.02942 17.04238 17.04124 17.0461 17.03273 17.02645 17.01144 17.00074 17.00207 17.0087 17.0234 17.05495 17.08262 17.10179 17.12639 17.15304 17.18347 17.21665 17.24865 17.27211 17.29634 17.31254 17.32131 17.32839 17.34378 17.35397 17.36085 17.36851 17.37679 17.3925 17.40447 17.4074 17.41242 17.43001 17.45656 17.4792 17.51113 17.55074 17.58192 17.6245 17.64968 17.6818 17.71911 17.74289 17.76537 17.78384 17.80005 17.81534 17.83397 17.84205 17.84913 17.85829 17.86618 17.87412 17.88996 17.89793 17.90222 17.90506 17.89989 17.90798 17.90978 17.91722 17.91865 17.91745 17.92156 17.92716 17.94393 17.9572 17.97434 17.99923 18.02305 18.05729 18.09248 18.11541 18.14818 18.16495 18.17809 18.19032 18.20467 18.22334 18.238 18.25042 18.26162 18.27595 18.30001 18.33535 18.37137 18.3956 18.39526 18.38151 18.36989 18.36256 18.35641 18.357 18.35312
16.87852 16.88539 16.88555 16.88277 16.88845 16.89235 16.90251 16.91462 16.93162 16.94779 16.96693 16.97574 16.98132 16.99093 17.00587 17.01456 17.015 17.01695 17.00734 17.00698 16.99553 16.98448 16.98878 17.00153 17.01785 17.04599 17.07581 17.10002 17.12777 17.15647 17.18798 17.21997 17.25194 17.28048 17.29819 17.31629 17.33146 17.34643 17.36981 17.36766 17.38001 17.39023 17.408 17.41051 17.428 17.43714 17.45409 17.48227 17.50877 17.52839 17.56173 17.59827 17.63772 17.6648 17.69809 17.73565 17.77869 17.80487 17.82325 17.83355 17.85304 17.86678 17.87646 17.8869 17.89593 17.89325 17.89451 17.90638 17.91537 17.92391 17.93003 17.92946 17.92731 17.92771 17.92247 17.9267 17.92781 17.93265 17.93856 17.94584 17.9743 17.99559 18.02088 18.05261 18.088 18.11998 18.15915 18.19488 18.23288 18.25873 18.2704 18.28334 18.28774 18.29784 18.30977 18.31383 18.32286 18.33932 18.36995 18.40658 18.44138 18.456 18.45868 18.4544 18.44271 18.43888 18.43999 18.43471 18.42888
16.87456 16.86983 16.86897 16.86385 16.85944 16.8649 16.87369 16.8822 16.89646 16.91516 16.93312 16.94035 16.95042 16.96299 16.97769 16.99331 17.00071 17.00397 17.00161 16.99479 16.99006 16.98685 16.99571 17.01419 17.03862 17.06243 17.08789 17.11467 17.14917 17.1712 17.2015 17.23206 17.26226 17.28656 17.30815 17.32929 17.35246 17.36959 17.38967 17.39941 17.40758 17.42078 17.43418 17.45028 17.46477 17.48384 17.50823 17.53487 17.55792 17.58322 17.62452 17.66093 17.69519 17.73103 17.76284 17.78914 17.81564 17.83619 17.86413 17.89519 17.92358 17.93006 17.94439 17.95375 17.96258 17.95368 17.9565 17.96307 17.96576 17.97511 17.98257 17.98346 17.98437 17.97568 17.96498 17.96103 17.95825 17.96213 17.97632 17.99466 18.01899 18.04071 18.07208 18.10118 18.1371 18.17935 18.21905 18.25373 0 0 18.32862 18.36619 18.36525 18.36523 18.37533 18.38098 18.39304 18.41721 18.42871 0 0 18.47081 18.52719 18.52941 18.52755 18.5258 18.53474 18.53223 18.52043
