ncols        20
nrows        20
xllcorner    0
yllcorner    -3.59929275513
cellsize     0.179964631796
NODATA_value -9999
-9999.0 -9999 -9999 -9999 -9999 -9999 -9999 -9999 -9999 -9999 -9999 -9999 -9999 -9999 -9999 -9999 -9999 -9999 -9999 -9999
-9999 -9999 -9999 -9999 17.0452 16.223023 16.111607 16.021212 16.091286 16.255199 16.321748 16.26763425 16.39527 16.22448 16.22448 16.52372875 16.73487 -9999 -9999 -9999
-9999 -9999 -9999 -9999 16.091061 15.858616 15.901993 15.850749 16.00002 16.246183 16.151994 16.252638 16.270635 16.164472 16.249957 16.40128 16.708808 16.05813 -9999 -9999
-9999 -9999 -9999 15.6559165 15.659881 15.630307 15.768906 15.702446 15.762031 15.902111 15.82654 15.872325 15.902774 15.91478 16.018384 16.133297 15.968288 15.919864 -9999 -9999
-9999 -9999 -9999 15.512411 15.360313 15.246672 15.444456 15.458956 15.525502 15.501579 15.445681 15.438478 15.471428 15.531878 15.609747 15.61708 15.727515 16.136258 -9999 -9999
-9999 -9999 15.3306435 15.294745 15.237607 15.196714 15.181173 15.266567 15.22878 15.221907 15.131148 15.205551 15.160655 15.259028 15.226994 15.435768 15.875656 16.182415 16.31301 -9999
-9999 -9999 15.234188 15.28123 15.186611 15.128165 15.10388 15.091489 15.159356 15.153076 15.126094 15.081594 15.095404 15.180372 15.282543 15.574987 15.860744 16.182303 16.269094 -9999
-9999 -9999 15.206734 15.101988 15.235775 15.201881 15.219814 15.162193 15.136972 15.077276 15.081467 15.068249 15.1045 15.203053 15.40951 15.623956 15.887117 16.302815 16.207433 -9999
-9999 14.94074 14.98247 15.011531 15.157504 15.1461 15.085355 15.178753 15.210321 15.152255 15.138156 15.135018 15.160017 15.298093 15.449265 15.5758 15.919675 16.25705 16.278221 -9999
-9999 15.046739 14.985432 15.014709 15.043269 15.046603 15.007514 15.097432 15.206895 15.238981 15.205929 15.205416 15.250741 15.352551 15.543177 15.56168 15.847993 16.153832 16.04775 -9999
-9999 15.18691 14.979541 15.017168 15.030866 15.027123 15.015365 15.029347 15.025463 15.305837 15.26882 15.252764 15.414607 15.445778 15.532261 15.534992 15.671134 15.863285 15.714279 -9999
-9999 15.313221 14.990123 15.017055 15.025126 15.017584 15.019896 15.021513 15.016081 15.171616 15.208125 15.296066 15.415213 15.485612 15.518631 15.426316 15.48724 15.61582 15.778075 -9999
-9999 15.400343 15.035487 15.013304 15.031864 15.019928 15.025398 15.023723 15.02903 15.025297 15.137719 15.257454 15.32343 15.463387 15.412003 15.320209 15.386032 15.553935 15.859824 -9999
-9999 15.468083 15.099336 15.009474 15.037448 15.022594 15.030143 15.02505 15.030866 15.044101 15.052538 15.183597 15.160314 15.310802 15.369381 15.249 15.239419 15.535229 15.64635 -9999
-9999 15.493031 15.182113 15.009782 15.037363 15.037272 15.029586 15.033872 15.031229 15.035655 15.052406 15.082245 15.044729 15.160515 15.27727 15.24247 15.186598 15.412306 -9999 -9999
-9999 15.520341 15.285282 15.030672 15.023686 15.042189 15.042351 15.036604 15.015185 15.011903 15.035257 15.044384 15.04512 15.060949 15.166485 15.140645 15.2064 15.458847 -9999 -9999
-9999 15.56841 15.385826 15.184627 15.019347 15.033408 15.05834 15.03149 14.99659 14.982895 15.00503 15.027607 15.043073 15.018591 15.062156 15.022815 15.048893 15.53993 15.486395 15.42939
-9999 -9999 15.457326 15.312428 15.130789 15.043184 15.069433 15.016842 14.97166 14.953368 14.971811 14.995376 15.025792 15.008168 14.98131 14.984042 14.990302 15.038967 15.092785 15.15569
-9999 -9999 15.36927075 15.347709 15.17444 15.041608 15.064976 14.998679 14.942238 14.920659 14.923316 14.921747 14.940356 14.954753 14.962208 14.936241 14.944611 15.016676 15.074121 15.14437
-9999 -9999 -9999 15.35962 15.048219 15.018418 15.030961 14.977061 14.921934 14.883043 14.880807 14.876342 14.882007 14.886083 14.876803 14.878789 14.904076 14.926428 14.990396 15.08143
