ncols        20
nrows        20
xllcorner    0
yllcorner    -3.59929275513
cellsize     0.179964631796
NODATA_value -9999
-9999.0 -9999 -9999 -9999 -9999 -9999 -9999 -9999 -9999 -9999 -9999 -9999 -9999 -9999 -9999 -9999 -9999 -9999 -9999 -9999
-9999 -9999 -9999 -9999 17.49245 16.697623 16.615652 16.573244 16.685869 16.844213 16.83964 16.77440875 16.94581 16.85805 16.85805 17.127814 17.34102 -9999 -9999 -9999
-9999 -9999 -9999 -9999 16.544244 16.315929 16.37958 16.3206 16.490766 16.741962 16.584309 16.758335 16.809181 16.755847 16.867582 16.988055 17.314599 16.671697 -9999 -9999
-9999 -9999 -9999 16.007241 16.03241 16.004117 16.150879 16.069175 16.139924 16.28216 16.203621 16.287859 16.34977 16.400793 16.544197 16.661102 16.508222 16.461001 -9999 -9999
-9999 -9999 -9999 15.815033 15.637277 15.508912 15.719607 15.723748 15.81482 15.779657 15.723074 15.735826 15.791097 15.89421 16.005596 16.017131 16.197649 16.695744 -9999 -9999
-9999 -9999 15.5120065 15.497885 15.412253 15.382139 15.373352 15.473698 15.422412 15.407696 15.2981 15.400058 15.352927 15.501138 15.48386 15.730062 16.321544 16.710477 16.8875 -9999
-9999 -9999 15.356467 15.378641 15.277028 15.2319 15.222556 15.215475 15.30062 15.288223 15.251091 15.191088 15.218127 15.337888 15.444271 15.865163 16.291273 16.725672 16.862807 -9999
-9999 -9999 15.21129 15.077808 15.259192 15.248603 15.303897 15.247789 15.235651 15.160349 15.161437 15.136285 15.179153 15.2837 15.586594 15.903776 16.309422 16.881768 16.81908 -9999
-9999 14.82578 14.825919 14.852198 15.062582 15.079518 15.030731 15.185586 15.274883 15.228048 15.207106 15.196806 15.20872 15.375121 15.616794 15.825051 16.33819 16.855092 16.922663 -9999
-9999 14.972053 14.817269 14.811146 14.850797 14.866259 14.851973 15.01468 15.20679 15.307245 15.273406 15.266012 15.306015 15.438153 15.721972 15.800162 16.242578 16.749947 16.642973 -9999
-9999 15.169056 14.81715 14.809039 14.822242 14.821537 14.833263 14.896224 14.906965 15.350952 15.33591 15.301808 15.496647 15.551198 15.690292 15.761707 16.00939 16.392342 16.226477 -9999
-9999 15.34746 14.840899 14.80837 14.801077 14.796311 14.820205 14.867241 14.879878 15.130696 15.207717 15.333469 15.493177 15.585017 15.65791 15.609188 15.748963 16.039332 16.317287 -9999
-9999 15.470223 14.913888 14.808177 14.79793 14.791807 14.809782 14.84855 14.881486 14.878163 15.055578 15.232688 15.332218 15.517246 15.501884 15.440835 15.607331 15.930618 16.447197 -9999
-9999 15.569018 15.012394 14.808185 14.794211 14.788248 14.79742 14.814116 14.846616 14.859916 14.875966 15.078673 15.054504 15.264594 15.413221 15.28201 15.351422 15.86692 16.14702 -9999
-9999 15.609198 15.133542 14.815887 14.792307 14.787462 14.785912 14.792835 14.806438 14.818651 14.838943 14.892051 14.835714 15.01144 15.25387 15.247209 15.221522 15.626846 -9999 -9999
-9999 15.651497 15.279575 14.864394 14.798649 14.785139 14.781231 14.763174 14.749623 14.766564 14.792313 14.799405 14.798384 14.841623 15.055332 15.071292 15.210434 15.642009 -9999 -9999
-9999 15.72192 15.432622 15.113532 14.825906 14.791057 14.759285 14.725734 14.712629 14.708936 14.738996 14.743893 14.755214 14.74704 14.87393 14.863347 14.945315 15.69622 15.61717 15.53117
-9999 -9999 15.554928 15.316175 15.019869 14.787566 14.733418 14.696691 14.677716 14.671973 14.674655 14.685132 14.692633 14.690866 14.714437 14.760027 14.809741 14.8838 14.967515 15.02461
-9999 -9999 15.424092 15.389825 15.090652 14.768122 14.709179 14.674794 14.646797 14.631634 14.608341 14.604878 14.59462 14.589963 14.612999 14.642424 14.694541 14.787889 14.864156 14.92934
-9999 -9999 -9999 15.43544 14.889526 14.754455 14.70052 14.656629 14.624132 14.593358 14.573732 14.546052 14.521386 14.51184 14.493874 14.498071 14.546076 14.610737 14.703713 14.8067
