ncols        20
nrows        20
xllcorner    0
yllcorner    -3.59929275513
cellsize     0.179964631796
NODATA_value -9999
-9999.0 -9999 -9999 -9999 -9999 -9999 -9999 -9999 -9999 -9999 -9999 -9999 -9999 -9999 -9999 -9999 -9999 -9999 -9999 -9999
-9999 -9999 -9999 -9999 16.70255 15.896615 15.822182 15.793104 15.921436 16.092606 16.107545 16.0542165 16.21899 16.11873 16.11873 16.38642725 16.59193 -9999 -9999 -9999
-9999 -9999 -9999 -9999 15.719331 15.517326 15.597677 15.564864 15.745974 16.011992 15.873102 16.038169 16.086605 16.025277 16.134121 16.253024 16.566634 15.95248 -9999 -9999
-9999 -9999 -9999 15.20038975 15.221964 15.229609 15.394373 15.337543 15.413895 15.574598 15.503367 15.58502 15.647274 15.685431 15.826522 15.93998 15.796582 15.759321 -9999 -9999
-9999 -9999 -9999 15.002068 14.858196 14.770527 15.004331 15.029052 15.123796 15.105283 15.050988 15.058832 15.109175 15.204422 15.316165 15.331881 15.506252 15.997623 -9999 -9999
-9999 -9999 14.75797125 14.72923 14.669958 14.66082 14.677959 14.79901 14.762403 14.756088 14.65404 14.747098 14.705562 14.846577 14.832552 15.081901 15.6443 16.027567 16.2001 -9999
-9999 -9999 14.630935 14.669652 14.57471 14.540975 14.540087 14.555907 14.647446 14.641129 14.608704 14.556043 14.58663 14.707233 14.824008 15.223413 15.630947 16.04053 16.18925 -9999
-9999 -9999 14.531711 14.416418 14.588998 14.576228 14.629123 14.584801 14.587157 14.520402 14.526553 14.508799 14.556453 14.673467 14.970863 15.288702 15.65937 16.197581 16.168283 -9999
-9999 14.1815 14.198869 14.227597 14.422886 14.435982 14.387684 14.536197 14.625806 14.591155 14.574239 14.570006 14.594389 14.778339 15.020516 15.230246 15.693555 16.185677 16.306701 -9999
-9999 14.311954 14.190741 14.195845 14.234787 14.244634 14.227716 14.379896 14.562705 14.666457 14.63984 14.639406 14.701213 14.848893 15.130758 15.208129 15.615096 16.109321 16.060043 -9999
-9999 14.488844 14.186381 14.193982 14.209875 14.205328 14.21308 14.269169 14.290177 14.701635 14.69968 14.681797 14.895475 14.963553 15.107865 15.173424 15.414382 15.81503 15.687867 -9999
-9999 14.651496 14.203533 14.19172 14.19086 14.184646 14.201672 14.243344 14.262929 14.499191 14.577143 14.716072 14.899016 15.001656 15.083349 15.040782 15.191273 15.502931 15.78355 -9999
-9999 14.766823 14.264905 14.18792 14.187861 14.182989 14.191931 14.22855 14.258653 14.26797 14.436607 14.62238 14.74604 14.940528 14.943709 14.897323 15.080417 15.416268 15.910964 -9999
-9999 14.859408 14.349718 14.184591 14.184719 14.181846 14.182447 14.198791 14.229387 14.247465 14.272088 14.48107 14.484712 14.705685 14.863299 14.76211 14.854899 15.36638 15.65059 -9999
-9999 14.901299 14.461026 14.187915 14.17993 14.179288 14.178847 14.179928 14.199953 14.214696 14.237356 14.310624 14.284236 14.470705 14.719433 14.739656 14.737427 15.144002 -9999 -9999
-9999 14.946946 14.59755 14.224304 14.17662 14.172865 14.173901 14.161535 14.15982 14.176366 14.197757 14.221749 14.249429 14.318095 14.544679 14.583581 14.733523 15.157566 -9999 -9999
-9999 15.01842 14.745086 14.449689 14.191769 14.170935 14.151159 14.133169 14.133119 14.13157 14.15741 14.16739 14.205264 14.223897 14.3706 14.383417 14.477674 15.20859 15.124445 15.05424
-9999 -9999 14.868867 14.642819 14.368036 14.166425 14.127173 14.109618 14.105048 14.101625 14.109543 14.125238 14.138875 14.161687 14.210208 14.278524 14.35034 14.414273 14.49694 14.56212
-9999 -9999 14.7504595 14.720902 14.443039 14.160077 14.107301 14.089526 14.076833 14.070747 14.059033 14.068838 14.067713 14.06915 14.096717 14.146323 14.222419 14.321111 14.409392 14.47843
-9999 -9999 -9999 14.76925 14.27712 14.162786 14.100986 14.068357 14.051745 14.046943 14.045064 14.032007 14.019626 14.010764 13.995232 14.003322 14.056999 14.127703 14.241165 14.34769
