ncols        20
nrows        20
xllcorner    0
yllcorner    -3.59929275513
cellsize     0.179964631796
NODATA_value -9999
-9999.0 -9999 -9999 -9999 -9999 -9999 -9999 -9999 -9999 -9999 -9999 -9999 -9999 -9999 -9999 -9999 -9999 -9999 -9999 -9999
-9999 -9999 -9999 -9999 16.71578 15.890706 15.799487 15.745643 15.85488 16.015733 16.016693 15.95241125 16.12575 16.0354 16.0354 16.3120805 16.52694 -9999 -9999 -9999
-9999 -9999 -9999 -9999 15.7289 15.499628 15.559277 15.497336 15.660354 15.917017 15.759301 15.934942 15.989652 15.934668 16.047817 16.173177 16.500388 15.865752 -9999 -9999
-9999 -9999 -9999 15.2139065 15.233293 15.206792 15.335345 15.253391 15.301068 15.452117 15.371941 15.459902 15.530213 15.57269 15.727104 15.850169 15.702181 15.658778 -9999 -9999
-9999 -9999 -9999 15.023985 14.869448 14.752469 14.941417 14.937861 15.006161 14.965539 14.910105 14.912465 14.97558 15.075848 15.200098 15.220934 15.397043 15.904381 -9999 -9999
-9999 -9999 14.7730645 14.736821 14.669348 14.642883 14.627582 14.70787 14.646369 14.626989 14.519632 14.611073 14.575006 14.720926 14.708249 14.95339 15.533369 15.920464 16.09842 -9999
-9999 -9999 14.660598 14.670854 14.56527 14.516816 14.49872 14.481559 14.542514 14.525832 14.484477 14.426186 14.460254 14.583294 14.688751 15.094571 15.513772 15.930747 16.088786 -9999
-9999 -9999 14.56791 14.413987 14.573898 14.544953 14.58955 14.514333 14.49017 14.416852 14.414099 14.386359 14.428544 14.538917 14.833 15.165023 15.539323 16.096184 16.067662 -9999
-9999 14.25202 14.240131 14.232547 14.406508 14.397857 14.33385 14.464744 14.540723 14.491809 14.468725 14.456111 14.470531 14.637331 14.886759 15.100056 15.575507 16.085353 16.219377 -9999
-9999 14.414871 14.241251 14.213132 14.225377 14.210747 14.177306 14.317355 14.487318 14.573453 14.537789 14.53449 14.585586 14.711749 14.992656 15.076173 15.497044 16.007508 15.965843 -9999
-9999 14.62852 14.245287 14.223112 14.209995 14.176947 14.168832 14.210191 14.218964 14.619125 14.60278 14.580177 14.774329 14.825025 14.971412 15.043404 15.293464 15.711101 15.579486 -9999
-9999 14.820229 14.275618 14.23084 14.1997 14.163934 14.163228 14.190381 14.195842 14.422487 14.487771 14.616204 14.775636 14.863219 14.950011 14.912135 15.073397 15.393776 15.672445 -9999
-9999 14.956718 14.359478 14.234964 14.206073 14.173266 14.159559 14.181857 14.19914 14.198854 14.357389 14.528951 14.629017 14.803356 14.814245 14.773287 14.974962 15.302121 15.800991 -9999
-9999 15.069661 14.471001 14.239884 14.212805 14.185371 14.157699 14.164415 14.184863 14.189942 14.206496 14.39604 14.379224 14.581773 14.741306 14.64469 14.73706 15.251788 15.5329 -9999
-9999 15.131263 14.605831 14.254423 14.21438 14.198314 14.17341 14.155937 14.16942 14.171722 14.180236 14.236051 14.191404 14.359212 14.606443 14.624802 14.618583 15.030985 -9999 -9999
-9999 15.200407 14.76592 14.314219 14.230358 14.206927 14.194814 14.146089 14.141175 14.148803 14.15322 14.156743 14.165719 14.217612 14.43919 14.472852 14.620446 15.048679 -9999 -9999
-9999 15.29999 14.950221 14.591959 14.27478 14.222071 14.174198 14.130219 14.126486 14.118453 14.127724 14.114873 14.133203 14.137307 14.275617 14.284497 14.372914 15.10759 15.044095 15.00183
-9999 -9999 15.12589 14.834296 14.496586 14.227124 14.149513 14.122619 14.117459 14.106776 14.098345 14.090504 14.079482 14.090098 14.128858 14.189937 14.257118 14.326986 14.421035 14.50354
-9999 -9999 14.984885 14.953204 14.598423 14.225736 14.138485 14.124703 14.112403 14.095652 14.067732 14.062779 14.037345 14.020343 14.038705 14.076832 14.144817 14.256577 14.342924 14.42007
-9999 -9999 -9999 15.02615 14.415449 14.252767 14.16931 14.140662 14.118353 14.104894 14.084855 14.049792 14.023867 13.997234 13.965018 13.95694 14.002734 14.076762 14.188179 14.29448
