ncols        20
nrows        20
xllcorner    0
yllcorner    -3.59929275513
cellsize     0.179964631796
NODATA_value -9999
-9999.0 -9999 -9999 -9999 -9999 -9999 -9999 -9999 -9999 -9999 -9999 -9999 -9999 -9999 -9999 -9999 -9999 -9999 -9999 -9999
-9999 -9999 -9999 -9999 16.11553 15.302927 15.190684 15.091057 15.139745 15.311978 15.412196 15.3423285 15.45484 15.25952 15.25952 15.6066355 15.84169 -9999 -9999 -9999
-9999 -9999 -9999 -9999 15.157329 14.953163 14.996622 14.952867 15.096445 15.342903 15.256872 15.326245 15.331357 15.209627 15.290474 15.479072 15.815306 15.143214 -9999 -9999
-9999 -9999 -9999 14.74223125 14.742232 14.737813 14.894483 14.834974 14.898029 15.023527 14.940655 14.972399 14.987767 14.995182 15.091933 15.221228 15.067529 15.016929 -9999 -9999
-9999 -9999 -9999 14.59627 14.473094 14.383565 14.593352 14.612366 14.675297 14.660346 14.598945 14.585767 14.613667 14.664808 14.736021 14.740458 14.82648 15.246581 -9999 -9999
-9999 -9999 14.47742575 14.429741 14.384735 14.365025 14.362188 14.443285 14.415802 14.414635 14.328284 14.39822 14.354137 14.438414 14.403257 14.58864 15.003915 15.338139 15.47577 -9999
-9999 -9999 14.420954 14.462738 14.381072 14.344162 14.317024 14.306569 14.372214 14.371292 14.349049 14.304444 14.312864 14.38371 14.473026 14.731614 15.027381 15.34077 15.4428 -9999
-9999 -9999 14.448884 14.351016 14.479153 14.46269 14.476307 14.39573 14.37233 14.322829 14.324354 14.308625 14.339486 14.416281 14.589572 14.823614 15.069544 15.468116 15.39363 -9999
-9999 14.22582 14.282122 14.318294 14.452346 14.457933 14.405334 14.457907 14.464657 14.402213 14.386266 14.378041 14.387906 14.505456 14.655984 14.801845 15.113414 15.433459 15.472728 -9999
-9999 14.319551 14.289889 14.33585 14.369174 14.390249 14.366091 14.428555 14.494606 14.495326 14.454158 14.442428 14.472114 14.574391 14.765814 14.795811 15.062157 15.348231 15.27202 -9999
-9999 14.440238 14.281896 14.338061 14.358734 14.37119 14.377672 14.391202 14.357141 14.576685 14.51854 14.489155 14.643786 14.681505 14.776425 14.784137 14.918091 15.101581 14.986049 -9999
-9999 14.546087 14.288358 14.336995 14.356312 14.360564 14.380849 14.388436 14.365394 14.473538 14.483521 14.54622 14.669129 14.742311 14.78848 14.704193 14.778335 14.90589 15.046815 -9999
-9999 14.616338 14.325071 14.331488 14.364826 14.359827 14.383806 14.39312 14.401463 14.371011 14.447041 14.546033 14.613845 14.753318 14.710137 14.633357 14.724578 14.873573 15.116065 -9999
-9999 14.669667 14.378561 14.326018 14.371199 14.359096 14.383934 14.390127 14.406612 14.428293 14.403174 14.512593 14.500967 14.641704 14.689241 14.59901 14.615872 14.879774 14.93333 -9999
-9999 14.68295 14.446166 14.323397 14.3694 14.378338 14.373704 14.393304 14.410549 14.428934 14.438485 14.451052 14.429671 14.531062 14.629066 14.614637 14.587938 14.795288 -9999 -9999
-9999 14.695416 14.530394 14.334598 14.347563 14.379136 14.38902 14.40188 14.397892 14.408344 14.440863 14.446706 14.450962 14.470594 14.561598 14.546305 14.626107 14.844477 -9999 -9999
-9999 14.72416 14.603617 14.452948 14.331728 14.362751 14.414362 14.407609 14.38473 14.385755 14.41695 14.457509 14.473544 14.453155 14.496535 14.466979 14.495693 14.92902 14.87489 14.82534
-9999 -9999 14.637711 14.54712 14.412348 14.376339 14.433912 14.398916 14.36512 14.355604 14.384453 14.432186 14.485259 14.460754 14.441893 14.450975 14.460554 14.48686 14.532615 14.59082
-9999 -9999 14.5684145 14.552587 14.442831 14.383978 14.437405 14.37995 14.33811 14.321488 14.334125 14.355847 14.390585 14.417043 14.435682 14.406893 14.41738 14.473056 14.528921 14.59654
-9999 -9999 -9999 14.53624 14.343042 14.361342 14.405061 14.357942 14.306046 14.272398 14.279979 14.285895 14.306598 14.323569 14.326 14.344501 14.377405 14.382956 14.450005 14.54944
