ncols        20
nrows        20
xllcorner    0
yllcorner    -3.59929275513
cellsize     0.179964631796
NODATA_value -9999
-9999.0 -9999 -9999 -9999 -9999 -9999 -9999 -9999 -9999 -9999 -9999 -9999 -9999 -9999 -9999 -9999 -9999 -9999 -9999 -9999
-9999 -9999 -9999 -9999 16.3599 15.546678 15.419868 15.297707 15.332939 15.48636 15.568644 15.4946785 15.60478 15.41675 15.41675 15.73318225 15.94965 -9999 -9999 -9999
-9999 -9999 -9999 -9999 15.434528 15.198532 15.222147 15.153977 15.279143 15.502129 15.410985 15.479104 15.483845 15.366692 15.447034 15.6125 15.923545 15.253069 -9999 -9999
-9999 -9999 -9999 15.0450015 15.042146 15.002147 15.122906 15.041058 15.080562 15.190741 15.102909 15.134333 15.147065 15.152994 15.246226 15.356662 15.189554 15.124271 -9999 -9999
-9999 -9999 -9999 14.916006 14.787326 14.670223 14.831876 14.827016 14.86762 14.835178 14.773546 14.760284 14.782259 14.832816 14.898485 14.887178 14.947266 15.324936 -9999 -9999
-9999 -9999 14.79161025 14.747054 14.702732 14.667973 14.62286 14.664469 14.613236 14.605033 14.514952 14.577943 14.534747 14.616489 14.574174 14.746473 15.106701 15.369877 15.47862 -9999
-9999 -9999 14.726538 14.776843 14.698687 14.658455 14.602149 14.542417 14.58631 14.575577 14.539069 14.485278 14.494927 14.56376 14.646819 14.870927 15.086177 15.353765 15.436716 -9999
-9999 -9999 14.747688 14.658347 14.798207 14.788858 14.788302 14.665646 14.600349 14.532823 14.521658 14.496058 14.523069 14.598519 14.759111 14.915103 15.106313 15.468892 15.377045 -9999
-9999 14.50315 14.570126 14.611704 14.758599 14.775223 14.71793 14.745643 14.717145 14.623582 14.593476 14.575606 14.581708 14.679476 14.783774 14.873466 15.141375 15.425138 15.427402 -9999
-9999 14.59161 14.574068 14.62479 14.662638 14.698107 14.673893 14.72541 14.764839 14.731659 14.670737 14.650192 14.667683 14.72706 14.872318 14.851826 15.090583 15.332018 15.23193 -9999
-9999 14.707524 14.562734 14.625869 14.650336 14.673439 14.684244 14.690945 14.636424 14.828925 14.74147 14.698727 14.816877 14.814435 14.86726 14.836374 14.949777 15.084446 14.955582 -9999
-9999 14.808434 14.565163 14.623789 14.646052 14.658507 14.68956 14.689088 14.649612 14.73904 14.718191 14.749077 14.82739 14.85974 14.859109 14.758274 14.80765 14.894536 15.007343 -9999
-9999 14.869943 14.596904 14.61671 14.653419 14.655095 14.695619 14.693397 14.696328 14.647473 14.691969 14.750107 14.769148 14.867195 14.779003 14.686276 14.745037 14.862268 15.067305 -9999
-9999 14.913549 14.645188 14.608519 14.658485 14.651451 14.69514 14.695763 14.699796 14.703758 14.65888 14.72089 14.660003 14.756706 14.764184 14.65237 14.650247 14.87071 14.90907 -9999
-9999 14.914384 14.705691 14.600816 14.657633 14.668042 14.674996 14.705661 14.698252 14.699557 14.693593 14.663473 14.594724 14.650543 14.710515 14.672293 14.629703 14.802357 -9999 -9999
-9999 14.913436 14.782312 14.604736 14.63219 14.669313 14.679249 14.707942 14.680758 14.672999 14.69356 14.661599 14.618412 14.593688 14.645813 14.614956 14.668217 14.854946 -9999 -9999
-9999 14.92885 14.836197 14.70697 14.602425 14.649071 14.711172 14.701 14.659399 14.64313 14.659332 14.669798 14.64063 14.580359 14.587676 14.542288 14.552501 14.94202 14.87845 14.79372
-9999 -9999 14.840489 14.777806 14.665311 14.65606 14.732416 14.683233 14.632089 14.607674 14.615249 14.632415 14.650829 14.596951 14.545462 14.533088 14.526071 14.547262 14.573895 14.61514
-9999 -9999 14.76945975 14.753944 14.673936 14.653461 14.723312 14.656693 14.596384 14.56318 14.553908 14.545827 14.55795 14.568813 14.567668 14.506893 14.494733 14.542501 14.58385 14.64656
-9999 -9999 -9999 14.7056 14.55176 14.604684 14.668532 14.615489 14.550439 14.499522 14.483435 14.46559 14.470579 14.477512 14.468284 14.467119 14.474295 14.47167 14.523641 14.61259
