ncols        20
nrows        20
xllcorner    0
yllcorner    -3.59929275513
cellsize     0.179964631796
NODATA_value -9999
-9999.0 -9999 -9999 -9999 -9999 -9999 -9999 -9999 -9999 -9999 -9999 -9999 -9999 -9999 -9999 -9999 -9999 -9999 -9999 -9999
-9999 -9999 -9999 -9999 19.4042 18.585132 18.480292 18.404565 18.489345 18.645095 18.676454 18.61799025 18.7618 18.63927 18.63927 18.91548725 19.1179 -9999 -9999 -9999
-9999 -9999 -9999 -9999 18.439128 18.208091 18.254783 18.198627 18.348421 18.591494 18.471921 18.600632 18.637608 18.562028 18.660063 18.791672 19.092314 18.467598 -9999 -9999
-9999 -9999 -9999 17.975151 17.983282 17.952281 18.080985 18.00525 18.055939 18.197313 18.121096 18.184585 18.238778 18.265447 18.393675 18.508855 18.3489 18.312008 -9999 -9999
-9999 -9999 -9999 17.816552 17.661642 17.545783 17.727289 17.726425 17.789743 17.755355 17.701774 17.701211 17.748399 17.834696 17.935698 17.948334 18.097424 18.543296 -9999 -9999
-9999 -9999 17.5961065 17.565122 17.500988 17.465282 17.444041 17.51541 17.463131 17.447121 17.349703 17.431505 17.39157 17.518851 17.494886 17.72824 18.232514 18.582621 18.73342 -9999
-9999 -9999 17.481168 17.521584 17.42468 17.37086 17.344545 17.314031 17.372582 17.358516 17.326479 17.277142 17.302431 17.410381 17.517019 17.867108 18.219688 18.588483 18.704186 -9999
-9999 -9999 17.410646 17.293975 17.446875 17.418549 17.44922 17.369313 17.332131 17.264782 17.266332 17.24903 17.290084 17.398508 17.656638 17.918105 18.243087 18.726634 18.660815 -9999
-9999 17.09538 17.119873 17.138661 17.31021 17.306176 17.242271 17.351175 17.400788 17.344333 17.324087 17.317738 17.339754 17.506418 17.694052 17.857971 18.27408 18.695927 18.771735 -9999
-9999 17.225945 17.115775 17.124308 17.150147 17.147436 17.115462 17.236623 17.375695 17.434449 17.397767 17.394804 17.448842 17.565211 17.788939 17.838908 18.194944 18.603291 18.519057 -9999
-9999 17.39983 17.110555 17.128161 17.133034 17.117194 17.110672 17.145735 17.152348 17.49323 17.4634 17.444534 17.629798 17.663027 17.766661 17.809054 18.001003 18.293378 18.145479 -9999
-9999 17.558278 17.128102 17.128469 17.121971 17.103793 17.107006 17.128741 17.133947 17.327021 17.374627 17.484949 17.624382 17.697588 17.748399 17.68695 17.797179 18.00396 18.226655 -9999
-9999 17.671695 17.190831 17.123905 17.126339 17.108059 17.104783 17.121997 17.138262 17.139148 17.269852 17.418479 17.507246 17.6579 17.629721 17.56349 17.684558 17.92207 18.340502 -9999
-9999 17.763501 17.275731 17.119449 17.13071 17.11317 17.103931 17.108086 17.124492 17.13424 17.143514 17.312074 17.302653 17.477793 17.577764 17.46084 17.487774 17.883063 18.08859 -9999
-9999 17.808474 17.383981 17.125462 17.128443 17.122055 17.110862 17.103794 17.111242 17.115638 17.124958 17.180272 17.151611 17.301573 17.470515 17.447993 17.402089 17.70501 -9999 -9999
-9999 17.85814 17.516176 17.164958 17.121201 17.124959 17.120402 17.097676 17.087045 17.089228 17.09954 17.123106 17.135828 17.177435 17.33713 17.324669 17.413156 17.745647 -9999 -9999
-9999 17.93289 17.662849 17.379823 17.139851 17.122009 17.113188 17.083491 17.067876 17.055543 17.0741 17.097988 17.120191 17.117387 17.205619 17.173216 17.218654 17.8228 17.783905 17.76262
-9999 -9999 17.791189 17.56801 17.306108 17.127722 17.100711 17.070241 17.048495 17.032893 17.044529 17.070155 17.096369 17.094466 17.096458 17.119005 17.146012 17.200025 17.27957 17.35959
-9999 -9999 17.677851 17.650675 17.381571 17.124546 17.08367 17.056652 17.029832 17.010289 17.007017 17.022393 17.02869 17.03626 17.054234 17.058179 17.089991 17.166953 17.234498 17.303
-9999 -9999 -9999 17.70153 17.230546 17.126239 17.077962 17.044535 17.018231 16.992178 16.990114 16.98701 16.980264 16.972986 16.959624 16.968099 17.009932 17.05252 17.122706 17.21584
