ncols        20
nrows        20
xllcorner    0
yllcorner    -3.59929275513
cellsize     0.179964631796
NODATA_value -9999
-9999.0 -9999 -9999 -9999 -9999 -9999 -9999 -9999 -9999 -9999 -9999 -9999 -9999 -9999 -9999 -9999 -9999 -9999 -9999 -9999
-9999 -9999 -9999 -9999 16.60089 15.793155 15.670121 15.552868 15.58237 15.757069 15.879026 15.80669575 15.91042 15.68129 15.68129 16.039279 16.2779 -9999 -9999 -9999
-9999 -9999 -9999 -9999 15.670692 15.450995 15.481772 15.434333 15.570598 15.815248 15.739228 15.793703 15.783432 15.64033 15.715232 15.912176 16.251808 15.573827 -9999 -9999
-9999 -9999 -9999 15.28375325 15.278923 15.254704 15.402162 15.338302 15.403656 15.522439 15.44299 15.464553 15.455508 15.456105 15.538018 15.661604 15.513864 15.45689 -9999 -9999
-9999 -9999 -9999 15.158375 15.027023 14.91902 15.112644 15.129808 15.195123 15.191818 15.131367 15.11839 15.129831 15.168263 15.224464 15.217949 15.27783 15.662505 -9999 -9999
-9999 -9999 15.04355175 15.002417 14.950833 14.920246 14.89956 14.973985 14.954233 14.96363 14.884844 14.950309 14.90332 14.971439 14.929812 15.091323 15.45849 15.757101 15.88778 -9999
-9999 -9999 14.980705 15.03271 14.94215 14.898433 14.869455 14.851537 14.9222 14.929499 14.9116 14.86797 14.870126 14.926677 15.012481 15.233178 15.486307 15.765882 15.847119 -9999
-9999 -9999 15.012622 14.924732 15.044967 15.01635 15.025068 14.952742 14.930699 14.889186 14.89112 14.877087 14.906115 14.978359 15.122646 15.31798 15.529446 15.878341 15.791203 -9999
-9999 14.78903 14.861412 14.911697 15.037922 15.028498 14.976488 15.0306 15.027597 14.96495 14.949912 14.94383 14.95637 15.066198 15.187559 15.307354 15.56879 15.83609 15.84062 -9999
-9999 14.868171 14.866246 14.929322 14.96675 14.984067 14.953787 15.01146 15.067788 15.052012 15.008351 14.998788 15.028188 15.130627 15.298894 15.301701 15.519338 15.7488 15.656013 -9999
-9999 14.970366 14.854007 14.926769 14.956719 14.971692 14.969798 14.979897 14.946996 15.135663 15.05864 15.03669 15.188863 15.23525 15.311331 15.287363 15.385124 15.516469 15.39826 -9999
-9999 15.058389 14.85399 14.921512 14.954205 14.963163 14.976343 14.978277 14.957467 15.047534 15.036523 15.084731 15.218815 15.295257 15.321877 15.213091 15.254737 15.341603 15.45404 -9999
-9999 15.111505 14.880113 14.912319 14.960315 14.960403 14.983097 14.984553 14.992677 14.95933 15.012741 15.093293 15.166959 15.313145 15.248584 15.14926 15.206301 15.318494 15.513735 -9999
-9999 15.148541 14.921553 14.90289 14.963222 14.956787 14.98758 14.985684 14.996813 15.015402 14.985184 15.074594 15.06626 15.209129 15.233549 15.12941 15.125303 15.333747 15.34612 -9999
-9999 15.144741 14.97441 14.894074 14.958467 14.97544 14.974584 14.995634 14.997919 15.007871 15.02066 15.02364 15.009504 15.102381 15.178601 15.148638 15.112533 15.273815 -9999 -9999
-9999 15.137816 15.041468 14.892711 14.926927 14.970296 14.987272 15.003717 14.983158 14.982852 15.023413 15.023451 15.029827 15.044947 15.11293 15.091394 15.152843 15.328142 -9999 -9999
-9999 15.14521 15.081638 14.978976 14.893765 14.944772 15.016527 15.007587 14.97007 14.963667 14.994416 15.034767 15.051577 15.028739 15.053349 15.025085 15.041037 15.41622 15.34689 15.26985
-9999 -9999 15.071001 15.032463 14.945264 14.955513 15.04094 14.9959 14.945522 14.925968 14.958787 15.00743 15.059828 15.036426 15.003062 15.008682 15.007811 15.030043 15.05879 15.09977
-9999 -9999 15.013183 14.998088 14.947664 14.959974 15.042923 14.971879 14.908012 14.880919 14.901033 14.915974 14.96092 14.994833 15.002861 14.959608 14.962548 15.006126 15.061275 15.12551
-9999 -9999 -9999 14.95118 14.841351 14.915225 14.994381 14.940108 14.865417 14.815738 14.825737 14.835337 14.867075 14.899627 14.903264 14.911473 14.928812 14.926518 14.990484 15.08695
