ncols        20
nrows        20
xllcorner    0
yllcorner    -3.59929275513
cellsize     0.179964631796
NODATA_value -9999
-9999.0 -9999 -9999 -9999 -9999 -9999 -9999 -9999 -9999 -9999 -9999 -9999 -9999 -9999 -9999 -9999 -9999 -9999 -9999 -9999
-9999 -9999 -9999 -9999 17.15686 16.34303 16.228591 16.128658 16.181868 16.338521 16.408534 16.3398555 16.45981 16.29137 16.29137 16.607953 16.82875 -9999 -9999 -9999
-9999 -9999 -9999 -9999 16.217756 15.986383 16.024622 15.970316 16.103916 16.335912 16.237327 16.322688 16.339597 16.234849 16.316655 16.483892 16.802515 16.145527 -9999 -9999
-9999 -9999 -9999 15.79846625 15.800637 15.765717 15.901904 15.829636 15.875215 15.997457 15.912459 15.9535 15.985735 15.995075 16.100279 16.223086 16.06273 16.013367 -9999 -9999
-9999 -9999 -9999 15.660584 15.514888 15.398069 15.588296 15.591963 15.640332 15.607097 15.547514 15.537417 15.57319 15.638813 15.719977 15.724211 15.824668 16.23202 -9999 -9999
-9999 -9999 15.4944555 15.456329 15.404964 15.364807 15.342747 15.405742 15.360404 15.348166 15.255664 15.328343 15.28388 15.385852 15.355453 15.558253 15.980342 16.298485 16.44048 -9999
-9999 -9999 15.404539 15.45637 15.373486 15.32654 15.284769 15.253801 15.309321 15.29851 15.267525 15.217952 15.231093 15.317422 15.414162 15.693235 15.986178 16.308436 16.405043 -9999
-9999 -9999 15.393373 15.296143 15.445527 15.431836 15.442056 15.345085 15.302404 15.238421 15.234416 15.214825 15.24768 15.337439 15.540748 15.761601 16.020681 16.432253 16.348485 -9999
-9999 15.13183 15.183802 15.218837 15.373792 15.391395 15.330463 15.387627 15.392262 15.3204 15.298457 15.287756 15.301157 15.436951 15.585173 15.725063 16.056164 16.394616 16.414617 -9999
-9999 15.228287 15.187411 15.226886 15.262112 15.293542 15.264734 15.334795 15.40908 15.417725 15.372798 15.360467 15.396594 15.497814 15.686222 15.711137 15.991984 16.297353 16.190393 -9999
-9999 15.355266 15.179457 15.229132 15.248248 15.265976 15.273656 15.283337 15.249633 15.496048 15.44213 15.408193 15.567733 15.596918 15.680635 15.687053 15.828093 16.010294 15.870089 -9999
-9999 15.466275 15.18619 15.228304 15.242794 15.249824 15.2774 15.2786 15.252119 15.378722 15.389269 15.45693 15.580389 15.64394 15.674187 15.588991 15.656305 15.778717 15.933795 -9999
-9999 15.534805 15.224406 15.223037 15.25057 15.247065 15.281667 15.281787 15.284699 15.255266 15.334578 15.436857 15.500637 15.636266 15.580759 15.494054 15.565997 15.727546 16.017439 -9999
-9999 15.584475 15.280153 15.21719 15.25669 15.244533 15.2802 15.281331 15.286936 15.295296 15.271376 15.384496 15.356559 15.5004 15.549706 15.43187 15.431629 15.7193 15.81597 -9999
-9999 15.587482 15.348759 15.212853 15.256663 15.260729 15.262789 15.287933 15.28357 15.28998 15.293283 15.30498 15.265249 15.368437 15.472987 15.43737 15.386404 15.608352 -9999 -9999
-9999 15.588327 15.433815 15.224523 15.236747 15.264709 15.269044 15.287433 15.264959 15.264846 15.287147 15.288748 15.277455 15.288009 15.38292 15.351004 15.413952 15.655247 -9999 -9999
-9999 15.60703 15.496536 15.347742 15.217462 15.250496 15.293412 15.279359 15.244745 15.232475 15.256828 15.288775 15.28871 15.258573 15.295324 15.249354 15.268167 15.73626 15.686325 15.63064
-9999 -9999 15.50913 15.429934 15.300285 15.258647 15.30747 15.261948 15.217968 15.196366 15.216161 15.253695 15.290134 15.259792 15.228151 15.2234 15.226389 15.259518 15.30904 15.36518
-9999 -9999 15.43284625 15.412901 15.312186 15.253389 15.296388 15.238922 15.184986 15.153916 15.158449 15.174024 15.198689 15.214583 15.222346 15.190134 15.189003 15.248111 15.293271 15.35263
-9999 -9999 -9999 15.37942 15.176484 15.207255 15.252529 15.206334 15.150199 15.100775 15.098693 15.10193 15.113836 15.120297 15.114377 15.122981 15.147825 15.156704 15.212852 15.29845
