ncols        20
nrows        20
xllcorner    0
yllcorner    -3.59929275513
cellsize     0.179964631796
NODATA_value -9999
-9999.0 -9999 -9999 -9999 -9999 -9999 -9999 -9999 -9999 -9999 -9999 -9999 -9999 -9999 -9999 -9999 -9999 -9999 -9999 -9999
-9999 -9999 -9999 -9999 17.1607 16.333346 16.224318 16.142534 16.223659 16.37898 16.411808 16.35037725 16.49462 16.35989 16.35989 16.626185 16.82697 -9999 -9999 -9999
-9999 -9999 -9999 -9999 16.191961 15.954395 15.997062 15.938455 16.085107 16.326873 16.204826 16.333281 16.368782 16.285496 16.374782 16.502414 16.800574 16.161715 -9999 -9999
-9999 -9999 -9999 15.71976525 15.734436 15.694156 15.81746 15.740299 15.793302 15.932734 15.852366 15.912906 15.967332 15.988872 16.105627 16.219017 16.046435 15.999222 -9999 -9999
-9999 -9999 -9999 15.558508 15.394156 15.265617 15.451182 15.450193 15.515116 15.473491 15.416846 15.413735 15.460701 15.542426 15.633136 15.643871 15.788698 16.218988 -9999 -9999
-9999 -9999 15.32770075 15.290279 15.228574 15.1818 15.150463 15.223237 15.1675 15.151335 15.048419 15.128789 15.081154 15.20425 15.169886 15.397828 15.903978 16.229592 16.35287 -9999
-9999 -9999 15.213389 15.248627 15.158532 15.097456 15.05383 15.018007 15.078739 15.063563 15.024139 14.969395 14.987368 15.08904 15.182555 15.531688 15.858127 16.212314 16.312034 -9999
-9999 -9999 15.141561 15.01711 15.182618 15.160211 15.178841 15.086813 15.042729 14.969651 14.964427 14.93997 14.972698 15.070405 15.318443 15.558123 15.868098 16.34339 16.255028 -9999
-9999 14.84402 14.855035 14.864294 15.043822 15.051541 14.983615 15.078197 15.112806 15.045239 15.020424 15.007684 15.020612 15.169867 15.346141 15.479629 15.893519 16.30087 16.349303 -9999
-9999 14.977914 14.857817 14.857621 14.885926 14.895162 14.860716 14.964611 15.089858 15.134762 15.092097 15.083564 15.122397 15.223732 15.429714 15.458246 15.808077 16.194815 16.089617 -9999
-9999 15.155452 14.858089 14.864892 14.86857 14.861122 14.860925 14.877228 14.868459 15.196203 15.15646 15.12723 15.292988 15.310616 15.401482 15.42638 15.606704 15.867766 15.7094 -9999
-9999 15.316721 14.879626 14.869193 14.858437 14.845223 14.858899 14.864669 14.854218 15.036725 15.070195 15.164379 15.275912 15.336428 15.374173 15.301858 15.396101 15.577455 15.782135 -9999
-9999 15.431945 14.94481 14.869367 14.865234 14.848599 14.856807 14.863087 14.867681 14.855902 14.96993 15.096815 15.157264 15.288382 15.250847 15.175785 15.277937 15.495296 15.881001 -9999
-9999 15.525059 15.032175 14.870241 14.872518 14.85361 14.852874 14.855882 14.859401 14.856183 14.851518 14.989484 14.955554 15.106152 15.19455 15.07431 15.084586 15.457403 15.63468 -9999
-9999 15.568893 15.142072 14.879563 14.8736 14.863894 14.853578 14.852821 14.845572 14.838952 14.834098 14.859184 14.802936 14.930158 15.083971 15.054631 15.003803 15.290797 -9999 -9999
-9999 15.616375 15.276405 14.922502 14.873952 14.872226 14.864076 14.845286 14.824879 14.81485 14.811943 14.801724 14.783415 14.803529 14.949352 14.925442 15.015196 15.331095 -9999 -9999
-9999 15.68896 15.423351 15.138878 14.898549 14.875397 14.864876 14.832593 14.806001 14.785531 14.785346 14.773738 14.761976 14.738185 14.813675 14.777943 14.824227 15.40561 15.363435 15.3311
-9999 -9999 15.546945 15.328141 15.064559 14.885657 14.858358 14.816834 14.782527 14.761074 14.755238 14.746262 14.733623 14.710585 14.702113 14.718807 14.744655 14.809236 14.88125 14.95349
-9999 -9999 15.43311 15.406514 15.140182 14.878688 14.845043 14.802857 14.758937 14.739286 14.726741 14.710091 14.687197 14.6668 14.665883 14.660242 14.682259 14.774422 14.834674 14.90104
-9999 -9999 -9999 15.45084 14.987466 14.875721 14.836733 14.791078 14.758891 14.731499 14.714825 14.694173 14.661393 14.625847 14.595632 14.589184 14.614323 14.657056 14.727138 14.81602
