ncols        20
nrows        20
xllcorner    0
yllcorner    -3.59929275513
cellsize     0.179964631796
NODATA_value -9999
-9999.0 -9999 -9999 -9999 -9999 -9999 -9999 -9999 -9999 -9999 -9999 -9999 -9999 -9999 -9999 -9999 -9999 -9999 -9999 -9999
-9999 -9999 -9999 -9999 19.94629 19.137955 19.05301 19.008581 19.124926 19.290561 19.305565 19.2494075 19.41211 19.30716 19.30716 19.5820335 19.79129 -9999 -9999 -9999
-9999 -9999 -9999 -9999 18.973972 18.758851 18.82676 18.782486 18.956 19.21263 19.071769 19.234219 19.279532 19.215235 19.323413 19.448398 19.765033 19.134006 -9999 -9999
-9999 -9999 -9999 18.463721 18.485284 18.476494 18.633418 18.56767 18.634713 18.78462 18.708747 18.788342 18.845131 18.884272 19.023207 19.137835 18.988848 18.947405 -9999 -9999
-9999 -9999 -9999 18.272036 18.123592 18.028418 18.252416 18.269673 18.352921 18.324743 18.269323 18.275726 18.326309 18.417125 18.526073 18.542402 18.705409 19.182911 -9999 -9999
-9999 -9999 18.024311 17.994736 17.940407 17.928047 17.936979 18.044558 18.001484 17.989933 17.889018 17.981342 17.94115 18.075997 18.060128 18.301191 18.8453 19.222547 19.38995 -9999
-9999 -9999 17.896728 17.933744 17.847155 17.81445 17.811181 17.812985 17.89557 17.886529 17.854948 17.802377 17.831105 17.9478 18.055852 18.442366 18.837112 19.23429 19.378995 -9999
-9999 -9999 17.801088 17.688203 17.862384 17.851033 17.899453 17.852848 17.84303 17.77603 17.780873 17.760693 17.803922 17.915458 18.2 18.507494 18.862198 19.387407 19.343763 -9999
-9999 17.45538 17.47371 17.503122 17.701329 17.717551 17.664657 17.808236 17.887895 17.847416 17.831124 17.824801 17.845453 18.017634 18.248385 18.444182 18.893179 19.373923 19.465979 -9999
-9999 17.584138 17.467833 17.477781 17.519295 17.536289 17.513348 17.656995 17.830334 17.924557 17.896401 17.895822 17.951797 18.088087 18.353506 18.420372 18.812012 19.282299 19.2084 -9999
-9999 17.758332 17.464144 17.477784 17.494081 17.497749 17.503703 17.549125 17.566072 17.967883 17.95596 17.938423 18.141589 18.200881 18.327106 18.382561 18.608246 18.963244 18.824009 -9999
-9999 17.917699 17.48145 17.476394 17.476373 17.476112 17.496017 17.526745 17.540765 17.770028 17.841351 17.973475 18.144898 18.237991 18.305214 18.246197 18.384379 18.649775 18.910432 -9999
-9999 18.02934 17.541924 17.472684 17.476318 17.473116 17.49009 17.516 17.538742 17.545277 17.708365 17.886364 18.003385 18.186204 18.166371 18.103362 18.263104 18.555068 19.033431 -9999
-9999 18.118594 17.625118 17.469119 17.476604 17.471117 17.481817 17.493456 17.516133 17.531244 17.554306 17.756953 17.7603 17.968604 18.097118 17.97147 18.029188 18.500358 18.77003 -9999
-9999 18.155198 17.732233 17.471935 17.47447 17.470697 17.471561 17.480155 17.491468 17.503876 17.526497 17.602104 17.57941 17.752671 17.964897 17.949953 17.914373 18.285415 -9999 -9999
-9999 18.194546 17.863765 17.507182 17.468368 17.469955 17.467245 17.460454 17.453834 17.466902 17.49122 17.530392 17.557269 17.613336 17.80136 17.80401 17.912281 18.309013 -9999 -9999
-9999 18.25982 18.000992 17.721436 17.478677 17.467561 17.45584 17.435247 17.424006 17.421501 17.456944 17.492877 17.532214 17.538862 17.642892 17.619115 17.680057 18.372 18.30826 18.24881
-9999 -9999 18.111364 17.898631 17.642485 17.467312 17.440466 17.412894 17.397636 17.395665 17.41636 17.454865 17.492564 17.501455 17.511846 17.537363 17.572994 17.635493 17.720375 17.79105
-9999 -9999 17.995698 17.964537 17.705088 17.451374 17.420676 17.393168 17.374778 17.367918 17.367985 17.395501 17.412616 17.426423 17.45061 17.46704 17.500123 17.588407 17.648785 17.7218
-9999 -9999 -9999 18.00826 17.534129 17.433738 17.403451 17.370174 17.353155 17.345909 17.34849 17.349353 17.356623 17.366747 17.348637 17.353496 17.403646 17.44851 17.521344 17.61806
