ncols        20
nrows        20
xllcorner    0
yllcorner    -3.59929275513
cellsize     0.179964631796
NODATA_value -9999
-9999.0 -9999 -9999 -9999 -9999 -9999 -9999 -9999 -9999 -9999 -9999 -9999 -9999 -9999 -9999 -9999 -9999 -9999 -9999 -9999
-9999 -9999 -9999 -9999 16.8467 16.043682 15.94297 15.871954 15.958783 16.101942 16.095283 16.01666275 16.17908 16.10055 16.10055 16.3818975 16.59543 -9999 -9999 -9999
-9999 -9999 -9999 -9999 15.912966 15.662279 15.704196 15.628416 15.770154 16.000522 15.840659 15.996391 16.050521 16.002902 16.115634 16.246988 16.569538 15.942682 -9999 -9999
-9999 -9999 -9999 15.3933155 15.423286 15.365425 15.48553 15.384782 15.419771 15.543937 15.455013 15.536538 15.610605 15.662455 15.812559 15.938131 15.789351 15.749967 -9999 -9999
-9999 -9999 -9999 15.209524 15.027486 14.882853 15.068868 15.051718 15.102594 15.050167 14.989463 15.001105 15.06602 15.179954 15.298634 15.31648 15.496468 16.005897 -9999 -9999
-9999 -9999 14.9264705 14.896314 14.814586 14.768234 14.736267 14.802495 14.731347 14.698419 14.583896 14.683192 14.651845 14.805601 14.782447 15.02423 15.628952 16.034444 16.21966 -9999
-9999 -9999 14.800525 14.799519 14.689079 14.631941 14.610155 14.569574 14.614741 14.587617 14.545223 14.486794 14.525775 14.649808 14.742767 15.171607 15.626658 16.050495 16.22225 -9999
-9999 -9999 14.682562 14.524023 14.682013 14.653707 14.695767 14.602494 14.55379 14.477234 14.472446 14.444172 14.486829 14.586939 14.895077 15.256128 15.644177 16.220261 16.203923 -9999
-9999 14.38724 14.345854 14.33409 14.512464 14.496196 14.425652 14.548533 14.6145 14.556866 14.531482 14.516778 14.520607 14.69704 14.954221 15.183154 15.677982 16.220672 16.356581 -9999
-9999 14.571235 14.353933 14.323305 14.335166 14.31324 14.276121 14.411283 14.577981 14.654899 14.611107 14.59678 14.641441 14.777455 15.067442 15.155047 15.601402 16.142895 16.099013 -9999
-9999 14.80941 14.366152 14.33564 14.3231 14.280317 14.272077 14.311684 14.312812 14.723905 14.688 14.647054 14.850812 14.901864 15.044857 15.124434 15.403192 15.843011 15.707418 -9999
-9999 15.022276 14.407986 14.345171 14.315242 14.270559 14.267603 14.293208 14.293914 14.5239 14.585616 14.700339 14.864249 14.950568 15.023814 14.996036 15.19013 15.517488 15.809155 -9999
-9999 15.177505 14.508639 14.351536 14.32467 14.285433 14.264214 14.28579 14.305145 14.301804 14.460675 14.633921 14.732831 14.907102 14.894716 14.859769 15.090563 15.422726 15.954609 -9999
-9999 15.308796 14.638811 14.359902 14.33516 14.304367 14.263326 14.268986 14.291996 14.303411 14.309282 14.515434 14.492121 14.688378 14.833687 14.71981 14.839078 15.370168 15.69966 -9999
-9999 15.384192 14.791771 14.382518 14.337843 14.319832 14.288093 14.26148 14.278496 14.290041 14.302639 14.359657 14.311792 14.477128 14.709936 14.715467 14.70776 15.139006 -9999 -9999
-9999 15.46807 14.971163 14.461068 14.355495 14.330799 14.318131 14.252849 14.253793 14.271246 14.289693 14.301407 14.30189 14.34205 14.550793 14.577088 14.710504 15.156626 -9999 -9999
-9999 15.58609 15.182639 14.779139 14.418842 14.349565 14.295708 14.23886 14.243942 14.246779 14.275136 14.279358 14.289429 14.274862 14.396803 14.389845 14.464423 15.21726 15.180115 15.13827
-9999 -9999 15.392052 15.054651 14.675157 14.365166 14.263996 14.237446 14.242259 14.245614 14.245229 14.253272 14.261572 14.250305 14.269892 14.312608 14.373144 14.43629 14.538245 14.62815
-9999 -9999 15.23389575 15.19937 14.792922 14.35772 14.245942 14.246435 14.254316 14.252155 14.22111 14.21806 14.213518 14.20596 14.218579 14.234386 14.284007 14.400132 14.476586 14.558
-9999 -9999 -9999 15.28951 14.591624 14.393246 14.288953 14.285384 14.290334 14.293355 14.267327 14.22321 14.211647 14.202295 14.154099 14.126317 14.166072 14.236477 14.3367 14.43154
