ncols        20
nrows        20
xllcorner    0
yllcorner    -3.59929275513
cellsize     0.179964631796
NODATA_value -9999
-9999.0 -9999 -9999 -9999 -9999 -9999 -9999 -9999 -9999 -9999 -9999 -9999 -9999 -9999 -9999 -9999 -9999 -9999 -9999 -9999
-9999 -9999 -9999 -9999 16.93828 16.126757 16.00838 15.902069 15.957814 16.105588 16.169112 16.1178285 16.23048 16.06998 16.06998 16.32904775 16.51081 -9999 -9999 -9999
-9999 -9999 -9999 -9999 16.008909 15.775457 15.809055 15.746902 15.878555 16.101871 16.019599 16.102932 16.118303 16.018453 16.09759 16.221877 16.485914 15.852445 -9999 -9999
-9999 -9999 -9999 15.6149385 15.616676 15.584683 15.703131 15.626566 15.670726 15.80049 15.721551 15.760353 15.788629 15.790008 15.883518 15.974648 15.794227 15.736604 -9999 -9999
-9999 -9999 -9999 15.480281 15.353888 15.249752 15.414558 15.414824 15.466888 15.435632 15.37863 15.369734 15.389542 15.443543 15.511685 15.503413 15.576963 15.923036 -9999 -9999
-9999 -9999 15.341153 15.295967 15.254697 15.216461 15.187457 15.243189 15.196999 15.186924 15.096817 15.159094 15.111146 15.201548 15.162161 15.349814 15.706318 15.944735 16.05094 -9999
-9999 -9999 15.269708 15.318656 15.237141 15.189594 15.136203 15.09304 15.149636 15.136598 15.10061 15.049554 15.060735 15.141514 15.232626 15.467163 15.670982 15.929714 16.003183 -9999
-9999 -9999 15.27387 15.173436 15.314142 15.297053 15.30037 15.199722 15.144644 15.07088 15.068463 15.049394 15.082115 15.170957 15.354372 15.485285 15.677217 16.039853 15.941925 -9999
-9999 15.02341 15.074878 15.102115 15.245258 15.253997 15.189068 15.242582 15.238844 15.159207 15.137508 15.127659 15.145569 15.266619 15.36429 15.419352 15.705259 15.99069 15.994878 -9999
-9999 15.130524 15.078273 15.113787 15.140909 15.158962 15.125504 15.190535 15.25962 15.261758 15.217025 15.208324 15.241633 15.309492 15.432904 15.400704 15.645041 15.894602 15.786303 -9999
-9999 15.270366 15.069529 15.11849 15.131718 15.134198 15.13548 15.13935 15.10816 15.343288 15.29025 15.258557 15.393826 15.383267 15.405564 15.379758 15.490566 15.630165 15.487281 -9999
-9999 15.395522 15.079386 15.118416 15.128057 15.12294 15.140632 15.136387 15.109543 15.231471 15.239977 15.302447 15.388477 15.406157 15.38675 15.288587 15.32975 15.411433 15.540493 -9999
-9999 15.48208 15.126016 15.111946 15.136398 15.126387 15.145573 15.141237 15.139434 15.1122 15.185769 15.271209 15.303811 15.392506 15.300851 15.200709 15.235006 15.355769 15.604665 -9999
-9999 15.549219 15.190567 15.105069 15.144286 15.130541 15.146971 15.146272 15.147293 15.143142 15.12024 15.208271 15.160471 15.26545 15.279341 15.15012 15.117666 15.339594 15.42613 -9999
-9999 15.574484 15.273148 15.106602 15.14378 15.144044 15.143598 15.155455 15.151976 15.146388 15.135464 15.126269 15.065929 15.14373 15.214368 15.159573 15.087363 15.244866 -9999 -9999
-9999 15.602258 15.375492 15.129665 15.124225 15.149235 15.150264 15.161147 15.142683 15.134286 15.131003 15.105062 15.070775 15.062669 15.13602 15.092749 15.114064 15.3023 -9999 -9999
-9999 15.6504 15.474651 15.281331 15.122405 15.137511 15.169007 15.157363 15.130474 15.111159 15.109718 15.102945 15.075104 15.02948 15.053777 15.001851 14.995473 15.3905 15.355965 15.31484
-9999 -9999 15.544333 15.405889 15.232645 15.15292 15.178487 15.146337 15.112891 15.090235 15.084671 15.07794 15.074305 15.03009 14.992612 14.985683 14.978651 15.008929 15.049925 15.10664
-9999 -9999 15.45957375 15.439793 15.277758 15.158199 15.170741 15.130482 15.090321 15.067311 15.050927 15.031296 15.017327 15.007717 15.003972 14.963335 14.954937 15.019384 15.055423 15.1131
-9999 -9999 -9999 15.44828 15.16349 15.142922 15.148744 15.110386 15.071819 15.039811 15.01988 14.996105 14.974819 14.958409 14.932688 14.925944 14.936964 14.94543 14.992141 15.06941
