ncols        109
nrows        82
xllcorner    -1.041666666667
yllcorner    37.041665395101
cellsize     0.083333333333
NODATA_value -9999
0.0 0 0 0 0 0 0 0 0 0 0 0 0 0 0 0 0 0 0 0 0 0 0 0 0 0 0 0 0 0 0 0 0 0 0 0 0 0 0 0 0 0 0 0 0 0 0 0 0 0 0 0 0 0 0 0 0 0 0 0 0 0 0 0 0 0 0 0 0 0 0 0 0 0 0 0 0 0 0 0 0 0 0 0 0 0 0 0 0 0 0 0 0 0 0 0 0 0 0 0 0 0 0 0 0 17.3393 16.03944 14.83216 14.83098
0 0 0 0 0 0 0 0 0 0 0 0 0 0 0 0 0 0 0 0 0 0 0 0 0 0 0 0 0 0 0 0 0 0 0 0 0 0 0 0 0 0 0 0 0 0 0 0 0 0 0 0 0 0 0 0 0 0 0 0 0 0 0 0 0 0 0 0 0 0 0 0 0 0 0 0 0 0 0 0 0 0 0 0 0 0 0 0 0 0 0 0 0 0 0 0 0 0 0 0 0 14.986 15.0015 14.80073 14.81256 14.81253 14.80491 14.81322 14.80659
0 0 0 0 0 0 0 0 0 0 0 0 0 0 0 0 0 0 0 0 0 0 0 0 0 0 0 0 0 0 0 0 0 0 0 0 0 0 0 0 0 0 0 0 0 0 0 0 0 0 0 0 0 0 0 0 0 0 0 0 0 0 0 0 0 0 0 0 0 0 0 0 0 0 0 0 0 0 0 0 0 0 0 0 0 0 0 0 0 0 0 0 0 0 0 0 0 0 14.79721 14.80466 14.79768 14.78459 14.76815 14.77193 14.7579 14.7342 14.71348 14.69272 14.67672
0 0 0 0 0 0 0 0 0 0 0 0 0 0 0 0 0 0 0 0 0 0 0 0 0 0 0 0 0 0 0 0 0 0 0 0 0 0 0 0 0 0 0 0 0 0 0 0 0 0 0 0 0 0 0 0 0 0 0 0 0 0 0 0 0 0 0 0 0 0 0 0 0 0 0 0 0 0 0 0 0 0 0 0 0 0 0 0 0 0 0 0 0 0 0 0 0 16.22348 14.79359 14.78369 14.7578 14.72316 14.69327 14.67692 14.64766 14.62459 14.59652 14.57923 14.54765
0 0 0 0 0 0 0 0 0 0 0 0 0 0 0 0 0 0 0 0 0 0 0 0 0 0 0 0 0 0 0 0 0 0 0 0 0 0 0 0 0 0 0 0 0 0 0 0 0 0 0 0 0 0 0 0 0 0 15.99661 15.62232 15.30489 15.43578 0 0 0 0 0 0 0 0 0 0 0 0 0 0 0 0 0 0 0 0 0 0 0 0 0 0 0 0 0 0 0 0 0 15.19074 14.79319 14.79846 14.76068 14.73375 14.68391 14.63653 14.5828 14.5497 14.51394 14.47444 14.45115 14.42013 14.38909
0 0 0 0 0 0 0 0 0 0 0 0 0 0 0 0 0 0 0 0 0 0 0 0 0 0 0 0 0 0 0 0 0 0 0 0 0 0 0 0 0 0 0 0 0 0 0 0 0 0 0 0 0 0 0 0 15.47767 15.518 15.26092 15.05389 14.98213 14.95532 15.0313 15.22509 15.42474 15.53898 15.52746 0 0 0 0 15.80947 0 0 0 0 0 0 0 0 0 0 0 0 0 0 0 0 0 0 0 0 0 15.65835 14.73993 14.77438 14.76245 14.73365 14.68166 14.62093 14.56282 14.50772 14.46399 14.41943 14.3932 14.37361 14.37268 14.34454 14.32752
0 0 0 0 0 0 0 0 0 0 0 0 0 0 0 0 0 0 0 0 0 0 0 0 0 0 0 0 0 0 0 0 0 0 0 0 0 0 0 0 0 0 0 0 0 0 0 0 0 0 0 0 0 0 0 15.66736 15.27454 14.99233 14.80975 14.57625 14.63415 14.65726 14.81681 14.93624 15.06722 15.15468 15.21423 15.38873 15.57974 15.54882 15.49608 15.26177 15.07603 15.12641 15.26228 15.04303 15.04843 0 0 0 0 0 0 0 0 0 0 0 0 0 0 0 15.05548 14.75497 14.76284 14.75015 14.72595 14.65659 14.59802 14.52851 14.46992 14.41322 14.35859 14.333 14.33472 14.32882 14.32169 14.32731 14.32251
0 0 0 0 0 0 0 0 0 0 0 0 0 0 0 0 0 0 0 0 0 0 0 0 0 0 0 0 0 0 0 0 0 0 0 0 0 0 0 0 0 0 0 0 0 0 0 0 0 0 0 15.29854 15.43198 15.64167 15.43725 15.04199 14.83173 14.58994 14.48533 14.54779 14.60548 14.62585 14.60942 14.77298 14.75315 14.93413 14.92398 14.91294 14.93059 14.8453 14.75948 14.79817 14.68379 14.86614 14.88825 15.04428 0 0 0 0 0 0 0 0 0 0 0 0 0 0 0 0 14.74277 14.75314 14.73057 14.70194 14.63394 14.55866 14.48443 14.41595 14.37478 14.33318 14.30013 14.29394 14.3077 14.3106 14.31426 14.31228 14.30283
0 0 0 0 0 0 0 0 0 0 0 0 0 0 0 0 0 0 0 0 0 0 0 0 0 0 0 0 0 0 0 0 0 0 0 0 0 0 0 0 0 0 0 0 0 0 0 0 0 0 15.51423 15.33726 15.12636 15.11356 15.03075 14.77272 14.4648 14.54297 14.4178 14.4718 14.51183 14.53191 14.53307 14.70613 14.6997 14.88404 14.8861 14.89839 14.75867 14.6456 14.6885 14.7315 14.60923 14.78918 14.80879 14.9957 14.99868 14.83284 14.84595 15.1735 15.59387 16.27603 0 0 0 0 0 0 0 15.53313 15.05307 14.72762 14.74911 14.72901 14.68109 14.618 14.54706 14.47199 14.40296 14.35908 14.32694 14.30031 14.28258 14.28629 14.3013 14.31523 14.32544 14.32906 14.33701
0 0 0 0 0 0 0 0 0 0 0 0 0 0 0 0 0 0 0 0 0 0 0 0 0 0 0 0 0 0 0 0 0 0 0 0 0 0 0 0 0 0 0 0 0 0 0 0 0 16.36054 15.21588 15.14323 15.10227 14.81632 14.66948 14.52092 14.58173 14.44186 14.48548 14.52524 14.55814 14.57553 14.58188 14.78055 14.79544 14.81267 14.8357 14.84251 14.84053 14.69309 14.72818 14.60867 14.48913 14.50089 14.51788 14.53057 14.53643 14.55735 14.58263 14.59412 14.92413 15.41533 0 15.26162 15.78228 16.24991 16.52861 16.30361 15.85151 14.68243 14.71321 14.72572 14.71296 14.65473 14.57928 14.50581 14.43959 14.38581 14.33595 14.30798 14.2844 14.28511 14.28364 14.29524 14.30174 14.31972 14.33779 14.34173 14.34489
0 0 0 0 0 0 0 0 0 0 0 0 0 0 0 0 0 0 0 0 0 0 0 0 0 0 0 0 0 0 0 0 0 0 0 0 0 0 0 0 0 0 0 0 0 0 0 0 0 16.033 15.19202 14.93635 14.65813 14.54254 14.59491 14.44867 14.50111 14.54838 14.58508 14.6143 14.64251 14.6588 14.66598 14.67895 14.69043 14.55604 14.4385 14.57909 14.57339 14.5778 14.5895 14.45926 14.46562 14.47295 14.48221 14.49615 14.51264 14.53497 14.55962 14.57768 14.59703 14.62208 14.63928 14.66232 14.68984 14.69723 15.60356 15.78393 15.42305 14.67526 14.664 14.62907 14.59572 14.53661 14.47534 14.42234 14.37121 14.32878 14.28701 14.27384 14.28441 14.29745 14.31906 14.32976 14.34071 14.35221 14.36045 14.36591 14.36789
0 0 0 0 0 0 0 0 0 0 0 0 0 0 0 0 0 0 0 0 0 0 0 0 0 0 0 0 0 0 0 0 0 0 0 0 0 0 0 0 0 0 0 0 0 0 0 0 0 15.78403 15.14391 14.86932 14.55747 14.63616 14.48768 14.53711 14.60166 14.64831 14.68322 14.7046 14.54513 14.56208 14.57667 14.58592 14.59527 14.449 14.45547 14.45267 14.43419 14.4281 14.43271 14.43361 14.42949 14.43767 14.44767 14.45297 14.46006 14.46965 14.48954 14.51328 14.53429 14.55822 14.57973 14.60074 14.62579 14.64541 14.65807 14.65669 14.63456 14.60077 14.56438 14.52078 14.47763 14.41418 14.36839 14.3346 14.30687 14.26926 14.27256 14.29519 14.31146 14.32531 14.34625 14.35621 14.36888 14.36845 14.37721 14.39146 14.40268
0 0 0 0 0 0 0 0 0 0 0 0 0 0 0 0 0 0 0 0 0 0 0 0 0 0 0 0 0 0 0 0 0 0 0 0 0 0 0 0 0 0 0 0 0 0 0 0 0 15.72131 15.04487 14.75944 14.64013 14.50274 14.56885 14.65236 14.5407 14.57367 14.42885 14.43305 14.44671 14.45254 14.4572 14.45493 14.45128 14.44556 14.44501 14.43638 14.41628 14.39174 14.38463 14.37643 14.3638 14.36014 14.368 14.36697 14.3758 14.38849 14.40398 14.42757 14.44556 14.46083 14.46956 14.48603 14.50603 14.52514 14.52977 14.52193 14.49801 14.47357 14.44107 14.4128 14.37403 14.34308 14.31839 14.28901 14.26657 14.27015 14.28164 14.30184 14.33368 14.35318 14.36574 14.37357 14.38687 14.40062 14.41321 14.41606 14.42871
0 0 0 0 0 0 0 0 0 0 0 0 0 0 0 0 0 0 0 0 0 0 0 0 0 0 0 0 0 0 0 0 0 0 0 0 0 0 0 0 0 0 0 0 0 0 0 0 0 15.60231 15.10219 14.81065 14.69626 14.55771 14.62779 14.52729 14.40872 14.439 14.46035 14.46463 14.46841 14.46302 14.45737 14.44828 14.43541 14.42686 14.41475 14.40195 14.38562 14.36748 14.3519 14.33533 14.31981 14.30667 14.29317 14.27766 14.27353 14.28372 14.30374 14.32168 14.33336 14.34184 14.34153 14.35491 14.37912 14.40576 14.41116 14.40898 14.38595 14.3594 14.33703 14.31356 14.29456 14.28846 14.27677 14.27467 14.28204 14.28652 14.29488 14.31513 14.3415 14.37469 14.38694 14.40111 14.41243 14.43353 14.4491 14.46451 14.46048
0 0 0 0 0 0 0 0 0 0 0 0 0 0 0 0 0 0 0 0 0 0 0 0 0 0 0 0 0 0 0 0 0 0 0 0 0 0 0 0 0 0 0 0 0 0 0 0 0 15.63657 14.91274 14.63244 14.7508 14.62693 14.70604 14.56121 14.4297 14.44702 14.4517 14.44526 14.43577 14.43219 14.42195 14.41127 14.40203 14.3864 14.36452 14.35032 14.32771 14.30442 14.28417 14.2621 14.24817 14.24345 14.23244 14.22596 14.22471 14.22574 14.23405 14.24457 14.24813 14.25544 14.25542 14.25767 14.26727 14.28741 14.28799 14.28353 14.27806 14.26799 14.26205 14.25887 14.25568 14.2643 14.27128 14.28038 14.2959 14.31184 14.32936 14.34277 14.36388 14.39567 14.41678 14.42829 14.43967 14.44962 14.46467 14.48759 14.5008
0 0 0 0 0 0 0 0 0 0 0 0 0 0 0 0 0 0 0 0 0 0 0 0 0 0 0 0 0 0 0 0 0 0 0 0 0 0 0 0 0 0 0 0 0 0 0 0 0 15.16887 14.9573 14.65972 14.5927 14.51312 14.5797 14.4372 14.44124 14.4417 14.43799 14.42726 14.41208 14.39507 14.38398 14.37302 14.36041 14.34631 14.33116 14.31494 14.29665 14.2709 14.24077 14.21411 14.19971 14.18612 14.17726 14.1683 14.15805 14.15688 14.1618 14.17314 14.17637 14.18662 14.19732 14.20519 14.21275 14.21722 14.22137 14.22168 14.21441 14.20555 14.2018 14.22051 14.2339 14.25347 14.2694 14.28845 14.3125 14.33288 14.35375 14.37158 14.38957 14.41182 14.42852 14.45412 14.45725 14.46884 14.47887 14.49811 14.53807
0 0 0 0 0 0 0 0 0 0 0 0 0 0 0 0 0 0 0 0 0 0 0 0 0 0 0 0 0 0 0 0 0 0 0 0 0 0 0 0 0 0 0 0 0 0 0 0 0 0 14.75301 14.72359 14.66408 14.41212 14.45553 14.45049 14.44933 14.44509 14.42872 14.41256 14.38554 14.36727 14.35639 14.34213 14.32582 14.31799 14.30596 14.28636 14.26655 14.24524 14.21172 14.19076 14.17864 14.16694 14.15033 14.13571 14.12689 14.12473 14.12741 14.13621 14.14022 14.14518 14.14646 14.15889 14.16788 14.17239 14.17236 14.17496 14.17923 14.18288 14.18806 14.20446 14.22676 14.25016 14.27741 14.30337 14.32795 14.34959 14.37565 14.39575 14.41635 14.43692 14.45065 14.46646 14.47063 14.471 14.49222 14.52193 14.54765
0 0 0 0 0 0 0 0 0 0 0 0 0 0 0 0 0 0 0 0 0 0 0 0 0 0 0 0 0 0 0 0 0 0 0 0 0 0 0 0 0 0 0 0 0 0 0 0 0 0 14.87613 14.54831 14.34136 14.42211 14.45227 14.46241 14.45197 14.4372 14.41762 14.38966 14.36302 14.34746 14.32959 14.32282 14.3108 14.30166 14.29219 14.27597 14.25732 14.23625 14.21121 14.18815 14.17696 14.15837 14.13847 14.12185 14.10969 14.10489 14.10869 14.11383 14.12042 14.12935 14.13604 14.14022 14.14181 14.14975 14.15475 14.1629 14.16789 14.16843 14.1833 14.20961 14.23314 14.25759 14.29851 14.31946 14.34484 14.36984 14.39872 14.42474 14.44644 14.46225 14.47503 14.48746 14.49359 14.49679 14.51448 14.54371 14.57865
0 0 0 0 0 0 0 0 0 0 0 0 0 0 0 0 0 0 0 0 0 0 0 0 0 0 0 0 0 0 0 0 0 0 0 0 0 0 0 0 0 0 0 0 0 0 0 0 0 0 0 0 14.35459 14.40552 14.44032 14.4562 14.45973 14.43108 14.40442 14.37635 14.34451 14.32684 14.31676 14.30825 14.29988 14.296 14.29754 14.28383 14.26636 14.24508 14.22273 14.19963 14.17711 14.1614 14.14474 14.12726 14.10912 14.10525 14.10338 14.10586 14.11337 14.11837 14.12254 14.12511 14.13585 14.14176 14.14751 14.15359 14.16105 14.17411 14.19696 14.21978 14.24376 14.28094 14.3105 14.34226 14.37593 14.39401 14.41062 14.44277 14.46272 14.48031 14.50161 14.50656 14.51634 14.51951 14.5337 14.56681 14.59889
0 0 0 0 0 0 0 0 0 0 0 0 0 0 0 0 0 0 0 0 0 0 0 0 0 0 0 0 0 0 0 0 0 0 0 0 0 0 0 0 0 0 0 0 0 0 0 0 0 0 16.3703 14.93579 14.57088 14.43451 14.45541 14.46131 14.45274 14.4201 14.39077 14.36242 14.33968 14.32337 14.31635 14.30642 14.30265 14.30231 14.30324 14.2933 14.28166 14.26578 14.24213 14.21342 14.19023 14.17137 14.15904 14.13734 14.12102 14.11055 14.10504 14.11235 14.11747 14.11442 14.12563 14.12413 14.13101 14.1367 14.14812 14.15484 14.16553 14.17877 14.2027 14.22998 14.26426 14.30212 14.33009 14.36781 14.39221 14.40769 14.4369 14.45503 14.47409 14.49605 14.51862 14.53343 14.54514 14.54939 14.5647 14.60047 14.63241
0 0 0 0 0 0 0 0 0 0 0 0 0 0 0 0 0 0 0 0 0 0 0 0 0 0 0 0 0 0 0 0 0 0 0 0 0 0 0 0 0 0 0 0 0 0 0 0 0 0 15.78049 14.96927 14.80135 14.45811 14.46491 14.45753 14.44582 14.41185 14.38748 14.36551 14.35117 14.33383 14.32582 14.32073 14.32254 14.33434 14.33294 14.31595 14.30999 14.28973 14.25417 14.22506 14.19916 14.17799 14.16075 14.14 14.13711 14.1263 14.11796 14.12093 14.12263 14.12876 14.12891 14.13301 14.13841 14.14607 14.15747 14.17277 14.18413 14.19922 14.22242 14.26039 14.29038 14.32268 14.35128 14.37817 14.40921 14.42995 14.44754 14.4689 14.49192 14.51797 14.5476 14.56971 14.5745 14.57779 14.59248 14.62772 14.66583
0 0 0 0 0 0 0 0 0 0 0 0 0 0 0 0 0 0 0 0 0 0 0 0 0 0 0 0 0 0 0 0 0 0 0 0 0 0 0 0 0 0 0 0 0 0 0 0 0 0 0 15.01807 14.64434 14.4889 14.48028 14.46013 14.44678 14.41997 14.39839 14.38472 14.3649 14.34707 14.33962 14.34422 14.3527 14.36685 14.36681 14.36346 14.34254 14.31776 14.288 14.25681 14.22972 14.20461 14.17722 14.15797 14.14874 14.14021 14.14144 14.14486 14.14292 14.1473 14.15246 14.14638 14.15298 14.1613 14.1774 14.19642 14.22215 14.24679 14.28009 14.30517 14.33156 14.35912 14.38671 14.41378 14.43635 14.45264 14.47926 14.5007 14.52532 14.55131 14.58001 14.61025 14.61395 14.61696 14.62688 14.66335 14.70696
0 0 0 0 0 0 0 0 0 0 0 0 0 0 0 0 0 0 0 0 0 0 0 0 0 0 0 0 0 0 0 0 0 0 0 0 0 0 0 0 0 0 0 0 0 0 0 0 0 0 0 14.84104 14.49472 14.51159 14.49003 14.46439 14.45004 14.42551 14.41167 14.40099 14.39246 14.3879 14.3916 14.39784 14.40399 14.40948 14.41703 14.41405 14.39187 14.35383 14.32242 14.28962 14.26134 14.23751 14.21966 14.18609 14.17 14.15618 14.16393 14.16891 14.17206 14.18284 14.18381 14.19151 14.19336 14.19832 14.21407 14.23783 14.26473 14.29463 14.3344 14.36348 14.39681 14.41984 14.44727 14.46812 14.48835 14.50342 14.5256 14.54233 14.55835 14.57848 14.60112 14.6311 14.64732 14.6514 14.66539 14.70767 14.74806
0 0 0 0 0 0 0 0 0 0 0 0 0 0 0 0 0 0 0 0 0 0 0 0 0 0 0 0 0 0 0 0 0 0 0 0 0 0 0 0 0 0 0 0 0 0 0 0 0 0 0 14.52868 14.53932 14.53367 14.50054 14.47122 14.45139 14.43343 14.42736 14.41909 14.41941 14.42438 14.43602 14.44625 14.45422 14.47036 14.46578 14.45879 14.43888 14.41369 14.37882 14.34143 14.3091 14.28102 14.2583 14.2286 14.20246 14.19127 14.19098 14.19797 14.21328 14.22697 14.23779 14.24145 14.24805 14.26008 14.27626 14.30298 14.33497 14.37131 14.3997 14.42605 14.4533 14.47686 14.49302 14.51545 14.53926 14.55722 14.57416 14.58421 14.59921 14.61223 14.6313 14.66129 14.67755 14.69357 14.71361 14.74928 14.77896
0 0 0 0 0 0 0 0 0 0 0 0 0 0 0 0 0 0 0 0 0 0 0 0 0 0 0 0 0 0 0 0 0 0 0 0 0 0 0 0 0 0 0 0 0 0 0 0 0 16.36445 15.44362 14.57544 14.5704 14.54224 14.50949 14.48309 14.46413 14.44623 14.44911 14.44831 14.45828 14.47626 14.49034 14.49891 14.50471 14.50994 14.50867 14.50389 14.48509 14.46402 14.43839 14.40638 14.38192 14.35041 14.29844 14.2872 14.26436 14.24936 14.25391 14.25594 14.26651 14.27683 14.28659 14.29089 14.29667 14.31415 14.33069 14.3622 14.39631 14.42807 14.45788 14.489 14.50931 14.53124 14.54888 14.56991 14.58982 14.60387 14.60742 14.61761 14.63342 14.64867 14.65847 14.68752 14.71136 14.73194 14.75844 14.78523 14.80983
0 0 0 0 0 0 0 0 0 0 0 0 0 0 0 0 0 0 0 0 0 0 0 0 0 0 0 0 0 0 0 0 0 0 0 0 0 0 0 0 0 0 0 0 0 0 0 0 15.52435 15.04867 14.82274 14.62041 14.592 14.55561 14.52069 14.49828 14.48134 14.4678 14.47436 14.49072 14.51124 14.53698 14.55194 14.55574 14.56181 14.56701 14.57255 14.56853 14.55171 14.52496 14.4985 14.46847 14.43537 14.4089 14.3727 14.35882 14.35148 14.33939 14.34278 14.34213 14.34498 14.35499 14.35394 14.35662 14.36457 14.3791 14.39351 14.41484 14.44769 14.48096 14.509 14.53523 14.55744 14.57982 14.59151 14.61047 14.6257 14.64241 14.66032 14.66736 14.67022 14.68554 14.69725 14.71103 14.73238 14.75229 14.77893 14.80309 14.82726
0 0 0 0 0 0 0 0 0 0 0 0 0 0 0 0 0 0 0 0 0 0 0 0 0 0 0 0 0 0 0 0 0 0 0 0 0 0 0 0 0 0 0 0 0 15.25473 15.10931 15.61377 15.13028 15.15273 14.90529 14.66242 14.62197 14.57809 14.54803 14.52812 14.51731 14.50804 14.5088 14.53085 14.56059 14.57785 14.59763 14.60719 14.61795 14.628 14.63476 14.63311 14.61502 14.59876 14.56939 14.54024 14.5089 14.48556 14.46273 14.43327 14.41618 14.40793 14.40527 14.40277 14.39692 14.39819 14.40084 14.41792 14.42703 14.44469 14.45588 14.4754 14.50914 14.54095 14.56972 14.59888 14.62023 14.6342 14.65171 14.66509 14.67713 14.69205 14.70785 14.71723 14.72276 14.72959 14.73715 14.75011 14.75695 14.77706 14.799 14.82523 14.85109
0 0 0 0 0 0 0 0 0 0 0 0 0 0 0 0 0 0 0 0 0 0 0 0 0 0 0 0 0 0 0 0 0 0 0 0 0 0 0 0 0 0 17.21822 16.93277 15.96528 15.20098 14.74337 14.76234 15.24172 14.97966 14.74256 14.69306 14.64623 14.60576 14.58701 14.56901 14.55771 14.55129 14.56329 14.58269 14.61578 14.63982 14.65665 14.67409 14.68959 14.69571 14.69983 14.69337 14.6818 14.66163 14.62645 14.59595 14.57456 14.54724 14.51992 14.49589 14.47849 14.47395 14.46745 14.47253 14.47106 14.47155 14.48123 14.48549 14.49001 14.50591 14.51347 14.52991 14.56072 14.5905 14.61858 14.65096 14.67863 14.69894 14.71013 14.73534 14.75483 14.76925 14.78811 14.79588 14.78948 14.78224 14.7862 14.79227 14.79596 14.80693 14.82253 14.84746 14.87094
0 0 0 0 0 0 0 0 0 0 0 0 0 0 0 0 0 0 0 0 0 0 0 0 0 0 0 0 0 0 0 0 0 0 0 0 0 0 0 0 16.34882 16.71386 16.99694 16.06655 15.27389 14.80248 14.82576 14.83961 14.83046 14.80132 14.7748 14.72462 14.67957 14.6422 14.61958 14.6023 14.5965 14.59731 14.61113 14.63359 14.67122 14.69608 14.72252 14.73878 14.75521 14.76451 14.76806 14.76591 14.75626 14.73667 14.69987 14.67083 14.64859 14.62821 14.5951 14.56668 14.54428 14.53043 14.53949 14.53764 14.53975 14.53777 14.55309 14.55826 14.55658 14.56774 14.58375 14.60152 14.62652 14.65364 14.68451 14.70763 14.72716 14.74673 14.75674 14.77536 14.79299 14.81979 14.83519 14.84133 14.84167 14.83673 14.82608 14.8292 14.83152 14.83764 14.85282 14.87563 14.90015
0 0 0 0 0 0 0 0 0 0 0 0 0 0 0 0 0 0 0 0 0 0 0 0 0 0 0 0 0 0 0 0 0 0 0 0 0 0 0 16.56279 16.31916 15.79947 15.56601 14.81793 14.83564 14.85374 14.86539 14.87323 14.86025 14.83199 14.79345 14.75039 14.71748 14.68591 14.66827 14.65684 14.65638 14.66984 14.67866 14.71393 14.74088 14.76473 14.78816 14.8011 14.8126 14.82874 14.83222 14.83381 14.82332 14.80351 14.77516 14.74521 14.72678 14.71067 14.68652 14.66234 14.63919 14.62474 14.61665 14.61765 14.61701 14.61805 14.61657 14.62183 14.62438 14.63082 14.65141 14.67346 14.68909 14.71879 14.74517 14.77041 14.7915 14.8084 14.8137 14.82608 14.8444 14.85952 14.87075 14.88071 14.88125 14.87035 14.85438 14.85489 14.86246 14.86683 14.87768 14.9044 14.92442
0 0 0 0 0 0 0 0 0 0 0 0 0 0 0 0 0 0 0 0 0 0 0 0 0 0 0 0 0 0 0 0 0 0 0 0 0 0 15.81769 15.54554 15.32334 14.84936 14.86717 14.88311 14.89048 14.89804 14.90132 14.89665 14.8804 14.85858 14.82855 14.8005 14.77166 14.74359 14.72519 14.71395 14.72102 14.7337 14.75665 14.78696 14.81252 14.83616 14.85623 14.86486 14.8791 14.89548 14.90435 14.90902 14.89684 14.87785 14.85905 14.82596 14.79808 14.77888 14.75029 14.72551 14.70554 14.69177 14.68978 14.69052 14.69712 14.70044 14.69605 14.70312 14.70938 14.71697 14.73482 14.7419 14.76278 14.7852 14.80714 14.82495 14.83495 14.84722 14.852 14.86891 14.87694 14.89721 14.89792 14.90685 14.90476 14.89885 14.89121 14.88814 14.89672 14.90897 14.92431 14.93957 14.95901
0 0 0 0 0 0 0 0 0 0 0 0 0 0 0 0 0 0 0 0 0 0 0 0 0 0 0 0 0 0 0 0 0 0 17.48049 18.08018 17.22569 15.58846 14.82522 14.85628 14.87997 14.89282 14.90532 14.91643 14.92352 14.92279 14.92156 14.91647 14.91642 14.9063 14.8837 14.86828 14.84892 14.82733 14.81831 14.80756 14.81199 14.81977 14.84298 14.85938 14.88058 14.8945 14.91036 14.92269 14.93304 14.95236 14.96389 14.97482 14.97287 14.96427 14.94582 14.91768 14.892 14.86407 14.83299 14.80625 14.79093 14.77318 14.76174 14.7661 14.76697 14.76919 14.77005 14.77003 14.77415 14.78853 14.80201 14.81274 14.82549 14.84644 14.86555 14.87992 14.8913 14.90567 14.91375 14.91631 14.91822 14.9308 14.93901 14.93475 14.92942 14.92424 14.91858 14.91933 14.93392 14.94927 14.96874 14.98639 15.0013
0 0 0 0 0 0 0 0 0 0 0 0 0 0 0 0 0 0 0 0 0 0 0 0 0 0 0 0 0 17.95913 17.5611 17.33887 17.33893 17.12176 16.82878 16.25717 14.86366 14.87554 14.89076 14.9092 14.91979 14.92876 14.93828 14.9467 14.95087 14.94581 14.94501 14.93947 14.93789 14.93129 14.92847 14.92211 14.90941 14.90108 14.89034 14.88958 14.89876 14.90356 14.92324 14.94133 14.95272 14.96637 14.97621 14.98386 14.99789 15.01462 15.02706 15.03007 15.02533 15.02088 15.00919 14.98743 14.97018 14.95591 14.91897 14.8992 14.8841 14.8635 14.85432 14.85895 14.8557 14.85791 14.86078 14.85539 14.85666 14.86167 14.86572 14.8769 14.88439 14.89985 14.91407 14.923 14.93902 14.95191 14.96086 14.96512 14.96243 14.96333 14.97202 14.9677 14.96165 14.95743 14.95552 14.96096 14.97551 14.99355 15.01068 15.02595 15.0278
0 0 0 0 0 0 0 0 0 0 0 0 0 0 0 0 0 0 0 0 0 0 0 0 0 17.76375 17.05411 17.05934 16.13355 15.50411 15.20753 14.93411 14.92775 14.92808 14.92346 14.91326 14.90655 14.9073 14.92067 14.93333 14.94247 14.95342 14.96186 14.96499 14.9655 14.95155 14.95898 14.96538 14.96943 14.97721 14.98622 14.98666 14.97907 14.9657 14.95293 14.95723 14.95888 14.96645 14.97827 14.9982 15.00999 15.0151 15.02545 15.04161 15.05381 15.07328 15.08497 15.09167 15.0922 15.08853 15.08482 15.06785 15.04722 15.03419 15.01364 14.98749 14.96433 14.94964 14.946 14.95033 14.93621 14.93749 14.94454 14.94047 14.93788 14.94506 14.94766 14.95277 14.95993 14.96682 14.97311 14.9804 14.98811 15.00043 15.01361 15.0139 15.0019 14.99347 14.99458 14.99848 14.99536 14.99426 14.99671 15.0103 15.02928 15.03996 15.04411 15.05289 15.03622
0 0 0 0 0 0 0 0 0 0 0 0 0 0 0 0 0 0 0 0 0 0 0 17.92549 17.08056 16.52224 16.22306 15.91927 15.02223 15.01128 14.99556 14.98118 14.96942 14.96023 14.94879 14.93756 14.93182 14.93531 14.94532 14.95385 14.95731 14.96269 14.96094 14.96329 14.96601 14.96938 14.98312 14.99255 15.00553 15.02312 15.0446 15.041 15.03433 15.03073 15.02105 15.01753 15.02151 15.03183 15.04257 15.05475 15.06789 15.07045 15.07953 15.09032 15.10437 15.12613 15.13685 15.1438 15.14737 15.151 15.15209 15.13902 15.13578 15.12134 15.10217 15.08193 15.06714 15.06104 15.05887 15.05088 15.03748 15.02607 15.02942 15.01844 15.01369 15.0135 15.01412 15.01177 15.01582 15.01815 15.02345 15.02999 15.0417 15.05157 15.05607 15.0522 15.04331 15.03905 15.03733 15.04439 15.04496 15.0496 15.05107 15.06251 15.06598 15.07037 15.07106 15.06296 15.03588
0 0 0 0 0 0 0 0 0 0 0 0 0 0 0 0 0 0 0 0 0 0 17.36204 16.5282 16.23438 16.24639 15.944 15.63424 15.03383 15.01693 15.00216 14.98835 14.97428 14.96236 14.95327 14.94515 14.94299 14.94368 14.9501 14.95952 14.96179 14.96477 14.96574 14.97262 14.98065 15.00122 15.02241 15.04178 15.05022 15.06405 15.07652 15.07574 15.0742 15.06893 15.06529 15.06823 15.07268 15.08052 15.08914 15.09793 15.1082 15.11463 15.12761 15.13658 15.15078 15.17459 15.18906 15.20083 15.20927 15.2078 15.2145 15.20288 15.20244 15.19683 15.17716 15.15816 15.14778 15.14775 15.14859 15.13242 15.12609 15.12055 15.11944 15.107 15.09826 15.09342 15.09233 15.09083 15.08393 15.0771 15.07178 15.07704 15.08357 15.08685 15.08747 15.0758 15.07282 15.07568 15.08067 15.08447 15.0914 15.09344 15.10189 15.10123 15.10319 15.10608 15.0959 15.07369 15.03643
0 0 0 0 0 0 0 0 0 0 0 0 0 0 0 0 0 0 0 0 0 18.5747 17.57225 16.51973 15.92884 15.93539 15.62895 15.6332 15.02544 15.01077 14.99748 14.98331 14.97163 14.96108 14.95234 14.94332 14.94262 14.94278 14.9512 14.9587 14.96269 14.96845 14.97786 14.99296 15.00693 15.02614 15.05598 15.07464 15.08507 15.09317 15.10133 15.10333 15.10708 15.10619 15.11252 15.11595 15.11317 15.11995 15.12575 15.13364 15.13906 15.14894 15.15569 15.16403 15.18008 15.2081 15.22604 15.24738 15.25487 15.26051 15.26853 15.26663 15.26655 15.26573 15.25119 15.24296 15.2335 15.22757 15.21606 15.2033 15.18825 15.17956 15.17075 15.16111 15.15789 15.15632 15.15132 15.14522 15.1414 15.13669 15.12709 15.12913 15.12695 15.12436 15.11497 15.11472 15.11726 15.11907 15.12191 15.11934 15.11725 15.12626 15.13374 15.14123 15.14263 15.13491 15.12108 15.08416 15.02754
0 0 0 0 0 0 0 0 0 0 0 0 0 0 0 0 0 0 0 0 0 0 0 17.1034 16.24505 15.94102 15.63079 15.33114 15.01483 14.99857 14.98602 14.98218 14.96844 14.95498 14.94792 14.94747 14.94482 14.94639 14.95039 14.9645 14.97252 14.98309 14.99799 15.01173 15.02621 15.04249 15.06462 15.09039 15.1071 15.11719 15.12262 15.13054 15.13694 15.1439 15.14831 15.15231 15.15375 15.15857 15.16221 15.17066 15.17867 15.18701 15.19372 15.20458 15.21522 15.23748 15.25941 15.27965 15.29362 15.3014 15.30804 15.31166 15.31424 15.31461 15.31447 15.31657 15.30306 15.29451 15.28311 15.27457 15.26282 15.25504 15.23979 15.23021 15.22867 15.22259 15.21184 15.20498 15.19126 15.18154 15.17617 15.1716 15.16169 15.15326 15.15776 15.16636 15.16798 15.17028 15.17023 15.16402 15.16387 15.17196 15.18316 15.18555 15.17929 15.16727 15.1389 15.0892 15.02207
0 0 0 0 0 0 0 0 0 0 0 0 0 0 0 0 0 0 0 0 0 19.00214 18.73122 17.75319 16.29306 15.97841 15.65082 15.64488 15.29874 14.99383 14.98497 14.97599 14.96438 14.95494 14.95151 14.94816 14.9499 14.95567 14.96116 14.97397 14.98757 15.00079 15.01541 15.0298 15.04267 15.06435 15.07771 15.10551 15.12422 15.14475 15.1616 15.17183 15.17497 15.17797 15.18109 15.18971 15.19191 15.1937 15.19484 15.20124 15.2044 15.21974 15.23362 15.24609 15.26161 15.2768 15.29856 15.32181 15.33313 15.34209 15.35019 15.3591 15.36611 15.37331 15.37704 15.37076 15.36217 15.353 15.33852 15.32785 15.32259 15.30874 15.3001 15.30189 15.29527 15.28554 15.27737 15.26431 15.25286 15.24367 15.23091 15.21919 15.21149 15.21302 15.21567 15.21357 15.21534 15.21356 15.21177 15.20981 15.20836 15.21774 15.22015 15.21764 15.21426 15.19032 15.15601 15.10052 15.02075
0 0 0 0 0 0 0 0 0 0 0 0 0 0 0 0 0 0 0 18.98511 18.94637 18.87327 18.06645 16.97318 16.34744 16.02392 15.67875 15.97995 15.02325 14.99119 14.98216 14.97455 14.96824 14.96169 14.95516 14.95572 14.95758 14.96473 14.97899 14.99224 15.00254 15.01461 15.02853 15.04533 15.0581 15.07962 15.10285 15.12442 15.14705 15.16732 15.18549 15.20802 15.2221 15.22763 15.23542 15.2362 15.23737 15.23934 15.24113 15.23215 15.23818 15.24523 15.2631 15.27667 15.29034 15.30484 15.3248 15.34708 15.36111 15.36981 15.3835 15.39803 15.41613 15.42694 15.43239 15.43299 15.42569 15.41949 15.40671 15.39674 15.38286 15.37294 15.36701 15.36166 15.35388 15.34121 15.32827 15.31332 15.30217 15.29019 15.27514 15.26904 15.26594 15.26774 15.27045 15.27688 15.28017 15.2769 15.27519 15.27564 15.27027 15.26586 15.26216 15.25305 15.23934 15.21253 15.17267 15.10982 15.02984
0 0 0 0 0 0 0 0 0 0 0 0 0 0 0 0 0 0 18.5195 18.39569 18.06187 17.62122 17.02595 16.39665 16.07562 16.05404 15.7006 15.35413 15.02764 14.99464 14.98236 14.97605 14.97198 14.96572 14.96556 14.9716 14.9779 14.98454 14.99719 15.00977 15.0243 15.04006 15.05474 15.06941 15.08817 15.10524 15.1261 15.15201 15.17893 15.2003 15.22152 15.24297 15.25762 15.27319 15.28282 15.29157 15.28859 15.28845 15.28654 15.28978 15.29159 15.29599 15.30521 15.31111 15.32645 15.34342 15.36229 15.37498 15.38709 15.3976 15.4164 15.43532 15.45093 15.46007 15.46853 15.47626 15.47128 15.46473 15.45391 15.44753 15.44601 15.43676 15.43446 15.42731 15.41549 15.3998 15.38427 15.36938 15.3563 15.34202 15.32229 15.31555 15.31363 15.3139 15.31612 15.32572 15.33338 15.33059 15.33304 15.32524 15.31754 15.31148 15.30599 15.29518 15.27657 15.23799 15.20124 15.13806 15.05985
0 0 0 0 0 0 0 0 0 0 0 0 0 0 0 0 0 18.96385 18.43045 17.8224 17.34125 16.74247 16.43544 16.43665 16.43172 16.062 15.70217 15.06034 15.02441 14.9969 14.98419 14.98126 14.97807 14.97064 14.97231 14.98226 14.99011 14.99824 15.01032 15.02306 15.03919 15.0556 15.07062 15.0946 15.11488 15.13872 15.16272 15.18732 15.21605 15.24149 15.26417 15.28906 15.30909 15.31943 15.32969 15.33487 15.33353 15.33077 15.32588 15.32944 15.33903 15.3447 15.3433 15.34635 15.35489 15.37457 15.39021 15.40353 15.40887 15.42403 15.44043 15.46317 15.48348 15.4972 15.50385 15.50891 15.5111 15.50764 15.50191 15.4942 15.49736 15.48747 15.47972 15.47059 15.45689 15.44104 15.42946 15.41579 15.4035 15.3896 15.37489 15.36862 15.36883 15.37021 15.37392 15.37895 15.38073 15.37952 15.3787 15.36343 15.35761 15.35761 15.34525 15.32871 15.30722 15.27723 15.23709 15.17466 15.10148
0 0 0 0 0 0 0 0 0 0 0 0 0 0 0 0 18.49037 18.46453 17.63338 17.0698 16.77266 16.44899 16.44259 16.44092 16.42392 16.05634 15.68961 15.05625 15.01968 14.99815 14.98815 14.98518 14.98225 14.98564 14.98752 14.9988 15.00803 15.01848 15.0308 15.04283 15.0591 15.07864 15.09842 15.12012 15.14635 15.17073 15.19483 15.21979 15.24654 15.27773 15.30547 15.33215 15.35178 15.36383 15.37079 15.37812 15.38303 15.38322 15.38346 15.38827 15.39046 15.39355 15.39024 15.38629 15.39079 15.39511 15.41063 15.41946 15.42838 15.44058 15.46024 15.47766 15.50431 15.52421 15.53628 15.54457 15.55028 15.55046 15.55743 15.56189 15.56287 15.54996 15.53657 15.52416 15.50637 15.48809 15.4766 15.45634 15.44136 15.42763 15.40958 15.41376 15.40984 15.41371 15.41735 15.41867 15.41958 15.41668 15.41146 15.40316 15.40037 15.39354 15.39528 15.37932 15.35269 15.32388 15.28127 15.22251 15.14753
0 0 0 0 0 0 0 0 0 0 0 0 0 0 0 19.04384 18.32923 17.65039 17.09014 16.78919 16.45998 16.4618 16.45218 16.10519 16.07703 15.72396 15.07561 15.04055 15.01206 14.99791 14.98828 14.98631 14.989 14.99444 14.99979 15.01483 15.02689 15.04372 15.05796 15.07535 15.09582 15.12122 15.14845 15.17363 15.20107 15.22578 15.24894 15.27311 15.29872 15.32612 15.34711 15.36901 15.38421 15.39578 15.40842 15.41644 15.42261 15.42964 15.43867 15.44749 15.45031 15.45048 15.45291 15.44164 15.4338 15.42896 15.43304 15.43701 15.44724 15.45937 15.47751 15.4955 15.51997 15.54292 15.55784 15.57416 15.58426 15.58893 15.59361 15.59925 15.6025 15.59639 15.58636 15.57546 15.56306 15.5472 15.53008 15.51446 15.49706 15.47581 15.4643 15.46095 15.46049 15.45715 15.45068 15.44769 15.44375 15.44273 15.43962 15.43176 15.42907 15.43479 15.42396 15.41259 15.39196 15.36674 15.33018 15.27573 15.20327
0 0 0 0 0 0 0 0 0 0 0 0 0 0 18.40769 18.40359 17.70508 17.10401 16.79614 16.46164 16.46388 16.11671 16.09561 16.07802 15.72731 15.38199 15.0616 15.02762 15.00996 15.00308 14.99559 14.9979 15.00327 15.01167 15.02547 15.0381 15.05282 15.06905 15.08747 15.11151 15.13725 15.16799 15.20049 15.23205 15.26491 15.29498 15.32134 15.34838 15.37191 15.38977 15.40296 15.41901 15.43133 15.44352 15.45431 15.46325 15.46799 15.47603 15.48845 15.49875 15.50535 15.50764 15.50779 15.49948 15.4832 15.46662 15.4611 15.4588 15.46522 15.47056 15.48776 15.50983 15.53576 15.56242 15.59086 15.60672 15.62347 15.62947 15.6347 15.64172 15.64241 15.63763 15.62607 15.61133 15.6019 15.59499 15.57955 15.56949 15.55194 15.53063 15.51743 15.50845 15.50477 15.4972 15.48862 15.48473 15.47789 15.47279 15.47173 15.46582 15.46468 15.46614 15.45929 15.44501 15.42686 15.39509 15.36045 15.3067 15.23471
0 0 0 0 0 0 0 0 0 0 0 0 0 18.29348 18.46438 17.71896 17.11124 16.80311 16.45907 16.45096 16.10592 16.08951 16.07671 16.0653 15.71063 15.07282 15.04517 15.0225 15.01154 15.00677 15.00955 15.01863 15.02996 15.0437 15.06057 15.07368 15.08881 15.10575 15.12912 15.15763 15.19361 15.23177 15.26928 15.2998 15.3337 15.35768 15.38644 15.41349 15.43423 15.44518 15.45378 15.46919 15.48218 15.4898 15.49888 15.5029 15.50447 15.51355 0 0 0 15.50693 15.52029 15.56627 15.54943 15.51667 15.49567 15.49032 15.48723 15.48197 15.4935 15.51192 15.54199 15.57349 15.60368 15.63092 15.64717 15.66927 15.67948 15.68585 15.68616 15.68251 15.67407 15.66247 15.65788 15.65104 15.6402 15.63064 15.61655 15.59258 15.57295 15.5586 15.54897 15.53863 15.52767 15.52067 15.51003 15.5022 15.50072 15.50275 15.49974 15.49958 15.49149 15.48144 15.46521 15.43728 15.39811 15.34167 15.26594
0 0 0 0 0 0 0 0 0 0 0 0 0 18.66882 17.74725 17.12644 16.78861 16.43795 16.43557 16.0863 16.07873 16.06901 16.06636 15.1002 15.08401 15.06006 15.03806 15.021 15.01442 15.01376 15.02666 15.03739 15.05497 15.06841 15.08231 15.10201 15.12223 15.14487 15.176 15.21556 15.26233 15.30799 15.34881 15.38387 15.41483 15.44445 15.4719 15.49053 15.49903 15.50462 15.51268 16.26477 15.53215 15.52985 15.53015 15.882 16.64009 17.41495 0 0 0 0 0 15.96794 15.58912 15.56363 15.5321 15.51451 15.49889 15.4968 15.50685 15.52928 15.55612 15.58761 15.62492 15.65741 15.67933 15.69668 15.70779 15.71424 15.71667 15.71423 15.70932 15.70649 15.70369 15.69847 15.69096 15.68368 15.6745 15.6574 15.64186 15.6266 15.61416 15.59777 15.58596 15.56937 15.55732 15.5487 15.53888 15.53919 15.53701 15.53133 15.52219 15.50932 15.49317 15.46865 15.42771 15.36935 15.2872
0 0 0 0 0 0 0 0 0 0 0 0 18.81496 18.01913 17.10717 16.76833 16.41299 16.06967 16.07247 16.07423 16.07126 16.071 15.72716 15.09736 15.07877 15.05644 15.04113 15.03093 15.02582 15.0322 15.04555 15.05946 15.07954 15.09439 15.10757 15.12952 15.15278 15.18388 15.22235 15.26926 15.32118 15.3694 15.41285 15.44865 15.4806 15.50298 15.51351 0 0 15.50544 0 17.13417 16.33341 15.92388 16.30317 16.28137 17.05243 17.46928 18.40722 16.27384 15.56673 0 0 0 17.16694 15.57832 15.55002 15.52962 15.51603 15.50923 15.51839 15.54064 15.57149 15.60988 15.64718 15.67772 15.70461 15.72327 15.73775 15.74566 15.74954 15.74948 15.74886 15.7453 15.73909 15.73514 15.72678 15.72355 15.71818 15.70795 15.69215 15.67702 15.66274 15.64875 15.63236 15.61757 15.60421 15.59543 15.58392 15.58173 15.5775 15.57182 15.56122 15.54471 15.52754 15.49982 15.45686 15.39445 15.31071
0 0 0 0 0 0 0 0 0 0 0 18.06672 18.04972 17.1072 16.75837 16.05272 16.06951 16.0824 16.08356 16.08239 16.08992 15.42767 15.11674 15.09917 15.0819 15.0644 15.05353 15.04865 15.04988 15.05898 15.07373 15.08836 15.10561 15.12005 15.13744 15.16477 15.19522 15.23985 15.28857 15.34307 15.40182 15.44285 15.47242 15.49951 16.27247 0 0 0 0 0 17.91657 18.69898 18.45883 17.88096 17.50812 17.08301 17.06877 15.91255 15.55547 15.56464 15.56805 15.56752 15.56619 17.53883 17.8928 15.57816 15.55778 15.53896 15.53137 15.52657 15.53836 15.55594 15.58629 15.62408 15.66054 15.69166 15.71639 15.74058 15.75595 15.77127 15.77758 15.78295 15.78404 15.77909 15.77476 15.76995 15.76981 15.76869 15.76542 15.75902 15.74402 15.72761 15.71183 15.69375 15.67719 15.66246 15.64782 15.63762 15.63062 15.62418 15.61727 15.60528 15.59535 15.57861 15.56039 15.5297 15.48917 15.42505 15.34178
0 0 0 0 0 0 0 0 0 0 18.80317 18.09049 17.1252 16.40815 16.0733 15.75062 15.7623 15.76757 15.76597 15.76946 15.76599 15.13788 15.12555 15.112 15.09633 15.08324 15.07425 15.07173 15.07762 15.08681 15.10068 15.11496 15.12782 15.14204 15.16302 15.20118 15.24318 15.29889 15.35478 15.41686 15.47115 15.50498 15.88458 0 0 0 0 0 0 0 0 0 0 0 17.88029 17.51214 16.71211 15.56113 15.57434 15.58441 15.58818 15.58556 15.58336 15.58288 15.58164 15.57773 15.56428 15.55388 15.55349 15.55085 15.5574 15.57528 15.60468 15.63821 15.67514 15.70849 15.73623 15.75788 15.77519 15.79042 15.79955 15.80424 15.80228 15.8022 15.79898 15.79928 15.80331 15.80612 15.80309 15.79919 15.78679 15.77533 15.75896 15.74761 15.73137 15.71814 15.70323 15.69397 15.68435 15.67288 15.66467 15.65019 15.63339 15.61285 15.58575 15.55633 15.51271 15.44968 15.37227
0 0 0 0 0 0 0 0 0 0 18.38622 17.13046 16.41072 16.07117 15.43721 15.44543 15.14804 15.14793 15.15384 15.15175 15.15047 15.14568 15.13822 15.12921 15.11918 15.10666 15.10438 15.10745 15.11491 15.12453 15.13821 15.14754 15.1603 15.173 15.20066 15.24197 15.28999 15.34429 15.40521 15.46302 16.63591 0 0 0 0 0 0 0 0 0 0 0 0 0 18.52799 17.15383 15.58503 15.59038 15.60496 15.6186 15.62921 15.62791 15.62151 15.612 15.6013 15.59195 15.58295 15.57642 15.57786 15.57503 15.57979 15.59629 15.62009 15.6589 15.69373 15.72804 15.75671 15.77842 15.79932 15.81646 15.82463 15.82776 15.8262 15.82806 15.83053 15.83247 15.83644 15.83695 15.83495 15.82886 15.81942 15.80713 15.79597 15.78486 15.77426 15.76327 15.74894 15.74198 15.73262 15.72528 15.7141 15.70167 15.6789 15.65185 15.62212 15.58552 15.54237 15.47915 15.40126
0 0 0 0 0 0 0 0 0 18.4783 17.85793 16.77872 16.06914 15.42692 15.13943 15.13778 15.1351 15.13175 15.13626 15.14683 15.14662 15.14825 15.15128 15.15167 15.14665 15.13592 15.13357 15.14213 15.1505 15.16157 15.17104 15.18271 15.1932 15.21245 15.24939 15.28918 15.33375 15.38951 15.44932 16.2238 16.44901 0 0 0 0 0 0 0 0 0 0 0 0 17.81373 17.58067 16.37015 15.59685 15.61285 15.63691 15.65371 15.66786 15.67146 15.66423 15.65176 15.63672 15.62827 15.62042 15.61587 15.61092 15.60571 15.60897 15.62219 15.64499 15.68013 15.71293 15.74195 15.77197 15.79512 15.81941 15.83335 15.84408 15.847 15.84636 15.84942 15.86078 15.86682 15.86757 15.86735 15.8705 15.86552 15.85778 15.84708 15.83398 15.82252 15.8137 15.80675 15.79763 15.78734 15.77266 15.76529 15.75215 15.73648 15.7109 15.68377 15.65046 15.60776 15.55928 15.49606 15.42073
0 0 0 0 0 0 0 0 19.34141 18.19947 16.78666 16.04989 15.72176 15.11765 15.11607 15.11104 15.11166 15.11498 15.12201 15.1316 15.14141 15.1532 15.16375 15.16839 15.16599 15.16693 15.17183 15.17942 15.18668 15.19473 15.20176 15.20759 15.2214 15.24445 15.27942 15.32501 15.36707 15.41303 15.80397 16.22336 16.66554 17.48245 0 18.31353 18.88956 0 0 0 0 0 0 0 18.57741 17.58746 16.79513 15.60776 15.61651 15.64388 15.66716 15.68272 15.69014 15.69023 15.686 15.67464 15.66495 15.65531 15.64759 15.64732 15.64494 15.64196 15.64277 15.65716 15.67943 15.7067 15.73855 15.76902 15.79598 15.82155 15.84231 15.8592 15.86758 15.86861 15.87175 15.8746 15.88282 15.88908 15.89194 15.89658 15.89418 15.88783 15.87851 15.86984 15.86295 15.86021 15.85198 15.84591 15.84192 15.82956 15.81759 15.80567 15.78907 15.77022 15.74354 15.70933 15.66902 15.62296 15.56647 15.50215 15.42824
0 0 0 0 0 0 0 0 19.36195 18.21705 16.78519 16.0426 15.10304 15.09722 15.09551 15.09042 15.09379 15.10041 15.11222 15.12915 15.14564 15.16224 15.17648 15.18723 15.19728 15.21058 15.22596 15.23684 15.24772 15.25599 15.26267 15.2712 15.2796 15.29734 15.32412 15.35876 15.39526 15.42477 15.45275 15.84084 16.24273 16.66798 17.10302 17.53525 18.30604 0 0 0 0 0 0 17.97616 17.1973 17.20214 15.60769 15.62555 15.65177 15.68188 15.70381 15.7171 15.72264 15.71782 15.71104 15.70251 15.69098 15.68082 15.67187 15.67301 15.67359 15.66812 15.67086 15.68445 15.7062 15.73252 15.75917 15.78998 15.82003 15.848 15.87121 15.88809 15.89461 15.89705 15.90193 15.90726 15.91544 15.92095 15.92354 15.92293 15.92089 15.9133 15.90135 15.89157 15.8854 15.88213 15.87743 15.87252 15.87042 15.85775 15.84718 15.8371 15.82179 15.79936 15.76833 15.72827 15.68318 15.63132 15.57271 15.50749 15.43609
0 0 0 0 0 0 0 0 0 18.2447 16.7929 16.04105 15.09127 15.08326 15.08073 15.08091 15.08639 15.09615 15.11291 15.13449 15.15712 15.17843 15.19391 15.21123 15.2237 15.2432 15.2673 15.28987 15.30804 15.32672 15.33649 15.3403 15.34389 15.35189 15.37424 15.40001 15.42799 15.44531 15.46166 15.47676 15.49128 15.50572 15.52761 15.90417 16.71278 17.52995 18.32716 18.65799 0 0 18.28388 17.18135 16.37332 15.60556 15.62542 15.65685 15.69291 15.71872 15.73557 15.74344 15.74463 15.74324 15.74187 15.73683 15.72518 15.71433 15.70532 15.70595 15.70343 15.70406 15.70915 15.72153 15.73798 15.76074 15.78727 15.81464 15.84253 15.86974 15.89629 15.90927 15.91818 15.91923 15.92404 15.93458 15.94335 15.94907 15.95267 15.95381 15.95152 15.94461 15.9335 15.92393 15.91604 15.91457 15.90954 15.90448 15.89578 15.89116 15.87993 15.86412 15.84579 15.81731 15.78052 15.74004 15.69448 15.64099 15.5785 15.5091 15.43758
0 0 0 0 0 0 0 0 0 19.26034 17.57853 16.41727 15.38378 15.08059 15.072 15.07792 15.08349 15.09799 15.11651 15.14181 15.16958 15.19378 15.21423 15.23447 15.2592 15.28811 15.32773 15.3577 15.38015 15.39853 15.40452 15.4032 15.39916 15.40468 15.41725 15.43381 15.45481 15.46652 15.47679 15.48314 15.49191 15.50031 15.51619 15.53141 15.90581 16.31011 16.72806 17.13656 18.29678 17.16791 15.93894 15.58439 15.60468 15.63239 15.66312 15.69198 15.7232 15.74256 15.75418 15.75798 15.7566 15.75364 15.7544 15.75013 15.74427 15.73983 15.73352 15.73363 15.73359 15.73295 15.74602 15.75732 15.77191 15.79448 15.82163 15.8462 15.87143 15.89764 15.91883 15.93017 15.93767 15.94205 15.94605 15.95507 15.96315 15.97339 15.97826 15.98045 15.97628 15.97522 15.96196 15.95049 15.94495 15.94222 15.93778 15.9302 15.92539 15.91664 15.90468 15.88669 15.87006 15.83944 15.7997 15.7549 15.70863 15.64899 15.58282 15.50773 15.43142
0 0 0 0 0 0 0 0 0 19.41161 18.58388 16.82008 15.70417 15.08281 15.0726 15.07357 15.08275 15.09696 15.11846 15.146 15.17107 15.19952 15.22498 15.25248 15.28909 15.33809 15.39039 15.43659 15.46996 15.47901 15.47699 15.47161 15.46022 15.45527 15.46202 15.47307 15.48168 15.48582 15.48895 15.48968 15.49661 15.50469 15.51692 15.53202 15.54371 15.55582 15.94094 0 17.1802 15.95763 15.5973 15.61969 15.64923 15.67568 15.70506 15.72727 15.75325 15.76421 15.77089 15.7773 15.77698 15.77244 15.77275 15.7739 15.76941 15.76769 15.76137 15.75804 15.75825 15.76332 15.77163 15.78068 15.79716 15.82222 15.84721 15.86965 15.89259 15.91453 15.93315 15.94647 15.95456 15.95971 15.9658 15.9738 15.98375 15.99352 15.99823 16.00574 16.00495 15.99889 15.99211 15.9832 15.97441 15.96612 15.95965 15.95598 15.94906 15.93615 15.92135 15.90511 15.88013 15.84983 15.8121 15.77098 15.71799 15.65618 15.58451 15.5063 15.41887
0 0 0 0 0 0 0 0 0 0 19.11249 17.63053 16.05894 15.38378 15.08026 15.07422 15.0861 15.09674 15.11015 15.13741 15.16826 15.20286 15.2341 15.26619 15.31172 15.37038 15.43557 15.48769 0 0 0 15.70311 15.49181 15.48942 15.49147 15.49828 15.50445 15.50188 15.50226 15.49896 15.50069 15.5112 15.51987 15.53449 15.55344 15.57284 15.59284 15.9826 15.61133 15.61744 15.63969 15.66628 15.69408 15.71892 15.73667 15.75961 15.77578 15.78804 15.79631 15.80051 15.80307 15.80995 15.80648 15.80799 15.80516 15.80007 15.8009 15.79964 15.79739 15.79787 15.80308 15.81375 15.82556 15.8463 15.87211 15.89565 15.91433 15.9342 15.9479 15.95997 15.96815 15.97315 15.98189 15.99205 16.00489 16.01294 16.02014 16.02814 16.02817 16.0264 16.02201 16.01679 16.00853 15.99855 15.9882 15.98495 15.97412 15.96082 15.94147 15.92337 15.89664 15.86456 15.82841 15.78325 15.72691 15.65999 15.58843 15.5058 15.41197
0 0 0 0 0 0 0 0 0 0 0 18.99398 17.63635 16.06333 15.38599 15.08141 15.08214 15.09786 15.11029 15.1352 15.17251 15.20996 15.24631 15.28287 15.32852 15.39652 15.80797 16.21132 0 0 0 16.33664 16.61491 15.49415 15.49896 15.50698 15.51509 15.51794 15.5182 15.50854 15.50732 15.513 15.52789 15.55168 15.57629 15.59839 15.61368 15.63098 15.64224 15.66259 15.68716 15.71467 15.74069 15.7636 15.77801 15.79538 15.80901 15.81675 15.8222 15.8261 15.83266 15.83584 15.8347 15.83176 15.83095 15.83053 15.83128 15.83209 15.82948 15.82879 15.83392 15.84432 15.85875 15.87651 15.89843 15.91821 15.93823 15.95644 15.96954 15.97718 15.98652 15.99262 16.00078 16.0167 16.02367 16.03363 16.03815 16.04583 16.05054 16.05064 16.04608 16.04276 16.03384 16.02374 16.01389 16.00594 15.99481 15.98164 15.96379 15.94134 15.91496 15.88248 15.8413 15.79572 15.73898 15.6741 15.59699 15.51402 15.42419
0 0 0 0 0 0 0 0 0 0 0 0 19.18312 18.00136 16.05212 15.38689 15.08325 15.093 15.11638 15.14323 15.18152 15.22108 15.25883 15.29547 15.33509 15.40539 16.1737 0 0 17.72817 17.81739 16.25463 15.50444 15.49466 15.49572 15.50849 15.51835 15.52385 15.5242 15.52089 15.51569 15.52299 15.53935 15.5687 15.5992 15.6227 15.64096 15.65705 15.6722 15.69389 15.72234 15.75015 15.78005 15.80265 15.81842 15.83607 15.8474 15.85235 15.85483 15.85953 15.86389 15.86769 15.86787 15.8628 15.86255 15.86156 15.85807 15.8558 15.85567 15.86064 15.86219 15.86988 15.88078 15.89935 15.92011 15.9404 15.96068 15.97879 15.98737 15.99744 16.00551 16.01608 16.02848 16.04191 16.04773 16.0563 16.06107 16.06717 16.07021 16.07092 16.06827 16.06607 16.06035 16.05197 16.0401 16.03058 16.01756 15.9988 15.97936 15.9556 15.92785 15.8926 15.8557 15.80884 15.75608 15.69418 15.61911 15.54256 15.45637
0 0 0 0 0 0 0 0 0 0 0 0 0 0 0 16.05151 15.37458 15.095 15.12352 15.15537 15.19461 15.23964 15.27357 15.30126 15.33419 15.73124 15.79855 16.19897 16.58682 18.6866 17.82188 16.23943 15.49935 15.49125 15.4878 15.49996 15.51846 15.53335 15.53682 15.53562 15.53374 15.53964 15.55813 15.58592 15.61372 15.63894 15.65433 15.67271 15.69179 15.71914 15.74732 15.77889 15.80623 15.83136 15.85463 15.86956 15.87407 15.88164 15.88779 15.88956 15.89086 15.89271 15.89444 15.89148 15.88726 15.8836 15.88294 15.88294 15.88727 15.89277 15.8927 15.89666 15.90761 15.93013 15.94998 15.96773 15.98707 15.99988 16.00959 16.01888 16.02962 16.0416 16.05079 16.06095 16.06928 16.07695 16.08179 16.08466 16.08615 16.08696 16.08538 16.08493 16.08008 16.07169 16.06776 16.05538 16.04199 16.02114 15.99883 15.97623 15.9458 15.91339 15.87459 15.83384 15.7845 15.72059 15.65205 15.57632 15.49849
0 0 0 0 0 0 0 0 0 0 0 0 0 0 0 16.78659 16.05604 15.10296 15.13955 15.17467 15.2186 15.26182 15.2903 15.31392 15.33968 15.38792 16.14876 16.20853 16.60705 0 17.87073 15.50644 15.49637 15.48475 15.49474 15.49664 15.51598 15.53333 15.54523 15.55114 15.55473 15.56103 15.58014 15.60419 15.62758 15.64716 15.66651 15.6844 15.71021 15.74466 15.78271 15.81386 15.84134 15.86932 15.88705 15.89672 15.90921 15.91456 15.91248 15.90884 15.91235 15.91412 15.91288 15.90735 15.90589 15.90345 15.9018 15.90595 15.908 15.91183 15.9153 15.92363 15.9391 15.96174 15.98041 15.99843 16.01344 16.02879 16.04076 16.05311 16.06262 16.07173 16.07909 16.08646 16.09195 16.09596 16.09922 16.10144 16.10005 16.09999 16.09877 16.09576 16.09297 16.08679 16.07747 16.06901 16.05461 16.03949 16.01816 15.99374 15.96905 15.93981 15.9058 15.86617 15.82008 15.76279 15.69716 15.6287 15.56031
0 0 0 0 0 0 0 0 0 0 0 0 0 17.99367 17.63186 16.82236 16.10703 15.12821 15.16439 15.20186 15.24882 15.29047 15.31774 15.34245 15.36388 15.39574 16.52643 16.95841 17.39866 17.3061 18.25564 15.84961 15.48745 15.48268 15.49587 15.51316 15.53406 15.55071 15.55939 15.56536 15.57151 15.58174 15.60006 15.6228 15.64533 15.66157 15.68525 15.7109 15.74133 15.77982 15.8122 15.84433 15.87115 15.89717 15.91372 15.92642 15.9346 15.94064 15.9352 15.93687 15.93354 15.94205 15.93901 15.93379 15.92467 15.92416 15.92508 15.9276 15.93027 15.93532 15.94042 15.95298 15.96871 15.98884 16.01069 16.02662 16.04123 16.05667 16.06967 16.07957 16.08872 16.09717 16.10561 16.10637 16.11032 16.11376 16.11459 16.11616 16.11672 16.11459 16.11375 16.11022 16.10619 16.10596 16.09742 16.08694 16.07317 16.05836 16.04201 16.0204 15.99433 15.96551 15.9306 15.88869 15.84541 15.79626 15.7392 15.68259 15.61842
0 0 0 0 0 0 0 0 0 0 0 0 17.21337 16.82049 16.83806 16.48189 15.80188 15.16568 15.19812 15.23903 15.28138 15.31982 15.34781 15.36904 15.39301 15.42061 16.17971 16.21275 17.00052 17.7911 16.21899 15.47343 15.48493 15.50409 15.52806 15.54596 15.56453 15.57647 15.58068 15.5876 15.5993 15.61469 15.62921 15.64875 15.67298 15.69392 15.719 15.74457 15.77407 15.80193 15.82929 15.86252 15.88778 15.90844 15.92264 15.93641 15.94803 15.95374 15.95566 15.95418 15.95558 15.95902 15.95425 15.9427 15.94132 15.94423 15.94931 15.95214 15.95996 15.96582 15.97762 15.99224 16.01334 16.03423 16.04977 16.06153 16.07766 16.08953 16.09765 16.10558 16.11249 16.11789 16.12215 16.12294 16.12753 16.12751 16.12806 16.12696 16.12641 16.12207 16.12138 16.12232 16.11899 16.11685 16.11277 16.10444 16.09561 16.0841 16.06916 16.05112 16.02598 15.99841 15.96422 15.92589 15.88326 15.83568 15.78566 15.73121 15.67664
0 0 0 0 0 0 0 0 19.00486 18.36667 17.22023 16.44046 16.43391 16.44119 16.12 16.16353 15.86245 15.22683 15.25948 15.29998 15.33494 15.37376 15.39643 15.41621 15.43597 15.45666 15.48077 15.48767 15.4947 15.49554 15.49076 15.49604 15.51337 15.53659 15.55656 15.57413 15.58822 15.59603 15.60281 15.60698 15.61859 15.63603 15.65756 15.67784 15.70308 15.72793 15.753 15.777 15.80051 15.82682 15.84949 15.87421 15.89206 15.91272 15.93035 15.94609 15.96054 15.96695 15.97073 15.97534 15.97492 15.96855 15.96309 15.95733 15.95517 15.96156 15.96765 15.97403 15.98399 16.00022 16.01466 16.0369 16.05863 16.07995 16.09114 16.10104 16.11251 16.12198 16.13094 16.13488 16.13632 16.13799 16.14088 16.14546 16.14381 16.14154 16.13802 16.13619 16.1295 16.1289 16.12701 16.12719 16.12355 16.1226 16.12286 16.11616 16.10674 16.09761 16.08714 16.07454 16.05642 16.03021 16.00055 15.96449 15.92918 15.88917 15.84062 15.79281 15.74397
0 0 0 0 0 0 0 17.99461 18.04947 16.45383 16.08335 16.07181 16.08512 16.11327 16.16309 15.88671 15.26432 15.29005 15.31831 15.35926 15.3979 15.43237 15.45442 15.47298 15.48726 15.5035 15.51579 15.52249 15.5318 15.53686 15.5417 15.55286 15.56269 15.57268 15.58552 15.59576 15.60336 15.61045 15.61718 15.62455 15.63836 15.65566 15.67656 15.69976 15.72645 15.75224 15.77599 15.79698 15.81744 15.83565 15.85034 15.86827 15.89062 15.91292 15.93325 15.94719 15.96071 15.96954 15.97881 15.98612 15.98997 15.98583 15.98414 15.98316 15.98312 15.98934 15.99726 16.00557 16.01656 16.03476 16.05386 16.07582 16.09316 16.10816 16.12254 16.13352 16.14106 16.15238 16.15483 16.15626 16.15801 16.15643 16.15538 16.15581 16.15518 16.15013 16.14219 16.13846 16.1302 16.12729 16.13112 16.13119 16.12877 16.12847 16.1273 16.12556 16.12044 16.11465 16.10955 16.09717 16.08089 16.05882 16.03323 16.0053 15.97289 15.93376 15.88832 15.84527 15.79632
0 0 0 0 0 0 18.51105 18.4666 16.4575 16.06246 16.04855 16.07112 16.12265 15.84335 15.5731 15.30176 15.31497 15.34456 15.37461 15.4161 15.45556 15.4827 15.49882 15.51016 15.52337 15.53278 15.54216 15.55013 15.56479 15.57538 15.58225 15.59339 15.59972 15.60383 15.61055 15.61277 15.62501 15.62961 15.6393 15.65406 15.66483 15.6856 15.70536 15.72473 15.74676 15.76514 15.78265 15.80405 15.82157 15.83876 15.85608 15.87037 15.88689 15.90669 15.92475 15.93838 15.94905 15.96581 15.97999 15.98692 15.98906 15.99039 15.99092 15.99772 16.00539 16.01866 16.02754 16.0439 16.05498 16.07457 16.09215 16.11132 16.12454 16.14114 16.15546 16.16613 16.17385 16.1788 16.18135 16.17787 16.17719 16.17211 16.16872 16.16394 16.15762 16.15139 16.14504 16.13589 16.13102 16.12595 16.1295 16.13393 16.1341 16.13587 16.1364 16.1365 16.13366 16.13101 16.12635 16.1188 16.10911 16.09186 16.07137 16.04975 16.02008 15.98644 15.94649 15.90332 15.85669
0 0 0 0 0 0 19.38809 17.67846 16.42416 16.03879 15.72266 15.78519 15.53322 15.28363 15.32852 15.36882 15.38975 15.41461 15.44422 15.47459 15.50467 15.52596 15.53697 15.54493 15.55367 15.55967 15.56595 15.5762 15.59073 15.6022 15.61317 15.61796 15.62108 15.6224 15.62227 15.6275 15.63453 15.63979 15.65523 15.66981 15.68606 15.70019 15.72366 15.74536 15.76343 15.77503 15.7876 15.80307 15.82053 15.83617 15.85024 15.86346 15.88004 15.89319 15.9085 15.92215 15.93949 15.95957 15.9732 15.97857 15.98633 15.99418 15.99847 16.01138 16.02933 16.0481 16.06208 16.07601 16.08929 16.10966 16.12009 16.13705 16.15118 16.16768 16.1827 16.19192 16.19965 16.20296 16.20221 16.19632 16.19215 16.18474 16.17739 16.16828 16.16108 16.15248 16.1446 16.13619 16.13435 16.13144 16.13103 16.13383 16.13835 16.14375 16.14581 16.14898 16.1457 16.14493 16.1404 16.13763 16.1325 16.12599 16.11348 16.09545 16.07326 16.04362 16.00701 15.96991 15.92886
0 0 0 0 0 19.46547 19.00293 17.65007 16.42179 16.07244 15.47236 15.22526 15.28852 15.34341 15.38866 15.42246 15.4463 15.47256 15.4991 15.52135 15.54113 15.55718 15.56639 15.57349 15.58115 15.5894 15.59268 15.60636 15.61451 15.62684 15.62979 15.63237 15.63214 15.62815 15.62642 15.63286 15.64011 15.64712 15.66181 15.67637 15.69116 15.70787 15.72545 15.74152 15.75907 15.77319 15.78315 15.79471 15.80711 15.81957 15.83449 15.85102 15.86562 15.88461 15.8999 15.91585 15.93155 15.94448 15.9612 15.9773 15.98519 15.99781 16.0123 16.03188 16.05339 16.0733 16.08626 16.09755 16.11463 16.13156 16.14505 16.15776 16.17256 16.18546 16.19973 16.20838 16.21375 16.21528 16.21259 16.20405 16.19603 16.18762 16.17765 16.1684 16.15781 16.14607 16.13616 16.13433 16.13209 16.13376 16.13194 16.13236 16.13826 16.14937 16.15543 16.16055 16.16165 16.16169 16.1595 16.15971 16.15386 16.14986 16.14155 16.12636 16.10852 16.08114 16.05011 16.01812 15.98435
0 0 0 0 18.48829 18.07966 16.43683 16.06217 15.74335 15.16398 15.22853 15.29029 15.34531 15.3897 15.4254 15.45666 15.48144 15.50397 15.52917 15.55036 15.56875 15.58537 15.59776 15.59959 15.60391 15.61467 15.62212 15.62431 15.63222 15.63556 15.63424 15.6323 15.62793 15.622 15.63149 15.63064 15.63815 15.64789 15.658 15.67408 15.69058 15.71029 15.7237 15.73288 15.74474 15.75544 15.76577 15.77822 15.794 15.80909 15.82408 15.83841 15.85028 15.86953 15.88838 15.906 15.92101 15.93093 15.94996 15.96634 15.98011 15.99988 16.01614 16.04237 16.06595 16.083 16.09707 16.11764 16.13601 16.15556 16.17018 16.18193 16.19294 16.20437 16.21349 16.22054 16.22569 16.2235 16.21661 16.20753 16.19866 16.18911 16.1782 16.17104 16.16009 16.1453 16.13739 16.13224 16.13049 16.13575 16.13739 16.14298 16.14899 16.1577 16.16686 16.17179 16.17665 16.17944 16.18141 16.18302 16.18498 16.18197 16.17706 16.16933 16.15308 16.13371 16.1084 16.07926 16.04992
0 0 0 0 19.57741 16.83062 15.13752 15.14418 15.17193 15.22612 15.29555 15.35345 15.4 15.4355 15.46492 15.49446 15.51882 15.53432 15.55228 15.57629 15.59633 15.61015 15.61408 15.61576 15.62159 15.63096 15.63558 15.63613 15.63944 15.63633 15.63215 15.62723 15.6248 15.61898 15.62338 15.63284 15.64482 15.65429 15.65779 15.67178 15.68695 15.69792 15.7047 15.71204 15.72509 15.73987 15.74631 15.75631 15.77218 15.78396 15.79755 15.81333 15.83252 15.85368 15.87172 15.89266 15.90969 15.9252 15.94249 15.95873 15.97593 15.99496 16.01874 16.04454 16.06894 16.091 16.11007 16.13186 16.15593 16.17761 16.19084 16.20263 16.2114 16.21792 16.22347 16.22696 16.23063 16.22759 16.21811 16.2068 16.20223 16.1944 16.18365 16.17403 16.16374 16.15296 16.14755 16.14639 16.14557 16.14915 16.15296 16.15859 16.16476 16.17134 16.18015 16.18578 16.18997 16.19268 16.19749 16.2028 16.21082 16.21307 16.20869 16.20945 16.19781 16.18315 16.16497 16.14363 16.11701
0 0 0 18.59724 18.13638 16.42847 15.12637 15.15807 15.2205 15.28902 15.35849 15.40808 15.44487 15.47697 15.50742 15.52791 15.54774 15.56776 15.58671 15.60196 15.62052 15.63378 15.63482 15.63611 15.63491 15.6376 15.64436 15.64405 15.64344 15.63466 15.63482 15.63158 15.62763 15.6232 15.62708 15.63794 15.64755 15.65875 15.66198 15.67246 15.67981 15.68404 15.69403 15.70463 15.71847 15.73196 15.7429 15.75164 15.76047 15.77349 15.78817 15.80238 15.81952 15.83751 15.85772 15.87786 15.89837 15.91462 15.93445 15.95414 15.97345 15.99593 16.02141 16.04223 16.06669 16.09204 16.11793 16.13915 16.16612 16.18653 16.20304 16.2135 16.22232 16.22837 16.23335 16.2339 16.22717 16.2204 16.21574 16.21323 16.19958 16.19445 16.18389 16.17649 16.16925 16.16872 16.16888 16.17069 16.16976 16.17362 16.18286 16.18949 16.19238 16.1939 16.19953 16.20564 16.20599 16.21234 16.2211 16.22695 16.23655 16.23687 16.23354 16.23392 16.23456 16.22355 16.20873 16.19306 16.16513
0 0 0 18.55788 18.11729 16.41924 15.723 15.18142 15.26829 15.35124 15.40841 15.45319 15.48116 15.5117 15.53329 15.55264 15.57278 15.58981 15.60855 15.62445 15.63251 15.64492 15.64366 15.64365 15.63562 15.6337 15.63385 15.63361 15.63363 15.62983 15.6298 15.62424 15.62352 15.62288 15.62742 15.63267 15.63859 15.6515 15.65998 15.66412 15.67251 15.67935 15.68705 15.69756 15.71139 15.72467 15.73531 15.75004 15.76222 15.77036 15.78251 15.7994 15.81914 15.83405 15.85208 15.86763 15.88972 15.9128 15.93025 15.9511 15.97157 15.99768 16.0226 16.05365 16.07802 16.09785 16.1168 16.14664 16.17436 16.19873 16.21907 16.23039 16.23474 16.23631 16.23783 16.23648 16.22432 16.21996 16.21805 16.20838 16.2035 16.19421 16.18922 16.18452 16.18316 16.18548 16.18472 16.1833 16.19295 16.20094 16.21185 16.21899 16.22297 16.22704 16.2304 16.23902 16.24093 16.24617 16.25353 16.25946 16.26802 16.27244 16.27524 16.27496 16.27205 16.26974 16.25911 16.24419 16.22341
0 0 0 19.47843 18.39451 16.40673 15.4208 15.2057 15.29709 15.3847 15.4541 15.48687 15.5086 15.53731 15.55621 15.57126 15.58833 15.6054 15.61812 15.63168 15.63769 15.64109 15.63535 15.63045 15.62546 15.62311 15.62146 15.6208 15.61981 15.62149 15.61008 15.60873 15.61647 15.61865 15.61983 15.62046 15.63016 15.64085 15.64989 15.66242 15.67079 15.67333 15.68084 15.6913 15.70318 15.71859 15.72891 15.73946 15.74947 15.75982 15.77668 15.7942 15.81355 15.83312 15.85028 15.86876 15.88785 15.90778 15.92356 15.94849 15.97353 16.00048 16.03138 16.06113 16.08062 16.10066 16.12491 16.15269 16.17371 16.20217 16.22207 16.2353 16.24079 16.2411 16.23556 16.23142 16.21806 16.21266 16.2113 16.20407 16.20312 16.20289 16.20038 16.19795 16.20194 16.20748 16.21244 16.21488 16.22311 16.23334 16.24404 16.25117 16.25518 16.26209 16.26436 16.27001 16.27586 16.28113 16.28948 16.29556 16.30004 16.30684 16.31139 16.31206 16.31073 16.30743 16.2999 16.28846 16.27427
0 0 0 19.48918 17.12543 15.68872 15.16004 15.24867 15.33933 15.41858 15.47529 15.50279 15.5274 15.55236 15.57336 15.594 15.6077 15.61452 15.6204 15.62432 15.62273 15.62139 15.61846 15.60936 15.60616 15.60402 15.60624 15.60806 15.60917 15.60581 15.60214 15.60366 15.6117 15.6198 15.62248 15.62264 15.62381 15.63123 15.64381 15.65683 15.66095 15.66181 15.67323 15.68229 15.68896 15.69742 15.7098 15.72438 15.73625 15.74633 15.76993 15.78824 15.80566 15.82338 15.83888 15.85763 15.87837 15.90209 15.92311 15.94336 15.96884 16.0004 16.03102 16.0572 16.0815 16.10082 16.12303 16.14863 16.17124 16.19357 16.21515 16.22845 16.23555 16.23634 16.22708 16.22279 16.21366 16.20734 16.20431 16.19931 16.20045 16.20861 16.20911 16.21391 16.22316 16.23111 16.24185 16.2546 16.26396 16.2756 16.28565 16.29835 16.30381 16.31005 16.31481 16.31881 16.32753 16.33217 16.33815 16.34706 16.35583 16.35857 16.36232 16.35901 16.3567 16.35486 16.34829 16.33857 16.31839
15.1364 15.13873 16.4118 17.12664 15.34866 15.11909 15.20816 15.29927 15.38048 15.45268 15.49478 15.52018 15.54323 15.56514 15.58327 15.59481 15.60317 15.60472 15.60647 15.60158 15.59907 15.59642 15.59118 15.58431 15.58178 15.58228 15.58718 15.58774 15.5988 15.60344 15.60678 15.60804 15.61007 15.61351 15.62192 15.62409 15.62625 15.63726 15.65005 15.65453 15.65793 15.66259 15.66761 15.67615 15.68481 15.69517 15.70493 15.71267 15.72484 15.74284 15.7658 15.78402 15.80187 15.82084 15.83765 15.85711 15.87543 15.90306 15.92771 15.95131 15.97091 15.99983 16.03567 16.06142 16.08561 16.10389 16.12301 16.14978 16.17396 16.19189 16.20791 16.21928 16.22671 16.23039 16.23176 16.22211 16.21661 16.20909 16.20168 16.19766 16.20061 16.20878 16.22332 16.23362 16.24546 16.25364 16.26869 16.28586 16.29665 16.31059 16.32779 16.3428 16.35154 16.35923 16.36531 16.37003 16.37935 16.38724 16.40044 16.40965 16.41806 16.42503 16.42973 16.42573 16.41827 16.41761 16.40447 16.39145 16.37688
15.13934 15.13346 15.14339 15.16635 15.1777 15.23461 15.30845 15.37989 15.44608 15.49737 15.5275 15.54425 15.56228 15.57788 15.58466 15.59026 15.59217 15.59074 15.58416 15.57845 15.5689 15.56585 15.56401 15.55612 15.55322 15.55934 15.56215 15.57206 15.58337 15.59163 15.59819 15.60612 15.61391 15.62042 15.62914 15.63465 15.63854 15.65043 15.65955 15.66528 15.66624 15.67147 15.67755 15.68105 15.68926 15.69567 15.70245 15.71133 15.72036 15.73987 15.76432 15.78273 15.80598 15.8295 15.85044 15.87113 15.8941 15.91973 15.94127 15.96161 15.97948 16.01307 16.04452 16.07088 16.09156 16.1098 16.13013 16.15223 16.17041 16.19098 16.20619 16.2159 16.22558 16.23136 16.23374 16.23171 16.22531 16.22427 16.21321 16.20959 16.21335 16.22367 16.24195 16.26041 16.27153 16.28579 16.30579 16.32726 16.34575 16.36107 16.37547 16.39132 16.39492 16.39986 16.40611 16.41865 16.42893 16.43777 16.45006 16.4618 16.47103 16.47856 16.48431 16.48394 16.47745 16.46963 16.46049 16.44941 16.44248
15.23765 15.25898 15.28077 15.30222 15.32702 15.36942 15.41974 15.46388 15.50364 15.53867 15.55596 15.56249 15.57096 15.58257 15.58565 15.58423 15.58321 15.57489 15.56345 15.54877 15.53284 15.52762 15.52899 15.52662 15.52677 15.53456 15.55062 15.5627 15.57243 15.58267 15.59688 15.60898 15.62006 15.63185 15.636 15.64389 15.65216 15.66086 15.67348 15.68341 15.68157 15.68763 15.69493 15.69977 15.70104 15.70323 15.70585 15.71263 15.72731 15.74325 15.76737 15.79622 15.82188 15.84822 15.86759 15.88966 15.91423 15.94358 15.96682 15.9866 16.00639 16.02894 16.05615 16.08089 16.09947 16.11873 16.13818 16.15761 16.17747 16.19312 16.20489 16.21548 16.226 16.23567 16.24326 16.2361 16.23567 16.23603 16.23176 16.23097 16.2354 16.24581 16.26345 16.28584 16.30891 16.32905 16.34876 16.3721 16.39769 16.41705 16.43664 16.45089 16.4553 16.46168 16.46811 16.4777 16.49013 16.50354 16.5098 16.52079 16.53248 16.53839 16.54078 16.54022 16.53433 16.5269 16.52193 16.51269 16.50454
15.32171 15.34877 15.37518 15.40134 15.4239 15.4522 15.48193 15.50652 15.53112 15.54949 15.55683 15.55966 15.56499 15.56946 15.56919 15.56988 15.56597 15.55609 15.54129 15.52513 15.50874 15.49784 15.50092 15.50301 15.50594 15.5238 15.53614 15.55474 15.56983 15.58681 15.60495 15.62404 15.63642 15.64892 15.65793 15.66892 15.67799 15.68694 15.69846 15.70036 15.69933 15.70903 15.71253 15.71259 15.71383 15.71634 15.71888 15.72844 15.74232 15.76421 15.79048 15.81528 15.8428 15.87563 15.89259 15.91603 15.94358 15.97138 15.99244 16.01879 16.03679 16.06117 16.08385 16.09951 16.11647 16.13478 16.15272 16.17231 16.18729 16.20517 16.21576 16.22745 16.23828 16.25188 16.25658 16.253 16.25055 16.24732 16.2462 16.2484 16.25403 16.26613 16.28849 16.30918 16.33242 16.35948 16.38603 16.41639 16.4471 16.47349 16.49321 16.50904 16.52157 16.52795 16.53261 16.54664 16.55971 16.57933 16.59446 16.61219 16.63094 16.63235 16.62507 16.61671 16.61164 16.60376 16.59856 16.59034 16.58209
15.40878 15.43202 15.44674 15.45864 15.47275 15.48486 15.50143 15.51847 15.5291 15.53452 15.54038 15.53956 15.5408 15.54549 15.54557 15.55051 15.54958 15.54678 15.53409 15.51297 15.49546 15.48924 15.49207 15.50184 15.50737 15.5308 15.5406 15.55061 15.56848 15.59055 15.61673 15.6385 15.6562 15.66984 15.68163 15.69663 15.7055 15.71611 15.726 15.73185 15.73185 15.73177 15.73302 15.74008 15.74568 15.75246 15.76224 15.77278 15.7844 15.80242 15.82715 15.85446 15.88645 15.91097 15.92927 15.95462 15.98689 16.00918 16.03413 16.0553 16.07815 16.1025 16.12037 16.1428 16.16103 16.17819 16.19256 16.20141 16.21914 16.23183 16.23836 16.25252 16.2649 16.27225 16.27499 16.27635 16.2721 16.2671 16.26982 16.27408 16.28305 16.29906 16.32323 16.35298 16.38114 16.40857 16.44084 16.47083 16.50984 16.54159 16.56051 16.57095 16.57378 16.57812 16.58881 16.60814 16.62125 16.63645 16.65786 16.68423 16.71429 16.72396 16.71592 16.70334 16.69481 16.68817 16.6815 16.67397 16.6665
15.45615 15.466 15.47253 15.47713 15.48331 15.48629 15.49584 15.50114 15.50724 15.51413 15.51775 15.52169 15.52458 15.52701 15.52889 15.53161 15.53449 15.532 15.52284 15.51044 15.50064 15.49508 15.4954 15.51319 15.52546 15.54527 15.55735 15.56657 15.59025 15.61658 15.64017 15.66532 15.68113 15.69822 15.71317 15.72783 15.73346 15.74048 15.75229 15.76041 15.76426 15.76739 15.76972 15.77673 15.79607 15.8083 15.82264 15.83926 15.8537 15.87569 15.89354 15.92068 15.94335 15.96808 15.99249 16.01435 16.04803 16.07487 16.09334 16.11316 16.1385 16.15723 16.17945 16.19217 16.2089 16.22143 16.23085 16.24375 16.25414 16.26049 16.27301 16.28049 16.28963 16.29576 16.29304 16.29555 16.29467 16.29555 16.30385 16.3168 16.33873 16.35783 16.37616 16.40308 16.43585 16.46682 16.49937 16.53674 16.57662 16.60498 16.62893 16.6471 16.65408 16.66024 16.67082 16.67728 16.68749 16.69842 16.71874 16.74504 16.76882 16.78134 16.78152 16.77753 16.77247 16.76553 16.76032 16.7503 16.74132
15.46917 15.47292 15.47071 15.46831 15.46762 15.46535 15.47077 15.47617 15.48118 15.49174 15.49928 15.50022 15.5057 15.5092 15.51208 15.51767 15.52162 15.52491 15.51915 15.5136 15.50807 15.50701 15.51828 15.53406 15.55513 15.5715 15.58507 15.60245 15.63029 15.6587 15.67834 15.70042 15.72061 15.73811 15.75075 15.76457 15.77388 15.78174 15.79272 15.80166 15.81251 15.816 15.82508 15.84198 15.85874 15.87509 15.89566 15.91328 15.93259 15.94456 15.9655 15.98623 16.01359 16.04459 16.06865 16.08706 16.11415 16.13874 16.16387 16.18014 16.20182 16.22051 16.24234 16.25921 16.27641 16.28209 16.28935 16.2975 16.30798 16.31395 16.32205 16.3326 16.33864 16.34029 16.33849 16.33561 16.33767 16.34107 16.35683 16.37823 16.39848 16.41201 16.43352 16.4569 16.48829 16.51912 16.55214 16.58171 0 0 16.65899 16.69729 16.70678 16.71717 16.72807 16.73109 16.73901 16.75104 16.75717 0 0 16.79144 16.83406 16.83538 16.83537 16.83516 16.83761 16.83308 16.8205
