ncols        109
nrows        82
xllcorner    -1.041666666667
yllcorner    37.041665395101
cellsize     0.083333333333
NODATA_value -9999
0.0 0 0 0 0 0 0 0 0 0 0 0 0 0 0 0 0 0 0 0 0 0 0 0 0 0 0 0 0 0 0 0 0 0 0 0 0 0 0 0 0 0 0 0 0 0 0 0 0 0 0 0 0 0 0 0 0 0 0 0 0 0 0 0 0 0 0 0 0 0 0 0 0 0 0 0 0 0 0 0 0 0 0 0 0 0 0 0 0 0 0 0 0 0 0 0 0 0 0 0 0 0 0 0 0 17.38773 16.10751 14.9128 14.91625
0 0 0 0 0 0 0 0 0 0 0 0 0 0 0 0 0 0 0 0 0 0 0 0 0 0 0 0 0 0 0 0 0 0 0 0 0 0 0 0 0 0 0 0 0 0 0 0 0 0 0 0 0 0 0 0 0 0 0 0 0 0 0 0 0 0 0 0 0 0 0 0 0 0 0 0 0 0 0 0 0 0 0 0 0 0 0 0 0 0 0 0 0 0 0 0 0 0 0 0 0 15.03632 15.05398 14.86322 14.87837 14.88794 14.89009 14.89493 14.88666
0 0 0 0 0 0 0 0 0 0 0 0 0 0 0 0 0 0 0 0 0 0 0 0 0 0 0 0 0 0 0 0 0 0 0 0 0 0 0 0 0 0 0 0 0 0 0 0 0 0 0 0 0 0 0 0 0 0 0 0 0 0 0 0 0 0 0 0 0 0 0 0 0 0 0 0 0 0 0 0 0 0 0 0 0 0 0 0 0 0 0 0 0 0 0 0 0 0 14.86536 14.86836 14.86039 14.85107 14.83629 14.83449 14.82761 14.80956 14.79347 14.77424 14.75667
0 0 0 0 0 0 0 0 0 0 0 0 0 0 0 0 0 0 0 0 0 0 0 0 0 0 0 0 0 0 0 0 0 0 0 0 0 0 0 0 0 0 0 0 0 0 0 0 0 0 0 0 0 0 0 0 0 0 0 0 0 0 0 0 0 0 0 0 0 0 0 0 0 0 0 0 0 0 0 0 0 0 0 0 0 0 0 0 0 0 0 0 0 0 0 0 0 16.32928 14.86315 14.85294 14.82291 14.78541 14.75466 14.73731 14.71275 14.69022 14.66356 14.65085 14.6254
0 0 0 0 0 0 0 0 0 0 0 0 0 0 0 0 0 0 0 0 0 0 0 0 0 0 0 0 0 0 0 0 0 0 0 0 0 0 0 0 0 0 0 0 0 0 0 0 0 0 0 0 0 0 0 0 0 0 16.12358 15.74568 15.42228 15.55425 0 0 0 0 0 0 0 0 0 0 0 0 0 0 0 0 0 0 0 0 0 0 0 0 0 0 0 0 0 0 0 0 0 15.25277 14.86826 14.87277 14.8342 14.80237 14.7521 14.69504 14.64141 14.59965 14.56633 14.53918 14.51872 14.50083 14.48078
0 0 0 0 0 0 0 0 0 0 0 0 0 0 0 0 0 0 0 0 0 0 0 0 0 0 0 0 0 0 0 0 0 0 0 0 0 0 0 0 0 0 0 0 0 0 0 0 0 0 0 0 0 0 0 0 15.58747 15.6257 15.37108 15.16588 15.09511 15.07206 15.15138 15.35346 15.56446 15.68971 15.68862 0 0 0 0 15.95311 0 0 0 0 0 0 0 0 0 0 0 0 0 0 0 0 0 0 0 0 0 15.73336 14.81471 14.85069 14.83934 14.80127 14.75104 14.69148 14.63204 14.57484 14.52768 14.47993 14.46275 14.44947 14.44121 14.42265 14.41236
0 0 0 0 0 0 0 0 0 0 0 0 0 0 0 0 0 0 0 0 0 0 0 0 0 0 0 0 0 0 0 0 0 0 0 0 0 0 0 0 0 0 0 0 0 0 0 0 0 0 0 0 0 0 0 15.76947 15.38467 15.08819 14.90604 14.66792 14.73102 14.76098 14.92655 15.04921 15.18566 15.28208 15.36083 15.54287 15.7428 15.70152 15.63666 15.38939 15.20367 15.25429 15.39675 15.15704 15.15937 0 0 0 0 0 0 0 0 0 0 0 0 0 0 0 15.12936 14.82451 14.82937 14.81398 14.78101 14.7216 14.66129 14.59457 14.53589 14.4775 14.43252 14.39797 14.3967 14.3937 14.38995 14.39421 14.39546
0 0 0 0 0 0 0 0 0 0 0 0 0 0 0 0 0 0 0 0 0 0 0 0 0 0 0 0 0 0 0 0 0 0 0 0 0 0 0 0 0 0 0 0 0 0 0 0 0 0 0 15.39876 15.53397 15.74861 15.52896 15.12392 14.91038 14.67006 14.57094 14.63927 14.70365 14.72935 14.71566 14.88391 14.86112 15.05496 15.04807 15.04178 15.06218 14.96838 14.8725 14.90756 14.78652 14.97168 14.99441 15.15543 0 0 0 0 0 0 0 0 0 0 0 0 0 0 0 0 14.82608 14.83022 14.79367 14.74539 14.68179 14.60644 14.5397 14.48563 14.44367 14.40551 14.38125 14.36608 14.37117 14.37331 14.3777 14.38037 14.3809
0 0 0 0 0 0 0 0 0 0 0 0 0 0 0 0 0 0 0 0 0 0 0 0 0 0 0 0 0 0 0 0 0 0 0 0 0 0 0 0 0 0 0 0 0 0 0 0 0 0 15.60164 15.42983 15.2325 15.2093 15.1188 14.85228 14.54143 14.62841 14.50532 14.56833 14.61014 14.63169 14.63499 14.80957 14.80431 15.00081 15.00693 15.01994 14.87388 14.75273 14.78987 14.82878 14.70483 14.8911 14.9134 15.10186 15.10093 14.92949 14.94069 15.26924 15.69341 16.38556 0 0 0 0 0 0 0 15.65202 15.1629 14.82719 14.83945 14.80903 14.74211 14.66454 14.58975 14.52121 14.4655 14.4232 14.38852 14.36897 14.36202 14.36131 14.36695 14.37444 14.38202 14.39033 14.39982
0 0 0 0 0 0 0 0 0 0 0 0 0 0 0 0 0 0 0 0 0 0 0 0 0 0 0 0 0 0 0 0 0 0 0 0 0 0 0 0 0 0 0 0 0 0 0 0 0 16.44428 15.30151 15.23093 15.19402 14.91014 14.7575 14.60379 14.66275 14.53452 14.58092 14.62114 14.65617 14.6756 14.68495 14.8867 14.90356 14.92151 14.94763 14.95526 14.94971 14.7924 14.82469 14.69751 14.57402 14.58322 14.60464 14.61493 14.61907 14.63953 14.66339 14.67466 15.01391 15.50391 0 15.35719 15.88559 16.36342 16.66375 16.42712 15.98051 14.80908 14.83431 14.8424 14.81438 14.74224 14.65313 14.57242 14.49844 14.45076 14.40867 14.3839 14.36848 14.3747 14.37782 14.38369 14.38183 14.39657 14.40831 14.41508 14.42177
0 0 0 0 0 0 0 0 0 0 0 0 0 0 0 0 0 0 0 0 0 0 0 0 0 0 0 0 0 0 0 0 0 0 0 0 0 0 0 0 0 0 0 0 0 0 0 0 0 16.10974 15.27054 15.00537 14.72862 14.6106 14.66511 14.52625 14.5819 14.63113 14.67158 14.70577 14.73802 14.75554 14.76448 14.77744 14.78822 14.65155 14.52741 14.67144 14.66816 14.66718 14.67611 14.53908 14.54053 14.54219 14.55773 14.56869 14.58726 14.61066 14.63955 14.65654 14.674 14.69975 14.72289 14.75315 14.78543 14.80133 15.71973 15.90495 15.56423 14.80393 14.78983 14.75214 14.71016 14.64315 14.57696 14.51324 14.45505 14.40815 14.38108 14.37531 14.38502 14.39874 14.4157 14.42394 14.434 14.44191 14.44885 14.45645 14.46489
0 0 0 0 0 0 0 0 0 0 0 0 0 0 0 0 0 0 0 0 0 0 0 0 0 0 0 0 0 0 0 0 0 0 0 0 0 0 0 0 0 0 0 0 0 0 0 0 0 15.84906 15.21052 14.92649 14.61811 14.70127 14.56215 14.61113 14.67946 14.73017 14.76608 14.78979 14.63506 14.65391 14.66988 14.67878 14.68331 14.5342 14.5391 14.5361 14.51385 14.50697 14.51086 14.50524 14.49581 14.49827 14.51222 14.51695 14.52642 14.54285 14.56445 14.58724 14.60944 14.6408 14.66878 14.69511 14.72518 14.74884 14.76616 14.77321 14.75849 14.72941 14.69558 14.65153 14.60227 14.54282 14.49635 14.46288 14.43524 14.37997 14.38575 14.40716 14.42557 14.44315 14.46142 14.46681 14.47984 14.48261 14.48515 14.49548 14.50672
0 0 0 0 0 0 0 0 0 0 0 0 0 0 0 0 0 0 0 0 0 0 0 0 0 0 0 0 0 0 0 0 0 0 0 0 0 0 0 0 0 0 0 0 0 0 0 0 0 15.7771 15.10079 14.80273 14.69613 14.56968 14.63716 14.72436 14.61627 14.64805 14.50174 14.51071 14.52052 14.52784 14.53438 14.53295 14.53166 14.52594 14.52699 14.5176 14.49577 14.46626 14.45454 14.44319 14.4189 14.41143 14.41596 14.41857 14.43362 14.44961 14.46395 14.48605 14.50761 14.53192 14.55333 14.582 14.60169 14.61886 14.63057 14.63152 14.61975 14.60294 14.5739 14.54364 14.50532 14.47915 14.45544 14.42996 14.41069 14.40004 14.41266 14.43499 14.467 14.49154 14.51159 14.51938 14.52731 14.5324 14.53714 14.53734 14.5459
0 0 0 0 0 0 0 0 0 0 0 0 0 0 0 0 0 0 0 0 0 0 0 0 0 0 0 0 0 0 0 0 0 0 0 0 0 0 0 0 0 0 0 0 0 0 0 0 0 15.65708 15.15597 14.85419 14.74585 14.62257 14.70152 14.60216 14.48234 14.51109 14.52894 14.53541 14.53901 14.53209 14.52606 14.52122 14.50921 14.50014 14.49135 14.47958 14.45936 14.43121 14.40926 14.38441 14.35998 14.34695 14.33015 14.31916 14.32171 14.33629 14.35929 14.37556 14.3893 14.4083 14.42312 14.44809 14.46832 14.49233 14.50517 14.51891 14.5119 14.49238 14.46807 14.44447 14.42666 14.42808 14.41799 14.41579 14.42325 14.43175 14.44801 14.47149 14.49925 14.53058 14.54936 14.56349 14.56998 14.57885 14.58607 14.59224 14.59088
0 0 0 0 0 0 0 0 0 0 0 0 0 0 0 0 0 0 0 0 0 0 0 0 0 0 0 0 0 0 0 0 0 0 0 0 0 0 0 0 0 0 0 0 0 0 0 0 0 15.69481 14.96056 14.67026 14.79905 14.68418 14.77431 14.6313 14.50406 14.51965 14.52558 14.51905 14.50733 14.50313 14.4957 14.48354 14.47538 14.46055 14.43792 14.42313 14.3953 14.37116 14.3455 14.31549 14.29398 14.28464 14.27074 14.26676 14.26661 14.27462 14.29032 14.30013 14.31128 14.32584 14.33576 14.34681 14.36355 14.39415 14.40098 14.40346 14.40657 14.40382 14.40598 14.40675 14.40451 14.41221 14.42313 14.43506 14.4546 14.47321 14.49415 14.51406 14.53767 14.56895 14.59146 14.60687 14.61208 14.61664 14.61882 14.62836 14.63246
0 0 0 0 0 0 0 0 0 0 0 0 0 0 0 0 0 0 0 0 0 0 0 0 0 0 0 0 0 0 0 0 0 0 0 0 0 0 0 0 0 0 0 0 0 0 0 0 0 15.22291 15.01337 14.70615 14.64498 14.57266 14.64678 14.50577 14.51444 14.51524 14.5149 14.50215 14.48456 14.47099 14.45903 14.44563 14.42908 14.41229 14.39624 14.37971 14.36045 14.32899 14.29592 14.26424 14.24518 14.22411 14.21653 14.20898 14.20168 14.20252 14.21756 14.23228 14.24561 14.26843 14.2896 14.30534 14.3235 14.33706 14.35003 14.3541 14.35306 14.35247 14.36234 14.38759 14.40381 14.42538 14.44564 14.46698 14.49571 14.51985 14.53933 14.55688 14.5758 14.60011 14.62349 14.64658 14.65207 14.65673 14.65807 14.66369 14.67965
0 0 0 0 0 0 0 0 0 0 0 0 0 0 0 0 0 0 0 0 0 0 0 0 0 0 0 0 0 0 0 0 0 0 0 0 0 0 0 0 0 0 0 0 0 0 0 0 0 0 14.80866 14.78059 14.7214 14.46983 14.51714 14.51508 14.51445 14.51327 14.50019 14.48565 14.46066 14.44386 14.43232 14.41751 14.39995 14.38577 14.37504 14.35636 14.33383 14.3094 14.27249 14.25072 14.23479 14.22092 14.19983 14.18732 14.18156 14.17879 14.18731 14.20359 14.21867 14.23228 14.24389 14.26522 14.28169 14.29677 14.30916 14.32503 14.33502 14.34937 14.36541 14.39133 14.41511 14.44395 14.47566 14.50694 14.53162 14.55323 14.57731 14.59698 14.62148 14.64253 14.66176 14.67968 14.68431 14.68321 14.69006 14.70047 14.71139
0 0 0 0 0 0 0 0 0 0 0 0 0 0 0 0 0 0 0 0 0 0 0 0 0 0 0 0 0 0 0 0 0 0 0 0 0 0 0 0 0 0 0 0 0 0 0 0 0 0 14.93381 14.60935 14.3984 14.47975 14.51013 14.52459 14.51997 14.50574 14.4852 14.4586 14.43718 14.42513 14.40904 14.40327 14.39035 14.37814 14.36487 14.3511 14.33284 14.30866 14.28098 14.25793 14.24564 14.22615 14.20777 14.19287 14.18021 14.17556 14.18275 14.19216 14.20224 14.22174 14.2445 14.26094 14.27071 14.28826 14.30777 14.32788 14.3455 14.35361 14.37658 14.41173 14.43879 14.46869 14.5108 14.53831 14.56691 14.59092 14.61435 14.63868 14.66187 14.67937 14.69763 14.71472 14.72204 14.71997 14.72349 14.73641 14.75433
0 0 0 0 0 0 0 0 0 0 0 0 0 0 0 0 0 0 0 0 0 0 0 0 0 0 0 0 0 0 0 0 0 0 0 0 0 0 0 0 0 0 0 0 0 0 0 0 0 0 0 0 14.41198 14.46441 14.49645 14.51502 14.52118 14.49306 14.47053 14.44629 14.4247 14.40539 14.39449 14.38604 14.37666 14.36975 14.362 14.34988 14.33694 14.3167 14.29941 14.27357 14.25097 14.23926 14.21678 14.20203 14.1863 14.18726 14.19011 14.19659 14.21496 14.23487 14.25155 14.26656 14.28696 14.30272 14.32506 14.33982 14.35829 14.381 14.41053 14.43885 14.46579 14.50876 14.54272 14.57877 14.61344 14.63538 14.65632 14.67658 14.69265 14.71273 14.73422 14.74241 14.7538 14.75897 14.76218 14.7722 14.79011
0 0 0 0 0 0 0 0 0 0 0 0 0 0 0 0 0 0 0 0 0 0 0 0 0 0 0 0 0 0 0 0 0 0 0 0 0 0 0 0 0 0 0 0 0 0 0 0 0 0 16.42437 14.98485 14.62161 14.48234 14.50993 14.5166 14.509 14.47996 14.45824 14.43597 14.41869 14.40068 14.39173 14.38263 14.38047 14.37462 14.36988 14.35572 14.35014 14.33676 14.31356 14.28979 14.26747 14.2508 14.2395 14.21808 14.20563 14.20157 14.20311 14.21405 14.23146 14.24466 14.27099 14.28409 14.3017 14.31937 14.34387 14.36198 14.38031 14.40228 14.43193 14.46498 14.50165 14.54418 14.57867 14.61771 14.64823 14.67005 14.6913 14.70672 14.71999 14.73611 14.75727 14.77398 14.7891 14.79406 14.80505 14.81776 14.83112
0 0 0 0 0 0 0 0 0 0 0 0 0 0 0 0 0 0 0 0 0 0 0 0 0 0 0 0 0 0 0 0 0 0 0 0 0 0 0 0 0 0 0 0 0 0 0 0 0 0 15.82995 15.00749 14.83929 14.50128 14.51683 14.51232 14.49903 14.47234 14.45314 14.4372 14.42562 14.41271 14.40486 14.39819 14.39453 14.40159 14.39294 14.37405 14.37022 14.35337 14.32444 14.30448 14.28571 14.26627 14.24986 14.23115 14.23266 14.22539 14.22401 14.23213 14.24635 14.27029 14.28627 14.30608 14.32667 14.34917 14.3708 14.38833 14.40549 14.42803 14.4616 14.50578 14.54177 14.58093 14.61855 14.65199 14.68347 14.70992 14.72704 14.73981 14.75414 14.76692 14.78152 14.80246 14.81439 14.822 14.83044 14.84599 14.869
0 0 0 0 0 0 0 0 0 0 0 0 0 0 0 0 0 0 0 0 0 0 0 0 0 0 0 0 0 0 0 0 0 0 0 0 0 0 0 0 0 0 0 0 0 0 0 0 0 0 0 15.04875 14.6757 14.5228 14.52514 14.51471 14.49965 14.48072 14.46097 14.44738 14.43449 14.42404 14.42037 14.42103 14.42178 14.42656 14.41989 14.41056 14.39503 14.37952 14.3567 14.33222 14.31283 14.29146 14.26867 14.25598 14.24629 14.2447 14.25216 14.26021 14.27401 14.29492 14.3204 14.335 14.35909 14.38227 14.40294 14.42297 14.45423 14.48895 14.52485 14.5602 14.5976 14.63276 14.66545 14.69761 14.72153 14.74421 14.7651 14.77691 14.79257 14.80552 14.82327 14.84214 14.84645 14.8555 14.86579 14.88516 14.91724
0 0 0 0 0 0 0 0 0 0 0 0 0 0 0 0 0 0 0 0 0 0 0 0 0 0 0 0 0 0 0 0 0 0 0 0 0 0 0 0 0 0 0 0 0 0 0 0 0 0 0 14.86627 14.52636 14.55509 14.54498 14.52126 14.50409 14.48673 14.47364 14.46469 14.45648 14.45319 14.45486 14.46105 14.46 14.45427 14.4583 14.44908 14.43198 14.40397 14.38302 14.36266 14.34157 14.32054 14.30936 14.28898 14.27893 14.27326 14.28147 14.29078 14.31239 14.3381 14.35699 14.38169 14.39926 14.41932 14.44159 14.47349 14.50637 14.5458 14.58766 14.62227 14.65907 14.69312 14.72425 14.74851 14.77144 14.79247 14.80745 14.8162 14.82603 14.84323 14.85812 14.87208 14.87696 14.88616 14.90152 14.92834 14.9498
0 0 0 0 0 0 0 0 0 0 0 0 0 0 0 0 0 0 0 0 0 0 0 0 0 0 0 0 0 0 0 0 0 0 0 0 0 0 0 0 0 0 0 0 0 0 0 0 0 0 0 14.55711 14.57221 14.58252 14.55913 14.52617 14.5102 14.49027 14.48097 14.47381 14.47393 14.48394 14.49095 14.49879 14.50012 14.50937 14.50336 14.49091 14.47565 14.45602 14.43236 14.4071 14.38588 14.36398 14.34797 14.32732 14.31185 14.3069 14.31486 14.33314 14.36132 14.3907 14.41645 14.43709 14.45604 14.47833 14.50303 14.53731 14.57601 14.61481 14.64996 14.69293 14.72141 14.74873 14.77147 14.80354 14.82642 14.83987 14.85629 14.86682 14.87944 14.88928 14.8998 14.90638 14.90813 14.92137 14.93675 14.96623 14.99009
0 0 0 0 0 0 0 0 0 0 0 0 0 0 0 0 0 0 0 0 0 0 0 0 0 0 0 0 0 0 0 0 0 0 0 0 0 0 0 0 0 0 0 0 0 0 0 0 0 16.38568 15.47992 14.60587 14.60833 14.59061 14.56617 14.54195 14.52457 14.49708 14.49603 14.49752 14.51008 14.52557 14.53532 14.54252 14.54029 14.54166 14.53655 14.53129 14.51652 14.5 14.48277 14.46496 14.45036 14.42114 14.38538 14.38525 14.37447 14.37015 14.38085 14.39853 14.42336 14.44978 14.47292 14.48957 14.50947 14.53398 14.56494 14.60263 14.64408 14.68278 14.72189 14.75956 14.78392 14.80887 14.83328 14.86431 14.88514 14.90183 14.90446 14.91562 14.92947 14.93279 14.93621 14.93923 14.94358 14.95457 14.96965 15.00279 15.02638
0 0 0 0 0 0 0 0 0 0 0 0 0 0 0 0 0 0 0 0 0 0 0 0 0 0 0 0 0 0 0 0 0 0 0 0 0 0 0 0 0 0 0 0 0 0 0 0 15.55525 15.07671 14.84943 14.65271 14.63721 14.60599 14.57533 14.55625 14.53914 14.51657 14.51627 14.53185 14.55442 14.57584 14.5929 14.59311 14.5936 14.59426 14.59075 14.59091 14.57971 14.56014 14.53614 14.51296 14.4921 14.47103 14.44865 14.44221 14.4389 14.43598 14.44601 14.46291 14.48268 14.51531 14.52991 14.54863 14.57252 14.59695 14.62537 14.65788 14.69093 14.72743 14.75797 14.79114 14.81902 14.85009 14.879 14.9078 14.93412 14.9497 14.96309 14.97064 14.9819 14.98697 14.97648 14.96797 14.96469 14.97264 14.9926 15.01601 15.04016
0 0 0 0 0 0 0 0 0 0 0 0 0 0 0 0 0 0 0 0 0 0 0 0 0 0 0 0 0 0 0 0 0 0 0 0 0 0 0 0 0 0 0 0 0 15.27777 15.1258 15.63957 15.16455 15.18597 14.94234 14.70289 14.66671 14.62603 14.59617 14.57666 14.56505 14.55112 14.54937 14.57112 14.59926 14.61501 14.63317 14.63752 14.64359 14.64709 14.64879 14.64414 14.63038 14.61594 14.59053 14.56865 14.54603 14.53325 14.51984 14.5071 14.49531 14.49627 14.50778 14.5177 14.53215 14.55548 14.5752 14.59853 14.62298 14.6523 14.68112 14.7105 14.74584 14.78537 14.81344 14.84282 14.87419 14.90225 14.93173 14.95395 14.98018 14.9956 15.0088 15.01992 15.02626 15.02367 15.01304 15.00463 14.99731 15.00152 15.0198 15.03569 15.05971
0 0 0 0 0 0 0 0 0 0 0 0 0 0 0 0 0 0 0 0 0 0 0 0 0 0 0 0 0 0 0 0 0 0 0 0 0 0 0 0 0 0 17.24392 16.95544 15.99045 15.22488 14.76995 14.79012 15.25867 15.00931 14.77869 14.73057 14.68856 14.64482 14.62419 14.61062 14.60079 14.59408 14.60309 14.62507 14.65242 14.67302 14.68692 14.70291 14.71012 14.7096 14.7033 14.69375 14.68096 14.66327 14.63614 14.61747 14.6015 14.58596 14.57492 14.5629 14.55598 14.56095 14.56974 14.58736 14.60085 14.61707 14.63655 14.65409 14.67497 14.70092 14.72451 14.75509 14.78812 14.82483 14.8537 14.88895 14.92419 14.95392 14.9785 15.00612 15.02834 15.04678 15.06346 15.07172 15.07158 15.06613 15.05532 15.04161 15.03411 15.03123 15.04003 15.05642 15.07873
0 0 0 0 0 0 0 0 0 0 0 0 0 0 0 0 0 0 0 0 0 0 0 0 0 0 0 0 0 0 0 0 0 0 0 0 0 0 0 0 16.36976 16.74193 17.0221 16.08155 15.3007 14.83109 14.85856 14.87595 14.8676 14.83687 14.80897 14.75963 14.71379 14.67814 14.65903 14.65053 14.64576 14.64425 14.65606 14.68149 14.70904 14.73555 14.75697 14.7685 14.77374 14.77362 14.76782 14.75908 14.74829 14.735 14.71054 14.68807 14.6695 14.65487 14.63301 14.6228 14.61419 14.6093 14.62567 14.63847 14.65702 14.67052 14.69483 14.71416 14.73324 14.75503 14.77585 14.80549 14.84008 14.87317 14.90694 14.93392 14.96298 14.98876 15.01452 15.04319 15.06947 15.0823 15.09711 15.10567 15.10804 15.10938 15.09472 15.07845 15.07062 15.06556 15.07668 15.09457 15.10604
0 0 0 0 0 0 0 0 0 0 0 0 0 0 0 0 0 0 0 0 0 0 0 0 0 0 0 0 0 0 0 0 0 0 0 0 0 0 0 16.57973 16.34169 15.81568 15.59032 14.84268 14.86212 14.88413 14.89828 14.91053 14.90065 14.87049 14.83281 14.79079 14.75611 14.72645 14.71656 14.71415 14.71668 14.72568 14.73935 14.76538 14.7859 14.80961 14.82507 14.82959 14.83251 14.83343 14.82406 14.81912 14.8063 14.79739 14.78132 14.75844 14.74435 14.72989 14.7108 14.70074 14.69261 14.68625 14.68868 14.70175 14.71429 14.72985 14.74277 14.76045 14.77434 14.79577 14.82183 14.85695 14.88114 14.91513 14.95047 14.97526 15.00195 15.03121 15.05968 15.08467 15.10771 15.12268 15.13855 15.14408 15.14666 15.13768 15.12307 15.10693 15.102 15.09895 15.10422 15.12077 15.12881
0 0 0 0 0 0 0 0 0 0 0 0 0 0 0 0 0 0 0 0 0 0 0 0 0 0 0 0 0 0 0 0 0 0 0 0 0 0 15.82623 15.56519 15.34421 14.88168 14.90467 14.91613 14.91913 14.92942 14.93257 14.93604 14.92186 14.90227 14.87608 14.84517 14.81595 14.79262 14.77989 14.77672 14.78378 14.79427 14.81343 14.83668 14.8601 14.87288 14.88502 14.89457 14.89518 14.90144 14.90106 14.89536 14.88453 14.87292 14.85681 14.83476 14.81053 14.79076 14.77105 14.75997 14.75266 14.7481 14.75353 14.76273 14.77966 14.7965 14.80714 14.82536 14.83891 14.85451 14.88249 14.90545 14.93069 14.96133 14.99283 15.0146 15.04079 15.06551 15.08916 15.11678 15.13596 15.15642 15.1644 15.17836 15.18282 15.17009 15.15851 15.15225 15.14757 15.14762 15.15283 15.16265 15.17553
0 0 0 0 0 0 0 0 0 0 0 0 0 0 0 0 0 0 0 0 0 0 0 0 0 0 0 0 0 0 0 0 0 0 17.44106 18.03879 17.21504 15.60399 14.84944 14.88354 14.91426 14.93117 14.94729 14.95034 14.95542 14.95628 14.95994 14.96076 14.95964 14.95132 14.93435 14.92246 14.90416 14.88512 14.87665 14.86791 14.87101 14.8723 14.88402 14.90425 14.9198 14.92695 14.93851 14.94669 14.95283 14.96341 14.97284 14.97309 14.96256 14.9543 14.94229 14.91683 14.89377 14.87121 14.85077 14.83838 14.82913 14.82494 14.82319 14.83351 14.84088 14.85602 14.86611 14.87822 14.89331 14.91179 14.93809 14.95919 14.982 15.01203 15.0467 15.07283 15.09268 15.11352 15.13205 15.15297 15.17055 15.18573 15.19376 15.20196 15.20412 15.19623 15.19103 15.18917 15.19363 15.19324 15.20457 15.2185 15.22212
0 0 0 0 0 0 0 0 0 0 0 0 0 0 0 0 0 0 0 0 0 0 0 0 0 0 0 0 0 17.83293 17.46274 17.27075 17.28165 17.07254 16.80276 16.23633 14.87424 14.90186 14.92461 14.94872 14.96137 14.96584 14.97874 14.98362 14.99318 14.99187 14.99184 14.98812 14.99131 14.9871 14.98792 14.98392 14.97512 14.96264 14.94901 14.94501 14.94574 14.9516 14.96239 14.97796 14.99036 14.99522 14.99974 15.00654 15.01459 15.0293 15.03873 15.04038 15.03395 15.02563 15.00993 14.98618 14.96141 14.94887 14.92574 14.91524 14.91227 14.90775 14.9103 14.92039 14.92385 14.93426 14.94597 14.95269 14.96398 14.97902 14.9883 15.00709 15.02983 15.061 15.08813 15.10891 15.12937 15.14607 15.16527 15.1857 15.20089 15.21784 15.22666 15.23579 15.24186 15.2333 15.23215 15.24015 15.23946 15.24095 15.25103 15.25798 15.24228
0 0 0 0 0 0 0 0 0 0 0 0 0 0 0 0 0 0 0 0 0 0 0 0 0 17.60818 16.91425 16.93991 16.04367 15.45601 15.17995 14.9229 14.92601 14.93043 14.92168 14.91606 14.92333 14.9385 14.95741 14.97371 14.9838 14.99573 15.00493 15.01678 15.02064 15.00787 15.01653 15.02479 15.03262 15.04296 15.05396 15.05288 15.04674 15.03577 15.02249 15.01248 15.0134 15.01402 15.02238 15.03592 15.04765 15.05301 15.0545 15.06796 15.07728 15.08937 15.10079 15.10967 15.10635 15.10326 15.09607 15.07624 15.05132 15.03572 15.01544 15.00354 14.98995 14.98808 14.99178 14.99594 15.00183 15.00895 15.02187 15.02774 15.03309 15.04626 15.06037 15.0745 15.09252 15.11299 15.13331 15.15182 15.16904 15.18847 15.1996 15.21079 15.22437 15.23546 15.25179 15.25819 15.26969 15.27473 15.27951 15.29364 15.30142 15.30637 15.3023 15.28585 15.24107
0 0 0 0 0 0 0 0 0 0 0 0 0 0 0 0 0 0 0 0 0 0 0 17.74876 16.93091 16.39528 16.11746 15.82623 14.96973 14.96956 14.96887 14.96893 14.96457 14.95533 14.94608 14.94226 14.95567 14.97169 14.99003 15.00112 15.00527 15.01295 15.01417 15.02377 15.03029 15.03193 15.04438 15.0612 15.07646 15.09856 15.1156 15.11677 15.11041 15.10143 15.08975 15.08328 15.08053 15.08875 15.09326 15.09944 15.10115 15.10151 15.11142 15.119 15.12818 15.14275 15.15353 15.16654 15.16389 15.16165 15.15844 15.14934 15.13746 15.11963 15.10871 15.10174 15.0935 15.09397 15.09323 15.09312 15.09481 15.09356 15.09443 15.09684 15.09881 15.10771 15.11379 15.12178 15.13678 15.15325 15.17011 15.19064 15.20917 15.2285 15.24163 15.25093 15.25829 15.26458 15.27132 15.29492 15.30656 15.31866 15.32722 15.33876 15.34132 15.34049 15.32437 15.29194 15.23067
0 0 0 0 0 0 0 0 0 0 0 0 0 0 0 0 0 0 0 0 0 0 17.16769 16.35304 16.09184 16.12909 15.84118 15.53988 14.97965 14.97897 14.97821 14.97167 14.96999 14.9669 14.9746 14.97622 14.97572 14.97442 14.98518 15.0026 15.01046 15.02059 15.02795 15.03649 15.04737 15.06604 15.08382 15.10248 15.12299 15.14366 15.15722 15.1586 15.15447 15.14443 15.13821 15.13349 15.13246 15.13829 15.14543 15.14924 15.15227 15.15726 15.16008 15.1709 15.18218 15.19779 15.20888 15.21588 15.2183 15.21924 15.21713 15.20939 15.19651 15.1875 15.18125 15.17489 15.17109 15.17252 15.17673 15.17981 15.18082 15.18021 15.17811 15.1782 15.17868 15.18366 15.1878 15.1983 15.2035 15.21218 15.21991 15.23332 15.25215 15.2651 15.27858 15.27964 15.28485 15.29348 15.30174 15.31575 15.33938 15.35722 15.37081 15.37282 15.37349 15.37344 15.35074 15.29508 15.21698
0 0 0 0 0 0 0 0 0 0 0 0 0 0 0 0 0 0 0 0 0 18.32863 17.36312 16.33057 15.7716 15.80833 15.53 15.54022 14.97689 14.97382 14.97264 14.96674 14.96514 14.96877 14.9711 14.96492 14.96455 14.97151 14.98617 15.00246 15.01701 15.02844 15.03916 15.05211 15.07176 15.09365 15.11977 15.14329 15.15943 15.1777 15.1904 15.19376 15.19295 15.18209 15.17267 15.17372 15.17402 15.17669 15.17978 15.18511 15.18804 15.19252 15.19597 15.2093 15.21924 15.23488 15.24754 15.25861 15.26539 15.26804 15.27332 15.27033 15.26957 15.26529 15.26395 15.25922 15.25915 15.25816 15.25755 15.25413 15.24977 15.24276 15.23563 15.23781 15.24156 15.24736 15.25197 15.26123 15.27232 15.27828 15.27784 15.28735 15.3001 15.30772 15.3159 15.32802 15.33107 15.33169 15.3343 15.34371 15.36471 15.38045 15.38823 15.39473 15.3974 15.38699 15.35846 15.30053 15.21057
0 0 0 0 0 0 0 0 0 0 0 0 0 0 0 0 0 0 0 0 0 0 0 16.89094 16.07078 15.79695 15.51815 15.24463 14.95585 14.95642 14.9588 14.9621 14.96316 14.9653 14.95995 14.96014 14.96282 14.97571 14.98663 15.0066 15.01952 15.0386 15.05813 15.07486 15.09132 15.11143 15.13415 15.15931 15.18071 15.19615 15.21226 15.2223 15.22062 15.21679 15.21416 15.20946 15.21215 15.21496 15.21791 15.22154 15.22067 15.23083 15.23362 15.24417 15.25521 15.26672 15.28114 15.2932 15.30026 15.30958 15.31812 15.3207 15.32565 15.32778 15.33016 15.33359 15.33333 15.33919 15.33844 15.33769 15.32793 15.32396 15.3175 15.31334 15.31773 15.32055 15.32212 15.32594 15.32807 15.32746 15.32575 15.33081 15.33575 15.34044 15.35886 15.37291 15.37579 15.37855 15.38255 15.39696 15.40567 15.41816 15.42493 15.42797 15.42485 15.40646 15.36856 15.28976 15.205
0 0 0 0 0 0 0 0 0 0 0 0 0 0 0 0 0 0 0 0 0 18.73598 18.47281 17.52663 16.10098 15.81657 15.51989 15.53113 15.22024 14.9479 14.94761 14.95055 14.95828 14.96052 14.95474 14.95673 14.97063 14.98305 14.99735 15.01265 15.03223 15.05348 15.07032 15.08951 15.10529 15.12768 15.14675 15.17728 15.19948 15.22063 15.23676 15.24787 15.25278 15.25751 15.25179 15.25055 15.25168 15.25509 15.25164 15.25462 15.25431 15.2609 15.26739 15.27415 15.28796 15.30292 15.31788 15.32912 15.34156 15.35522 15.36738 15.37686 15.3828 15.38851 15.39561 15.40101 15.40242 15.40501 15.3994 15.39649 15.39314 15.38729 15.38528 15.38981 15.39153 15.38795 15.39146 15.39044 15.38966 15.38661 15.38416 15.38365 15.38354 15.39339 15.40284 15.41111 15.41564 15.42321 15.42844 15.43773 15.44298 15.45405 15.4606 15.45708 15.44635 15.41966 15.36644 15.29033 15.19107
0 0 0 0 0 0 0 0 0 0 0 0 0 0 0 0 0 0 0 18.69243 18.66372 18.60306 17.8125 16.75505 16.14478 15.85451 15.55165 15.84616 14.9564 14.93653 14.9386 14.94398 14.95401 14.95859 14.95524 14.96418 14.97318 14.98859 15.01134 15.02833 15.04581 15.0631 15.0837 15.10539 15.12281 15.14436 15.16575 15.19429 15.22009 15.24234 15.26273 15.27998 15.29022 15.29962 15.30443 15.3079 15.31037 15.30548 15.30359 15.29572 15.29305 15.29178 15.29663 15.30441 15.31651 15.33194 15.34896 15.36287 15.37555 15.39034 15.40692 15.42109 15.43789 15.44888 15.46068 15.46684 15.47233 15.47492 15.47554 15.47727 15.47015 15.46081 15.45943 15.45765 15.45199 15.44244 15.43949 15.43561 15.43005 15.42543 15.42412 15.43148 15.44055 15.44963 15.45786 15.46409 15.4757 15.48294 15.48669 15.49192 15.49385 15.49507 15.49026 15.48228 15.46512 15.42672 15.37322 15.28807 15.19056
0 0 0 0 0 0 0 0 0 0 0 0 0 0 0 0 0 0 18.20697 18.10692 17.80478 17.38143 16.80809 16.18313 15.89911 15.90203 15.58546 15.26457 14.96632 14.93733 14.93449 14.93916 14.94765 14.95522 14.96081 14.97545 14.98532 15.00283 15.02954 15.04792 15.06541 15.0829 15.1055 15.13155 15.15317 15.1741 15.19444 15.22088 15.25012 15.27539 15.29782 15.31529 15.32924 15.3399 15.34894 15.35449 15.35641 15.35724 15.35094 15.34533 15.34083 15.33745 15.33959 15.34605 15.35882 15.37348 15.38595 15.39705 15.40731 15.41953 15.4407 15.45969 15.47786 15.49136 15.50738 15.51883 15.52568 15.53259 15.53474 15.54395 15.54366 15.53765 15.53569 15.53247 15.52314 15.51392 15.50053 15.49116 15.47793 15.47259 15.47112 15.47044 15.47949 15.49097 15.49354 15.50974 15.52851 15.53097 15.53209 15.5381 15.53933 15.53812 15.53182 15.51334 15.48558 15.44215 15.37941 15.30308 15.22372
0 0 0 0 0 0 0 0 0 0 0 0 0 0 0 0 0 18.60816 18.08055 17.54676 17.1039 16.524 16.22629 16.23763 16.24567 15.90053 15.56899 14.97902 14.95636 14.9335 14.93185 14.94744 14.95235 14.95256 14.9645 14.98261 14.9921 15.01405 15.03545 15.05741 15.07659 15.09838 15.12083 15.15066 15.17453 15.20004 15.22953 15.25648 15.28663 15.31236 15.33514 15.35711 15.37379 15.38253 15.38997 15.39078 15.39075 15.38902 15.38218 15.37769 15.37474 15.37161 15.37354 15.3799 15.38926 15.4001 15.41493 15.42421 15.43403 15.45159 15.47285 15.49497 15.51697 15.53732 15.54839 15.56574 15.57764 15.5815 15.58819 15.59759 15.59913 15.59158 15.58761 15.58082 15.57259 15.56309 15.5475 15.53728 15.5254 15.52053 15.51967 15.52081 15.53131 15.54057 15.55425 15.56836 15.58286 15.57697 15.57512 15.57497 15.5696 15.56685 15.55712 15.53603 15.50538 15.46325 15.40462 15.33927 15.26635
0 0 0 0 0 0 0 0 0 0 0 0 0 0 0 0 18.09897 18.06567 17.3 16.78572 16.51421 16.21627 16.21929 16.22622 16.2115 15.89124 15.55403 14.97191 14.94374 14.92729 14.92725 14.94135 14.95507 14.96874 14.98105 14.99675 15.01015 15.02821 15.04418 15.06193 15.08719 15.11269 15.14306 15.17332 15.20577 15.23479 15.26061 15.28934 15.31499 15.34358 15.37467 15.3977 15.41484 15.42304 15.42853 15.43346 15.43047 15.43217 15.42845 15.42548 15.42329 15.41813 15.41583 15.41317 15.4175 15.42474 15.43711 15.44641 15.45795 15.47351 15.49388 15.51812 15.54359 15.56368 15.58474 15.60161 15.61877 15.62988 15.64233 15.65909 15.66049 15.65738 15.64623 15.6397 15.62771 15.61204 15.59717 15.58228 15.56661 15.56118 15.55769 15.5613 15.57644 15.59036 15.60196 15.61083 15.6181 15.6165 15.61138 15.61015 15.60595 15.60229 15.5914 15.57305 15.54404 15.51292 15.45588 15.38861 15.31566
0 0 0 0 0 0 0 0 0 0 0 0 0 0 0 18.63916 17.91246 17.26942 16.74243 16.48403 16.19609 16.21023 16.21115 15.89443 15.89338 15.57645 14.97229 14.95084 14.93324 14.92533 14.92518 14.93793 14.95751 14.97056 14.98098 15.00296 15.02108 15.04583 15.06831 15.09185 15.12586 15.1563 15.18638 15.22156 15.25501 15.28295 15.30759 15.33355 15.36007 15.38908 15.41435 15.43591 15.44896 15.45586 15.46627 15.47329 15.47384 15.4773 15.47943 15.48212 15.48105 15.48122 15.47683 15.46612 15.45882 15.45634 15.46004 15.46922 15.48198 15.49557 15.51702 15.53935 15.56831 15.59141 15.61293 15.63507 15.65195 15.66759 15.68325 15.69965 15.70721 15.70761 15.70265 15.69371 15.68643 15.67477 15.66071 15.64268 15.62538 15.61485 15.60822 15.60927 15.62094 15.63212 15.64019 15.6462 15.645 15.64318 15.6396 15.63309 15.63116 15.62577 15.61005 15.59385 15.57642 15.55174 15.50739 15.44039 15.37011
0 0 0 0 0 0 0 0 0 0 0 0 0 0 17.97389 17.96257 17.28852 16.72257 16.43527 16.14295 16.16775 15.85826 15.86943 15.86453 15.5549 15.24588 14.9549 14.93433 14.92389 14.92682 14.93243 14.9469 14.96201 14.97665 14.9985 15.01729 15.04321 15.06675 15.0891 15.12495 15.16137 15.19689 15.23785 15.27642 15.31422 15.34495 15.37343 15.40177 15.42876 15.45151 15.47031 15.48613 15.49881 15.51087 15.51846 15.52547 15.52475 15.53046 15.53711 15.5437 15.54519 15.5424 15.53787 15.52703 15.51031 15.49367 15.4957 15.49743 15.50655 15.51332 15.53416 15.55908 15.58966 15.61876 15.6483 15.67549 15.70047 15.71687 15.73324 15.74491 15.74807 15.74877 15.7441 15.73283 15.72929 15.72298 15.70798 15.68923 15.67322 15.66161 15.65447 15.65326 15.65566 15.6667 15.67356 15.67169 15.67181 15.67048 15.66508 15.65782 15.65185 15.63996 15.62466 15.60785 15.59637 15.57625 15.53139 15.46925 15.3894
0 0 0 0 0 0 0 0 0 0 0 0 0 17.84088 18.00771 17.28612 16.70591 16.41805 16.11547 16.12453 15.81805 15.81204 15.83135 15.84647 15.53229 14.94826 14.92989 14.91966 14.92206 14.93008 14.93938 14.96294 14.98498 15.0067 15.02937 15.0523 15.06906 15.09794 15.13271 15.16946 15.21189 15.25634 15.29902 15.33846 15.37527 15.40365 15.43892 15.46733 15.49184 15.50841 15.5206 15.53452 15.54965 15.55542 15.56272 15.56747 15.57184 15.57999 0 0 0 15.54182 15.5511 15.59709 15.57978 15.55624 15.53805 15.52783 15.52602 15.52902 15.54651 15.57266 15.60594 15.64031 15.67374 15.71062 15.73573 15.75855 15.77662 15.78808 15.79419 15.79811 15.79129 15.78929 15.78314 15.77047 15.7592 15.74861 15.73146 15.71463 15.70596 15.69444 15.69326 15.6951 15.70127 15.69686 15.69416 15.68792 15.68483 15.67788 15.67212 15.65978 15.64434 15.6341 15.62448 15.60626 15.56051 15.49411 15.41845
0 0 0 0 0 0 0 0 0 0 0 0 0 18.19817 17.31676 16.70722 16.3951 16.09074 16.10407 15.80279 15.80167 15.80303 15.82157 14.94446 14.94239 14.93234 14.91723 14.91594 14.9222 14.92916 14.952 14.97314 14.99857 15.01864 15.04066 15.06968 15.1045 15.13533 15.17436 15.21719 15.26407 15.31571 15.36939 15.41736 15.45782 15.48838 15.51888 15.54035 15.55724 15.56901 15.57825 16.3288 15.59513 15.59065 15.5933 15.95396 16.71798 17.48913 0 0 0 0 0 16.00044 15.6233 15.60114 15.57316 15.55934 15.54489 15.5419 15.55906 15.58816 15.619 15.65808 15.70107 15.73916 15.76669 15.78725 15.80853 15.82124 15.82818 15.82565 15.8288 15.83025 15.82526 15.81641 15.80883 15.79922 15.79034 15.77412 15.76474 15.7569 15.75276 15.7458 15.74511 15.74124 15.73287 15.71616 15.71053 15.7048 15.6983 15.68405 15.66745 15.65646 15.65148 15.63069 15.58565 15.51764 15.43575
0 0 0 0 0 0 0 0 0 0 0 0 18.31425 17.54002 16.66027 16.36766 16.06681 15.78819 15.79156 15.79622 15.79805 15.80832 15.50912 14.93609 14.93002 14.91594 14.90972 14.91503 14.92585 14.94153 14.95939 14.98397 15.00968 15.03111 15.05281 15.08459 15.11885 15.16251 15.20931 15.26602 15.31622 15.3714 15.42788 15.47608 15.52017 15.54681 15.55796 0 0 15.56817 0 17.20533 16.39505 15.98655 16.36185 16.34785 17.12455 17.53487 18.46784 16.31982 15.60495 0 0 0 17.20159 15.61651 15.5891 15.57211 15.55464 15.55251 15.56914 15.59866 15.63512 15.6748 15.72624 15.76315 15.78999 15.81366 15.83792 15.85431 15.85835 15.85856 15.86456 15.86116 15.85965 15.8555 15.84685 15.83849 15.82996 15.81951 15.81136 15.80186 15.79614 15.78919 15.78104 15.77762 15.76964 15.76067 15.74787 15.74325 15.73736 15.72375 15.70528 15.6937 15.68178 15.65593 15.61228 15.54028 15.45214
0 0 0 0 0 0 0 0 0 0 0 17.52508 17.51352 16.64325 16.34361 15.7547 15.78932 15.80083 15.79378 15.80028 15.81958 15.21497 14.93673 14.92877 14.91853 14.90631 14.90976 14.92146 14.9395 14.95611 14.97777 14.99908 15.02119 15.04093 15.06926 15.10986 15.14781 15.20619 15.26363 15.3271 15.38574 15.43478 15.47457 15.50838 16.28328 0 0 0 0 0 17.97867 18.75202 18.51367 17.93518 17.567 17.13761 17.12669 15.96383 15.60142 15.60461 15.60543 15.6048 15.60086 17.57739 17.93145 15.61184 15.59214 15.57739 15.56821 15.56851 15.58365 15.60964 15.64455 15.68935 15.73743 15.77766 15.80694 15.8332 15.85613 15.87568 15.88723 15.89087 15.89335 15.89376 15.89072 15.88748 15.88737 15.88458 15.88212 15.87593 15.86464 15.85478 15.8417 15.83185 15.82261 15.81788 15.80533 15.79849 15.78186 15.7745 15.77248 15.75552 15.73733 15.72357 15.70987 15.67984 15.64071 15.57017 15.47942
0 0 0 0 0 0 0 0 0 0 18.23026 17.53065 16.62946 16.00924 15.7536 15.48193 15.50355 15.51295 15.51613 15.51719 15.51703 14.94225 14.92991 14.93057 14.92065 14.91203 14.91131 14.9348 14.95295 14.97373 14.99648 15.01439 15.03425 15.05308 15.08217 15.12924 15.18816 15.25438 15.32336 15.37627 15.43387 15.48191 15.86105 0 0 0 0 0 0 0 0 0 0 0 17.92224 17.55612 16.75516 15.59894 15.61259 15.61875 15.62049 15.61214 15.60828 15.61002 15.61167 15.61078 15.59541 15.58434 15.59074 15.59326 15.60586 15.62959 15.66349 15.70664 15.74827 15.78746 15.82321 15.84762 15.87244 15.89323 15.90553 15.91018 15.91368 15.9115 15.90716 15.90598 15.91197 15.91237 15.91296 15.91365 15.90782 15.89923 15.88443 15.87691 15.87079 15.85965 15.8523 15.84211 15.82728 15.81586 15.81362 15.79749 15.77547 15.75566 15.73113 15.70047 15.65891 15.59318 15.50689
0 0 0 0 0 0 0 0 0 0 17.7968 16.6078 15.9992 15.7412 15.1965 15.20779 14.94641 14.94432 14.93876 14.94096 14.94154 14.93632 14.93295 14.93247 14.93234 14.92608 14.9375 14.95807 14.97412 14.99928 15.02321 15.03612 15.05249 15.07495 15.11146 15.16262 15.22481 15.29237 15.35946 15.41103 16.56715 0 0 0 0 0 0 0 0 0 0 0 0 0 18.56799 17.19358 15.61998 15.62236 15.63103 15.64323 15.65222 15.65094 15.64151 15.63415 15.6271 15.61789 15.60923 15.60646 15.61233 15.61695 15.62567 15.64582 15.68012 15.72335 15.76472 15.79969 15.83607 15.87028 15.89555 15.91208 15.9208 15.92332 15.92468 15.92656 15.92827 15.92851 15.93488 15.93955 15.94065 15.93644 15.93365 15.92645 15.91789 15.91228 15.90198 15.89352 15.88681 15.87629 15.86741 15.85935 15.8541 15.84105 15.81887 15.79111 15.76037 15.72716 15.68255 15.62209 15.5381
0 0 0 0 0 0 0 0 0 17.88948 17.27472 16.29739 15.71125 15.17105 14.92804 14.92821 14.9162 14.91574 14.92482 14.93403 14.9296 14.93127 14.93904 14.9421 14.94142 14.94685 14.95753 14.96833 14.99555 15.01455 15.03656 15.05621 15.07265 15.10023 15.14356 15.20128 15.26132 15.32506 15.39014 16.16003 16.37974 0 0 0 0 0 0 0 0 0 0 0 0 17.83867 17.61371 16.39925 15.63477 15.64526 15.66317 15.68254 15.69243 15.69452 15.68606 15.67061 15.65972 15.65296 15.64992 15.64757 15.64386 15.64626 15.65378 15.67337 15.70529 15.74236 15.77918 15.81162 15.8484 15.88157 15.90747 15.92264 15.93231 15.9349 15.93853 15.94156 15.94684 15.95179 15.96165 15.97097 15.9739 15.97265 15.96465 15.95719 15.95073 15.94406 15.93445 15.92616 15.91954 15.9124 15.89651 15.8929 15.88454 15.87151 15.847 15.81488 15.78416 15.74671 15.70023 15.63596 15.5605
0 0 0 0 0 0 0 0 18.81805 17.60957 16.26156 15.66468 15.40281 14.88372 14.88254 14.88309 14.88678 14.89272 14.90057 14.90806 14.91948 14.9349 14.94498 14.94867 14.94872 14.96379 14.98211 14.99626 15.01567 15.03607 15.05121 15.06438 15.08613 15.12265 15.16941 15.22829 15.28202 15.34024 15.72846 16.15861 16.5885 17.3931 0 18.21161 18.78784 0 0 0 0 0 0 0 18.59295 17.60256 16.81616 15.63723 15.65017 15.67227 15.69646 15.71294 15.71913 15.71646 15.70518 15.69518 15.68755 15.67918 15.67351 15.67172 15.67006 15.6715 15.6794 15.69996 15.73393 15.76641 15.80066 15.83172 15.85936 15.89015 15.9162 15.93629 15.94635 15.94706 15.94753 15.95194 15.9564 15.96444 15.97603 15.98826 15.99463 15.99112 15.98423 15.97467 15.97178 15.97053 15.96769 15.95923 15.95675 15.95059 15.93907 15.92846 15.91839 15.89778 15.87339 15.83932 15.80332 15.75747 15.70935 15.64298 15.56952
0 0 0 0 0 0 0 0 18.81067 17.61046 16.25174 15.66023 14.85181 14.85576 14.85394 14.85372 14.86613 14.87182 14.88543 14.90388 14.91946 14.93448 14.94949 14.96504 14.97091 14.99171 15.01379 15.03459 15.05916 15.08006 15.09857 15.11312 15.13235 15.16372 15.20693 15.25664 15.30353 15.34312 15.38455 15.77163 16.16804 16.57938 17.00457 17.44262 18.20805 0 0 0 0 0 0 17.96546 17.17939 17.19435 15.61911 15.64553 15.67846 15.70943 15.7328 15.74366 15.7466 15.74205 15.73148 15.71913 15.70966 15.69939 15.69286 15.68502 15.68533 15.68899 15.69651 15.71782 15.74706 15.78054 15.81601 15.84964 15.87787 15.905 15.93098 15.95372 15.96006 15.95867 15.96428 15.97274 15.98105 15.98786 15.99947 16.01061 16.01347 16.01109 16.00356 15.99333 15.99219 15.99163 15.99159 15.98292 15.97776 15.97292 15.96345 15.95311 15.94647 15.92937 15.89921 15.85948 15.81635 15.76527 15.71023 15.64686 15.57086
0 0 0 0 0 0 0 0 0 17.60821 16.24756 15.64553 14.83596 14.83607 14.83086 14.83868 14.84187 14.85131 14.87641 14.90311 14.92639 14.94335 14.95794 14.97794 14.99618 15.02177 15.04621 15.08848 15.12179 15.14429 15.16273 15.17628 15.1898 15.21328 15.25132 15.28962 15.3216 15.35079 15.38383 15.39469 15.41911 15.43685 15.46114 15.83099 16.62314 17.45142 18.23015 18.56356 0 0 18.23455 17.1455 16.35107 15.60283 15.62736 15.66553 15.71362 15.73974 15.75593 15.76027 15.76001 15.75448 15.74775 15.73829 15.73068 15.72245 15.71772 15.71 15.70746 15.71053 15.72194 15.74167 15.76803 15.79929 15.83396 15.86413 15.88923 15.91458 15.94315 15.95943 15.96936 15.97304 15.97898 15.98877 15.99665 16.01064 16.02263 16.03341 16.03915 16.0353 16.03145 16.02365 16.01692 16.01684 16.01582 16.00983 16.00355 15.99595 15.98853 15.98107 15.96969 15.9447 15.91157 15.86957 15.82639 15.77494 15.71551 15.64993 15.57351
0 0 0 0 0 0 0 0 0 18.67815 16.95654 15.93935 15.08017 14.83572 14.82032 14.82888 14.8232 14.83943 14.87208 14.89991 14.93494 14.9624 14.97759 15.00482 15.02846 15.05325 15.10393 15.15408 15.18916 15.21453 15.23114 15.23805 15.24952 15.26909 15.29122 15.3169 15.34479 15.36544 15.38537 15.38669 15.40044 15.4193 15.44637 15.47129 15.83763 16.23981 16.65039 17.05649 18.22172 17.1031 15.90049 15.56153 15.5856 15.62011 15.6592 15.6963 15.73781 15.75538 15.76591 15.7709 15.76767 15.76277 15.75876 15.74781 15.74122 15.74066 15.73852 15.73375 15.72993 15.7367 15.74726 15.77177 15.7991 15.8284 15.85642 15.88473 15.90858 15.93332 15.9565 15.96663 15.97821 15.98575 15.98929 15.99984 16.01295 16.03006 16.04203 16.05342 16.05696 16.05792 16.054 16.0461 16.03609 16.03687 16.03556 16.02917 16.02201 16.01712 16.01154 16.00018 15.98226 15.95458 15.92633 15.8899 15.84422 15.78736 15.72415 15.64298 15.56586
0 0 0 0 0 0 0 0 0 18.82884 17.94562 16.26619 15.34791 14.83404 14.82881 14.83582 14.822 14.83603 14.87212 14.90822 14.9322 14.96899 14.98821 15.00616 15.04412 15.10094 15.16431 15.224 15.26849 15.29178 15.29882 15.30745 15.31169 15.3237 15.33893 15.35553 15.37166 15.38223 15.38922 15.39169 15.40134 15.41817 15.44322 15.46956 15.49127 15.50498 15.87554 0 17.10391 15.92017 15.57466 15.59723 15.62514 15.66155 15.70435 15.73853 15.76935 15.77908 15.78495 15.78488 15.78162 15.7779 15.77499 15.76824 15.76301 15.76486 15.76004 15.75687 15.75611 15.7572 15.76851 15.79094 15.81954 15.84618 15.87295 15.9 15.9226 15.94218 15.95718 15.97074 15.98129 15.99059 15.99616 16.00842 16.02414 16.04504 16.05973 16.07177 16.07694 16.07867 16.07634 16.06883 16.0598 16.05362 16.04947 16.04491 16.04078 16.03337 16.02226 16.0118 15.98901 15.96229 15.94012 15.90508 15.85241 15.78624 15.71929 15.64044 15.55329
0 0 0 0 0 0 0 0 0 0 18.53321 17.00102 15.62575 15.08018 14.84956 14.84691 14.83378 14.83938 14.86397 14.88727 14.93003 14.96264 14.98814 15.01843 15.06317 15.13101 15.20545 15.26304 0 0 0 15.53597 15.34053 15.35439 15.36507 15.3761 15.39146 15.39572 15.40002 15.402 15.40842 15.42417 15.44227 15.46707 15.49348 15.51542 15.53774 15.92341 15.56778 15.5817 15.61299 15.64061 15.67588 15.70718 15.73463 15.75759 15.77428 15.78497 15.79145 15.79223 15.79419 15.79912 15.79609 15.79376 15.79207 15.79037 15.789 15.78759 15.78416 15.78776 15.79814 15.81782 15.84269 15.86581 15.88839 15.91283 15.93199 15.94908 15.95972 15.97386 15.98348 15.99012 16.00322 16.01398 16.03247 16.05519 16.07332 16.08921 16.0946 16.0973 16.09649 16.09267 16.08826 16.07977 16.07296 16.06488 16.06215 16.05553 16.04086 16.02221 16.00051 15.97579 15.95067 15.91103 15.85118 15.78702 15.72277 15.63627 15.53876
0 0 0 0 0 0 0 0 0 0 0 18.41456 17.00499 15.62985 15.08089 14.8364 14.83688 14.84804 14.85456 14.87709 14.91282 14.95393 14.99287 15.02409 15.07768 15.15393 15.55033 15.94289 0 0 0 16.13435 16.42138 15.35714 15.36981 15.37904 15.39391 15.40384 15.40778 15.40777 15.407 15.41686 15.43942 15.46864 15.50251 15.52867 15.54998 15.57326 15.58909 15.611 15.64548 15.67914 15.71225 15.74073 15.75967 15.77523 15.78626 15.7921 15.79719 15.79975 15.80427 15.80805 15.81079 15.80845 15.81007 15.80824 15.80736 15.80862 15.81048 15.81607 15.82562 15.84198 15.86088 15.88233 15.90414 15.92332 15.94271 15.95955 15.97352 15.98118 15.98928 15.99986 16.01172 16.03034 16.04639 16.067 16.08601 16.09964 16.1066 16.11139 16.1098 16.10684 16.1019 16.09499 16.08837 16.0855 16.07677 16.06762 16.0544 16.03849 16.01747 15.99249 15.96124 15.91585 15.8561 15.79998 15.72527 15.63815 15.54276
0 0 0 0 0 0 0 0 0 0 0 0 18.6387 17.33639 15.61426 15.06828 14.82831 14.83884 14.84939 14.87318 14.89597 14.94164 14.98824 15.02687 15.07674 15.1519 15.88466 0 0 17.41574 17.52666 16.0369 15.34628 15.35572 15.36018 15.37978 15.39305 15.40636 15.41205 15.41412 15.41152 15.42047 15.44106 15.47293 15.50863 15.53832 15.56206 15.58576 15.60747 15.63311 15.66784 15.70024 15.73493 15.7615 15.78082 15.79662 15.81066 15.81144 15.81094 15.81363 15.81876 15.82461 15.82789 15.82538 15.82575 15.82667 15.82973 15.83201 15.83385 15.83783 15.84628 15.85784 15.87478 15.89498 15.91197 15.93253 15.95335 15.97169 15.98237 15.98861 15.99939 16.01516 16.0328 16.05157 16.06584 16.07946 16.09475 16.10951 16.11809 16.12101 16.12005 16.11964 16.11624 16.11105 16.10337 16.09957 16.08923 16.07985 16.06794 16.04987 16.02567 15.99718 15.97035 15.92851 15.86779 15.81098 15.74012 15.66232 15.57192
0 0 0 0 0 0 0 0 0 0 0 0 0 0 0 15.6166 15.06456 14.82568 14.84582 14.85951 14.89649 14.9343 14.9806 15.02318 15.06787 15.45132 15.52939 15.91808 16.3097 18.2943 17.5323 16.01678 15.33563 15.34548 15.3499 15.36854 15.38932 15.40727 15.41513 15.4202 15.42513 15.43307 15.44971 15.47725 15.50951 15.54119 15.56238 15.58498 15.61057 15.64658 15.68388 15.71839 15.74779 15.77545 15.79886 15.81739 15.83052 15.82985 15.83065 15.82959 15.83301 15.83705 15.83648 15.83376 15.8353 15.84025 15.84233 15.84898 15.84975 15.86113 15.86799 15.88135 15.89853 15.91312 15.92961 15.94656 15.96467 15.98258 15.99667 16.01137 16.02077 16.03732 16.05156 16.0684 16.08201 16.0932 16.10533 16.11468 16.12476 16.12961 16.12631 16.12809 16.12866 16.12313 16.12019 16.11586 16.10694 16.09354 16.07943 16.06362 16.04069 16.01328 15.9876 15.94719 15.89476 15.82917 15.76164 15.68778 15.60686
0 0 0 0 0 0 0 0 0 0 0 0 0 0 0 16.23026 15.63378 14.81816 14.84649 14.85896 14.90381 14.94225 14.99158 15.03995 15.06781 15.12583 15.85018 15.92213 16.32886 0 17.5852 15.31955 15.3283 15.33574 15.3504 15.36048 15.38732 15.40494 15.41714 15.42792 15.43653 15.44704 15.46567 15.48883 15.51168 15.53618 15.56008 15.58252 15.62052 15.65989 15.70652 15.7395 15.76606 15.79513 15.81985 15.83921 15.84643 15.84538 15.84575 15.84606 15.84551 15.84492 15.84488 15.84241 15.84472 15.84998 15.85484 15.8596 15.86414 15.8736 15.88387 15.89955 15.91817 15.93352 15.95136 15.96578 15.98394 16.00175 16.02201 16.03613 16.05296 16.06702 16.07878 16.09029 16.09745 16.10371 16.11319 16.12275 16.12774 16.13223 16.1358 16.13803 16.13816 16.13529 16.12849 16.12102 16.11546 16.10273 16.08895 16.07451 16.05736 16.03652 16.01015 15.97102 15.9302 15.86909 15.809 15.74485 15.67168
0 0 0 0 0 0 0 0 0 0 0 0 0 17.29899 16.98814 16.27226 15.65957 14.83854 14.86689 14.89328 14.93303 14.96913 15.01433 15.05599 15.09059 15.13101 16.18948 16.62085 17.07379 17.01867 17.96637 15.63844 15.31685 15.3284 15.34724 15.36835 15.39783 15.41694 15.42757 15.43681 15.44295 15.45362 15.47219 15.50017 15.52396 15.54317 15.56602 15.5988 15.63816 15.68204 15.72085 15.75082 15.77954 15.80448 15.82103 15.83955 15.85244 15.85712 15.85699 15.85531 15.85685 15.86012 15.86174 15.86303 15.8613 15.86353 15.86684 15.87223 15.88109 15.88851 15.89924 15.91743 15.93477 15.95499 15.97031 15.98604 16.00532 16.02336 16.03936 16.05696 16.07499 16.09319 16.10166 16.10819 16.11508 16.11921 16.12269 16.12766 16.13148 16.13398 16.13928 16.14064 16.14193 16.14228 16.1365 16.13341 16.1283 16.11718 16.10606 16.09384 16.07648 16.05514 16.02815 15.99099 15.95058 15.89891 15.84968 15.79494 15.7392
0 0 0 0 0 0 0 0 0 0 0 0 16.53537 16.22358 16.27835 15.98893 15.40019 14.86871 14.89934 14.93182 14.97067 15.01042 15.05329 15.08898 15.12044 15.16283 15.86269 15.9191 16.7007 17.48856 15.98721 15.29538 15.31975 15.35022 15.3783 15.40064 15.42164 15.43338 15.4393 15.44354 15.45581 15.47165 15.48722 15.50503 15.53069 15.55533 15.58363 15.60886 15.64382 15.68112 15.71852 15.75272 15.77614 15.79846 15.81746 15.83154 15.8476 15.85615 15.85662 15.85585 15.8612 15.86842 15.86967 15.86895 15.87056 15.87407 15.87761 15.88451 15.89335 15.90509 15.92221 15.93915 15.95919 15.98503 16.00004 16.01675 16.03282 16.04733 16.05859 16.07191 16.08949 16.1014 16.11081 16.1153 16.12341 16.12948 16.13149 16.13241 16.13579 16.13483 16.13879 16.14082 16.14019 16.1408 16.13591 16.13738 16.1429 16.13091 16.12763 16.11287 16.09782 16.07594 16.05165 16.02102 15.98115 15.93345 15.89512 15.84694 15.79579
0 0 0 0 0 0 0 0 18.03473 17.40539 16.41142 15.77468 15.83953 15.8647 15.63753 15.71728 15.48431 14.9301 14.95999 14.9996 15.0369 15.08007 15.10658 15.13388 15.1612 15.20186 15.23254 15.2561 15.28087 15.29369 15.30228 15.31936 15.34725 15.38399 15.403 15.42219 15.43744 15.4472 15.45022 15.45349 15.463 15.48155 15.50032 15.51611 15.54569 15.57242 15.599 15.62253 15.64972 15.68706 15.71259 15.74413 15.76639 15.78822 15.80571 15.81916 15.83828 15.85058 15.85628 15.85978 15.86963 15.87068 15.87224 15.87355 15.87587 15.87837 15.88615 15.89295 15.90508 15.92537 15.94314 15.96783 15.99174 16.01375 16.0281 16.03899 16.05341 16.06528 16.08153 16.09343 16.10182 16.11406 16.12304 16.12819 16.13237 16.13497 16.1331 16.13409 16.13598 16.13749 16.1377 16.14064 16.13987 16.13505 16.13371 16.1407 16.1438 16.14497 16.14255 16.1311 16.11741 16.09793 16.07858 16.05026 16.01777 15.98319 15.9491 15.91221 15.86338
0 0 0 0 0 0 0 17.04775 17.06296 15.7052 15.44591 15.47228 15.52523 15.61371 15.69958 15.47456 14.95913 14.98437 15.01453 15.05992 15.10656 15.13484 15.15658 15.18884 15.21913 15.25017 15.27452 15.29724 15.32091 15.3412 15.35897 15.38148 15.40405 15.42093 15.43236 15.43894 15.44774 15.45589 15.46103 15.46602 15.477 15.49339 15.51467 15.52734 15.55596 15.58337 15.60727 15.62822 15.64653 15.66889 15.69116 15.71577 15.74022 15.76554 15.7878 15.80608 15.82353 15.83752 15.85413 15.86239 15.87036 15.87279 15.87375 15.87523 15.87726 15.88445 15.89603 15.90898 15.92157 15.94497 15.96535 15.99016 16.00955 16.02593 16.04469 16.05675 16.06959 16.08544 16.09574 16.10624 16.11902 16.12386 16.13001 16.1361 16.13997 16.13709 16.13471 16.13105 16.12919 16.1328 16.13258 16.13525 16.13567 16.13857 16.13937 16.14382 16.1462 16.15005 16.15203 16.14905 16.13827 16.12317 16.10369 16.0759 16.04529 16.01894 15.98518 15.95268 15.91555
0 0 0 0 0 0 17.49578 17.3963 15.697 15.41396 15.43748 15.49749 15.58535 15.39449 15.19173 14.96946 15.00594 15.03725 15.07002 15.11456 15.15742 15.18059 15.20487 15.22764 15.26471 15.28559 15.30412 15.33286 15.3637 15.38666 15.40403 15.42613 15.44248 15.45163 15.45678 15.46215 15.47138 15.47416 15.48406 15.49176 15.49734 15.50985 15.52436 15.54401 15.56583 15.58308 15.60032 15.61491 15.63259 15.65095 15.67322 15.68831 15.71246 15.73646 15.75916 15.77954 15.80143 15.81396 15.83092 15.84787 15.86401 15.87392 15.87586 15.88016 15.88368 15.89788 15.91331 15.92896 15.94436 15.96802 15.98639 16.00723 16.02406 16.04334 16.0609 16.07609 16.09125 16.10296 16.11585 16.12405 16.13157 16.13519 16.1358 16.13456 16.13342 16.12981 16.12227 16.11851 16.11748 16.1193 16.12613 16.13058 16.12928 16.13645 16.14402 16.15632 16.15981 16.16369 16.16228 16.16406 16.16251 16.15452 16.13748 16.11088 16.08275 16.06101 16.0349 16.00607 15.972
0 0 0 0 0 0 18.44517 16.64587 15.69517 15.42069 15.20401 15.28843 15.10789 14.92138 14.97933 15.03477 15.07138 15.08899 15.13131 15.16835 15.19909 15.23072 15.2468 15.27095 15.29505 15.31237 15.33592 15.36825 15.39459 15.41329 15.43294 15.4528 15.46372 15.46925 15.46853 15.47459 15.47956 15.4846 15.49449 15.50135 15.50794 15.51623 15.53415 15.55165 15.56757 15.57379 15.58242 15.59515 15.61163 15.63015 15.64659 15.66057 15.68072 15.70083 15.73422 15.75416 15.7735 15.79098 15.80936 15.82809 15.83966 15.85379 15.86432 15.87791 15.89313 15.90591 15.92416 15.94562 15.96202 15.98497 15.99949 16.02021 16.04168 16.0597 16.07879 16.09536 16.11399 16.12829 16.13435 16.13857 16.14143 16.13932 16.13617 16.12949 16.1248 16.11536 16.10943 16.10766 16.11136 16.11488 16.11969 16.12563 16.12981 16.13967 16.15124 16.16878 16.17115 16.17571 16.17541 16.17515 16.17611 16.17279 16.161 16.14417 16.12574 16.1121 16.09093 16.06645 16.03685
0 0 0 0 0 18.42137 17.80107 16.58456 15.71983 15.48628 15.0192 14.8333 14.89571 14.9579 15.01808 15.06664 15.1065 15.1434 15.17742 15.212 15.23775 15.25903 15.2819 15.30153 15.32516 15.34743 15.37031 15.40594 15.42478 15.44902 15.46441 15.47412 15.48313 15.48725 15.48397 15.48549 15.49401 15.4978 15.50251 15.50722 15.51097 15.51843 15.52821 15.53657 15.54804 15.55855 15.56086 15.5747 15.59177 15.60718 15.62239 15.64274 15.65451 15.67495 15.69332 15.71609 15.74138 15.76569 15.78733 15.80592 15.82096 15.83792 15.85647 15.88022 15.90061 15.91909 15.94019 15.95639 15.98061 16.00048 16.01451 16.02748 16.05079 16.06742 16.08688 16.10177 16.12069 16.1344 16.14021 16.13901 16.135 16.1295 16.12481 16.11275 16.10555 16.09265 16.08681 16.0925 16.0943 16.10474 16.1136 16.11919 16.12988 16.14319 16.16191 16.18018 16.1859 16.18857 16.19481 16.19554 16.19736 16.19182 16.17942 16.17093 16.16057 16.14394 16.12586 16.10757 16.08253
0 0 0 0 17.34016 16.73262 15.54778 15.35116 15.17087 14.75187 14.81024 14.87679 14.93424 14.99001 15.04979 15.10108 15.14823 15.18271 15.21778 15.24406 15.25822 15.28374 15.31806 15.33768 15.36053 15.3888 15.41771 15.44456 15.46268 15.48026 15.48599 15.49718 15.5058 15.50767 15.50189 15.50215 15.50031 15.50334 15.50751 15.50779 15.51099 15.51678 15.51861 15.51397 15.52038 15.52971 15.53472 15.54422 15.56398 15.58556 15.60273 15.61971 15.63135 15.65047 15.67341 15.69436 15.71164 15.7233 15.75106 15.77733 15.7959 15.81654 15.83684 15.87162 15.89888 15.92186 15.94055 15.9669 15.99302 16.01339 16.02768 16.0393 16.05707 16.0731 16.08891 16.10017 16.11431 16.1263 16.12963 16.13109 16.12687 16.12263 16.11041 16.10124 16.09073 16.08031 16.07648 16.08353 16.09308 16.10278 16.1081 16.1207 16.13674 16.15327 16.17173 16.18782 16.19758 16.2042 16.21279 16.21958 16.22721 16.22536 16.22006 16.2165 16.20376 16.18922 16.17347 16.15516 16.13336
0 0 0 0 18.4458 15.76083 14.59668 14.64311 14.72071 14.78567 14.85615 14.93065 14.98595 15.0401 15.09445 15.14783 15.19248 15.22441 15.25977 15.28729 15.309 15.33155 15.35419 15.37618 15.39793 15.42164 15.45211 15.47789 15.49264 15.50122 15.5062 15.5167 15.52671 15.5242 15.51906 15.51792 15.51775 15.51829 15.51124 15.5107 15.51308 15.50474 15.49518 15.49423 15.49621 15.50861 15.51932 15.5282 15.54191 15.55495 15.57243 15.58646 15.60392 15.62624 15.64301 15.66886 15.69296 15.71526 15.73717 15.7571 15.77377 15.79548 15.8288 15.86274 15.89458 15.92079 15.94619 15.97154 15.99562 16.01764 16.03204 16.04791 16.06214 16.07117 16.08425 16.09493 16.10882 16.11755 16.11741 16.11722 16.1179 16.11417 16.10438 16.09464 16.08675 16.07841 16.07831 16.0862 16.1001 16.113 16.12504 16.1407 16.15262 16.16686 16.1828 16.19449 16.20545 16.21423 16.22488 16.2335 16.24152 16.24695 16.24692 16.25126 16.24165 16.23359 16.22104 16.20747 16.19221
0 0 0 17.17423 16.64496 15.46986 14.59179 14.67169 14.74309 14.82466 14.90226 14.96708 15.03434 15.08509 15.14849 15.19767 15.23415 15.26818 15.29338 15.31636 15.34279 15.37266 15.3922 15.41708 15.43154 15.44885 15.47836 15.49908 15.5084 15.51702 15.525 15.53734 15.54544 15.54552 15.53731 15.53314 15.52566 15.52318 15.51683 15.5151 15.50603 15.49201 15.48458 15.48407 15.48534 15.495 15.50612 15.51445 15.51982 15.53067 15.54408 15.56234 15.58359 15.59649 15.61665 15.64184 15.67314 15.69771 15.72292 15.74277 15.7625 15.78875 15.82258 15.84809 15.87416 15.90793 15.94099 15.9651 15.99139 16.01737 16.03372 16.04531 16.05918 16.07003 16.0815 16.08848 16.09889 16.10638 16.10693 16.1056 16.10154 16.1022 16.0974 16.09556 16.09275 16.0978 16.09946 16.10431 16.11777 16.13219 16.15531 16.17712 16.1829 16.18822 16.19776 16.20763 16.21613 16.22574 16.24021 16.25102 16.26564 16.26964 16.27152 16.27347 16.27725 16.27118 16.25826 16.24558 16.23087
0 0 0 17.0032 16.60295 15.4395 15.02594 14.68962 14.79786 14.87485 14.94152 15.01041 15.06829 15.12298 15.18437 15.22483 15.26033 15.28991 15.31048 15.33987 15.36234 15.3933 15.42107 15.44336 15.45022 15.47148 15.48972 15.50718 15.516 15.52481 15.54112 15.55113 15.55978 15.56094 15.54932 15.53902 15.52892 15.524 15.51939 15.51005 15.50007 15.48683 15.47972 15.47532 15.47973 15.48748 15.49482 15.50161 15.51078 15.51386 15.52119 15.53791 15.56126 15.57648 15.59707 15.62478 15.65654 15.68649 15.70413 15.72587 15.75218 15.78431 15.80867 15.84609 15.87387 15.90374 15.92684 15.96454 15.99549 16.02033 16.04213 16.05523 16.0642 16.06742 16.07504 16.08626 16.08811 16.09238 16.09584 16.09255 16.09385 16.0936 16.09748 16.10156 16.11002 16.11548 16.12148 16.1281 16.14329 16.16261 16.1872 16.20306 16.21201 16.21908 16.22645 16.23508 16.24821 16.26086 16.26942 16.27743 16.29526 16.30468 16.31158 16.31505 16.31645 16.31702 16.3128 16.29448 16.27647
0 0 0 18.15435 16.80424 15.43525 14.82714 14.69713 14.80377 14.89918 14.99161 15.0424 15.09554 15.15224 15.19932 15.2349 15.27315 15.30546 15.32635 15.35476 15.38368 15.40353 15.41954 15.43216 15.44959 15.46804 15.49039 15.5084 15.52229 15.53534 15.54085 15.55114 15.55859 15.56075 15.54762 15.53444 15.52713 15.521 15.5108 15.50405 15.48819 15.47372 15.46884 15.46766 15.47255 15.47997 15.48395 15.49013 15.49788 15.49929 15.50739 15.52687 15.54985 15.57557 15.59388 15.62059 15.65136 15.67407 15.69066 15.71679 15.74729 15.78142 15.81739 15.84924 15.87118 15.89707 15.92994 15.96527 15.98945 16.01957 16.04108 16.05659 16.06269 16.0681 16.06887 16.07274 16.07276 16.07433 16.07745 16.07787 16.08328 16.0954 16.10339 16.1149 16.12926 16.14115 16.15238 16.15923 16.17656 16.19661 16.21754 16.234 16.24054 16.2518 16.25643 16.2637 16.27839 16.29143 16.30281 16.31294 16.32273 16.33521 16.34729 16.35105 16.35352 16.35151 16.34722 16.34088 16.33228
0 0 0 18.1846 15.85827 14.98484 14.63993 14.74871 14.8642 14.95034 15.02244 15.07357 15.12543 15.1616 15.20568 15.23479 15.26953 15.29122 15.31273 15.33381 15.36197 15.38609 15.39461 15.40917 15.42415 15.4479 15.47038 15.49248 15.50877 15.52517 15.53506 15.54438 15.55448 15.55728 15.54173 15.52859 15.5176 15.50864 15.49779 15.48963 15.47751 15.46773 15.46129 15.4595 15.46023 15.46279 15.46934 15.48269 15.49184 15.49499 15.51573 15.53678 15.55439 15.57947 15.60004 15.62653 15.65254 15.6791 15.70042 15.72267 15.7462 15.783 15.8182 15.84865 15.8782 15.90088 15.92697 15.95895 15.98486 16.0085 16.03143 16.04575 16.05533 16.05798 16.05963 16.06019 16.06388 16.06264 16.06551 16.06517 16.07717 16.09294 16.1087 16.12394 16.14423 16.16303 16.1821 16.20086 16.21508 16.22981 16.24911 16.26742 16.28281 16.29131 16.29766 16.30616 16.31824 16.3283 16.33892 16.35075 16.36335 16.37554 16.37977 16.3809 16.37915 16.37968 16.37616 16.37557 16.3599
14.69157 14.6927 15.63203 15.88409 14.71005 14.60336 14.70796 14.83976 14.93134 15.00643 15.05802 15.09823 15.13667 15.1701 15.19838 15.24074 15.2622 15.28444 15.30274 15.31769 15.33554 15.35305 15.36695 15.37735 15.3934 15.41338 15.43983 15.46661 15.49227 15.5161 15.52895 15.54141 15.55064 15.54975 15.54023 15.52646 15.51473 15.50268 15.49536 15.48676 15.47677 15.47064 15.46457 15.46258 15.46171 15.46757 15.47083 15.47636 15.48826 15.50813 15.53013 15.5473 15.56775 15.58676 15.60571 15.6348 15.66212 15.68821 15.70779 15.73453 15.7576 15.78724 15.82877 15.85774 15.88536 15.9051 15.92578 15.95161 15.98543 16.00912 16.02664 16.03751 16.04837 16.05273 16.05523 16.0529 16.05446 16.05543 16.05341 16.0606 16.07461 16.08919 16.11161 16.12862 16.15496 16.1744 16.19956 16.22403 16.24273 16.26096 16.28477 16.30419 16.31972 16.33049 16.33979 16.34565 16.35887 16.36805 16.38379 16.39721 16.41042 16.41869 16.42205 16.42187 16.41608 16.41914 16.41389 16.4033 16.39338
14.69658 14.68655 14.69497 14.70996 14.72018 14.79375 14.88487 14.96508 15.02128 15.06501 15.09915 15.12884 15.14996 15.16626 15.19706 15.2354 15.25138 15.25467 15.27693 15.28946 15.29877 15.32168 15.33458 15.34368 15.36131 15.38704 15.41024 15.44436 15.47047 15.49653 15.51496 15.53263 15.54477 15.55071 15.5464 15.5348 15.5203 15.50896 15.49865 15.49423 15.48508 15.47711 15.47427 15.47047 15.47345 15.47656 15.48059 15.48743 15.50026 15.52154 15.54452 15.56395 15.5847 15.60415 15.62847 15.6566 15.68711 15.71176 15.73306 15.7536 15.77599 15.81032 15.84314 15.86784 15.88639 15.90989 15.92986 15.95244 15.97402 16.00003 16.01571 16.02575 16.04228 16.05065 16.05099 16.05373 16.04775 16.04939 16.05272 16.05477 16.0675 16.09282 16.11701 16.14571 16.16768 16.19879 16.22774 16.25263 16.28046 16.30771 16.3289 16.34707 16.35848 16.36624 16.3722 16.38523 16.39705 16.40329 16.41649 16.43107 16.44288 16.45472 16.45834 16.46054 16.4583 16.45557 16.45151 16.44453 16.4391
14.84277 14.85489 14.87609 14.90233 14.91424 14.96508 15.00441 15.04159 15.06278 15.10572 15.11961 15.13074 15.14626 15.17695 15.20109 15.2401 15.26091 15.26095 15.25458 15.25695 15.26202 15.28321 15.29588 15.31554 15.33299 15.36093 15.39822 15.43382 15.45497 15.47732 15.50127 15.52407 15.54108 15.55585 15.54834 15.53713 15.52666 15.51741 15.51011 15.50278 15.49809 15.49324 15.49135 15.49171 15.48843 15.4905 15.49484 15.50531 15.52346 15.5426 15.56697 15.59703 15.62321 15.64661 15.66504 15.68919 15.72071 15.74817 15.7673 15.78404 15.80613 15.83234 15.86083 15.88428 15.90184 15.92436 15.94522 15.96149 15.981 15.99894 16.01438 16.02664 16.04035 16.05517 16.06142 16.05642 16.0572 16.05989 16.06286 16.06352 16.07992 16.10486 16.13298 16.16297 16.19479 16.22896 16.25985 16.29636 16.33265 16.3589 16.3858 16.40344 16.4096 16.41751 16.42532 16.43549 16.44877 16.46264 16.47135 16.48197 16.49185 16.49805 16.49804 16.4981 16.49249 16.49471 16.48865 16.48482 16.4832
14.91806 14.94175 14.97339 14.99394 15.01435 15.02644 15.04766 15.06072 15.07489 15.09925 15.11464 15.12814 15.14305 15.1629 15.19476 15.2287 15.24354 15.24189 15.23614 15.23734 15.23985 15.24255 15.26432 15.2921 15.31755 15.35434 15.38327 15.42177 15.44329 15.47548 15.50336 15.52998 15.54866 15.56625 15.56681 15.56293 15.55394 15.54491 15.53585 15.52488 15.51738 15.52322 15.51868 15.51273 15.51229 15.51842 15.5237 15.53903 15.56048 15.58541 15.61424 15.64103 15.66886 15.69417 15.70855 15.73434 15.76227 15.78225 15.79997 15.82574 15.84255 15.86751 15.89107 15.9076 15.92893 15.94497 15.96331 15.98449 15.99799 16.01604 16.02925 16.04429 16.05561 16.06654 16.07115 16.07232 16.07548 16.07593 16.07617 16.08133 16.09759 16.11476 16.14453 16.17392 16.20881 16.2476 16.28926 16.3287 16.37384 16.40784 16.43728 16.45771 16.47026 16.47857 16.48842 16.50013 16.51565 16.53304 16.54763 16.56896 16.58717 16.58973 16.57936 16.5702 16.56759 16.5643 16.55868 16.55402 16.55277
14.97252 14.99322 15.00401 15.01538 15.02718 15.03461 15.05325 15.06591 15.074 15.07662 15.09466 15.11292 15.12172 15.14354 15.17514 15.20351 15.21611 15.22151 15.22544 15.22492 15.22343 15.23719 15.25864 15.28803 15.3177 15.36152 15.38674 15.41684 15.44502 15.47739 15.50936 15.53931 15.56064 15.57629 15.58042 15.58297 15.57722 15.57616 15.56842 15.56133 15.55343 15.55237 15.55094 15.55451 15.561 15.56649 15.57815 15.5959 15.61313 15.63238 15.65892 15.68827 15.71631 15.73271 15.75116 15.77454 15.79978 15.81891 15.84224 15.8604 15.88299 15.91071 15.93071 15.95566 15.97582 15.99284 16.0033 16.01079 16.02408 16.04597 16.05859 16.07656 16.09124 16.09636 16.09784 16.10268 16.10153 16.1004 16.10745 16.11416 16.12437 16.14611 16.17781 16.21825 16.2573 16.29175 16.33179 16.37877 16.43308 16.4783 16.5019 16.51655 16.52542 16.53606 16.55144 16.56384 16.57581 16.59152 16.61941 16.64976 16.67741 16.68151 16.67451 16.66224 16.66203 16.66113 16.65871 16.65304 16.64585
14.99139 14.99122 14.99877 15.01045 15.03123 15.04279 15.05448 15.06455 15.05968 15.06234 15.07919 15.09064 15.09711 15.13033 15.15751 15.18235 15.2008 15.21365 15.20758 15.2174 15.22425 15.24671 15.2629 15.30557 15.33256 15.37481 15.40689 15.43584 15.46742 15.49924 15.53073 15.56499 15.58153 15.59533 15.60786 15.60825 15.60391 15.6 15.59798 15.59656 15.59382 15.59374 15.59487 15.59893 15.62294 15.63617 15.65577 15.67427 15.68865 15.71237 15.73129 15.75481 15.7721 15.79876 15.82029 15.84008 15.86483 15.88794 15.90101 15.91716 15.94396 15.96393 15.98768 15.99792 16.02033 16.03116 16.03887 16.05335 16.06101 16.07245 16.09422 16.1027 16.1187 16.12772 16.12547 16.13052 16.13208 16.1345 16.14403 16.16023 16.17927 16.20673 16.23341 16.26935 16.31118 16.35113 16.39086 16.44353 16.49727 16.53184 16.56457 16.58537 16.60126 16.61015 16.62647 16.63451 16.63805 16.65414 16.67295 16.69763 16.72591 16.73494 16.74121 16.74508 16.74465 16.74064 16.74034 16.73002 16.72351
14.99618 15.00415 15.00939 15.01123 15.01758 15.03168 15.04639 15.05546 15.06381 15.06495 15.08927 15.08068 15.0824 15.11013 15.13537 15.15866 15.1815 15.19197 15.19845 15.21117 15.2303 15.25451 15.29195 15.32861 15.36769 15.40671 15.43752 15.47694 15.51136 15.54864 15.57136 15.59005 15.61096 15.63386 15.63948 15.64362 15.64106 15.63916 15.63723 15.63807 15.64158 15.64638 15.6564 15.6773 15.69604 15.7139 15.73174 15.75168 15.7718 15.78227 15.80497 15.82058 15.84029 15.86976 15.89246 15.91645 15.92744 15.9485 15.96744 15.98176 16.01034 16.02848 16.05004 16.06314 16.07963 16.08102 16.09158 16.10343 16.11906 16.13045 16.14622 16.16202 16.17265 16.17689 16.17351 16.1724 16.17674 16.1876 16.20375 16.22421 16.24175 16.25833 16.29107 16.32505 16.36341 16.396 16.43367 16.47642 0 0 16.58216 16.62931 16.64335 16.65451 16.67195 16.67296 16.67989 16.69742 16.69917 0 0 16.74671 16.78478 16.79483 16.79568 16.79777 16.80605 16.80287 16.79224
