ncols        109
nrows        82
xllcorner    -1.041666666667
yllcorner    37.041665395101
cellsize     0.083333333333
NODATA_value -9999
0.0 0 0 0 0 0 0 0 0 0 0 0 0 0 0 0 0 0 0 0 0 0 0 0 0 0 0 0 0 0 0 0 0 0 0 0 0 0 0 0 0 0 0 0 0 0 0 0 0 0 0 0 0 0 0 0 0 0 0 0 0 0 0 0 0 0 0 0 0 0 0 0 0 0 0 0 0 0 0 0 0 0 0 0 0 0 0 0 0 0 0 0 0 0 0 0 0 0 0 0 0 0 0 0 0 17.69919 16.37601 14.9875 14.9808
0 0 0 0 0 0 0 0 0 0 0 0 0 0 0 0 0 0 0 0 0 0 0 0 0 0 0 0 0 0 0 0 0 0 0 0 0 0 0 0 0 0 0 0 0 0 0 0 0 0 0 0 0 0 0 0 0 0 0 0 0 0 0 0 0 0 0 0 0 0 0 0 0 0 0 0 0 0 0 0 0 0 0 0 0 0 0 0 0 0 0 0 0 0 0 0 0 0 0 0 0 15.12312 15.14516 14.9327 14.94489 14.95394 14.95182 14.94065 14.91207
0 0 0 0 0 0 0 0 0 0 0 0 0 0 0 0 0 0 0 0 0 0 0 0 0 0 0 0 0 0 0 0 0 0 0 0 0 0 0 0 0 0 0 0 0 0 0 0 0 0 0 0 0 0 0 0 0 0 0 0 0 0 0 0 0 0 0 0 0 0 0 0 0 0 0 0 0 0 0 0 0 0 0 0 0 0 0 0 0 0 0 0 0 0 0 0 0 0 14.91364 14.91908 14.91842 14.90828 14.8879 14.87289 14.85734 14.83756 14.81824 14.79832 14.77404
0 0 0 0 0 0 0 0 0 0 0 0 0 0 0 0 0 0 0 0 0 0 0 0 0 0 0 0 0 0 0 0 0 0 0 0 0 0 0 0 0 0 0 0 0 0 0 0 0 0 0 0 0 0 0 0 0 0 0 0 0 0 0 0 0 0 0 0 0 0 0 0 0 0 0 0 0 0 0 0 0 0 0 0 0 0 0 0 0 0 0 0 0 0 0 0 0 16.54943 14.88783 14.87388 14.84108 14.81012 14.78003 14.75668 14.7314 14.71108 14.68469 14.66363 14.64011
0 0 0 0 0 0 0 0 0 0 0 0 0 0 0 0 0 0 0 0 0 0 0 0 0 0 0 0 0 0 0 0 0 0 0 0 0 0 0 0 0 0 0 0 0 0 0 0 0 0 0 0 0 0 0 0 0 0 16.51815 16.13648 15.82776 15.95699 0 0 0 0 0 0 0 0 0 0 0 0 0 0 0 0 0 0 0 0 0 0 0 0 0 0 0 0 0 0 0 0 0 15.31929 14.87904 14.87448 14.83253 14.79307 14.7478 14.6923 14.64414 14.60233 14.57096 14.54791 14.52968 14.51735 14.50131
0 0 0 0 0 0 0 0 0 0 0 0 0 0 0 0 0 0 0 0 0 0 0 0 0 0 0 0 0 0 0 0 0 0 0 0 0 0 0 0 0 0 0 0 0 0 0 0 0 0 0 0 0 0 0 0 16.041 16.06518 15.76638 15.52939 15.43021 15.41452 15.51012 15.72443 15.94153 16.05803 16.04667 0 0 0 0 16.34097 0 0 0 0 0 0 0 0 0 0 0 0 0 0 0 0 0 0 0 0 0 15.88858 14.82603 14.85466 14.83161 14.78245 14.72631 14.66015 14.60295 14.54561 14.50282 14.46836 14.45287 14.44322 14.43425 14.42348 14.417
0 0 0 0 0 0 0 0 0 0 0 0 0 0 0 0 0 0 0 0 0 0 0 0 0 0 0 0 0 0 0 0 0 0 0 0 0 0 0 0 0 0 0 0 0 0 0 0 0 0 0 0 0 0 0 16.18208 15.77254 15.43178 15.22355 14.93678 14.99626 15.01977 15.20362 15.34197 15.48654 15.5911 15.68107 15.87775 16.08163 16.04829 15.98309 15.72405 15.49002 15.53939 15.70538 15.43363 15.4438 0 0 0 0 0 0 0 0 0 0 0 0 0 0 0 15.18924 14.84661 14.83327 14.80623 14.76111 14.69228 14.62392 14.55446 14.49374 14.43233 14.38888 14.36324 14.35897 14.35606 14.35816 14.36314 14.36743
0 0 0 0 0 0 0 0 0 0 0 0 0 0 0 0 0 0 0 0 0 0 0 0 0 0 0 0 0 0 0 0 0 0 0 0 0 0 0 0 0 0 0 0 0 0 0 0 0 0 0 15.81658 15.99688 16.14992 15.89425 15.45724 15.21669 14.92975 14.80349 14.8629 14.90751 14.92801 14.92663 15.12326 15.11215 15.30986 15.28857 15.28373 15.31007 15.19996 15.07478 15.09438 14.93577 15.13649 15.16554 15.36828 0 0 0 0 0 0 0 0 0 0 0 0 0 0 0 0 14.82948 14.83253 14.78751 14.7279 14.65607 14.57626 14.50217 14.43897 14.38933 14.34496 14.31806 14.31024 14.31158 14.31708 14.32413 14.33231 14.3394
0 0 0 0 0 0 0 0 0 0 0 0 0 0 0 0 0 0 0 0 0 0 0 0 0 0 0 0 0 0 0 0 0 0 0 0 0 0 0 0 0 0 0 0 0 0 0 0 0 0 15.99002 15.85226 15.60059 15.53822 15.42574 15.12951 14.78641 14.847 14.68384 14.73614 14.77564 14.79649 14.80437 15.00326 14.99844 15.20453 15.19556 15.21148 15.04974 14.89613 14.92336 14.9566 14.79957 15.00144 15.01996 15.24605 15.26083 15.06264 15.0764 15.48632 15.97981 16.78915 0 0 0 0 0 0 0 15.81019 15.23416 14.8354 14.83587 14.79699 14.71841 14.6359 14.56264 14.48588 14.41914 14.36358 14.32432 14.29994 14.28921 14.29055 14.29777 14.30727 14.32059 14.32996 14.3409
0 0 0 0 0 0 0 0 0 0 0 0 0 0 0 0 0 0 0 0 0 0 0 0 0 0 0 0 0 0 0 0 0 0 0 0 0 0 0 0 0 0 0 0 0 0 0 0 0 16.83996 15.68573 15.58212 15.51833 15.20287 15.03542 14.85132 14.89817 14.71844 14.75681 14.79898 14.83269 14.84911 14.85694 15.07535 15.08783 15.09171 15.09845 15.1032 15.1034 14.93047 14.95201 14.79184 14.62555 14.63208 14.64697 14.66485 14.67543 14.6943 14.71743 14.72409 15.13501 15.72651 0 15.52839 16.11409 16.65473 16.95597 16.69124 16.17564 14.81697 14.84132 14.8383 14.79949 14.71661 14.61445 14.53547 14.45836 14.39734 14.34603 14.31397 14.29445 14.29463 14.29414 14.3013 14.30454 14.32146 14.33569 14.34677 14.35689
0 0 0 0 0 0 0 0 0 0 0 0 0 0 0 0 0 0 0 0 0 0 0 0 0 0 0 0 0 0 0 0 0 0 0 0 0 0 0 0 0 0 0 0 0 0 0 0 0 16.53262 15.63084 15.34571 15.04005 14.88675 14.92867 14.7455 14.78119 14.82136 14.85941 14.88845 14.91775 14.93113 14.93449 14.93455 14.93907 14.75663 14.59057 14.75745 14.75752 14.75478 14.76064 14.58441 14.58171 14.58279 14.59944 14.60948 14.61901 14.63595 14.65864 14.67864 14.70218 14.73292 14.74836 14.77144 14.80454 14.81815 15.86023 16.06215 15.65521 14.78956 14.77568 14.73549 14.67665 14.5984 14.52233 14.45586 14.39593 14.34541 14.30928 14.2945 14.29945 14.30875 14.3221 14.32966 14.34108 14.35356 14.364 14.37649 14.38707
0 0 0 0 0 0 0 0 0 0 0 0 0 0 0 0 0 0 0 0 0 0 0 0 0 0 0 0 0 0 0 0 0 0 0 0 0 0 0 0 0 0 0 0 0 0 0 0 0 16.26471 15.56974 15.26282 14.90608 14.96195 14.786 14.83638 14.87684 14.91899 14.94406 14.96889 14.7791 14.7902 14.79369 14.78837 14.77615 14.58799 14.58505 14.57479 14.54892 14.53818 14.53416 14.52658 14.52291 14.52315 14.53346 14.53773 14.54095 14.54669 14.55951 14.57811 14.60205 14.62898 14.65454 14.68089 14.71161 14.7385 14.75329 14.75397 14.73933 14.70698 14.66781 14.61511 14.55351 14.48389 14.42778 14.37923 14.34411 14.30752 14.30271 14.31131 14.31948 14.33242 14.34851 14.35969 14.37286 14.38285 14.39234 14.40562 14.41938
0 0 0 0 0 0 0 0 0 0 0 0 0 0 0 0 0 0 0 0 0 0 0 0 0 0 0 0 0 0 0 0 0 0 0 0 0 0 0 0 0 0 0 0 0 0 0 0 0 16.17547 15.45226 15.12477 14.96929 14.80743 14.86987 14.93919 14.77381 14.79552 14.60693 14.61075 14.6154 14.61279 14.61026 14.6041 14.58791 14.56903 14.55373 14.53515 14.5086 14.48215 14.47058 14.45453 14.43841 14.42962 14.43608 14.43424 14.43814 14.44546 14.4553 14.47137 14.49411 14.51402 14.53679 14.55881 14.57731 14.59329 14.60095 14.59694 14.57989 14.55886 14.53001 14.4956 14.45108 14.40601 14.37048 14.33866 14.31878 14.31073 14.31657 14.32862 14.34921 14.36557 14.38012 14.39008 14.40258 14.41372 14.42508 14.43051 14.44431
0 0 0 0 0 0 0 0 0 0 0 0 0 0 0 0 0 0 0 0 0 0 0 0 0 0 0 0 0 0 0 0 0 0 0 0 0 0 0 0 0 0 0 0 0 0 0 0 0 16.03974 15.499 15.15894 15.01326 14.8526 14.91517 14.76037 14.59914 14.61649 14.61796 14.61243 14.60419 14.59236 14.58189 14.56537 14.5481 14.52565 14.50719 14.48654 14.45906 14.43401 14.41695 14.39717 14.37827 14.36236 14.3506 14.33645 14.32949 14.3286 14.33097 14.34084 14.35743 14.37663 14.3942 14.41618 14.438 14.4601 14.47405 14.47675 14.46443 14.44157 14.41959 14.39396 14.36598 14.34609 14.32748 14.32091 14.32686 14.33349 14.34284 14.35523 14.3717 14.39165 14.40362 14.42049 14.4339 14.44492 14.45541 14.46564 14.47265
0 0 0 0 0 0 0 0 0 0 0 0 0 0 0 0 0 0 0 0 0 0 0 0 0 0 0 0 0 0 0 0 0 0 0 0 0 0 0 0 0 0 0 0 0 0 0 0 0 16.08558 15.29626 14.94261 15.05263 14.9006 14.96105 14.77264 14.59103 14.59313 14.59225 14.58054 14.56524 14.55299 14.53933 14.52127 14.50261 14.47856 14.45214 14.42763 14.39956 14.36864 14.34046 14.31384 14.29553 14.28237 14.26831 14.26065 14.25887 14.2591 14.26256 14.26375 14.27097 14.27937 14.2885 14.29956 14.31607 14.33507 14.34559 14.34724 14.34548 14.34098 14.33643 14.32942 14.32118 14.31926 14.32103 14.32782 14.3398 14.35469 14.36957 14.3804 14.39358 14.40964 14.42757 14.44445 14.45563 14.46405 14.47359 14.48665 14.49958
0 0 0 0 0 0 0 0 0 0 0 0 0 0 0 0 0 0 0 0 0 0 0 0 0 0 0 0 0 0 0 0 0 0 0 0 0 0 0 0 0 0 0 0 0 0 0 0 0 15.57337 15.33828 14.9648 14.85642 14.73929 14.78171 14.58537 14.57981 14.57177 14.55691 14.54114 14.52229 14.50317 14.48505 14.46885 14.45144 14.43083 14.40978 14.38683 14.35995 14.3251 14.29171 14.26127 14.23847 14.2196 14.20533 14.19812 14.19326 14.19433 14.19699 14.20035 14.20526 14.21573 14.22817 14.24315 14.25738 14.26611 14.27552 14.27915 14.27968 14.27705 14.27994 14.28713 14.29571 14.30727 14.31983 14.33515 14.35459 14.37128 14.38739 14.40017 14.41423 14.42789 14.44389 14.46226 14.47255 14.48172 14.49296 14.50903 14.53298
0 0 0 0 0 0 0 0 0 0 0 0 0 0 0 0 0 0 0 0 0 0 0 0 0 0 0 0 0 0 0 0 0 0 0 0 0 0 0 0 0 0 0 0 0 0 0 0 0 0 15.07571 15.02019 14.90688 14.57488 14.59342 14.58083 14.56993 14.55308 14.53551 14.5136 14.49069 14.46801 14.44776 14.43196 14.41748 14.40322 14.38589 14.36298 14.3345 14.30139 14.26644 14.23805 14.21686 14.20112 14.18717 14.17885 14.17422 14.17192 14.17012 14.17123 14.17361 14.17958 14.18649 14.19858 14.20928 14.21882 14.22612 14.23386 14.24021 14.24707 14.25862 14.27083 14.2841 14.30232 14.32154 14.34412 14.36276 14.38242 14.40117 14.4184 14.43474 14.45153 14.46418 14.48004 14.48942 14.49698 14.51254 14.53249 14.55399
0 0 0 0 0 0 0 0 0 0 0 0 0 0 0 0 0 0 0 0 0 0 0 0 0 0 0 0 0 0 0 0 0 0 0 0 0 0 0 0 0 0 0 0 0 0 0 0 0 0 15.2356 14.81968 14.52923 14.58135 14.58529 14.57373 14.55607 14.53495 14.50997 14.4844 14.45634 14.43127 14.41709 14.4098 14.40045 14.39031 14.37723 14.3551 14.32921 14.29827 14.26652 14.23638 14.21169 14.19464 14.18389 14.1752 14.16916 14.16526 14.16408 14.16375 14.1656 14.16987 14.17534 14.17909 14.18693 14.19516 14.20178 14.21076 14.22075 14.22894 14.24438 14.26531 14.28614 14.30592 14.33033 14.35226 14.37178 14.38997 14.41237 14.43238 14.44853 14.46204 14.4765 14.49377 14.50636 14.51818 14.53457 14.55528 14.58146
0 0 0 0 0 0 0 0 0 0 0 0 0 0 0 0 0 0 0 0 0 0 0 0 0 0 0 0 0 0 0 0 0 0 0 0 0 0 0 0 0 0 0 0 0 0 0 0 0 0 0 0 14.53915 14.56165 14.56245 14.55602 14.54677 14.51827 14.48926 14.45995 14.42892 14.40566 14.39459 14.39081 14.38717 14.38253 14.37503 14.36236 14.34403 14.31759 14.28776 14.25618 14.22573 14.20341 14.18909 14.18005 14.17215 14.16735 14.16462 14.16284 14.16295 14.16229 14.16881 14.17288 14.17951 14.18774 14.19538 14.20509 14.21702 14.22909 14.24821 14.27136 14.29524 14.32112 14.34549 14.36941 14.39389 14.41223 14.4314 14.44895 14.46275 14.47518 14.48913 14.50183 14.51934 14.53191 14.5494 14.57065 14.59773
0 0 0 0 0 0 0 0 0 0 0 0 0 0 0 0 0 0 0 0 0 0 0 0 0 0 0 0 0 0 0 0 0 0 0 0 0 0 0 0 0 0 0 0 0 0 0 0 0 0 16.83888 15.21769 14.77004 14.57761 14.56411 14.54998 14.52459 14.49357 14.46479 14.4377 14.41657 14.40377 14.3974 14.39492 14.39403 14.39302 14.39054 14.38125 14.36684 14.34353 14.31555 14.28669 14.25949 14.23728 14.21597 14.20097 14.18858 14.17925 14.17265 14.16678 14.16421 14.16352 14.16889 14.17381 14.18033 14.18863 14.19814 14.20799 14.22321 14.24031 14.26437 14.28951 14.31729 14.34637 14.37287 14.39868 14.41962 14.43475 14.45346 14.46496 14.47841 14.49201 14.50435 14.51914 14.53684 14.55069 14.57085 14.59374 14.61827
0 0 0 0 0 0 0 0 0 0 0 0 0 0 0 0 0 0 0 0 0 0 0 0 0 0 0 0 0 0 0 0 0 0 0 0 0 0 0 0 0 0 0 0 0 0 0 0 0 0 16.16461 15.23686 15.01685 14.58984 14.57336 14.54854 14.51856 14.48103 14.45584 14.43801 14.42598 14.41872 14.41462 14.41961 14.4226 14.42615 14.42504 14.42053 14.40305 14.37945 14.34732 14.31623 14.28808 14.26363 14.24226 14.2243 14.20846 14.19552 14.18676 14.17835 14.17597 14.17584 14.17824 14.18427 14.19031 14.19838 14.21044 14.22328 14.24082 14.26028 14.28661 14.31471 14.3464 14.37949 14.40685 14.43267 14.45113 14.469 14.48003 14.4912 14.50225 14.50921 14.52082 14.53797 14.55135 14.56906 14.58558 14.61149 14.64229
0 0 0 0 0 0 0 0 0 0 0 0 0 0 0 0 0 0 0 0 0 0 0 0 0 0 0 0 0 0 0 0 0 0 0 0 0 0 0 0 0 0 0 0 0 0 0 0 0 0 0 15.2795 14.81574 14.60446 14.58135 14.55031 14.51978 14.48596 14.46433 14.45265 14.44574 14.4422 14.44339 14.44859 14.45814 14.47012 14.47709 14.47316 14.45714 14.43395 14.39953 14.36279 14.33106 14.29744 14.27029 14.24867 14.23044 14.21814 14.20635 14.19703 14.19196 14.1926 14.19605 14.20256 14.20997 14.21881 14.23449 14.25269 14.27347 14.3012 14.32962 14.36195 14.39214 14.41708 14.44155 14.4609 14.47917 14.49518 14.51003 14.51836 14.52712 14.53579 14.54659 14.56184 14.57641 14.59181 14.60964 14.63572 14.66622
0 0 0 0 0 0 0 0 0 0 0 0 0 0 0 0 0 0 0 0 0 0 0 0 0 0 0 0 0 0 0 0 0 0 0 0 0 0 0 0 0 0 0 0 0 0 0 0 0 0 0 15.06459 14.63471 14.61746 14.59036 14.55533 14.52641 14.49549 14.48235 14.47785 14.47728 14.47764 14.4868 14.49821 14.50971 14.51905 14.52643 14.52368 14.50878 14.48166 14.4474 14.40734 14.36923 14.33682 14.3036 14.28132 14.26481 14.2493 14.23727 14.22742 14.22402 14.22496 14.22857 14.23293 14.24042 14.25097 14.26622 14.28813 14.31341 14.34486 14.38115 14.41573 14.44489 14.46733 14.48728 14.50269 14.51677 14.52949 14.54125 14.55053 14.55572 14.56366 14.57274 14.58688 14.60119 14.6183 14.63575 14.66205 14.6904
0 0 0 0 0 0 0 0 0 0 0 0 0 0 0 0 0 0 0 0 0 0 0 0 0 0 0 0 0 0 0 0 0 0 0 0 0 0 0 0 0 0 0 0 0 0 0 0 0 0 0 14.69128 14.66775 14.6425 14.60833 14.56826 14.53469 14.50765 14.49784 14.4964 14.50214 14.51638 14.53397 14.54824 14.5603 14.57096 14.57798 14.57561 14.56252 14.53918 14.50371 14.46166 14.41919 14.38046 14.34522 14.31819 14.2979 14.28072 14.26907 14.2623 14.26349 14.26773 14.27421 14.2827 14.29292 14.30891 14.32372 14.34473 14.37278 14.40463 14.43717 14.46724 14.49128 14.51047 14.52665 14.53999 14.55175 14.56237 14.57513 14.58514 14.59149 14.59752 14.60435 14.61815 14.63192 14.64531 14.66324 14.68463 14.70784
0 0 0 0 0 0 0 0 0 0 0 0 0 0 0 0 0 0 0 0 0 0 0 0 0 0 0 0 0 0 0 0 0 0 0 0 0 0 0 0 0 0 0 0 0 0 0 0 0 16.7142 15.73289 14.72803 14.703 14.66777 14.62457 14.58607 14.55139 14.53 14.52177 14.52502 14.5388 14.55674 14.5728 14.59162 14.60559 14.61612 14.62269 14.62256 14.61116 14.58742 14.5571 14.5207 14.48058 14.43676 14.40251 14.36892 14.34414 14.32635 14.31251 14.30724 14.30936 14.31587 14.32346 14.33169 14.34766 14.36635 14.3852 14.40954 14.44092 14.47162 14.50172 14.52805 14.5487 14.5633 14.57713 14.58775 14.59416 14.60361 14.61041 14.61736 14.62237 14.62708 14.63205 14.64311 14.65377 14.67098 14.68694 14.70777 14.73102
0 0 0 0 0 0 0 0 0 0 0 0 0 0 0 0 0 0 0 0 0 0 0 0 0 0 0 0 0 0 0 0 0 0 0 0 0 0 0 0 0 0 0 0 0 0 0 0 15.80119 15.25771 15.00973 14.76144 14.73218 14.68131 14.63436 14.59596 14.56265 14.54834 14.5469 14.55755 14.58004 14.60288 14.62597 14.64471 14.66194 14.67507 14.68319 14.67868 14.66967 14.64811 14.61294 14.5707 14.52519 14.48429 14.44789 14.41503 14.39011 14.37335 14.36537 14.36356 14.36601 14.37614 14.38853 14.4015 14.42082 14.43898 14.45756 14.47791 14.50058 14.52152 14.5455 14.56812 14.58687 14.60061 14.61406 14.62287 14.63094 14.6419 14.65094 14.65884 14.66177 14.66507 14.66585 14.6703 14.67628 14.69016 14.70369 14.72164 14.7411
0 0 0 0 0 0 0 0 0 0 0 0 0 0 0 0 0 0 0 0 0 0 0 0 0 0 0 0 0 0 0 0 0 0 0 0 0 0 0 0 0 0 0 0 0 15.44936 15.32353 15.86715 15.31989 15.33525 15.06902 14.80615 14.75914 14.70554 14.65788 14.61583 14.58589 14.57213 14.57663 14.59492 14.61855 14.64427 14.66859 14.68991 14.70996 14.72672 14.74026 14.74295 14.73268 14.70872 14.67176 14.63273 14.5915 14.55021 14.50949 14.47343 14.44429 14.42643 14.41939 14.41667 14.41851 14.4308 14.44508 14.46019 14.48334 14.50698 14.52726 14.54415 14.55871 14.57824 14.59706 14.61703 14.63374 14.64281 14.65266 14.6585 14.66512 14.67486 14.6839 14.69114 14.69299 14.69653 14.6951 14.69906 14.70411 14.71418 14.7282 14.74258 14.76032
0 0 0 0 0 0 0 0 0 0 0 0 0 0 0 0 0 0 0 0 0 0 0 0 0 0 0 0 0 0 0 0 0 0 0 0 0 0 0 0 0 0 17.54529 17.22314 16.22788 15.38188 14.86417 14.8708 15.40081 15.12399 14.8577 14.8338 14.78384 14.72937 14.68259 14.6452 14.62118 14.61595 14.62575 14.64758 14.67527 14.70118 14.72523 14.74811 14.77205 14.78822 14.79425 14.79352 14.7798 14.75394 14.7202 14.68462 14.64466 14.60384 14.56655 14.53546 14.50785 14.49235 14.48787 14.49144 14.49817 14.50417 14.51583 14.53087 14.54883 14.57004 14.58482 14.59426 14.60529 14.61894 14.63595 14.65471 14.67349 14.68492 14.6917 14.69854 14.7073 14.71689 14.72584 14.73165 14.73331 14.72982 14.72767 14.72374 14.72776 14.73357 14.74604 14.7588 14.77628
0 0 0 0 0 0 0 0 0 0 0 0 0 0 0 0 0 0 0 0 0 0 0 0 0 0 0 0 0 0 0 0 0 0 0 0 0 0 0 0 16.6345 17.02337 17.27524 16.31984 15.43725 14.91179 14.92588 14.94116 14.93613 14.91578 14.88668 14.85164 14.80146 14.75421 14.7158 14.68082 14.66332 14.66504 14.67967 14.70063 14.72706 14.75242 14.77818 14.8083 14.83547 14.84871 14.85247 14.8499 14.83468 14.81063 14.77871 14.74531 14.70717 14.66472 14.62619 14.59288 14.56378 14.54568 14.54149 14.5454 14.55566 14.56182 14.57979 14.59822 14.61764 14.6361 14.64965 14.65871 14.6639 14.67248 14.68457 14.69653 14.70685 14.71532 14.72421 14.73269 14.73939 14.74875 14.75631 14.75898 14.76252 14.75883 14.75274 14.75308 14.75752 14.75964 14.77114 14.78438 14.79759
0 0 0 0 0 0 0 0 0 0 0 0 0 0 0 0 0 0 0 0 0 0 0 0 0 0 0 0 0 0 0 0 0 0 0 0 0 0 0 16.86881 16.60993 16.0359 15.76772 14.93076 14.94318 14.95606 14.97142 14.97855 14.97167 14.94613 14.90995 14.8741 14.83306 14.79642 14.7658 14.74172 14.73531 14.74069 14.75417 14.77484 14.79601 14.81687 14.83861 14.86513 14.88534 14.89632 14.89982 14.8997 14.88316 14.86141 14.83406 14.80621 14.77174 14.73664 14.69882 14.66578 14.63946 14.61865 14.60955 14.60527 14.6137 14.62122 14.63601 14.65288 14.67074 14.6873 14.69748 14.70519 14.70821 14.71454 14.7254 14.73748 14.74564 14.75518 14.76591 14.7717 14.779 14.78536 14.79068 14.78987 14.78743 14.77672 14.77182 14.7711 14.77607 14.78147 14.7886 14.80321 14.81935
0 0 0 0 0 0 0 0 0 0 0 0 0 0 0 0 0 0 0 0 0 0 0 0 0 0 0 0 0 0 0 0 0 0 0 0 0 0 16.07625 15.76585 15.49629 14.95417 14.97198 14.98589 14.99576 15.00491 15.01153 15.01203 14.999 14.97817 14.94801 14.91249 14.87628 14.84218 14.81661 14.80233 14.79937 14.8056 14.82491 14.84519 14.86392 14.88082 14.90386 14.92317 14.93966 14.95267 14.95879 14.95703 14.94522 14.9241 14.89981 14.8688 14.82669 14.79129 14.75332 14.72334 14.69839 14.68167 14.67181 14.67111 14.67715 14.68901 14.70121 14.71563 14.73066 14.74195 14.75103 14.75598 14.75478 14.75795 14.76551 14.77244 14.77835 14.7872 14.79703 14.80456 14.80938 14.81832 14.81903 14.81853 14.81411 14.80453 14.79887 14.80067 14.8071 14.81226 14.82407 14.83843 14.8582
0 0 0 0 0 0 0 0 0 0 0 0 0 0 0 0 0 0 0 0 0 0 0 0 0 0 0 0 0 0 0 0 0 0 17.80472 18.42555 17.52722 15.81365 14.95394 14.96526 14.97665 14.98695 15.00136 15.0165 15.0299 15.03273 15.03715 15.0336 15.02059 15.00246 14.98 14.95485 14.93291 14.90884 14.89441 14.88707 14.88192 14.88452 14.89823 14.90751 14.91863 14.93164 14.94971 14.96944 14.98592 14.99835 15.00545 15.00989 15.00311 14.98847 14.9701 14.9368 14.90185 14.8675 14.8333 14.80389 14.77572 14.75633 14.74065 14.73698 14.73749 14.74335 14.75599 14.76691 14.78005 14.78893 14.79612 14.79918 14.79825 14.80339 14.80957 14.81594 14.82179 14.83111 14.83908 14.84357 14.84452 14.84615 14.84575 14.84065 14.8351 14.82603 14.82038 14.82115 14.83147 14.84467 14.86511 14.88739 14.90592
0 0 0 0 0 0 0 0 0 0 0 0 0 0 0 0 0 0 0 0 0 0 0 0 0 0 0 0 0 18.35596 17.92765 17.68807 17.66365 17.41831 17.11611 16.5219 14.99719 14.99388 14.99573 15.00215 15.01095 15.01701 15.02877 15.03474 15.0431 15.04464 15.04643 15.03872 15.03249 15.02139 15.00643 14.99615 14.98308 14.9724 14.96654 14.96458 14.96279 14.96284 14.97247 14.98106 14.98355 14.99187 15.00868 15.0234 15.03819 15.04617 15.05359 15.05688 15.0469 15.03728 15.01897 14.99151 14.95933 14.93435 14.90379 14.87892 14.85491 14.83775 14.82454 14.81947 14.81979 14.8232 14.82756 14.83466 14.83998 14.84221 14.84041 14.84108 14.8346 14.8383 14.84263 14.84635 14.85804 14.86784 14.87508 14.87852 14.87718 14.8776 14.87696 14.87092 14.86386 14.85702 14.85179 14.85685 14.86754 14.88297 14.90596 14.92916 14.92975
0 0 0 0 0 0 0 0 0 0 0 0 0 0 0 0 0 0 0 0 0 0 0 0 0 18.16216 17.41948 17.40834 16.43544 15.74472 15.40211 15.09024 15.07949 15.06468 15.05184 15.03613 15.02313 15.01287 15.01466 15.02201 15.02975 15.03003 15.03815 15.04582 15.0523 15.05139 15.05598 15.05826 15.05751 15.05858 15.05719 15.05581 15.04687 15.03516 15.02486 15.02141 15.01986 15.01865 15.02057 15.02164 15.0281 15.03675 15.05315 15.07192 15.0856 15.09627 15.10019 15.10607 15.1022 15.09424 15.07994 15.0533 15.02783 15.00066 14.97537 14.94783 14.92577 14.90837 14.89645 14.88955 14.8862 14.88628 14.89122 14.89493 14.89735 14.89931 14.89658 14.89179 14.88701 14.88573 14.88983 14.89457 14.90394 14.90862 14.90979 14.90809 14.90434 14.90052 14.90048 14.89945 14.89283 14.88881 14.88573 14.89537 14.91042 14.93246 14.95013 14.96007 14.93864
0 0 0 0 0 0 0 0 0 0 0 0 0 0 0 0 0 0 0 0 0 0 0 18.35061 17.47236 16.87184 16.52783 16.1789 15.1816 15.16156 15.13699 15.1151 15.10077 15.08756 15.06773 15.04628 15.03255 15.02743 15.02779 15.0336 15.03751 15.03718 15.04198 15.0467 15.05652 15.06373 15.07612 15.08625 15.09448 15.10267 15.10758 15.10952 15.10669 15.09471 15.08222 15.07707 15.07695 15.07667 15.07359 15.06917 15.06896 15.07441 15.08816 15.10604 15.1215 15.13062 15.13792 15.14646 15.1421 15.13617 15.12378 15.1083 15.08876 15.06683 15.04838 15.0329 15.01514 14.99935 14.98566 14.97912 14.96833 14.95896 14.95507 14.95141 14.94996 14.94855 14.94105 14.93377 14.93118 14.93073 14.93344 14.93726 14.945 14.94728 14.94893 14.9436 14.93759 14.9324 14.93192 14.93351 14.93063 14.92935 14.92387 14.9336 14.95007 14.96704 14.97903 14.97316 14.93749
0 0 0 0 0 0 0 0 0 0 0 0 0 0 0 0 0 0 0 0 0 0 17.77187 16.90192 16.55844 16.55192 16.20408 15.84516 15.18066 15.1607 15.13666 15.1143 15.09407 15.07493 15.05545 15.04096 15.0314 15.02466 15.02187 15.02537 15.03293 15.04031 15.04617 15.05913 15.06723 15.0832 15.10047 15.11411 15.12474 15.13391 15.13791 15.13826 15.13477 15.12691 15.11877 15.11653 15.11632 15.11473 15.11139 15.10821 15.10684 15.11558 15.12652 15.1418 15.1572 15.16829 15.17841 15.18336 15.18035 15.17483 15.16511 15.15373 15.13818 15.12057 15.10811 15.09452 15.08379 15.07184 15.06281 15.0568 15.04394 15.03445 15.02671 15.0166 15.01227 15.0107 15.00831 15.00069 14.9934 14.98578 14.98083 14.98251 14.98428 14.98069 14.97871 14.9683 14.96321 14.96118 14.96341 14.96606 14.96725 14.96659 14.96625 14.97815 14.99417 15.00589 15.00198 14.98006 14.93497
0 0 0 0 0 0 0 0 0 0 0 0 0 0 0 0 0 0 0 0 0 19.00956 17.98313 16.89089 16.23087 16.20867 15.84544 15.82916 15.16447 15.14156 15.11918 15.09768 15.07527 15.05412 15.03896 15.0274 15.0157 15.00981 15.00865 15.01577 15.02503 15.0358 15.04895 15.06414 15.07765 15.09631 15.11596 15.1302 15.14016 15.15143 15.155 15.15821 15.15793 15.1519 15.14906 15.14308 15.14241 15.14298 15.13985 15.1365 15.13722 15.1423 15.15394 15.16903 15.18332 15.19442 15.20475 15.21604 15.21762 15.21822 15.21545 15.21013 15.20561 15.19572 15.18447 15.17275 15.16115 15.14896 15.13066 15.12134 15.10398 15.09178 15.07715 15.06767 15.06113 15.05869 15.06249 15.05785 15.05274 15.04652 15.03809 15.03985 15.03495 15.02802 15.01949 15.01204 15.00804 15.00393 14.99961 14.9991 14.99851 14.99899 14.99845 15.01498 15.02756 15.03101 15.02283 14.98507 14.9268
0 0 0 0 0 0 0 0 0 0 0 0 0 0 0 0 0 0 0 0 0 0 0 17.49963 16.57449 16.21217 15.8396 15.49826 15.1503 15.12521 15.10309 15.08171 15.0598 15.04357 15.02964 15.01559 15.00428 15.00245 15.00193 15.01242 15.02318 15.03909 15.05232 15.0682 15.08384 15.102 15.1206 15.13375 15.14569 15.1593 15.16539 15.17218 15.17546 15.17694 15.17397 15.17218 15.17059 15.17188 15.16991 15.17326 15.17554 15.17815 15.18722 15.19968 15.20937 15.21754 15.22911 15.24098 15.24844 15.2517 15.25438 15.25293 15.25382 15.25456 15.24986 15.24295 15.23558 15.22357 15.21054 15.19804 15.18095 15.16477 15.14863 15.13763 15.12893 15.12443 15.12027 15.11623 15.10499 15.09509 15.08537 15.08233 15.07281 15.06369 15.05801 15.0591 15.05614 15.05029 15.04706 15.04362 15.04338 15.04471 15.04659 15.05794 15.0629 15.06083 15.03783 14.98826 14.92048
0 0 0 0 0 0 0 0 0 0 0 0 0 0 0 0 0 0 0 0 0 19.41865 19.11592 18.11471 16.61602 16.23543 15.85515 15.83183 15.45689 15.11759 15.09322 15.06995 15.05155 15.03637 15.02214 15.00967 15.00042 15.00076 15.00617 15.01532 15.02726 15.04234 15.05814 15.07455 15.09119 15.10795 15.12376 15.1419 15.15841 15.17272 15.18376 15.1927 15.20092 15.20286 15.20171 15.20378 15.20129 15.20207 15.19835 15.2035 15.20417 15.20725 15.2145 15.22149 15.23339 15.24595 15.25676 15.26956 15.28023 15.28737 15.29483 15.29814 15.30121 15.30471 15.30133 15.30097 15.29348 15.28061 15.27023 15.25669 15.24317 15.22788 15.21567 15.2059 15.19684 15.18952 15.18432 15.17747 15.16573 15.15034 15.13658 15.12474 15.11425 15.10909 15.10327 15.10059 15.09675 15.09385 15.0881 15.08469 15.08208 15.0853 15.0877 15.09537 15.09122 15.08001 15.05049 14.99635 14.92164
0 0 0 0 0 0 0 0 0 0 0 0 0 0 0 0 0 0 0 19.45058 19.38268 19.28219 18.43104 17.32168 16.64381 16.25974 15.87455 16.18703 15.14662 15.11 15.08378 15.06012 15.04544 15.03139 15.01943 15.00485 15.00162 15.00485 15.01381 15.02271 15.03557 15.0492 15.06652 15.08436 15.10047 15.11559 15.13415 15.15201 15.17288 15.19406 15.20904 15.22587 15.23624 15.23909 15.24241 15.24411 15.24632 15.24365 15.24185 15.23995 15.23687 15.23321 15.23566 15.24302 15.25577 15.2685 15.27982 15.29135 15.30257 15.31178 15.32637 15.33587 15.34815 15.35633 15.36359 15.36437 15.35884 15.35387 15.34351 15.33166 15.31543 15.29961 15.28764 15.27172 15.25725 15.24214 15.23045 15.2195 15.20684 15.19072 15.17503 15.16847 15.16027 15.15486 15.15167 15.15277 15.15214 15.14963 15.14164 15.13807 15.13376 15.13094 15.12703 15.12634 15.11716 15.09818 15.0656 15.01022 14.93083
0 0 0 0 0 0 0 0 0 0 0 0 0 0 0 0 0 0 18.93172 18.81373 18.46366 17.99197 17.37265 16.68818 16.32388 16.27561 15.891 15.50895 15.15354 15.10962 15.07913 15.05775 15.04641 15.03275 15.02032 15.01318 15.0133 15.01907 15.02881 15.03965 15.05373 15.07143 15.0887 15.10371 15.11702 15.13118 15.14662 15.16746 15.19065 15.21278 15.23581 15.25164 15.26612 15.27437 15.28135 15.28778 15.28655 15.28739 15.28296 15.28104 15.27624 15.27276 15.27234 15.27614 15.28548 15.29821 15.30733 15.31369 15.32167 15.33075 15.34743 15.36257 15.37695 15.39025 15.40081 15.4066 15.40866 15.40819 15.40552 15.40103 15.39205 15.37798 15.36562 15.34813 15.32717 15.30871 15.28861 15.27208 15.25411 15.2354 15.22067 15.20547 15.19731 15.19445 15.1911 15.19232 15.19342 15.1929 15.1867 15.18012 15.17796 15.17319 15.16908 15.16489 15.14925 15.12405 15.09598 15.03906 14.96577
0 0 0 0 0 0 0 0 0 0 0 0 0 0 0 0 0 19.37421 18.82443 18.19563 17.68259 17.056 16.71722 16.70164 16.68985 16.284 15.88974 15.19099 15.14566 15.10591 15.07855 15.05936 15.04748 15.03378 15.0267 15.02494 15.0273 15.03527 15.04381 15.05844 15.07625 15.09537 15.11292 15.1297 15.14042 15.15756 15.17446 15.19462 15.21903 15.24609 15.27056 15.29084 15.30589 15.31456 15.32118 15.32488 15.3256 15.32408 15.32106 15.31509 15.31037 15.30718 15.3091 15.31116 15.31782 15.32383 15.33168 15.33812 15.34842 15.3603 15.37758 15.39427 15.41542 15.43311 15.44451 15.45177 15.45806 15.46 15.46037 15.45849 15.45173 15.43846 15.42231 15.40125 15.37765 15.35877 15.33989 15.32208 15.30452 15.28351 15.26511 15.25527 15.24822 15.24481 15.24245 15.24107 15.24066 15.23538 15.2279 15.21839 15.21248 15.20768 15.20111 15.19185 15.1796 15.16046 15.12642 15.07533 15.00907
0 0 0 0 0 0 0 0 0 0 0 0 0 0 0 0 18.86206 18.85044 17.97756 17.39148 17.06803 16.72758 16.71745 16.7084 16.68884 16.2824 15.88603 15.19154 15.13977 15.10477 15.0785 15.06211 15.04978 15.04453 15.04673 15.05082 15.05508 15.05972 15.06742 15.08023 15.09945 15.11969 15.13853 15.15576 15.17311 15.18914 15.20805 15.22892 15.25474 15.28035 15.30721 15.32992 15.34567 15.35879 15.36453 15.36957 15.37366 15.37612 15.37197 15.36905 15.36538 15.35847 15.35203 15.34609 15.34403 15.34833 15.35473 15.36189 15.37134 15.38259 15.39794 15.41737 15.4427 15.46485 15.48183 15.49523 15.50646 15.51492 15.51855 15.51984 15.51181 15.50015 15.48241 15.45946 15.43669 15.41118 15.38816 15.36318 15.33649 15.31835 15.30071 15.29322 15.2877 15.28689 15.28325 15.28089 15.27928 15.27474 15.26827 15.26054 15.25229 15.24651 15.23492 15.23085 15.22299 15.20176 15.16626 15.11746 15.0518
0 0 0 0 0 0 0 0 0 0 0 0 0 0 0 19.42306 18.68417 17.97844 17.38392 17.05811 16.71497 16.71293 16.70997 16.33441 16.30717 15.92731 15.21922 15.17572 15.13338 15.10225 15.07923 15.06677 15.06315 15.06544 15.07099 15.07815 15.08446 15.09048 15.10018 15.11468 15.1382 15.16011 15.18066 15.20113 15.22244 15.24036 15.26096 15.28422 15.30982 15.33326 15.35423 15.37258 15.3877 15.39734 15.40583 15.40913 15.41496 15.42184 15.43014 15.43297 15.43207 15.42711 15.41256 15.39909 15.38501 15.38098 15.38229 15.38695 15.39145 15.40013 15.41817 15.43805 15.46731 15.48846 15.51188 15.52841 15.53928 15.55162 15.56096 15.56444 15.5575 15.54452 15.5314 15.51498 15.49335 15.4677 15.44345 15.41715 15.38744 15.36594 15.34937 15.34234 15.335 15.32693 15.31891 15.31459 15.30774 15.30353 15.29576 15.2883 15.28071 15.27653 15.26673 15.26236 15.25764 15.23773 15.20598 15.16129 15.10075
0 0 0 0 0 0 0 0 0 0 0 0 0 0 18.74035 18.74023 18.01821 17.38558 17.05007 16.69908 16.69716 16.32806 16.3149 16.30388 15.93337 15.5529 15.20086 15.16093 15.12797 15.10512 15.09041 15.08331 15.08311 15.08835 15.09682 15.10149 15.10821 15.1188 15.13499 15.15327 15.1788 15.20619 15.23133 15.25693 15.27818 15.29862 15.3272 15.35862 15.38471 15.4057 15.42125 15.43486 15.44708 15.4553 15.46093 15.46545 15.47466 15.48183 15.49096 15.49649 15.49757 15.49575 15.48175 15.46328 15.43896 15.41927 15.41075 15.4099 15.41068 15.41565 15.43451 15.45914 15.48802 15.51869 15.54487 15.5688 15.58437 15.59712 15.60477 15.60619 15.59851 15.58562 15.57289 15.55527 15.53375 15.51155 15.49025 15.46322 15.43341 15.41139 15.39672 15.38493 15.37735 15.36774 15.36122 15.35125 15.34281 15.33316 15.32735 15.31976 15.30937 15.3052 15.29911 15.2943 15.28811 15.26475 15.23065 15.18738 15.12471
0 0 0 0 0 0 0 0 0 0 0 0 0 18.6049 18.7808 18.0173 17.36883 17.04178 16.68679 16.68393 16.32274 16.30781 16.29768 16.28882 15.90632 15.20798 15.17868 15.14951 15.12794 15.11275 15.10483 15.10747 15.11203 15.11788 15.12526 15.13476 15.14404 15.15809 15.1784 15.2027 15.23442 15.26425 15.29041 15.314 15.34004 15.36443 15.39916 15.43022 15.45392 15.47217 15.48534 15.49625 15.5062 15.51014 15.5135 15.51482 15.51789 15.53358 0 0 0 15.49169 15.49572 15.54212 15.51535 15.47927 15.45041 15.43761 15.43087 15.42749 15.44204 15.46774 15.50164 15.53592 15.56972 15.59579 15.61544 15.63303 15.64347 15.64701 15.64339 15.63499 15.61966 15.60483 15.58505 15.56727 15.54593 15.52211 15.49242 15.46496 15.44689 15.43256 15.41966 15.4063 15.39769 15.38577 15.37373 15.3631 15.35451 15.34714 15.33882 15.33765 15.3309 15.33009 15.32265 15.30232 15.26452 15.2131 15.14773
0 0 0 0 0 0 0 0 0 0 0 0 0 18.99222 18.04168 17.38169 17.01314 16.65024 16.65708 16.28751 16.28812 16.28904 16.28529 15.22353 15.2022 15.18493 15.16332 15.14429 15.12967 15.1202 15.11762 15.1259 15.13354 15.14257 15.15419 15.16575 15.18081 15.20023 15.22541 15.2601 15.29744 15.33574 15.36817 15.39575 15.42798 15.46456 15.49585 15.52086 15.53549 15.54664 15.55577 16.34512 15.56843 15.55422 15.54656 15.91505 16.70971 17.51494 0 0 0 0 0 15.96221 15.56909 15.53093 15.4901 15.46432 15.45147 15.44369 15.45694 15.48431 15.5184 15.55391 15.5923 15.62204 15.6462 15.66644 15.6735 15.68013 15.67477 15.67002 15.6572 15.64216 15.62934 15.61539 15.60034 15.57848 15.55586 15.53224 15.51513 15.49854 15.48326 15.46798 15.45288 15.43519 15.42052 15.40428 15.39215 15.38259 15.37318 15.36448 15.36011 15.35679 15.35113 15.33229 15.29272 15.23532 15.16843
0 0 0 0 0 0 0 0 0 0 0 0 19.16157 18.34845 17.38364 17.00567 16.61985 16.25334 16.26406 16.27261 16.27776 16.28198 15.90877 15.21189 15.1912 15.16936 15.15098 15.14082 15.13127 15.12795 15.13331 15.1432 15.15516 15.16853 15.18375 15.19894 15.21443 15.23649 15.26995 15.3126 15.36015 15.40254 15.43775 15.47373 15.51108 15.54127 15.55354 0 0 15.54597 0 17.26317 16.42458 15.98282 16.3711 16.34026 17.12809 17.56565 18.55327 16.31255 15.56738 0 0 0 17.22229 15.55214 15.50991 15.48248 15.46673 15.46314 15.47594 15.50514 15.53971 15.57809 15.61914 15.65328 15.67951 15.69841 15.71056 15.71884 15.72019 15.7099 15.6995 15.68402 15.66784 15.65267 15.64183 15.62581 15.60811 15.5875 15.56772 15.55186 15.53638 15.52037 15.50528 15.48878 15.47034 15.45611 15.44243 15.42886 15.41669 15.40765 15.39969 15.39354 15.38259 15.36178 15.32217 15.26032 15.1875
0 0 0 0 0 0 0 0 0 0 0 18.42988 18.39125 17.39875 17.01157 16.237 16.24478 16.26073 16.27132 16.27511 16.28908 15.57766 15.23201 15.20858 15.18585 15.16414 15.15231 15.14769 15.1469 15.14881 15.15442 15.16582 15.1801 15.19522 15.21172 15.2312 15.2561 15.29155 15.33698 15.38848 15.44076 15.48511 15.51893 15.54821 16.36583 0 0 0 0 0 18.06424 18.8653 18.61841 18.01633 17.63031 17.17934 17.15205 15.93888 15.55989 15.56757 15.56948 15.5651 15.55892 17.61598 17.97658 15.56133 15.52801 15.50516 15.49038 15.4863 15.49865 15.52446 15.55911 15.59783 15.63962 15.67694 15.70374 15.72484 15.73945 15.753 15.75395 15.74718 15.73493 15.72059 15.70686 15.69537 15.69038 15.68031 15.66894 15.64827 15.62627 15.60718 15.58897 15.56954 15.55012 15.53229 15.5153 15.49924 15.484 15.47048 15.45587 15.44606 15.43492 15.42641 15.4141 15.39016 15.35266 15.29378 15.2145
0 0 0 0 0 0 0 0 0 0 19.17099 18.43649 17.41489 16.6365 16.25859 15.89646 15.91146 15.92993 15.93752 15.94677 15.95219 15.26005 15.23732 15.21306 15.1904 15.17412 15.16653 15.16564 15.16568 15.1695 15.17719 15.18933 15.20377 15.21858 15.2399 15.26471 15.2981 15.34157 15.39689 15.46104 15.52148 15.55999 15.96976 0 0 0 0 0 0 0 0 0 0 0 18.01955 17.63919 16.78928 15.57428 15.58259 15.58827 15.58827 15.58572 15.58224 15.57762 15.5751 15.56913 15.5476 15.5325 15.52058 15.51798 15.5293 15.55351 15.58651 15.62184 15.66175 15.69966 15.72804 15.74992 15.76631 15.78021 15.78133 15.7747 15.76018 15.75074 15.74127 15.73441 15.72899 15.7246 15.714 15.69757 15.67479 15.6554 15.63667 15.61948 15.60222 15.5845 15.56865 15.5522 15.53463 15.51607 15.50357 15.4916 15.47274 15.45813 15.43982 15.41483 15.37456 15.31498 15.23909
0 0 0 0 0 0 0 0 0 0 18.73303 17.43083 16.64939 16.2613 15.56226 15.57298 15.26074 15.26981 15.28901 15.29002 15.28259 15.26944 15.24899 15.23059 15.20994 15.20039 15.19774 15.20164 15.20377 15.20855 15.21628 15.22536 15.23945 15.25548 15.27575 15.30163 15.33732 15.38535 15.44282 15.51011 16.78108 0 0 0 0 0 0 0 0 0 0 0 0 0 18.68687 17.27081 15.6073 15.61011 15.6185 15.62635 15.6297 15.62521 15.61835 15.61049 15.59974 15.5852 15.56852 15.55965 15.55206 15.55226 15.55853 15.58129 15.61226 15.64835 15.68895 15.72544 15.75169 15.77394 15.79206 15.80778 15.81006 15.80359 15.79599 15.78912 15.78302 15.77283 15.76772 15.76075 15.74765 15.73155 15.71285 15.69012 15.67332 15.65892 15.64381 15.62691 15.60982 15.59705 15.58245 15.56605 15.55458 15.5398 15.51704 15.49379 15.47424 15.44415 15.39779 15.33656 15.2628
0 0 0 0 0 0 0 0 0 18.82181 18.17024 17.05037 16.26208 15.55499 15.24139 15.25146 15.25646 15.2676 15.27653 15.28296 15.28406 15.27872 15.26569 15.25174 15.23589 15.229 15.22774 15.23272 15.241 15.24797 15.26186 15.26978 15.28039 15.2991 15.32006 15.3478 15.38616 15.43445 15.49153 16.34266 16.5793 0 0 0 0 0 0 0 0 0 0 0 0 17.95917 17.7199 16.44135 15.62534 15.63739 15.65496 15.66892 15.67133 15.66779 15.65937 15.64849 15.63438 15.61708 15.60174 15.59342 15.58983 15.59088 15.5978 15.61819 15.64569 15.68053 15.71593 15.74606 15.77356 15.79787 15.81907 15.83122 15.83207 15.828 15.82561 15.81966 15.81531 15.81023 15.80576 15.79807 15.78937 15.7717 15.75262 15.7323 15.7138 15.69996 15.68415 15.66817 15.65302 15.63809 15.62213 15.60713 15.59359 15.57659 15.5494 15.52637 15.49884 15.46301 15.41638 15.35371 15.28379
0 0 0 0 0 0 0 0 19.633 18.54112 17.07429 16.25808 15.8799 15.2223 15.2348 15.24348 15.24999 15.2564 15.2624 15.27253 15.28019 15.28346 15.27941 15.2699 15.26277 15.25683 15.26009 15.26876 15.27689 15.29032 15.29944 15.30697 15.31801 15.33542 15.35588 15.38581 15.42237 15.46544 15.88912 16.34762 16.81931 17.675 0 18.52791 19.11193 0 0 0 0 0 0 0 18.76658 17.73024 16.89228 15.63568 15.64986 15.6714 15.69226 15.70616 15.70823 15.70211 15.69332 15.68008 15.66788 15.65352 15.64047 15.632 15.63188 15.63739 15.6477 15.66669 15.69063 15.71975 15.75053 15.77865 15.80655 15.83074 15.85017 15.86049 15.86208 15.85821 15.85436 15.84903 15.84224 15.84024 15.8354 15.83029 15.82035 15.80622 15.7911 15.77331 15.75608 15.74019 15.72662 15.71363 15.6996 15.68499 15.67408 15.65639 15.64072 15.61525 15.58719 15.55758 15.52602 15.48255 15.43069 15.36753 15.29828
0 0 0 0 0 0 0 0 19.65948 18.55973 17.07604 16.24829 15.20729 15.21502 15.22573 15.23348 15.24477 15.25249 15.25962 15.2705 15.28299 15.29105 15.29013 15.28772 15.28817 15.29125 15.30409 15.32164 15.3387 15.35021 15.36142 15.36576 15.37354 15.38266 15.39911 15.42405 15.45718 15.48908 15.52093 15.94695 16.38239 16.83521 17.28328 17.73315 18.51993 0 0 0 0 0 0 18.15326 17.31984 17.31698 15.64215 15.66525 15.68935 15.71888 15.73875 15.74854 15.74757 15.7397 15.72642 15.71252 15.69811 15.68535 15.6763 15.66892 15.66993 15.67633 15.68808 15.70503 15.7256 15.7552 15.78359 15.81466 15.84074 15.86931 15.88628 15.89976 15.90262 15.89826 15.89576 15.88627 15.88151 15.87798 15.8759 15.86769 15.85851 15.84392 15.82781 15.81007 15.79432 15.77488 15.76153 15.74933 15.73669 15.72496 15.7089 15.6935 15.67455 15.65046 15.61796 15.58545 15.54621 15.49692 15.44105 15.38012 15.30879
0 0 0 0 0 0 0 0 0 18.59317 17.08819 16.25714 15.19916 15.20476 15.21417 15.22883 15.24195 15.25047 15.26141 15.27689 15.28809 15.29612 15.29884 15.30531 15.31494 15.32891 15.34735 15.37178 15.3973 15.41676 15.42822 15.43137 15.43373 15.43804 15.45277 15.47635 15.49895 15.51899 15.54129 15.55818 15.56823 15.57832 15.59213 15.9967 16.86123 17.71848 18.53282 18.85967 0 0 18.48599 17.30593 16.45087 15.64002 15.66477 15.69779 15.7291 15.75847 15.77353 15.77884 15.77792 15.77115 15.7603 15.75002 15.73834 15.72871 15.72126 15.71757 15.71689 15.72117 15.73328 15.74701 15.76669 15.79288 15.81817 15.84803 15.87429 15.90183 15.92117 15.93292 15.93606 15.93441 15.92807 15.92306 15.91736 15.91609 15.91377 15.91001 15.90211 15.8891 15.8732 15.85555 15.83858 15.81995 15.80471 15.79183 15.77725 15.76199 15.74633 15.72645 15.70725 15.67971 15.64678 15.60938 15.56256 15.50848 15.44929 15.38388 15.31393
0 0 0 0 0 0 0 0 0 19.55014 17.90244 16.68623 15.52823 15.20234 15.21201 15.22712 15.23945 15.24923 15.26358 15.27986 15.28998 15.30063 15.31424 15.3281 15.35127 15.37528 15.40352 15.43509 15.46123 15.48018 15.48661 15.48794 15.4816 15.48525 15.50029 15.51938 15.53717 15.55021 15.56154 15.5697 15.57702 15.57956 15.58495 15.59321 15.99799 16.42726 16.8643 17.28203 18.50051 17.3036 16.00395 15.62131 15.64236 15.66983 15.70501 15.73784 15.76538 15.78621 15.79911 15.80484 15.80243 15.79765 15.78865 15.77948 15.77049 15.76379 15.76061 15.76013 15.75832 15.76618 15.77753 15.78926 15.80961 15.83598 15.86267 15.89092 15.91742 15.94124 15.95751 15.96919 15.97009 15.96563 15.9575 15.95613 15.95339 15.94782 15.94598 15.94212 15.93808 15.92733 15.91114 15.89557 15.87656 15.86059 15.84474 15.83086 15.81651 15.79853 15.78182 15.7615 15.73776 15.70922 15.67342 15.63032 15.57908 15.51993 15.45417 15.38695 15.30935
0 0 0 0 0 0 0 0 0 19.68867 18.91478 17.13605 15.90141 15.21015 15.21827 15.23515 15.24273 15.25093 15.2683 15.28016 15.29718 15.31252 15.33814 15.36057 15.39253 15.42797 15.46967 15.51106 15.54853 15.55741 15.55706 15.55141 15.54131 15.53584 15.54377 15.55916 15.56954 15.57713 15.58233 15.58256 15.58409 15.58314 15.58756 15.59532 15.60452 15.61425 16.0259 0 17.3179 16.02505 15.63845 15.66254 15.69097 15.72103 15.7543 15.78134 15.80347 15.81911 15.82851 15.82953 15.82944 15.82571 15.8216 15.81523 15.80878 15.80363 15.79866 15.79546 15.79485 15.80016 15.81151 15.82565 15.84586 15.87058 15.89386 15.92449 15.95034 15.97239 15.98718 15.99683 15.9988 15.99396 15.98972 15.98553 15.98556 15.98422 15.98107 15.97608 15.97412 15.96458 15.94771 15.93214 15.91442 15.89637 15.87917 15.86342 15.8488 15.83159 15.80958 15.78808 15.76258 15.73052 15.69201 15.64889 15.59437 15.52998 15.45878 15.38627 15.30128
0 0 0 0 0 0 0 0 0 0 19.41188 17.96939 16.31149 15.56587 15.23309 15.24003 15.24397 15.24939 15.26504 15.27947 15.29805 15.32218 15.35613 15.38834 15.4245 15.47103 15.52274 15.56862 0 0 0 15.80286 15.58257 15.5768 15.58169 15.59116 15.60023 15.60431 15.60144 15.59606 15.58692 15.58731 15.5919 15.60354 15.61857 15.63069 15.64751 16.06229 15.66316 15.66838 15.68743 15.71102 15.73963 15.76853 15.7945 15.81737 15.83308 15.84111 15.84541 15.85076 15.85804 15.86019 15.85648 15.85451 15.84903 15.8459 15.84344 15.837 15.83716 15.84125 15.84884 15.86337 15.88327 15.90606 15.93088 15.95789 15.98056 15.99703 16.01045 16.01947 16.02018 16.01635 16.01281 16.01231 16.01211 16.00974 16.00628 15.99997 15.99575 15.98879 15.97697 15.9625 15.94459 15.92683 15.91305 15.89799 15.87992 15.8624 15.84212 15.81477 15.78576 15.74987 15.71208 15.66445 15.61031 15.54257 15.46976 15.39381 15.29984
0 0 0 0 0 0 0 0 0 0 0 19.32592 17.99586 16.34612 15.57875 15.23874 15.2439 15.24363 15.25607 15.27658 15.30509 15.34318 15.37884 15.41071 15.45081 15.50153 15.92405 16.34192 0 0 0 16.49728 16.78194 15.59403 15.60014 15.60865 15.61714 15.62231 15.61804 15.61072 15.60053 15.59791 15.60306 15.61407 15.63686 15.65497 15.66974 15.68628 15.69662 15.70808 15.73295 15.75988 15.78862 15.81458 15.83297 15.8443 15.85213 15.85982 15.8664 15.87366 15.88117 15.8845 15.88593 15.88236 15.88109 15.88102 15.87762 15.87651 15.87486 15.87785 15.88932 15.90516 15.92122 15.94414 15.96667 15.98839 16.00797 16.02262 16.03426 16.04248 16.04231 16.04085 16.03374 16.03349 16.0314 16.03005 16.0255 16.02133 16.01877 16.01002 16.00046 15.98533 15.9643 15.95049 15.93999 15.92679 15.91028 15.89086 15.87182 15.84456 15.81288 15.77523 15.73156 15.68683 15.62812 15.55934 15.48444 15.40413 15.31209
0 0 0 0 0 0 0 0 0 0 0 0 19.52673 18.39511 16.34356 15.58932 15.24805 15.24118 15.25277 15.27892 15.31994 15.36151 15.39386 15.42672 15.46065 15.51616 16.3203 0 0 17.98355 18.07599 16.42607 15.61983 15.60615 15.60919 15.61692 15.62702 15.63294 15.63451 15.62881 15.62176 15.61873 15.62095 15.63186 15.65333 15.67505 15.69266 15.7069 15.72448 15.74765 15.77415 15.80243 15.83355 15.85375 15.86982 15.88114 15.88824 15.8951 15.89889 15.89958 15.90641 15.91027 15.90977 15.91224 15.91412 15.91205 15.91155 15.91035 15.91026 15.91553 15.9265 15.9353 15.95073 15.97242 15.99122 16.01517 16.03107 16.04417 16.05193 16.0598 16.06124 16.05959 16.05785 16.05484 16.05003 16.0485 16.04644 16.04053 16.03877 16.03276 16.02275 16.00829 15.99232 15.97903 15.96779 15.95466 15.93942 15.91791 15.89508 15.86959 15.83735 15.79818 15.75534 15.70715 15.64952 15.58374 15.50969 15.43146 15.34476
0 0 0 0 0 0 0 0 0 0 0 0 0 0 0 16.33954 15.57846 15.23901 15.25645 15.28884 15.33551 15.373 15.4017 15.43254 15.46069 15.87406 15.93496 16.35094 16.76544 19.01393 18.07887 16.41235 15.62167 15.61556 15.61545 15.62502 15.6365 15.6478 15.6523 15.654 15.65127 15.64988 15.64797 15.66071 15.67543 15.69388 15.71311 15.73428 15.75522 15.78044 15.80915 15.83614 15.8624 15.88357 15.9005 15.9134 15.92323 15.92833 15.93127 15.93349 15.93419 15.93257 15.93153 15.93559 15.94286 15.94382 15.94553 15.94773 15.95037 15.95773 15.96672 15.97258 15.98542 16.00511 16.02279 16.04194 16.0558 16.06617 16.07009 16.07578 16.07782 16.07596 16.07575 16.07238 16.0709 16.06909 16.06411 16.06038 16.05465 16.04753 16.04039 16.03003 16.01577 16.00453 15.99512 15.98626 15.96867 15.94617 15.92041 15.89641 15.86636 15.82816 15.78894 15.73661 15.68042 15.61784 15.54603 15.46656 15.38593
0 0 0 0 0 0 0 0 0 0 0 0 0 0 0 17.17109 16.32954 15.24492 15.27366 15.30713 15.35055 15.38353 15.41907 15.44515 15.46869 15.51246 16.31832 16.36685 16.78586 0 18.12701 15.63806 15.62755 15.61973 15.63858 15.63539 15.6483 15.66256 15.6708 15.67587 15.67797 15.67783 15.68086 15.69157 15.70068 15.72126 15.74107 15.76236 15.78664 15.81557 15.84555 15.87231 15.89829 15.91812 15.93386 15.94531 15.95203 15.95727 15.95943 15.95885 15.95823 15.95393 15.9528 15.95537 15.96196 15.96567 15.96955 15.974 15.98177 15.99018 15.99887 16.00834 16.02055 16.03634 16.05568 16.07507 16.08627 16.09464 16.09968 16.10491 16.10727 16.10442 16.10173 16.09805 16.09745 16.09387 16.09052 16.08347 16.07353 16.06414 16.05471 16.04637 16.03637 16.02511 16.01598 16.0044 15.98612 15.96532 15.9442 15.9254 15.89854 15.86495 15.82313 15.77708 15.72561 15.66269 15.59863 15.52496 15.4513
0 0 0 0 0 0 0 0 0 0 0 0 0 18.38967 18.01615 17.17081 16.36153 15.26971 15.29717 15.33526 15.37262 15.40865 15.442 15.46937 15.49313 15.52179 16.72182 17.17342 17.63149 17.53786 18.53167 16.01912 15.62824 15.63117 15.63894 15.65452 15.67024 15.68273 15.69317 15.69796 15.69868 15.69926 15.70478 15.71425 15.72556 15.74473 15.7657 15.79032 15.81481 15.84341 15.87265 15.9015 15.92339 15.94199 15.95664 15.96884 15.97786 15.98348 15.98723 15.98601 15.98169 15.9791 15.97972 15.98127 15.98421 15.99053 15.99309 15.99841 16.0052 16.01315 16.02536 16.03715 16.04998 16.06426 16.08628 16.10406 16.11491 16.12182 16.12978 16.13224 16.12986 16.1279 16.12342 16.12256 16.12008 16.1145 16.10833 16.09878 16.08741 16.07651 16.06839 16.06263 16.05328 16.0455 16.03405 16.02171 16.00852 15.99208 15.97355 15.95602 15.93072 15.8968 15.85822 15.81172 15.76184 15.70509 15.64615 15.58174 15.51521
0 0 0 0 0 0 0 0 0 0 0 0 17.5526 17.14478 17.16939 16.77062 16.01522 15.30642 15.33209 15.36682 15.39984 15.43779 15.47285 15.50094 15.52185 15.54791 16.35811 16.39224 17.21647 18.06269 16.40983 15.61736 15.6311 15.64848 15.6672 15.68564 15.69861 15.709 15.71577 15.71846 15.71792 15.72237 15.72895 15.73543 15.74909 15.76458 15.78729 15.81182 15.83719 15.86252 15.88851 15.91282 15.93399 15.95278 15.96912 15.97916 15.99329 16.00013 15.9982 15.99751 15.99879 16.0004 15.99915 15.99906 16.0018 16.00778 16.01198 16.0202 16.0267 16.03683 16.05385 16.07112 16.0876 16.10691 16.1241 16.134 16.14388 16.15046 16.15324 16.15324 16.15158 16.14566 16.14248 16.13911 16.1339 16.12797 16.11882 16.10834 16.09739 16.08739 16.07948 16.0745 16.06844 16.06075 16.05045 16.03898 16.03012 16.01634 16.00185 15.98382 15.96317 15.93596 15.89861 15.85816 15.81292 15.75662 15.70275 15.64475 15.58192
0 0 0 0 0 0 0 0 19.35872 18.74814 17.54498 16.69766 16.69159 16.6949 16.34687 16.40429 16.07215 15.36413 15.38878 15.41797 15.44881 15.48346 15.51401 15.54162 15.5642 15.5855 15.60822 15.61711 15.62587 15.63361 15.63157 15.64244 15.65937 15.67914 15.69611 15.71143 15.72285 15.72724 15.73117 15.73147 15.73423 15.73575 15.74141 15.75183 15.76618 15.78623 15.8106 15.83245 15.85514 15.87606 15.89506 15.91832 15.93736 15.95668 15.9739 15.98703 15.99831 16.00726 16.01163 16.01303 16.01387 16.01365 16.0141 16.01558 16.01601 16.02067 16.0256 16.03372 16.0463 16.06236 16.0816 16.10322 16.12446 16.14326 16.15844 16.16823 16.17583 16.17726 16.1803 16.17826 16.17444 16.1708 16.16274 16.15894 16.14956 16.14013 16.13335 16.12193 16.10675 16.09586 16.08555 16.08195 16.07738 16.06923 16.06064 16.05317 16.04215 16.03116 16.01658 16.0052 15.9854 15.96726 15.93837 15.90866 15.86707 15.8182 15.76618 15.71189 15.65578
0 0 0 0 0 0 0 18.33485 18.42227 16.70778 16.29049 16.27234 16.28414 16.30943 16.37216 16.06965 15.39838 15.41755 15.44732 15.47539 15.50749 15.53763 15.56652 15.59112 15.6132 15.63443 15.65403 15.66857 15.67733 15.68282 15.68633 15.69572 15.70796 15.71809 15.72732 15.73656 15.74075 15.74098 15.74251 15.74139 15.74262 15.74863 15.75338 15.76177 15.7785 15.79804 15.81913 15.84055 15.86317 15.87915 15.8985 15.91853 15.93334 15.95194 15.97296 15.98886 16.00295 16.01279 16.01742 16.02174 16.02436 16.02604 16.02976 16.02976 16.03424 16.04263 16.05102 16.06163 16.07575 16.09292 16.11242 16.1333 16.156 16.17448 16.1865 16.19592 16.19776 16.19946 16.19846 16.19641 16.18972 16.18719 16.18203 16.17313 16.16571 16.15422 16.14285 16.13319 16.11692 16.10715 16.09813 16.09309 16.09145 16.08696 16.07804 16.07139 16.06221 16.05088 16.04089 16.03002 16.01556 15.99823 15.97721 15.94687 15.91156 15.86597 15.81618 15.76751 15.71198
0 0 0 0 0 0 18.85627 18.84577 16.71264 16.2651 16.23746 16.25107 16.30339 15.99337 15.70468 15.41223 15.43991 15.46536 15.49445 15.52227 15.55525 15.58179 15.61085 15.6316 15.65491 15.67876 15.69551 15.71174 15.72438 15.73291 15.73868 15.7439 15.74963 15.75574 15.75672 15.7552 15.75566 15.75401 15.75538 15.75461 15.75428 15.75964 15.76623 15.77572 15.78819 15.80418 15.82167 15.84317 15.86416 15.88325 15.89997 15.91972 15.9353 15.94994 15.96758 15.986 16.00024 16.01359 16.01947 16.02326 16.0288 16.03546 16.03955 16.04707 16.05568 16.06716 16.07986 16.09589 16.10991 16.12963 16.14872 16.17046 16.19038 16.20859 16.21642 16.22217 16.22275 16.22115 16.21743 16.21019 16.20382 16.20048 16.19262 16.18281 16.17483 16.16451 16.15232 16.1395 16.12659 16.11659 16.10799 16.10247 16.10043 16.10171 16.10079 16.09549 16.08839 16.07925 16.06924 16.0622 16.05375 16.03945 16.02182 15.99292 15.96181 15.92029 15.87693 15.82898 15.77609
0 0 0 0 0 0 19.70358 18.01945 16.66725 16.23011 15.86141 15.91084 15.63485 15.36737 15.42469 15.46948 15.50124 15.52958 15.55405 15.58001 15.60572 15.63199 15.65336 15.67447 15.69568 15.71458 15.73071 15.74376 15.756 15.76854 15.77228 15.77335 15.7756 15.7769 15.77397 15.7698 15.76119 15.75978 15.76039 15.7575 15.76369 15.76848 15.77766 15.78681 15.79434 15.80838 15.82356 15.84288 15.85941 15.87862 15.89838 15.91556 15.93254 15.94874 15.96357 15.97867 15.99533 16.00562 16.01423 16.02102 16.03183 16.0399 16.04721 16.05862 16.07313 16.0879 16.10368 16.11982 16.13803 16.15947 16.17924 16.19849 16.21668 16.23311 16.2432 16.24641 16.24541 16.23892 16.23167 16.22448 16.21599 16.21009 16.2018 16.19148 16.18088 16.17318 16.16264 16.14984 16.13795 16.12895 16.1219 16.11707 16.11356 16.11489 16.11784 16.11303 16.107 16.10075 16.0951 16.09058 16.08463 16.07602 16.06312 16.04093 16.00742 15.97799 15.94526 15.90617 15.85191
0 0 0 0 0 19.80235 19.35367 17.98722 16.64742 16.24902 15.56371 15.29441 15.36253 15.42706 15.47751 15.5204 15.5536 15.57607 15.60211 15.6274 15.65073 15.67554 15.6953 15.71619 15.73296 15.7496 15.76137 15.77314 15.78366 15.7943 15.79637 15.79917 15.79667 15.79221 15.78424 15.77609 15.76793 15.76215 15.75966 15.76269 15.76965 15.77486 15.78356 15.79091 15.79907 15.81122 15.82426 15.8367 15.84808 15.86401 15.8805 15.89823 15.91689 15.93763 15.9538 15.97051 15.98445 15.99568 16.00791 16.02166 16.03308 16.04581 16.05882 16.07529 16.09248 16.10885 16.1291 16.14678 16.16516 16.18266 16.20125 16.2179 16.23555 16.2484 16.25809 16.2592 16.2581 16.25208 16.24041 16.23212 16.22413 16.21759 16.20882 16.2001 16.18972 16.17644 16.16686 16.15835 16.14893 16.14302 16.13761 16.13265 16.13063 16.1311 16.13199 16.12971 16.12569 16.12253 16.11812 16.1154 16.11429 16.10908 16.0962 16.07868 16.04952 16.0202 15.99255 15.95799 15.914
0 0 0 0 18.83338 18.47703 16.68477 16.24389 15.8749 15.23706 15.2868 15.35113 15.41231 15.46373 15.51149 15.55132 15.58141 15.60521 15.63089 15.65573 15.68048 15.70316 15.72377 15.74013 15.75589 15.77008 15.78403 15.78973 15.79806 15.80459 15.80608 15.80601 15.80663 15.80282 15.796 15.7862 15.77754 15.77092 15.765 15.76637 15.7729 15.78139 15.78624 15.79292 15.80019 15.80938 15.82002 15.82781 15.83716 15.84949 15.86269 15.88276 15.90311 15.92429 15.94359 15.96082 15.97355 15.98735 16.00116 16.01818 16.03405 16.0496 16.06532 16.08742 16.11105 16.12941 16.14699 16.16904 16.18932 16.20877 16.22511 16.23951 16.25285 16.26196 16.26904 16.2714 16.26677 16.25938 16.24734 16.23698 16.23158 16.22287 16.21512 16.2072 16.1968 16.18329 16.17374 16.1662 16.16192 16.15657 16.15058 16.14789 16.14678 16.14836 16.14753 16.14704 16.14604 16.14637 16.14517 16.14653 16.14601 16.14238 16.13752 16.12434 16.10433 16.07894 16.05412 16.02211 15.98597
0 0 0 0 19.90888 17.14526 15.24487 15.22513 15.23832 15.28947 15.3454 15.4056 15.46259 15.50769 15.54527 15.58516 15.60922 15.63042 15.65586 15.68198 15.70442 15.7209 15.73714 15.75376 15.76837 15.78259 15.79114 15.79575 15.80209 15.80631 15.80734 15.81081 15.81225 15.8085 15.79995 15.7908 15.78333 15.77821 15.77345 15.77332 15.7788 15.78449 15.78691 15.7906 15.79585 15.80202 15.80805 15.81356 15.82285 15.83289 15.84649 15.86644 15.89024 15.91136 15.92958 15.94645 15.96321 15.97831 15.9946 16.01246 16.03132 16.04865 16.07029 16.09241 16.11435 16.13552 16.1581 16.17917 16.20217 16.22275 16.24069 16.2539 16.26404 16.27227 16.27537 16.27288 16.27356 16.26428 16.25453 16.24815 16.2416 16.23247 16.22409 16.21749 16.20706 16.19909 16.19183 16.18391 16.18141 16.17668 16.17074 16.16868 16.16647 16.16671 16.16866 16.16891 16.16899 16.16885 16.1719 16.17395 16.17544 16.17756 16.17674 16.16824 16.15851 16.14126 16.12326 16.0978 16.06764
0 0 0 19.01314 18.57349 16.70897 15.23162 15.22795 15.27165 15.33197 15.39211 15.45418 15.50309 15.54407 15.57908 15.60715 15.63209 15.65634 15.68266 15.70533 15.72087 15.73486 15.7501 15.75752 15.7685 15.77947 15.78572 15.78953 15.7947 15.79725 15.80339 15.80833 15.81325 15.81062 15.80472 15.79593 15.7874 15.78519 15.77925 15.77721 15.78085 15.78105 15.78401 15.78582 15.78843 15.79609 15.80107 15.80455 15.81039 15.82065 15.83676 15.85783 15.87485 15.89555 15.91353 15.93275 15.95158 15.97007 15.99041 16.00792 16.02649 16.04624 16.07008 16.09294 16.11374 16.13401 16.15674 16.18161 16.20898 16.23071 16.24904 16.2602 16.27039 16.27271 16.27369 16.27177 16.26859 16.26477 16.25767 16.25841 16.24846 16.24043 16.23505 16.2318 16.22524 16.21766 16.21305 16.20802 16.20422 16.20148 16.2023 16.19995 16.19778 16.19698 16.19968 16.20132 16.20249 16.2021 16.20588 16.20916 16.21495 16.2183 16.21726 16.21134 16.20423 16.19211 16.17636 16.15541 16.12306
0 0 0 19.00689 18.56329 16.69813 15.88768 15.24333 15.30057 15.36716 15.42733 15.48762 15.52913 15.5652 15.59874 15.62487 15.64877 15.67134 15.69534 15.71189 15.7288 15.73782 15.74366 15.74878 15.75606 15.76284 15.7703 15.77578 15.78061 15.78454 15.78975 15.79996 15.80636 15.80903 15.80581 15.7963 15.7884 15.78121 15.77935 15.77747 15.77479 15.7734 15.77624 15.77856 15.7818 15.78984 15.79456 15.80099 15.80505 15.81435 15.82831 15.84891 15.86697 15.88487 15.90338 15.92193 15.9388 15.962 15.98188 16.00215 16.02198 16.0414 16.0651 16.08906 16.10903 16.1318 16.15275 16.1786 16.2032 16.22884 16.24839 16.2594 16.26646 16.27113 16.27129 16.26826 16.2671 16.26428 16.26577 16.26253 16.25442 16.24645 16.24298 16.23881 16.23701 16.23447 16.22973 16.22664 16.22865 16.22785 16.23142 16.23232 16.23317 16.23486 16.23885 16.24018 16.24255 16.24641 16.2524 16.25861 16.26617 16.27083 16.27291 16.2668 16.26024 16.25232 16.23729 16.21393 16.18607
0 0 0 19.83842 18.84176 16.6627 15.53547 15.26483 15.33146 15.39825 15.45971 15.50815 15.54906 15.58793 15.61783 15.64105 15.66095 15.68088 15.69996 15.71146 15.72568 15.7338 15.73652 15.74048 15.74649 15.7521 15.7586 15.76328 15.7689 15.77333 15.78326 15.79469 15.8032 15.80878 15.80546 15.79851 15.78977 15.78225 15.77756 15.77825 15.77567 15.77046 15.77268 15.7723 15.77669 15.78013 15.78454 15.79169 15.80065 15.80798 15.8244 15.84592 15.86281 15.8825 15.89985 15.91846 15.93627 15.95644 15.97859 15.99695 16.02074 16.04286 16.06518 16.08945 16.11132 16.13015 16.15027 16.17482 16.2006 16.22778 16.24646 16.26025 16.26531 16.2683 16.2692 16.26714 16.26763 16.26897 16.27067 16.26774 16.25959 16.2536 16.2498 16.25217 16.25104 16.24978 16.24994 16.25133 16.25463 16.25998 16.26369 16.2687 16.26968 16.27044 16.27284 16.27667 16.28084 16.28438 16.29378 16.30089 16.30897 16.31494 16.31784 16.31643 16.31052 16.30179 16.28795 16.2681 16.24297
0 0 0 19.8487 17.4904 15.85452 15.23169 15.29947 15.37041 15.43104 15.48372 15.53089 15.57032 15.60597 15.6348 15.6612 15.68177 15.69535 15.70767 15.71219 15.72129 15.72762 15.73579 15.73581 15.74009 15.74498 15.75454 15.75834 15.76491 15.77068 15.77988 15.79257 15.80378 15.81003 15.81039 15.80353 15.79894 15.79263 15.78876 15.78694 15.78194 15.77548 15.77346 15.77423 15.77551 15.778 15.78199 15.79025 15.80122 15.81434 15.8294 15.84772 15.86837 15.88675 15.90539 15.92354 15.94225 15.96518 15.98678 16.01026 16.03209 16.05499 16.07905 16.10232 16.12325 16.14068 16.15688 16.17647 16.20239 16.22882 16.24963 16.26517 16.26915 16.27088 16.27238 16.27053 16.27222 16.27394 16.27557 16.27091 16.26714 16.26447 16.26275 16.26916 16.27023 16.27552 16.27772 16.28319 16.28868 16.29368 16.30283 16.30917 16.31154 16.31125 16.31595 16.32218 16.32819 16.33518 16.34176 16.34871 16.35469 16.35748 16.35767 16.35494 16.34771 16.33881 16.3213 16.30321 16.28195
15.21799 15.21872 16.59675 17.46324 15.48603 15.19639 15.26115 15.33659 15.40565 15.46533 15.50912 15.55109 15.58757 15.61795 15.64683 15.66938 15.69095 15.70285 15.71014 15.70915 15.71703 15.7229 15.72783 15.7266 15.73274 15.74351 15.75344 15.75902 15.77117 15.77921 15.78836 15.79953 15.80703 15.81333 15.81321 15.81077 15.80752 15.80636 15.80457 15.79873 15.79378 15.78771 15.78174 15.7841 15.78422 15.78344 15.78916 15.79577 15.80516 15.81878 15.83575 15.85732 15.8805 15.89885 15.91736 15.9371 15.95849 15.98388 16.00645 16.02954 16.05043 16.07129 16.09744 16.11817 16.1384 16.15599 16.16923 16.18802 16.21103 16.23189 16.25052 16.26366 16.27013 16.27473 16.27817 16.28036 16.28116 16.28039 16.2813 16.2799 16.2769 16.27737 16.28182 16.28762 16.29058 16.29534 16.303 16.30857 16.31805 16.32751 16.34071 16.35105 16.35145 16.35682 16.36164 16.36705 16.37579 16.38341 16.39424 16.39847 16.40295 16.4019 16.40412 16.40143 16.39589 16.38325 16.3671 16.34951 16.32863
15.22208 15.2139 15.22018 15.23771 15.24562 15.28099 15.33744 15.40112 15.46355 15.51192 15.54579 15.57518 15.60655 15.62992 15.65576 15.67796 15.69563 15.70802 15.7117 15.70765 15.70582 15.70886 15.71627 15.7166 15.72095 15.73746 15.74696 15.76257 15.77024 15.78362 15.79457 15.80469 15.81242 15.81877 15.81636 15.81853 15.818 15.8175 15.82075 15.8129 15.80938 15.80603 15.80396 15.80491 15.80371 15.80089 15.80289 15.8078 15.81678 15.83088 15.84974 15.8731 15.89611 15.91929 15.93817 15.95524 15.97703 16.00358 16.02936 16.05139 16.07365 16.0942 16.11585 16.13525 16.15242 16.16814 16.18344 16.20316 16.22259 16.24043 16.25493 16.26936 16.27695 16.28465 16.28495 16.28806 16.28949 16.29113 16.29084 16.29109 16.29359 16.29599 16.30398 16.31179 16.3163 16.32129 16.32938 16.34081 16.3513 16.3668 16.38028 16.38504 16.38947 16.39282 16.3976 16.40497 16.41253 16.41877 16.43003 16.43504 16.43804 16.4423 16.44365 16.44294 16.43772 16.42466 16.41223 16.39391 16.37638
15.30432 15.31578 15.33042 15.34772 15.36333 15.39207 15.43449 15.47808 15.51826 15.54746 15.57233 15.59509 15.6163 15.6397 15.65941 15.67813 15.6947 15.70901 15.70843 15.70293 15.69653 15.69694 15.70185 15.70302 15.71247 15.72891 15.74546 15.76438 15.77446 15.78316 15.79474 15.80765 15.8194 15.8268 15.82514 15.82658 15.82979 15.83173 15.83601 15.83732 15.83122 15.82673 15.82589 15.82508 15.82371 15.82269 15.82813 15.82871 15.83618 15.85041 15.86827 15.89442 15.92371 15.94528 15.96349 15.98192 16.00337 16.03031 16.05681 16.08188 16.10298 16.12166 16.13944 16.15735 16.17092 16.18534 16.20179 16.21822 16.23424 16.2492 16.26264 16.27532 16.28578 16.29578 16.29795 16.30004 16.29859 16.29866 16.29953 16.30256 16.30892 16.31648 16.32564 16.33504 16.34256 16.35386 16.36698 16.38151 16.3991 16.41562 16.42978 16.43939 16.43972 16.43922 16.44208 16.44881 16.45599 16.46544 16.47596 16.48536 16.48666 16.49119 16.49079 16.48616 16.47639 16.46431 16.44941 16.43524 16.42479
15.38452 15.40098 15.422 15.44481 15.46215 15.478 15.50076 15.52528 15.54707 15.56078 15.57687 15.59851 15.62229 15.64323 15.66103 15.6794 15.69273 15.70039 15.70414 15.70208 15.69765 15.69301 15.69462 15.70081 15.71213 15.73184 15.74811 15.76782 15.78174 15.78641 15.79765 15.81169 15.82452 15.83348 15.83706 15.84122 15.84845 15.85059 15.85984 15.85605 15.85113 15.84614 15.84466 15.84575 15.84686 15.8482 15.8509 15.85479 15.86515 15.87909 15.89862 15.92632 15.95472 15.97755 15.99823 16.01806 16.04055 16.06556 16.09348 16.118 16.13915 16.15606 16.17198 16.18659 16.20287 16.21543 16.22698 16.24077 16.25303 16.2686 16.28419 16.29523 16.30351 16.31147 16.31437 16.31653 16.31404 16.31238 16.31206 16.31522 16.32375 16.33436 16.34661 16.35969 16.37605 16.38881 16.41021 16.43332 16.45348 16.47373 16.49086 16.49932 16.50245 16.50293 16.50369 16.51003 16.51567 16.5305 16.54704 16.56335 16.57423 16.57128 16.56499 16.55508 16.54414 16.53285 16.52074 16.5077 16.49588
15.46834 15.48294 15.49336 15.50159 15.50785 15.513 15.52188 15.53404 15.54744 15.56014 15.5747 15.5898 15.61021 15.63491 15.65663 15.67853 15.68878 15.69724 15.70044 15.69963 15.69772 15.69616 15.69775 15.70853 15.72309 15.74387 15.7609 15.77716 15.78992 15.79819 15.81186 15.82509 15.84147 15.8534 15.86168 15.8642 15.87281 15.87679 15.87777 15.87642 15.87218 15.86943 15.86956 15.87357 15.87865 15.88147 15.88892 15.89479 15.90449 15.91993 15.94423 15.96834 15.99528 16.02061 16.04269 16.06505 16.08478 16.11074 16.13361 16.15422 16.17456 16.19412 16.20927 16.22316 16.23496 16.24834 16.25951 16.26848 16.27455 16.28596 16.29829 16.31356 16.3248 16.33212 16.33493 16.33508 16.33501 16.33483 16.33837 16.34276 16.35034 16.36413 16.3779 16.39544 16.41835 16.44217 16.46822 16.49373 16.51909 16.53948 16.55424 16.56435 16.57071 16.56796 16.56395 16.56895 16.57596 16.59079 16.61447 16.63986 16.66048 16.6629 16.65293 16.63899 16.62896 16.61932 16.60674 16.59089 16.57945
15.51318 15.51975 15.52248 15.5241 15.52328 15.5161 15.51381 15.52482 15.53656 15.54785 15.56286 15.58293 15.60409 15.62916 15.65245 15.67356 15.68485 15.69432 15.69747 15.70047 15.70228 15.70188 15.70989 15.72235 15.74134 15.76139 15.77925 15.79588 15.81339 15.82297 15.83687 15.84977 15.86334 15.87571 15.8868 15.89119 15.89846 15.90445 15.90511 15.90147 15.90054 15.90391 15.91118 15.91941 15.929 15.937 15.95239 15.96434 15.97468 15.9905 16.01422 16.04042 16.06507 16.09289 16.11683 16.13943 16.1622 16.18479 16.19867 16.21626 16.23464 16.24963 16.26468 16.27727 16.28961 16.29737 16.3021 16.31105 16.31524 16.31978 16.32829 16.33744 16.34823 16.35341 16.35713 16.35961 16.36051 16.3624 16.36943 16.38344 16.39491 16.41258 16.42973 16.45152 16.48013 16.50657 16.53738 16.57015 16.59889 16.61853 16.6316 16.64028 16.64704 16.64751 16.64242 16.64006 16.64663 16.65748 16.68013 16.70507 16.72486 16.73066 16.72503 16.71566 16.70672 16.70149 16.69074 16.67748 16.66572
15.52403 15.52616 15.52247 15.51526 15.50771 15.50423 15.50409 15.51319 15.52281 15.5384 15.55496 15.57752 15.60304 15.62944 15.65271 15.67563 15.68718 15.6955 15.7005 15.70389 15.71186 15.71666 15.73147 15.75062 15.77342 15.79246 15.81006 15.82598 15.8453 15.86031 15.87355 15.88922 15.90113 15.91188 15.92344 15.92787 15.93248 15.9344 15.9344 15.93829 15.94358 15.95114 15.96406 15.98094 15.99606 16.00847 16.03054 16.04866 16.06228 16.0798 16.10417 16.12869 16.15362 16.17761 16.20153 16.21826 16.23698 16.25987 16.27822 16.29439 16.31126 16.32473 16.34059 16.35363 16.35739 16.36345 16.37026 16.37249 16.37796 16.38352 16.39135 16.39733 16.40163 16.40348 16.40712 16.40712 16.40742 16.41122 16.42517 16.44127 16.45776 16.47512 16.49198 16.51148 16.5369 16.56595 16.59814 16.62675 0 0 16.68061 16.71209 16.71255 16.71561 16.71163 16.70932 16.71358 16.72613 16.73054 0 0 16.74192 16.78711 16.78464 16.782 16.78193 16.78596 16.78544 16.77234
