ncols        109
nrows        82
xllcorner    -1.041666666667
yllcorner    37.041665395101
cellsize     0.083333333333
NODATA_value -9999
0.0 0 0 0 0 0 0 0 0 0 0 0 0 0 0 0 0 0 0 0 0 0 0 0 0 0 0 0 0 0 0 0 0 0 0 0 0 0 0 0 0 0 0 0 0 0 0 0 0 0 0 0 0 0 0 0 0 0 0 0 0 0 0 0 0 0 0 0 0 0 0 0 0 0 0 0 0 0 0 0 0 0 0 0 0 0 0 0 0 0 0 0 0 0 0 0 0 0 0 0 0 0 0 0 0 17.744 16.47021 15.08112 15.07888
0 0 0 0 0 0 0 0 0 0 0 0 0 0 0 0 0 0 0 0 0 0 0 0 0 0 0 0 0 0 0 0 0 0 0 0 0 0 0 0 0 0 0 0 0 0 0 0 0 0 0 0 0 0 0 0 0 0 0 0 0 0 0 0 0 0 0 0 0 0 0 0 0 0 0 0 0 0 0 0 0 0 0 0 0 0 0 0 0 0 0 0 0 0 0 0 0 0 0 0 0 15.21513 15.24127 15.03324 15.04445 15.05121 15.05095 15.04012 15.01209
0 0 0 0 0 0 0 0 0 0 0 0 0 0 0 0 0 0 0 0 0 0 0 0 0 0 0 0 0 0 0 0 0 0 0 0 0 0 0 0 0 0 0 0 0 0 0 0 0 0 0 0 0 0 0 0 0 0 0 0 0 0 0 0 0 0 0 0 0 0 0 0 0 0 0 0 0 0 0 0 0 0 0 0 0 0 0 0 0 0 0 0 0 0 0 0 0 0 14.99618 15.00626 15.009 14.99927 14.98104 14.96599 14.94897 14.92919 14.90738 14.88431 14.8595
0 0 0 0 0 0 0 0 0 0 0 0 0 0 0 0 0 0 0 0 0 0 0 0 0 0 0 0 0 0 0 0 0 0 0 0 0 0 0 0 0 0 0 0 0 0 0 0 0 0 0 0 0 0 0 0 0 0 0 0 0 0 0 0 0 0 0 0 0 0 0 0 0 0 0 0 0 0 0 0 0 0 0 0 0 0 0 0 0 0 0 0 0 0 0 0 0 16.64386 14.96846 14.95692 14.92712 14.89475 14.8644 14.84114 14.81697 14.79447 14.76847 14.74298 14.7214
0 0 0 0 0 0 0 0 0 0 0 0 0 0 0 0 0 0 0 0 0 0 0 0 0 0 0 0 0 0 0 0 0 0 0 0 0 0 0 0 0 0 0 0 0 0 0 0 0 0 0 0 0 0 0 0 0 0 16.29442 15.91313 15.60349 15.72597 0 0 0 0 0 0 0 0 0 0 0 0 0 0 0 0 0 0 0 0 0 0 0 0 0 0 0 0 0 0 0 0 0 15.38378 14.95545 14.95393 14.91311 14.87074 14.82769 14.77771 14.72638 14.68025 14.65149 14.62649 14.60955 14.59541 14.58607
0 0 0 0 0 0 0 0 0 0 0 0 0 0 0 0 0 0 0 0 0 0 0 0 0 0 0 0 0 0 0 0 0 0 0 0 0 0 0 0 0 0 0 0 0 0 0 0 0 0 0 0 0 0 0 0 15.81398 15.84688 15.56616 15.34754 15.26159 15.23867 15.31589 15.51857 15.70912 15.80362 15.78068 0 0 0 0 16.02897 0 0 0 0 0 0 0 0 0 0 0 0 0 0 0 0 0 0 0 0 0 15.92741 14.89824 14.93203 14.91192 14.85752 14.8007 14.74152 14.67921 14.6197 14.57156 14.54172 14.52708 14.51752 14.50853 14.50575 14.50572
0 0 0 0 0 0 0 0 0 0 0 0 0 0 0 0 0 0 0 0 0 0 0 0 0 0 0 0 0 0 0 0 0 0 0 0 0 0 0 0 0 0 0 0 0 0 0 0 0 0 0 0 0 0 0 15.98156 15.59247 15.28066 15.07467 14.79967 14.86363 14.88735 15.05926 15.18165 15.30402 15.38999 15.45355 15.629 15.82157 15.7733 15.70674 15.44493 15.23134 15.2725 15.41504 15.16974 15.17948 0 0 0 0 0 0 0 0 0 0 0 0 0 0 0 15.2411 14.90627 14.90694 14.88277 14.83474 14.77308 14.70329 14.62867 14.55533 14.49211 14.44917 14.42703 14.42204 14.42293 14.43203 14.44119 14.45762
0 0 0 0 0 0 0 0 0 0 0 0 0 0 0 0 0 0 0 0 0 0 0 0 0 0 0 0 0 0 0 0 0 0 0 0 0 0 0 0 0 0 0 0 0 0 0 0 0 0 0 15.61607 15.76666 15.94543 15.73152 15.3222 15.09678 14.82015 14.69423 14.75628 14.80975 14.83414 14.82717 14.99893 14.97267 15.13766 15.10585 15.0964 15.11768 15.01223 14.89315 14.91552 14.77293 14.95577 14.97858 15.14574 0 0 0 0 0 0 0 0 0 0 0 0 0 0 0 0 14.87298 14.88964 14.86165 14.80839 14.73897 14.65474 14.574 14.50299 14.44663 14.40263 14.38026 14.37402 14.37784 14.38878 14.40209 14.41861 14.43249
0 0 0 0 0 0 0 0 0 0 0 0 0 0 0 0 0 0 0 0 0 0 0 0 0 0 0 0 0 0 0 0 0 0 0 0 0 0 0 0 0 0 0 0 0 0 0 0 0 0 15.81153 15.65398 15.42756 15.38879 15.30358 15.01627 14.68627 14.7578 14.6119 14.66383 14.70164 14.72142 14.72641 14.90548 14.8832 15.06848 15.05789 15.05519 14.89862 14.7607 14.79326 14.82657 14.68538 14.86211 14.88386 15.07343 15.08607 14.91455 14.9226 15.26667 15.6989 16.43577 0 0 0 0 0 0 0 15.733 15.21589 14.84761 14.86782 14.85358 14.78428 14.71908 14.64188 14.56021 14.48975 14.43157 14.38952 14.36003 14.35035 14.35762 14.36712 14.38147 14.39897 14.41529 14.43399
0 0 0 0 0 0 0 0 0 0 0 0 0 0 0 0 0 0 0 0 0 0 0 0 0 0 0 0 0 0 0 0 0 0 0 0 0 0 0 0 0 0 0 0 0 0 0 0 0 16.65576 15.51014 15.42624 15.37157 15.07383 14.90573 14.74278 14.79589 14.63509 14.672 14.71339 14.74886 14.76792 14.77241 14.97206 14.96829 14.97008 14.97096 14.96704 14.9584 14.79092 14.81616 14.67497 14.5374 14.54363 14.56542 14.57928 14.58667 14.60227 14.62287 14.62663 14.98417 15.49539 0 15.34096 15.88595 16.40212 16.69829 16.47748 16.03435 14.78084 14.81932 14.8322 14.816 14.7522 14.67363 14.59472 14.52497 14.45945 14.40579 14.37295 14.35762 14.35086 14.34975 14.35886 14.37587 14.39397 14.41284 14.43132 14.44914
0 0 0 0 0 0 0 0 0 0 0 0 0 0 0 0 0 0 0 0 0 0 0 0 0 0 0 0 0 0 0 0 0 0 0 0 0 0 0 0 0 0 0 0 0 0 0 0 0 16.34327 15.47699 15.19804 14.89904 14.7617 14.80866 14.64295 14.69129 14.73023 14.76357 14.79609 14.82392 14.83375 14.83205 14.82709 14.82663 14.66409 14.5217 14.66364 14.64889 14.64924 14.65199 14.50341 14.50243 14.50539 14.52508 14.53464 14.54413 14.55671 14.57679 14.59215 14.60993 14.63325 14.65541 14.68399 14.72063 14.73684 15.70211 15.90077 15.54565 14.75465 14.75 14.72671 14.68114 14.61968 14.55439 14.49748 14.44581 14.40088 14.36931 14.35547 14.35411 14.36177 14.37207 14.38855 14.40691 14.42547 14.44213 14.45714 14.47447
0 0 0 0 0 0 0 0 0 0 0 0 0 0 0 0 0 0 0 0 0 0 0 0 0 0 0 0 0 0 0 0 0 0 0 0 0 0 0 0 0 0 0 0 0 0 0 0 0 16.08838 15.42091 15.12007 14.77716 14.84427 14.67574 14.72213 14.78036 14.82036 14.84991 14.87139 14.69166 14.70123 14.7008 14.69293 14.686 14.52086 14.51628 14.50277 14.47732 14.46644 14.46509 14.46045 14.45242 14.45263 14.46511 14.47086 14.47486 14.478 14.48811 14.50242 14.52368 14.55124 14.58224 14.6111 14.64271 14.66691 14.68717 14.69423 14.69448 14.67684 14.64517 14.60132 14.54697 14.49162 14.44523 14.40591 14.37414 14.36131 14.35717 14.36258 14.37052 14.3816 14.39336 14.40982 14.43102 14.44929 14.46757 14.4844 14.50092
0 0 0 0 0 0 0 0 0 0 0 0 0 0 0 0 0 0 0 0 0 0 0 0 0 0 0 0 0 0 0 0 0 0 0 0 0 0 0 0 0 0 0 0 0 0 0 0 0 16.01419 15.31379 14.99202 14.85396 14.69683 14.75392 14.81881 14.68207 14.7088 14.53363 14.53567 14.53988 14.5381 14.53133 14.52071 14.50823 14.49208 14.47874 14.46047 14.43439 14.40753 14.39797 14.38408 14.3653 14.35516 14.35752 14.36207 14.37184 14.3754 14.37825 14.39111 14.41598 14.43959 14.46763 14.49336 14.51526 14.53509 14.54751 14.55215 14.54907 14.53822 14.51297 14.48012 14.44012 14.41367 14.38677 14.36476 14.34996 14.35677 14.36239 14.37665 14.39556 14.41142 14.42494 14.43942 14.45461 14.47259 14.48901 14.50517 14.52655
0 0 0 0 0 0 0 0 0 0 0 0 0 0 0 0 0 0 0 0 0 0 0 0 0 0 0 0 0 0 0 0 0 0 0 0 0 0 0 0 0 0 0 0 0 0 0 0 0 15.88964 15.36414 15.03778 14.90025 14.74065 14.80121 14.66176 14.52093 14.53391 14.54105 14.53584 14.53074 14.51697 14.50319 14.48851 14.46759 14.44597 14.42563 14.3992 14.37426 14.3521 14.33421 14.31278 14.29407 14.27315 14.26296 14.26291 14.26204 14.2604 14.25585 14.26477 14.28318 14.30953 14.33617 14.3599 14.38951 14.41238 14.42651 14.43467 14.43118 14.4219 14.40174 14.37655 14.35599 14.34685 14.34569 14.35106 14.36371 14.37401 14.38552 14.40043 14.41753 14.43729 14.45242 14.46747 14.48012 14.49675 14.51542 14.53213 14.55411
0 0 0 0 0 0 0 0 0 0 0 0 0 0 0 0 0 0 0 0 0 0 0 0 0 0 0 0 0 0 0 0 0 0 0 0 0 0 0 0 0 0 0 0 0 0 0 0 0 15.93335 15.16202 14.83213 14.94014 14.79228 14.85805 14.68655 14.5279 14.53365 14.53093 14.51938 14.50569 14.49898 14.48335 14.46367 14.44653 14.42473 14.39706 14.37299 14.34047 14.31021 14.28185 14.25482 14.23416 14.21965 14.20415 14.19662 14.19349 14.19223 14.19504 14.1996 14.21071 14.22566 14.23742 14.25449 14.27204 14.29409 14.30616 14.31289 14.31693 14.31529 14.31393 14.3127 14.31164 14.32019 14.33402 14.35031 14.36973 14.38754 14.40644 14.42269 14.44191 14.46322 14.48032 14.49569 14.50498 14.51637 14.53156 14.55264 14.57397
0 0 0 0 0 0 0 0 0 0 0 0 0 0 0 0 0 0 0 0 0 0 0 0 0 0 0 0 0 0 0 0 0 0 0 0 0 0 0 0 0 0 0 0 0 0 0 0 0 15.43278 15.20298 14.85409 14.75788 14.64993 14.70673 14.53585 14.52621 14.52092 14.51496 14.50188 14.48532 14.46849 14.45525 14.43926 14.42286 14.40493 14.3792 14.35506 14.3241 14.28909 14.25372 14.22247 14.20092 14.17965 14.16501 14.15367 14.1419 14.13866 14.14465 14.15134 14.16139 14.17492 14.18928 14.2073 14.22226 14.23451 14.24555 14.24896 14.25154 14.25002 14.25444 14.27057 14.28765 14.30507 14.324 14.34814 14.37502 14.39627 14.41534 14.43568 14.45586 14.4766 14.49496 14.51275 14.52558 14.53694 14.55058 14.57153 14.59909
0 0 0 0 0 0 0 0 0 0 0 0 0 0 0 0 0 0 0 0 0 0 0 0 0 0 0 0 0 0 0 0 0 0 0 0 0 0 0 0 0 0 0 0 0 0 0 0 0 0 14.95694 14.9062 14.81477 14.51702 14.54907 14.54148 14.51765 14.51343 14.49901 14.48511 14.46322 14.45097 14.43887 14.42322 14.40276 14.38964 14.37091 14.34829 14.31848 14.28716 14.24823 14.21928 14.19647 14.17711 14.15777 14.14358 14.13078 14.1249 14.12575 14.13246 14.13817 14.14667 14.15374 14.17047 14.18156 14.19346 14.19943 14.20663 14.21287 14.22042 14.23085 14.25101 14.27391 14.29748 14.32279 14.34918 14.37413 14.40036 14.42697 14.44754 14.46968 14.48733 14.50426 14.5226 14.53985 14.54894 14.56624 14.58831 14.61218
0 0 0 0 0 0 0 0 0 0 0 0 0 0 0 0 0 0 0 0 0 0 0 0 0 0 0 0 0 0 0 0 0 0 0 0 0 0 0 0 0 0 0 0 0 0 0 0 0 0 15.09894 14.72251 14.46475 14.52053 14.53314 14.53333 14.51203 14.5006 14.48436 14.46173 14.44325 14.43427 14.427 14.41754 14.40559 14.39438 14.37984 14.35822 14.33107 14.30273 14.27018 14.23896 14.21527 14.19144 14.1724 14.15586 14.14288 14.1348 14.13379 14.13482 14.13776 14.14571 14.15383 14.15952 14.16298 14.17109 14.18011 14.19149 14.19821 14.20254 14.21875 14.24368 14.26939 14.29775 14.3316 14.35553 14.37997 14.40402 14.43277 14.45871 14.47757 14.49662 14.51753 14.53534 14.5493 14.56344 14.58033 14.60487 14.63326
0 0 0 0 0 0 0 0 0 0 0 0 0 0 0 0 0 0 0 0 0 0 0 0 0 0 0 0 0 0 0 0 0 0 0 0 0 0 0 0 0 0 0 0 0 0 0 0 0 0 0 0 14.47752 14.50528 14.51253 14.51197 14.50767 14.48959 14.47194 14.44917 14.43465 14.4276 14.42691 14.42264 14.41873 14.41304 14.40362 14.38719 14.36429 14.3341 14.30275 14.27146 14.2407 14.21913 14.19804 14.18023 14.16511 14.15765 14.15168 14.14979 14.15082 14.154 14.15595 14.15801 14.16269 14.1694 14.17647 14.1816 14.18996 14.20323 14.22209 14.24365 14.2694 14.3043 14.33483 14.36466 14.39433 14.41689 14.44061 14.46867 14.48872 14.50792 14.52722 14.54181 14.55908 14.57569 14.59056 14.61588 14.64361
0 0 0 0 0 0 0 0 0 0 0 0 0 0 0 0 0 0 0 0 0 0 0 0 0 0 0 0 0 0 0 0 0 0 0 0 0 0 0 0 0 0 0 0 0 0 0 0 0 0 16.66851 15.1224 14.70608 14.52773 14.52523 14.51201 14.50049 14.48014 14.46192 14.44666 14.43952 14.43408 14.43513 14.43419 14.43623 14.43464 14.42961 14.42044 14.40152 14.37747 14.34384 14.30951 14.27581 14.24723 14.22952 14.20719 14.19099 14.1774 14.16721 14.16621 14.16414 14.16261 14.16579 14.16593 14.16837 14.17046 14.17895 14.18498 14.19441 14.20558 14.22474 14.25113 14.28223 14.3187 14.34802 14.38169 14.40663 14.42671 14.45466 14.47633 14.49679 14.51889 14.53832 14.55533 14.57178 14.58646 14.60716 14.6337 14.66113
0 0 0 0 0 0 0 0 0 0 0 0 0 0 0 0 0 0 0 0 0 0 0 0 0 0 0 0 0 0 0 0 0 0 0 0 0 0 0 0 0 0 0 0 0 0 0 0 0 0 16.0536 15.15811 14.95364 14.55541 14.54586 14.52685 14.50579 14.4841 14.46753 14.45817 14.45507 14.45626 14.46016 14.46205 14.46825 14.4728 14.46975 14.45956 14.4418 14.41452 14.3782 14.34349 14.30834 14.27901 14.25629 14.22874 14.21608 14.20234 14.18988 14.18189 14.17895 14.18006 14.17869 14.18015 14.18305 14.18617 14.19304 14.20311 14.20977 14.21939 14.24199 14.27542 14.30372 14.33578 14.36516 14.39468 14.42247 14.44699 14.47039 14.49323 14.51452 14.5374 14.55942 14.57546 14.58814 14.60381 14.62595 14.65223 14.68388
0 0 0 0 0 0 0 0 0 0 0 0 0 0 0 0 0 0 0 0 0 0 0 0 0 0 0 0 0 0 0 0 0 0 0 0 0 0 0 0 0 0 0 0 0 0 0 0 0 0 0 15.21642 14.79411 14.59643 14.57521 14.55054 14.52072 14.4992 14.48553 14.48049 14.4817 14.48556 14.49168 14.50024 14.51243 14.52229 14.52403 14.51861 14.49931 14.46668 14.43135 14.39269 14.35458 14.32259 14.29088 14.26402 14.24391 14.22702 14.21691 14.21109 14.20462 14.20101 14.20228 14.1971 14.20308 14.20834 14.21565 14.22335 14.24105 14.26068 14.28842 14.31475 14.34166 14.37007 14.39631 14.42216 14.4458 14.4668 14.49128 14.51284 14.53551 14.55919 14.58214 14.60227 14.61374 14.62865 14.64858 14.67729 14.71035
0 0 0 0 0 0 0 0 0 0 0 0 0 0 0 0 0 0 0 0 0 0 0 0 0 0 0 0 0 0 0 0 0 0 0 0 0 0 0 0 0 0 0 0 0 0 0 0 0 0 0 15.02704 14.63339 14.63149 14.60539 14.57941 14.53742 14.52105 14.51232 14.51429 14.52127 14.53 14.54174 14.55623 14.56672 14.57351 14.57694 14.57165 14.55188 14.52065 14.48328 14.44001 14.40092 14.36709 14.33787 14.30456 14.2835 14.26317 14.25186 14.24259 14.23796 14.2368 14.23604 14.23862 14.23962 14.24163 14.25053 14.26303 14.28146 14.30402 14.33576 14.36425 14.39476 14.42141 14.4474 14.47019 14.48851 14.50583 14.52772 14.54471 14.56039 14.57765 14.59725 14.62041 14.63713 14.65107 14.67124 14.7057 14.74065
0 0 0 0 0 0 0 0 0 0 0 0 0 0 0 0 0 0 0 0 0 0 0 0 0 0 0 0 0 0 0 0 0 0 0 0 0 0 0 0 0 0 0 0 0 0 0 0 0 0 0 14.68366 14.6752 14.66192 14.63198 14.59856 14.56165 14.54469 14.5385 14.54281 14.55542 14.57517 14.59466 14.60972 14.6216 14.63427 14.63659 14.63054 14.61314 14.58446 14.54682 14.50187 14.45921 14.41605 14.37974 14.34685 14.32124 14.30098 14.28636 14.27931 14.2804 14.28459 14.28827 14.28986 14.29413 14.29996 14.30749 14.32577 14.3462 14.3752 14.40356 14.42178 14.44524 14.46784 14.48514 14.51027 14.53074 14.54963 14.56703 14.57982 14.59528 14.60588 14.62256 14.6454 14.66571 14.6816 14.70494 14.73425 14.76088
0 0 0 0 0 0 0 0 0 0 0 0 0 0 0 0 0 0 0 0 0 0 0 0 0 0 0 0 0 0 0 0 0 0 0 0 0 0 0 0 0 0 0 0 0 0 0 0 0 16.63289 15.67484 14.72642 14.71209 14.68181 14.64372 14.6136 14.58791 14.57163 14.57005 14.58075 14.6 14.62311 14.64403 14.65967 14.67272 14.68216 14.68516 14.68155 14.66469 14.63907 14.6104 14.5691 14.5237 14.48082 14.43853 14.4085 14.37625 14.35312 14.34298 14.33195 14.33141 14.33206 14.33469 14.33907 14.34138 14.35241 14.36116 14.37836 14.40022 14.42508 14.45173 14.4791 14.49918 14.51931 14.53685 14.55592 14.575 14.59071 14.59982 14.6119 14.62773 14.64244 14.65212 14.67275 14.6935 14.71054 14.73512 14.75955 14.77949
0 0 0 0 0 0 0 0 0 0 0 0 0 0 0 0 0 0 0 0 0 0 0 0 0 0 0 0 0 0 0 0 0 0 0 0 0 0 0 0 0 0 0 0 0 0 0 0 15.76824 15.24186 14.99465 14.77014 14.74607 14.70296 14.66132 14.63134 14.60922 14.59793 14.60105 14.6175 14.64493 14.67446 14.69646 14.71294 14.72832 14.73925 14.74475 14.73901 14.72258 14.69633 14.6615 14.62112 14.57651 14.5335 14.49283 14.45838 14.43404 14.41295 14.40391 14.39736 14.39389 14.39991 14.39707 14.4025 14.41003 14.4184 14.42403 14.43313 14.44841 14.47403 14.49573 14.51696 14.539 14.56241 14.57357 14.59026 14.60876 14.62743 14.65096 14.66137 14.66733 14.68213 14.69499 14.70551 14.72051 14.73789 14.75742 14.77692 14.79549
0 0 0 0 0 0 0 0 0 0 0 0 0 0 0 0 0 0 0 0 0 0 0 0 0 0 0 0 0 0 0 0 0 0 0 0 0 0 0 0 0 0 0 0 0 15.45792 15.322 15.84891 15.32488 15.337 15.07883 14.82294 14.78065 14.73079 14.68959 14.65744 14.63999 14.62886 14.63611 14.6553 14.68675 14.71382 14.73869 14.7588 14.77706 14.7923 14.80085 14.79895 14.78431 14.75694 14.72189 14.68435 14.64247 14.59932 14.56031 14.52445 14.49424 14.47043 14.4604 14.45452 14.44952 14.44951 14.44952 14.45895 14.47135 14.48593 14.49082 14.49673 14.513 14.53028 14.55005 14.57204 14.59251 14.60815 14.62607 14.64001 14.6579 14.67454 14.69515 14.71066 14.71917 14.7262 14.73762 14.74738 14.75089 14.76627 14.7854 14.80375 14.81938
0 0 0 0 0 0 0 0 0 0 0 0 0 0 0 0 0 0 0 0 0 0 0 0 0 0 0 0 0 0 0 0 0 0 0 0 0 0 0 0 0 0 17.52309 17.20296 16.21945 15.39328 14.89694 14.90763 15.42237 15.15357 14.90166 14.85854 14.81366 14.76798 14.72672 14.69956 14.68144 14.67582 14.68445 14.71105 14.74393 14.77199 14.79636 14.82079 14.83973 14.85466 14.85861 14.85355 14.83637 14.81123 14.77614 14.73723 14.70015 14.65883 14.62022 14.58562 14.55673 14.53882 14.52912 14.52813 14.52629 14.52476 14.52684 14.53247 14.53612 14.54921 14.55189 14.55022 14.56621 14.57588 14.59142 14.61671 14.6442 14.6668 14.68038 14.70817 14.72673 14.74201 14.76372 14.77712 14.77901 14.77662 14.78412 14.78538 14.78782 14.79593 14.80624 14.82268 14.83871
0 0 0 0 0 0 0 0 0 0 0 0 0 0 0 0 0 0 0 0 0 0 0 0 0 0 0 0 0 0 0 0 0 0 0 0 0 0 0 0 16.63328 17.00759 17.26273 16.30739 15.45422 14.94483 14.96756 14.98624 14.98477 14.96667 14.93724 14.8897 14.8445 14.80176 14.77046 14.73966 14.72785 14.729 14.74171 14.76733 14.80078 14.82925 14.85742 14.88162 14.9069 14.92072 14.92331 14.9196 14.90544 14.87536 14.83767 14.80416 14.76849 14.7282 14.68636 14.64912 14.61612 14.59538 14.58714 14.58788 14.58875 14.58901 14.59889 14.6027 14.60607 14.61536 14.61921 14.62126 14.62803 14.63307 14.64452 14.66147 14.6821 14.70508 14.71938 14.7451 14.76564 14.78746 14.80352 14.81851 14.82311 14.82669 14.82379 14.82196 14.82211 14.82422 14.83195 14.84666 14.86339
0 0 0 0 0 0 0 0 0 0 0 0 0 0 0 0 0 0 0 0 0 0 0 0 0 0 0 0 0 0 0 0 0 0 0 0 0 0 0 16.8731 16.61329 16.03916 15.77415 14.95837 14.96914 14.98844 15.00508 15.02236 15.02147 14.99681 14.96322 14.92301 14.88636 14.85106 14.8273 14.80783 14.80111 14.80677 14.82228 14.84854 14.87125 14.89394 14.92139 14.9402 14.96031 14.97572 14.98072 14.97799 14.9612 14.93771 14.90586 14.87132 14.83596 14.80399 14.76544 14.72873 14.69635 14.67307 14.66147 14.65745 14.6544 14.65518 14.65902 14.66352 14.66704 14.6728 14.67836 14.68331 14.68107 14.684 14.69187 14.71217 14.73586 14.75766 14.77036 14.79176 14.81527 14.83057 14.84197 14.85504 14.85953 14.85831 14.85164 14.84828 14.84859 14.84867 14.85628 14.87156 14.88612
0 0 0 0 0 0 0 0 0 0 0 0 0 0 0 0 0 0 0 0 0 0 0 0 0 0 0 0 0 0 0 0 0 0 0 0 0 0 16.09586 15.78993 15.52768 14.99487 15.01189 15.01972 15.02667 15.03942 15.04782 15.05148 15.04672 15.02949 15.00432 14.97355 14.93967 14.9126 14.88565 14.8732 14.87119 14.88374 14.90335 14.92618 14.94501 14.96317 14.98562 15.0056 15.02609 15.04407 15.04561 15.0445 15.03125 15.00671 14.9781 14.9388 14.89625 14.86522 14.82797 14.79412 14.76321 14.74059 14.73075 14.72802 14.72661 14.72733 14.73006 14.73597 14.74182 14.74405 14.74886 14.74636 14.74808 14.7497 14.75368 14.76341 14.77753 14.7989 14.80915 14.83003 14.84588 14.86983 14.873 14.88254 14.88614 14.88503 14.88463 14.87853 14.87666 14.88556 14.89865 14.9098 14.92235
0 0 0 0 0 0 0 0 0 0 0 0 0 0 0 0 0 0 0 0 0 0 0 0 0 0 0 0 0 0 0 0 0 0 17.817 18.43041 17.54853 15.85055 15.00451 15.01805 15.03207 15.04073 15.04733 15.05695 15.06655 15.07106 15.07809 15.08028 15.0749 15.06515 15.04814 15.03153 15.00918 14.98605 14.97436 14.96783 14.96709 14.97211 14.98375 14.99675 15.01049 15.02564 15.04501 15.06367 15.08427 15.09894 15.10522 15.10692 15.10107 15.08353 15.05992 15.0222 14.9839 14.9479 14.912 14.8792 14.84894 14.82516 14.81042 14.80331 14.79754 14.79339 14.79368 14.79684 14.8009 14.80515 14.80533 14.80453 14.80384 14.80507 14.81091 14.82023 14.83389 14.85223 14.86922 14.87676 14.88802 14.90166 14.9107 14.91049 14.90974 14.90805 14.90548 14.90237 14.91024 14.92075 14.94015 14.95906 14.97246
0 0 0 0 0 0 0 0 0 0 0 0 0 0 0 0 0 0 0 0 0 0 0 0 0 0 0 0 0 18.33837 17.92558 17.69713 17.67738 17.44257 17.13915 16.54784 15.04553 15.04914 15.05586 15.06568 15.0729 15.07555 15.08673 15.0922 15.09797 15.09483 15.09927 15.09931 15.0956 15.08981 15.08377 15.0761 15.06848 15.06224 15.05899 15.05686 15.06031 15.06088 15.07081 15.08214 15.08747 15.09865 15.11567 15.13088 15.14788 15.15661 15.15784 15.16258 15.15231 15.1383 15.1185 15.09323 15.05633 15.02807 14.99199 14.9638 14.93854 14.91631 14.90405 14.89669 14.8881 14.88423 14.88139 14.8765 14.87499 14.8708 14.86353 14.86018 14.85328 14.856 14.85893 14.86586 14.88223 14.89969 14.91457 14.92363 14.92782 14.9321 14.94521 14.94689 14.94193 14.94036 14.94058 14.9385 14.94756 14.96184 14.98033 14.99789 14.99601
0 0 0 0 0 0 0 0 0 0 0 0 0 0 0 0 0 0 0 0 0 0 0 0 0 18.14025 17.40807 17.40334 16.43957 15.76438 15.43742 15.13659 15.13071 15.12015 15.10655 15.09037 15.07925 15.07392 15.07428 15.08547 15.09238 15.09946 15.10468 15.11085 15.11807 15.10946 15.1184 15.12437 15.1318 15.13816 15.14543 15.14561 15.1424 15.1366 15.12739 15.12577 15.12991 15.12976 15.13519 15.14081 15.14506 15.15464 15.17132 15.18873 15.2038 15.21303 15.21741 15.22306 15.21756 15.20225 15.18706 15.16192 15.13342 15.1055 15.07493 15.04461 15.01612 14.99365 14.9822 14.97503 14.96225 14.95561 14.95548 14.94954 14.94244 14.94124 14.9365 14.92776 14.9238 14.91984 14.92272 14.92689 14.93943 14.95245 14.96286 14.96831 14.96552 14.96128 14.96813 14.9747 14.97371 14.9742 14.97753 14.9862 14.99785 15.01008 15.02012 15.02476 15.00452
0 0 0 0 0 0 0 0 0 0 0 0 0 0 0 0 0 0 0 0 0 0 0 18.32434 17.45254 16.85665 16.52483 16.18626 15.21519 15.20042 15.18202 15.16875 15.15559 15.14254 15.12394 15.10406 15.09126 15.08243 15.08042 15.08587 15.09493 15.10546 15.1104 15.11512 15.12513 15.12904 15.1436 15.15779 15.17604 15.19226 15.20908 15.21614 15.2139 15.2064 15.19794 15.19453 15.19784 15.20024 15.19631 15.1957 15.1988 15.20707 15.22066 15.23475 15.24694 15.25518 15.25952 15.26666 15.26442 15.2557 15.24478 15.22722 15.20707 15.18364 15.15882 15.13732 15.1165 15.09688 15.08136 15.06951 15.05546 15.04194 15.03112 15.01895 15.0104 15.00422 14.99741 14.98634 14.98107 14.97745 14.97638 14.98182 14.99592 15.00173 15.00684 15.00629 15.00594 15.00272 15.00724 15.01678 15.01861 15.01946 15.02171 15.03199 15.03665 15.04352 15.04724 15.03709 15.00612
0 0 0 0 0 0 0 0 0 0 0 0 0 0 0 0 0 0 0 0 0 0 17.75345 16.88837 16.55779 16.54995 16.21409 15.86314 15.22079 15.20078 15.18292 15.16549 15.148 15.13477 15.11557 15.0999 15.08562 15.07834 15.07226 15.07957 15.08845 15.1034 15.11119 15.12397 15.14004 15.16048 15.17865 15.1969 15.21829 15.23539 15.25121 15.25579 15.25551 15.25043 15.24521 15.24441 15.24816 15.24721 15.24729 15.24814 15.25016 15.25843 15.26888 15.27903 15.2897 15.30125 15.31126 15.31663 15.31726 15.31094 15.30198 15.28325 15.26495 15.24718 15.22897 15.21164 15.19473 15.17798 15.16681 15.15533 15.14451 15.13104 15.11363 15.09712 15.08928 15.0817 15.07352 15.06358 15.05105 15.03958 15.03071 15.0347 15.04326 15.04329 15.04067 15.03226 15.03474 15.03847 15.04649 15.05219 15.05807 15.05991 15.06859 15.07148 15.07483 15.0811 15.07086 15.04715 15.00666
0 0 0 0 0 0 0 0 0 0 0 0 0 0 0 0 0 0 0 0 0 18.99084 17.96584 16.8833 16.23339 16.2183 15.86617 15.85179 15.20296 15.18478 15.168 15.15047 15.1351 15.12055 15.1043 15.08969 15.08024 15.07334 15.07363 15.08566 15.09957 15.11307 15.12548 15.14545 15.16573 15.19021 15.21147 15.23179 15.24898 15.26608 15.27816 15.28468 15.28928 15.29115 15.29271 15.29216 15.29223 15.296 15.29386 15.29553 15.29765 15.30149 15.30776 15.31901 15.33036 15.34458 15.35533 15.36624 15.36755 15.36455 15.36097 15.34799 15.33722 15.32493 15.31373 15.29923 15.28127 15.26292 15.24738 15.23085 15.21499 15.19539 15.17236 15.15919 15.1481 15.14638 15.13976 15.12952 15.12049 15.10963 15.09735 15.09635 15.09591 15.09139 15.08158 15.07403 15.07607 15.07965 15.08311 15.08338 15.08135 15.08909 15.09806 15.1058 15.11068 15.1036 15.08929 15.04922 14.99071
0 0 0 0 0 0 0 0 0 0 0 0 0 0 0 0 0 0 0 0 0 0 0 17.4865 16.57568 16.22443 15.86549 15.52585 15.18864 15.16796 15.15174 15.13818 15.12322 15.11123 15.09932 15.08965 15.07981 15.0776 15.08111 15.09292 15.11238 15.13189 15.15116 15.16904 15.18739 15.21028 15.23149 15.25362 15.27161 15.28963 15.30496 15.31765 15.32563 15.33141 15.33503 15.33659 15.33991 15.34509 15.34769 15.35161 15.3534 15.35325 15.35802 15.36547 15.37439 15.38604 15.39734 15.40934 15.41391 15.41255 15.4097 15.40304 15.3982 15.39555 15.38874 15.37563 15.3626 15.34884 15.33396 15.31638 15.297 15.27515 15.2554 15.23747 15.22661 15.21885 15.20821 15.20045 15.1844 15.16407 15.15198 15.14367 15.13367 15.12438 15.12133 15.12612 15.12536 15.12715 15.13038 15.12585 15.12448 15.13363 15.14543 15.15038 15.14368 15.13075 15.10079 15.04875 14.97833
0 0 0 0 0 0 0 0 0 0 0 0 0 0 0 0 0 0 0 0 0 19.4012 19.11161 18.11572 16.61928 16.25305 15.88364 15.85374 15.49009 15.16159 15.1442 15.12946 15.11743 15.10908 15.0981 15.08873 15.08334 15.08486 15.09402 15.10847 15.12717 15.14816 15.17007 15.18844 15.20621 15.23123 15.25164 15.27442 15.29814 15.3191 15.33927 15.35183 15.36321 15.37175 15.37849 15.38556 15.39256 15.39421 15.39714 15.40067 15.3997 15.40307 15.40643 15.41201 15.42217 15.4337 15.44225 15.45354 15.4585 15.45806 15.45728 15.45678 15.45719 15.4562 15.45334 15.44796 15.4365 15.419 15.4022 15.38275 15.3659 15.34724 15.32737 15.31924 15.30445 15.29731 15.28555 15.26945 15.25174 15.23166 15.21356 15.19854 15.18221 15.1763 15.17307 15.17225 15.16834 15.16864 15.17019 15.16748 15.16515 15.17517 15.18333 15.17971 15.17187 15.14868 15.11454 15.05554 14.97471
0 0 0 0 0 0 0 0 0 0 0 0 0 0 0 0 0 0 0 19.42649 19.36417 19.26359 18.43583 17.33246 16.65749 16.28194 15.89874 16.20393 15.1893 15.15789 15.1382 15.12352 15.11231 15.10776 15.09954 15.09349 15.09427 15.09966 15.10988 15.12589 15.1452 15.16797 15.18734 15.20514 15.22421 15.24669 15.27078 15.30053 15.3289 15.35756 15.38171 15.39903 15.41415 15.42676 15.43852 15.44416 15.4515 15.4517 15.45023 15.45194 15.44952 15.44685 15.45191 15.45602 15.46031 15.46762 15.47808 15.48831 15.49489 15.49568 15.4997 15.50163 15.50826 15.51368 15.51719 15.5167 15.51026 15.49786 15.4829 15.46748 15.44795 15.43023 15.41234 15.39468 15.38026 15.36195 15.34394 15.32354 15.30024 15.27798 15.25952 15.24773 15.23845 15.23169 15.22898 15.22932 15.23 15.22905 15.22525 15.22438 15.2187 15.22242 15.21937 15.20966 15.19383 15.16466 15.12505 15.06154 14.97789
0 0 0 0 0 0 0 0 0 0 0 0 0 0 0 0 0 0 18.91414 18.80342 18.46297 17.99596 17.38111 16.70893 16.34888 16.2976 15.91105 15.54001 15.19502 15.15737 15.13578 15.12056 15.11387 15.10908 15.10304 15.1053 15.11174 15.12001 15.13121 15.1508 15.17772 15.20043 15.22321 15.24031 15.25491 15.27792 15.30027 15.33244 15.36487 15.3927 15.42239 15.44258 15.46438 15.47727 15.48832 15.50089 15.50579 15.50616 15.50709 15.50693 15.50456 15.50433 15.50527 15.50535 15.5103 15.5132 15.52112 15.52455 15.52478 15.52882 15.53454 15.54115 15.54685 15.55531 15.56308 15.56621 15.56283 15.55871 15.55152 15.54199 15.53042 15.51454 15.49744 15.47758 15.4593 15.43397 15.40652 15.37975 15.35346 15.33038 15.31167 15.29407 15.28667 15.28297 15.27286 15.27378 15.27961 15.27505 15.27544 15.26904 15.26404 15.26306 15.25948 15.24726 15.22244 15.18427 15.14617 15.08341 15.0007
0 0 0 0 0 0 0 0 0 0 0 0 0 0 0 0 0 19.33938 18.80573 18.1957 17.6924 17.06877 16.73321 16.72074 16.70772 16.30828 15.91783 15.2265 15.18936 15.15703 15.13608 15.12289 15.11907 15.1126 15.1132 15.12105 15.13097 15.14501 15.16345 15.18381 15.20959 15.2353 15.25862 15.28248 15.29956 15.32123 15.3474 15.37538 15.40866 15.44036 15.46903 15.49408 15.51449 15.52987 15.54465 15.55171 15.54853 15.54913 15.54497 15.54457 15.54547 15.54284 15.54547 15.54535 15.54404 15.54109 15.5464 15.54673 15.55936 15.56751 15.57601 15.58743 15.60116 15.60827 15.61351 15.61799 15.62008 15.61626 15.61251 15.60482 15.59389 15.57559 15.55799 15.53599 15.51322 15.48936 15.45966 15.43355 15.40953 15.38358 15.36201 15.3485 15.34051 15.33541 15.32659 15.32202 15.32121 15.31863 15.31524 15.30191 15.29764 15.29891 15.28934 15.27145 15.24487 15.21209 15.17495 15.11262 15.03642
0 0 0 0 0 0 0 0 0 0 0 0 0 0 0 0 18.82982 18.81736 17.9653 17.39114 17.07968 16.74415 16.73303 16.72382 16.70079 16.30398 15.91145 15.2287 15.18607 15.1582 15.14131 15.12997 15.12658 15.12913 15.13539 15.14952 15.16435 15.17801 15.19227 15.21616 15.24047 15.26648 15.29047 15.31345 15.33526 15.36303 15.39167 15.422 15.45182 15.48378 15.5193 15.54745 15.56533 15.58238 15.59511 15.60577 15.60254 15.60396 15.6059 15.6063 15.60392 15.5953 15.58919 15.5791 15.57838 15.57554 15.56967 15.57255 15.58848 15.59593 15.60748 15.61889 15.63715 15.64995 15.66114 15.66756 15.67361 15.67398 15.67365 15.67336 15.66157 15.64637 15.62242 15.59823 15.57317 15.54726 15.51656 15.48199 15.45107 15.42682 15.40208 15.38926 15.38068 15.37707 15.36965 15.3599 15.35512 15.35403 15.34829 15.33952 15.33517 15.33086 15.32544 15.31101 15.28208 15.25099 15.20845 15.15052 15.07456
0 0 0 0 0 0 0 0 0 0 0 0 0 0 0 19.38206 18.64714 17.96316 17.37333 17.06227 16.72522 16.72737 16.72877 16.35854 16.3256 15.95329 15.25812 15.21537 15.18183 15.16063 15.14385 15.13633 15.13703 15.1446 15.15687 15.17788 15.19484 15.21539 15.23358 15.25739 15.28507 15.31373 15.34089 15.37092 15.39641 15.42276 15.45176 15.48373 15.51474 15.54652 15.5763 15.59717 15.61601 15.63126 15.64496 15.65429 15.65993 15.66905 15.67687 15.68106 15.67948 15.67542 15.65726 15.64274 15.62864 15.61962 15.61617 15.61378 15.61611 15.61849 15.63123 15.64823 15.66653 15.68104 15.69651 15.70768 15.71592 15.71986 15.7207 15.71949 15.7101 15.69568 15.67999 15.65796 15.63751 15.60971 15.57749 15.54303 15.51048 15.47926 15.45436 15.43802 15.42586 15.41696 15.40326 15.39106 15.38005 15.37746 15.37396 15.36674 15.36071 15.36274 15.35262 15.33815 15.31597 15.2845 15.24601 15.19539 15.12228
0 0 0 0 0 0 0 0 0 0 0 0 0 0 18.70972 18.70711 17.9963 17.36885 17.04358 16.70922 16.71033 16.34729 16.33732 16.32578 15.95955 15.58651 15.24112 15.20442 15.18074 15.16486 15.15088 15.15302 15.15397 15.16767 15.18619 15.20331 15.2266 15.24801 15.27078 15.29766 15.33113 15.36898 15.40597 15.4421 15.47273 15.50199 15.53601 15.5725 15.60443 15.62626 15.64699 15.66795 15.68111 15.69555 15.7077 15.71523 15.72766 15.73633 15.74579 15.7541 15.75609 15.75005 15.73254 15.71092 15.68189 15.66246 15.6519 15.64411 15.64074 15.63685 15.64822 15.66689 15.69056 15.71054 15.73588 15.7548 15.76862 15.77048 15.7727 15.76567 15.75534 15.73981 15.72634 15.70542 15.68466 15.6576 15.62889 15.6001 15.56269 15.53201 15.5021 15.48182 15.46636 15.45493 15.44164 15.4235 15.41212 15.40522 15.40415 15.39778 15.39334 15.38837 15.38232 15.36283 15.3453 15.3096 15.2698 15.21803 15.14817
0 0 0 0 0 0 0 0 0 0 0 0 0 18.57697 18.75226 17.99745 17.36003 17.03223 16.68852 16.69028 16.33693 16.32363 16.31587 16.306 15.93519 15.24895 15.2195 15.1946 15.18111 15.17595 15.17145 15.17562 15.1871 15.2011 15.22085 15.24156 15.26184 15.28701 15.31861 15.3514 15.39179 15.43533 15.47544 15.51254 15.54839 15.58044 15.61905 15.65363 15.68129 15.70234 15.71726 15.73157 15.74523 15.75432 15.7625 15.76974 15.77708 15.7922 0 0 0 15.74623 15.7469 15.7941 15.76126 15.71591 15.68611 15.67189 15.66212 15.65137 15.65842 15.67763 15.70471 15.73243 15.76153 15.78696 15.80208 15.81372 15.81471 15.81211 15.80508 15.79536 15.77923 15.76139 15.74143 15.72189 15.69427 15.66429 15.62596 15.58952 15.55833 15.52821 15.50912 15.49296 15.4768 15.45905 15.44209 15.43273 15.42929 15.42556 15.42064 15.41773 15.40777 15.39603 15.37547 15.34753 15.30187 15.24876 15.172
0 0 0 0 0 0 0 0 0 0 0 0 0 18.9593 18.01935 17.37006 17.01027 16.65133 16.66111 16.29877 16.29458 16.29421 16.29786 15.26479 15.24673 15.22518 15.20499 15.1896 15.18368 15.18697 15.19367 15.20244 15.21981 15.23615 15.25431 15.28031 15.3067 15.33676 15.37057 15.40834 15.45783 15.51015 15.56196 15.60888 15.64474 15.6798 15.71164 15.73899 15.7583 15.77732 15.79019 16.60005 15.80584 15.80145 15.79953 16.18423 17.00211 17.83382 0 0 0 0 0 16.22258 15.8177 15.77037 15.72585 15.69787 15.68193 15.67324 15.67606 15.69434 15.72197 15.75347 15.78552 15.81445 15.83769 15.8478 15.84832 15.84758 15.84187 15.82937 15.81956 15.8026 15.78916 15.77322 15.74812 15.72199 15.68927 15.65169 15.62089 15.5963 15.57617 15.55291 15.52978 15.50621 15.48882 15.47299 15.46203 15.4552 15.4476 15.43979 15.4304 15.41676 15.39853 15.37243 15.32428 15.26647 15.18887
0 0 0 0 0 0 0 0 0 0 0 0 19.11163 18.30624 17.35937 16.99195 16.61451 16.26 16.26398 16.26956 16.27482 16.28495 15.9266 15.24869 15.23289 15.21451 15.20098 15.19586 15.19699 15.2004 15.2134 15.22819 15.24726 15.26688 15.28935 15.31716 15.34767 15.38109 15.42683 15.46884 15.53011 15.58696 15.63927 15.68231 15.72288 15.75201 15.76715 0 0 15.77527 0 17.52868 16.68581 16.24173 16.64168 16.61569 17.4236 17.87887 18.88543 16.58814 15.82486 0 0 0 17.51726 15.79301 15.7473 15.71617 15.70664 15.69512 15.69878 15.7172 15.74556 15.77778 15.81177 15.84526 15.87048 15.88118 15.88521 15.88357 15.87821 15.86951 15.85808 15.84049 15.82449 15.80767 15.78593 15.76323 15.73547 15.70357 15.67237 15.64649 15.62412 15.60297 15.57952 15.55648 15.53375 15.51588 15.50065 15.49212 15.48055 15.46971 15.45894 15.44065 15.419 15.3924 15.34395 15.28022 15.20089
0 0 0 0 0 0 0 0 0 0 0 18.35713 18.33102 17.35576 16.97891 16.23193 16.24375 16.25329 16.25932 16.2701 16.28406 15.58734 15.25385 15.24134 15.22876 15.21927 15.21474 15.21347 15.21976 15.2295 15.24081 15.25723 15.27626 15.3008 15.32618 15.35974 15.39783 15.44705 15.50494 15.55872 15.62599 15.6751 15.71075 15.74351 16.57769 0 0 0 0 0 18.35434 19.18 18.93203 18.31772 17.9215 17.46692 17.43919 16.19872 15.81429 15.82451 15.82832 15.82175 15.81181 17.9094 18.27242 15.80368 15.76908 15.74642 15.7325 15.7261 15.72652 15.73968 15.76479 15.7958 15.83328 15.86513 15.88849 15.90139 15.90969 15.91202 15.91169 15.89902 15.88923 15.87333 15.85921 15.84304 15.82815 15.80886 15.78598 15.76084 15.73141 15.70223 15.67571 15.64743 15.62093 15.59799 15.57333 15.55255 15.53814 15.52277 15.51017 15.49279 15.48024 15.45998 15.43971 15.40864 15.36726 15.30207 15.22041
0 0 0 0 0 0 0 0 0 0 19.09311 18.36479 17.35176 16.59296 16.23465 15.88949 15.90651 15.919 15.928 15.93912 15.94189 15.26999 15.25538 15.24624 15.23852 15.23149 15.23449 15.2446 15.25135 15.2619 15.27454 15.28884 15.30822 15.33057 15.36164 15.40222 15.45053 15.50988 15.57646 15.64677 15.71021 15.7496 16.16697 0 0 0 0 0 0 0 0 0 0 0 18.32596 17.93122 17.07314 15.82958 15.83912 15.84928 15.84977 15.84447 15.83621 15.83127 15.8242 15.81315 15.79192 15.77768 15.76881 15.76121 15.7621 15.77251 15.79669 15.82258 15.8549 15.88648 15.91027 15.92072 15.93086 15.93134 15.92998 15.92214 15.91115 15.89751 15.88544 15.87215 15.85827 15.84367 15.82303 15.80242 15.77845 15.75181 15.72587 15.69874 15.67235 15.64689 15.62193 15.60185 15.58272 15.56529 15.55006 15.53161 15.50477 15.48191 15.45507 15.42383 15.38081 15.31414 15.23674
0 0 0 0 0 0 0 0 0 0 18.66018 17.358 16.60138 16.22875 15.55403 15.56099 15.25985 15.26965 15.28669 15.28637 15.28073 15.27227 15.26425 15.26047 15.25872 15.2561 15.26627 15.28236 15.29344 15.30473 15.31996 15.33639 15.35364 15.37573 15.40916 15.44932 15.50002 15.56172 15.63007 15.69971 16.98348 0 0 0 0 0 0 0 0 0 0 0 0 0 19.0014 17.56024 15.86654 15.86919 15.88077 15.8923 15.89383 15.88785 15.88113 15.86914 15.85374 15.83188 15.81797 15.80847 15.80245 15.79452 15.79719 15.80679 15.82505 15.8544 15.8813 15.9081 15.93043 15.94431 15.95458 15.95393 15.95434 15.94834 15.93757 15.92733 15.92174 15.90581 15.89249 15.87534 15.85952 15.83673 15.81016 15.78536 15.76187 15.73937 15.71235 15.68913 15.6607 15.64265 15.62656 15.61075 15.59278 15.56912 15.5379 15.50941 15.47823 15.44465 15.39589 15.33065 15.25653
0 0 0 0 0 0 0 0 0 18.75329 18.09483 16.99172 16.23162 15.54374 15.23954 15.24097 15.24651 15.25489 15.26535 15.27412 15.26999 15.2683 15.27468 15.27772 15.28125 15.28789 15.30208 15.31908 15.33517 15.34851 15.36397 15.38121 15.40067 15.42878 15.45945 15.50285 15.55482 15.61418 15.67922 16.54327 16.78012 0 0 0 0 0 0 0 0 0 0 0 0 18.26543 18.02092 16.72795 15.88698 15.90054 15.91802 15.92738 15.93241 15.92863 15.92128 15.9087 15.89272 15.86637 15.85221 15.84372 15.84365 15.83915 15.84151 15.84504 15.85949 15.88055 15.90343 15.9281 15.9494 15.96091 15.96917 15.9726 15.97539 15.96879 15.96207 15.95477 15.9471 15.93838 15.92577 15.90953 15.89697 15.87337 15.84997 15.8262 15.80185 15.77642 15.75137 15.72705 15.70282 15.68196 15.66321 15.64557 15.61926 15.59595 15.55855 15.52803 15.49516 15.4567 15.40569 15.34066 15.26811
0 0 0 0 0 0 0 0 19.5702 18.46524 16.99946 16.21421 15.85355 15.21851 15.22046 15.22311 15.23335 15.24369 15.25472 15.26158 15.2689 15.27723 15.29084 15.30132 15.31043 15.32022 15.33985 15.36178 15.37794 15.39285 15.40692 15.42075 15.44282 15.46762 15.49902 15.547 15.5921 15.64359 16.08317 16.54404 17.01969 17.89054 0 18.77981 19.39348 0 0 0 0 0 0 0 19.07746 18.03975 17.18763 15.89623 15.90863 15.93118 15.95014 15.96353 15.96776 15.96205 15.95061 15.93597 15.92426 15.9107 15.89335 15.88453 15.88079 15.88032 15.88039 15.88669 15.90122 15.91574 15.93429 15.96223 15.97903 15.99167 15.9986 16.00265 16.00303 15.99762 15.98931 15.98067 15.97043 15.96456 15.95191 15.93845 15.92272 15.89968 15.87745 15.85657 15.83303 15.81237 15.78839 15.76711 15.74725 15.72635 15.70811 15.68444 15.65729 15.62405 15.58669 15.55199 15.51261 15.46562 15.40993 15.34704 15.27443
0 0 0 0 0 0 0 0 19.58863 18.47631 16.99592 16.20337 15.2002 15.19973 15.20093 15.21131 15.22392 15.23531 15.25011 15.26462 15.28195 15.2973 15.3115 15.32508 15.3429 15.3605 15.38428 15.41166 15.43748 15.45488 15.47106 15.48085 15.49573 15.51716 15.54332 15.58479 15.62859 15.66777 15.70779 16.13905 16.58067 17.04351 17.50346 17.97143 18.79352 0 0 0 0 0 0 18.46967 17.63862 17.62363 15.90385 15.92208 15.94898 15.97417 15.9948 16.00508 16.0055 15.99845 15.9853 15.97101 15.95767 15.94291 15.92927 15.92098 15.91672 15.91749 15.91561 15.92194 15.93073 15.94782 15.96675 15.9909 16.00821 16.02492 16.03276 16.03881 16.03923 16.03509 16.02635 16.01627 16.00905 15.99896 15.98571 15.96807 15.94975 15.92904 15.9044 15.88181 15.85878 15.84025 15.81754 15.79801 15.77807 15.75662 15.73432 15.71294 15.68348 15.64839 15.60847 15.56838 15.52172 15.47218 15.41453 15.34944 15.2798
0 0 0 0 0 0 0 0 0 18.49549 16.99959 16.20011 15.18644 15.18412 15.18904 15.20038 15.2138 15.23332 15.25439 15.27462 15.30013 15.3188 15.33025 15.35305 15.37395 15.39642 15.42849 15.46757 15.49972 15.52583 15.54187 15.55058 15.55839 15.57172 15.60015 15.63494 15.66771 15.69907 15.73105 15.74785 15.76171 15.77916 15.80252 16.21909 17.10537 17.98823 18.83647 19.18308 0 0 18.80213 17.63293 16.75138 15.90675 15.92747 15.95591 15.98974 16.01481 16.03042 16.04078 16.03982 16.03444 16.02178 16.0116 15.99869 15.98391 15.97068 15.9624 15.95497 15.95592 15.95705 15.95798 15.96585 15.9825 16.00039 16.01991 16.03739 16.05333 16.06673 16.07181 16.07114 16.06521 16.0554 16.04657 16.03669 16.02829 16.01622 16.00241 15.98506 15.96391 15.93966 15.9162 15.89322 15.87655 15.85515 15.83508 15.80849 15.78866 15.76642 15.73452 15.70653 15.66677 15.62167 15.5779 15.53083 15.47925 15.41825 15.35187 15.28249
0 0 0 0 0 0 0 0 0 19.45663 17.78685 16.59885 15.49453 15.18394 15.18425 15.19522 15.20995 15.23484 15.25854 15.28813 15.31418 15.33843 15.36045 15.38506 15.41565 15.45009 15.48908 15.52903 15.56603 15.58827 15.60417 15.61038 15.61269 15.62639 15.64998 15.67876 15.70427 15.72879 15.7548 15.76893 15.77751 15.78626 15.8044 15.82138 16.23937 16.68137 17.13242 17.56727 18.81391 17.61911 16.29022 15.89108 15.9114 15.93535 15.96593 15.99532 16.02461 16.04433 16.05675 16.06495 16.06572 16.06252 16.05268 16.04102 16.02503 16.01618 16.00503 15.99578 15.99047 15.99356 15.99564 16.00068 16.00607 16.02213 16.03782 16.05516 16.07308 16.0894 16.1024 16.1048 16.10001 16.0938 16.07936 16.07352 16.0612 16.0534 16.0417 16.02873 16.01126 15.99268 15.96873 15.94719 15.92368 15.90415 15.88269 15.8612 15.83934 15.8164 15.79218 15.76208 15.72799 15.68819 15.64002 15.59175 15.5443 15.48671 15.42485 15.35682 15.28159
0 0 0 0 0 0 0 0 0 19.58996 18.8052 17.02106 15.83939 15.1823 15.18248 15.19314 15.2069 15.2269 15.25612 15.28972 15.31983 15.3531 15.38263 15.41512 15.45317 15.50153 15.54697 15.60149 15.64838 15.66674 15.67883 15.68177 15.67718 15.6774 15.69393 15.72134 15.7395 15.76104 15.77968 15.78459 15.79167 15.80072 15.81768 15.83775 15.84849 15.85717 16.27675 0 17.61606 16.30742 15.90757 15.92835 15.95502 15.97929 16.01155 16.0379 16.06298 16.07695 16.08516 16.09077 16.09148 16.08896 16.08078 16.07026 16.05796 16.04971 16.03686 16.02593 16.02044 16.0231 16.02461 16.02924 16.03537 16.04849 16.06851 16.08564 16.10124 16.11938 16.12865 16.13072 16.12555 16.1157 16.10514 16.0921 16.08405 16.07622 16.06699 16.05615 16.04014 16.01847 15.99894 15.97678 15.95321 15.9316 15.90819 15.88644 15.86451 15.8449 15.81255 15.78236 15.74378 15.70145 15.65201 15.61003 15.55616 15.49461 15.42688 15.35725 15.27198
0 0 0 0 0 0 0 0 0 0 19.31091 17.84474 16.23525 15.51364 15.1998 15.19616 15.20862 15.22759 15.25128 15.28309 15.32132 15.36267 15.40134 15.43808 15.48487 15.54206 15.60246 15.65705 0 0 0 15.9357 15.71985 15.72055 15.73303 15.75414 15.77506 15.78822 15.79854 15.8053 15.80882 15.81735 15.82874 15.84636 15.86669 15.88169 15.9024 16.33157 15.92517 15.93183 15.95306 15.97628 16.00198 16.02957 16.0504 16.07602 16.09292 16.10222 16.1101 16.11349 16.11469 16.11853 16.11278 16.10542 16.10033 16.08367 16.0747 16.06524 16.05786 16.05762 16.06112 16.06173 16.07033 16.08215 16.09844 16.1125 16.12483 16.14192 16.14274 16.14607 16.13914 16.12759 16.11859 16.10897 16.10085 16.09383 16.08697 16.0788 16.06255 16.04271 16.02452 16.00291 15.98391 15.96412 15.94222 15.91865 15.89434 15.87003 15.83817 15.80168 15.76121 15.71879 15.67247 15.62648 15.57305 15.50732 15.43353 15.35758 15.2686
0 0 0 0 0 0 0 0 0 0 0 19.22107 17.87124 16.25216 15.52314 15.2042 15.20988 15.22822 15.25006 15.27947 15.32233 15.37288 15.41835 15.46052 15.50746 15.57352 16.00381 16.43058 0 0 0 16.62747 16.92085 15.74473 15.756 15.77358 15.79356 15.80811 15.81716 15.82103 15.82065 15.82794 15.84242 15.86706 15.89064 15.91048 15.93201 15.955 15.96312 15.9795 16.00487 16.02634 16.0515 16.07315 16.09064 16.11221 16.12661 16.13606 16.13813 16.13902 16.14125 16.14193 16.13886 16.13114 16.12252 16.11233 16.10155 16.09615 16.09087 16.09089 16.09595 16.10198 16.10606 16.11433 16.12579 16.13657 16.14863 16.15738 16.15942 16.15925 16.1522 16.14131 16.13264 16.125 16.1155 16.10922 16.10178 16.09359 16.08142 16.06454 16.04441 16.0254 16.00463 15.98653 15.96513 15.94548 15.92208 15.8944 15.86082 15.82343 15.78345 15.73901 15.69341 15.64696 15.58964 15.52366 15.44766 15.37146 15.2805
0 0 0 0 0 0 0 0 0 0 0 0 19.42808 18.26241 16.24848 15.52751 15.20664 15.22082 15.24961 15.28158 15.33075 15.38078 15.43364 15.47598 15.51815 15.58977 16.39448 0 0 18.07877 18.17991 16.55598 15.76077 15.75688 15.76409 15.78236 15.80258 15.81881 15.83345 15.83515 15.83733 15.84385 15.85996 15.88605 15.91091 15.93556 15.95813 15.97937 15.9975 16.01773 16.04336 16.06666 16.09485 16.11935 16.13785 16.1553 16.16578 16.17171 16.17952 16.17363 16.17298 16.1727 16.16566 16.15938 16.14932 16.13871 16.13082 16.1283 16.12409 16.12287 16.12864 16.13039 16.1301 16.13486 16.14611 16.15872 16.16538 16.17123 16.17049 16.17041 16.16363 16.1603 16.15089 16.14193 16.13254 16.12539 16.12065 16.11081 16.10012 16.08318 16.06757 16.0461 16.02787 16.01074 15.99022 15.97176 15.9483 15.91648 15.88269 15.84461 15.80417 15.75869 15.71091 15.66066 15.60595 15.54562 15.47065 15.39564 15.31232
0 0 0 0 0 0 0 0 0 0 0 0 0 0 0 16.24939 15.51653 15.21739 15.25163 15.2905 15.33883 15.3924 15.4458 15.48411 15.52151 15.9396 16.01141 16.43427 16.85562 19.09755 18.18198 16.54584 15.76211 15.76063 15.76695 15.78572 15.81082 15.82967 15.84497 15.85496 15.86344 15.87217 15.88559 15.9053 15.93527 15.95782 15.98115 16.00442 16.02201 16.04675 16.0735 16.10155 16.13099 16.15295 16.17145 16.18398 16.19364 16.20033 16.20485 16.20306 16.19984 16.19471 16.19026 16.18266 16.17452 16.16776 16.16069 16.16112 16.1584 16.15987 16.16201 16.16233 16.1616 16.16725 16.17681 16.18602 16.18844 16.18621 16.18522 16.18352 16.17864 16.17385 16.16438 16.15742 16.1501 16.14143 16.13393 16.12391 16.1109 16.09645 16.0808 16.06849 16.04909 16.03119 16.01552 15.99616 15.97201 15.9402 15.90606 15.87432 15.83113 15.78713 15.73891 15.68876 15.63751 15.5781 15.50585 15.42998 15.35175
0 0 0 0 0 0 0 0 0 0 0 0 0 0 0 17.0223 16.23797 15.22175 15.26264 15.31065 15.35953 15.4118 15.46041 15.49626 15.52885 15.57858 16.38079 16.44694 16.8744 0 18.22385 15.76532 15.76572 15.76548 15.78801 15.7944 15.81871 15.84062 15.85851 15.87236 15.88512 15.89491 15.91113 15.93189 15.952 15.97942 16.00084 16.02135 16.05085 16.08021 16.11059 16.13861 16.16345 16.18254 16.19941 16.21413 16.21998 16.22699 16.22862 16.22385 16.21985 16.21229 16.20574 16.19899 16.19217 16.18755 16.18497 16.18319 16.18292 16.18415 16.18613 16.18976 16.19275 16.19937 16.20721 16.21661 16.21785 16.2156 16.213 16.20783 16.20185 16.19575 16.18854 16.18192 16.1711 16.1606 16.15072 16.1377 16.12266 16.108 16.09225 16.07995 16.0665 16.05141 16.0343 16.01515 15.99335 15.96519 15.93306 15.90144 15.86299 15.82013 15.77417 15.72858 15.68027 15.62325 15.55748 15.48637 15.41899
0 0 0 0 0 0 0 0 0 0 0 0 0 18.26082 17.88663 17.04289 16.29069 15.24313 15.28159 15.33209 15.38704 15.44023 15.48868 15.523 15.55335 15.59028 16.78083 17.23921 17.70539 17.6305 18.62326 16.14403 15.76546 15.7742 15.78867 15.81344 15.8403 15.8613 15.87582 15.89138 15.9058 15.91878 15.93431 15.95242 15.9744 15.9974 16.02241 16.05062 16.07629 16.107 16.1375 16.16297 16.18284 16.20213 16.21807 16.23014 16.24323 16.25059 16.24831 16.24251 16.23794 16.23149 16.22872 16.22043 16.21142 16.21008 16.20653 16.20375 16.20668 16.20507 16.20886 16.21539 16.22289 16.22894 16.23583 16.24093 16.2399 16.23782 16.23529 16.2312 16.22611 16.22023 16.20976 16.20095 16.18983 16.17881 16.16588 16.15323 16.13527 16.11707 16.10317 16.09088 16.07865 16.06722 16.05401 16.03604 16.01837 15.9952 15.966 15.92902 15.89311 15.85324 15.80498 15.75768 15.71236 15.65773 15.6028 15.54404 15.48288
0 0 0 0 0 0 0 0 0 0 0 0 17.43608 17.02632 17.04715 16.67545 15.95094 15.28462 15.32236 15.36973 15.42145 15.47379 15.52291 15.56024 15.59196 15.62503 16.43604 16.47862 17.30609 18.15033 16.53016 15.7475 15.77177 15.79759 15.82461 15.85184 15.8716 15.88823 15.90071 15.91622 15.92965 15.94285 15.95953 15.98026 16.00374 16.02575 16.05092 16.07478 16.09706 16.12107 16.14698 16.16733 16.19208 16.20875 16.22434 16.2383 16.24611 16.25107 16.25039 16.24986 16.24913 16.25023 16.24685 16.23903 16.23473 16.22788 16.22532 16.22536 16.22909 16.22988 16.24033 16.25008 16.26088 16.26761 16.27243 16.27195 16.26946 16.26639 16.26253 16.25828 16.2489 16.24132 16.23003 16.21806 16.20728 16.19301 16.17882 16.16442 16.14711 16.12841 16.11199 16.1018 16.09083 16.07748 16.06576 16.0516 16.03825 16.0165 15.99115 15.96031 15.92794 15.89019 15.84623 15.8052 15.76182 15.71508 15.66102 15.60873 15.54849
0 0 0 0 0 0 0 0 19.1827 18.58532 17.40768 16.59208 16.5993 16.61222 16.27022 16.32391 16.01004 15.35093 15.38952 15.43551 15.4818 15.5333 15.57438 15.60951 15.64 15.67112 15.7048 15.71932 15.7383 15.74851 15.75326 15.77398 15.8007 15.8309 15.85972 15.88069 15.89969 15.91256 15.92382 15.93124 15.94597 15.95782 15.98049 16.00133 16.02672 16.0495 16.07343 16.09436 16.11431 16.13413 16.15316 16.17129 16.18828 16.20637 16.22295 16.23507 16.24549 16.25177 16.25662 16.2585 16.26166 16.26316 16.26191 16.25384 16.248 16.24406 16.24282 16.24592 16.24937 16.25546 16.27031 16.28605 16.29659 16.30701 16.30779 16.30604 16.30399 16.30004 16.29569 16.28424 16.27241 16.26283 16.25002 16.23778 16.22295 16.20704 16.19072 16.17381 16.15198 16.13531 16.11945 16.10691 16.09751 16.08668 16.07631 16.0686 16.05413 16.03657 16.01394 15.98869 15.96274 15.9289 15.8934 15.85566 15.8157 15.77385 15.72669 15.67369 15.6216
0 0 0 0 0 0 0 18.17537 18.25736 16.59312 16.20114 16.19626 16.21088 16.24953 16.30466 16.02311 15.3777 15.4173 15.45763 15.50322 15.55323 15.595 15.63343 15.66588 15.6968 15.72385 15.75278 15.77364 15.79075 15.80361 15.81686 15.83514 15.85679 15.87519 15.89661 15.91337 15.92481 15.93076 15.93779 15.94455 15.95406 15.96925 15.98726 16.00874 16.03609 16.05739 16.07801 16.09939 16.12157 16.14021 16.15565 16.17277 16.1876 16.2048 16.22141 16.23495 16.2483 16.25508 16.26 16.26321 16.26338 16.26922 16.2717 16.26814 16.26432 16.26357 16.26356 16.26539 16.27402 16.28499 16.29721 16.31279 16.3278 16.33638 16.33925 16.33803 16.33494 16.3289 16.31917 16.30627 16.29355 16.28022 16.26707 16.2525 16.23876 16.2182 16.19922 16.17954 16.15909 16.14241 16.12895 16.11606 16.10836 16.10135 16.0898 16.08288 16.07366 16.06319 16.04623 16.02224 15.99769 15.96828 15.93756 15.90402 15.86679 15.81915 15.77536 15.73096 15.67728
0 0 0 0 0 0 18.6737 18.65825 16.60315 16.17834 16.1639 16.1822 16.23508 15.93748 15.67157 15.39493 15.4244 15.47059 15.51128 15.55743 15.60646 15.64614 15.6844 15.7122 15.73965 15.77199 15.79583 15.8165 15.83933 15.85519 15.86931 15.88903 15.90135 15.91344 15.92364 15.93221 15.94108 15.94594 15.95049 15.9592 15.96952 15.98381 15.99904 16.01933 16.03521 16.05609 16.07653 16.09935 16.11739 16.13951 16.15631 16.17115 16.18673 16.20107 16.21242 16.22928 16.24094 16.249 16.25675 16.26401 16.27066 16.27469 16.27646 16.27923 16.28531 16.28977 16.29343 16.30092 16.30744 16.31981 16.33317 16.34918 16.36377 16.37098 16.37266 16.3695 16.3632 16.35172 16.3385 16.32414 16.30864 16.29316 16.27828 16.26189 16.24518 16.22473 16.20344 16.18099 16.16632 16.1511 16.13394 16.12677 16.11781 16.11392 16.10956 16.10271 16.09529 16.08829 16.07832 16.05917 16.03746 16.01534 15.98975 15.95992 15.92472 15.88441 15.83926 15.79404 15.74424
0 0 0 0 0 0 19.51878 17.84405 16.55639 16.14934 15.80508 15.86119 15.59919 15.34996 15.4128 15.45958 15.49454 15.53049 15.57513 15.61974 15.65829 15.69479 15.72549 15.75384 15.78098 15.80662 15.83146 15.85238 15.87399 15.89077 15.90626 15.92079 15.92964 15.93458 15.94065 15.94321 15.94583 15.94838 15.95861 15.96463 15.97788 15.99132 16.00927 16.02698 16.04244 16.06049 16.07691 16.09291 16.11343 16.13376 16.15034 16.16465 16.18367 16.19712 16.20748 16.21925 16.23248 16.24054 16.25145 16.25926 16.27005 16.27779 16.28247 16.2895 16.30061 16.31049 16.31828 16.32762 16.3388 16.35076 16.36326 16.37924 16.39339 16.40102 16.40353 16.39599 16.3874 16.37047 16.35816 16.34144 16.32406 16.30402 16.28646 16.26785 16.24748 16.22753 16.20886 16.18736 16.17198 16.1557 16.1416 16.13362 16.12814 16.12831 16.12723 16.12307 16.11601 16.10946 16.09944 16.08401 16.06766 16.0556 16.03895 16.0144 15.98302 15.95169 15.91354 15.86907 15.82338
0 0 0 0 0 19.57489 19.14137 17.81134 16.5445 16.17047 15.52456 15.27338 15.33969 15.40719 15.46126 15.50566 15.54803 15.59178 15.63168 15.66852 15.70626 15.73781 15.76372 15.79147 15.82342 15.84529 15.86482 15.8868 15.90727 15.92465 15.93641 15.94336 15.94991 15.95257 15.95098 15.949 15.95127 15.95195 15.95631 15.96935 15.97848 15.99401 16.01351 16.02388 16.0386 16.0545 16.07048 16.0886 16.10203 16.11936 16.13665 16.15408 16.16875 16.18611 16.19972 16.21194 16.22299 16.23193 16.24269 16.25041 16.26415 16.27819 16.29031 16.30237 16.31528 16.3266 16.33965 16.35303 16.36586 16.37679 16.39069 16.40361 16.41458 16.41891 16.42097 16.41487 16.40106 16.38552 16.36886 16.35254 16.33329 16.31652 16.29697 16.28009 16.25967 16.2351 16.21475 16.19644 16.17517 16.16486 16.15105 16.14329 16.14142 16.14259 16.14329 16.14127 16.13769 16.13436 16.12495 16.11488 16.10076 16.09021 16.07175 16.05219 16.02697 15.9967 15.96065 15.92352 15.88227
0 0 0 0 18.60356 18.22702 16.54134 16.14674 15.81028 15.21248 15.26 15.32661 15.39151 15.44387 15.49822 15.54217 15.58188 15.6183 15.661 15.70048 15.73517 15.76621 15.79524 15.82185 15.84744 15.86554 15.88639 15.90271 15.92325 15.93625 15.94408 15.94924 15.95481 15.95721 15.95083 15.95419 15.95354 15.95166 15.95533 15.96442 15.97791 15.9946 16.01184 16.01738 16.02713 16.04125 16.05891 16.07359 16.08591 16.09924 16.11642 16.13357 16.15125 16.17295 16.19135 16.20401 16.21397 16.2264 16.23558 16.24503 16.25955 16.27647 16.29241 16.30989 16.32793 16.34299 16.35902 16.375 16.38936 16.40197 16.41427 16.425 16.43116 16.43693 16.43548 16.42924 16.41711 16.40029 16.38018 16.36384 16.34688 16.32821 16.31071 16.29197 16.26942 16.2429 16.22573 16.2086 16.18825 16.17746 16.16524 16.16094 16.15931 16.15847 16.15688 16.15745 16.15931 16.15949 16.15236 16.14267 16.13645 16.12622 16.113 16.09844 16.07765 16.05101 16.02276 15.99213 15.95941
0 0 0 0 19.66844 16.9439 15.18281 15.1785 15.20668 15.2571 15.31866 15.38197 15.44142 15.49187 15.53553 15.57996 15.61732 15.6539 15.68893 15.7244 15.75867 15.78583 15.81175 15.83642 15.86023 15.87983 15.89675 15.91497 15.92945 15.93869 15.94191 15.94944 15.95242 15.95258 15.95223 15.95399 15.95256 15.95577 15.95559 15.96217 15.97738 15.98485 15.98947 15.99658 16.01401 16.02462 16.03793 16.05059 16.06688 16.08504 16.10008 16.11556 16.13161 16.15197 16.16699 16.18158 16.20037 16.21178 16.22568 16.23873 16.25475 16.27507 16.29666 16.31345 16.32951 16.35008 16.36534 16.38187 16.39961 16.41688 16.4295 16.43825 16.44521 16.45121 16.44477 16.43562 16.42266 16.40708 16.38774 16.37229 16.36257 16.34672 16.32266 16.2992 16.27365 16.24967 16.23777 16.2241 16.21255 16.20147 16.19058 16.18254 16.17929 16.17834 16.17367 16.17344 16.17526 16.17532 16.17237 16.1681 16.1624 16.15819 16.15593 16.14437 16.13316 16.11717 16.09272 16.07128 16.04311
0 0 0 18.70628 18.25605 16.52012 15.16229 15.1783 15.22962 15.29825 15.36316 15.42741 15.48037 15.5293 15.57557 15.61683 15.65365 15.6882 15.72139 15.74882 15.7802 15.80194 15.8224 15.84488 15.86182 15.87942 15.89554 15.90729 15.92027 15.92793 15.93448 15.94007 15.94443 15.94838 15.94897 15.9528 15.95148 15.95433 15.95235 15.96278 15.96885 15.96899 15.97577 15.98655 15.99527 16.01133 16.02588 16.03886 16.04994 16.06506 16.07743 16.09289 16.11002 16.1221 16.14139 16.15971 16.17947 16.19359 16.20996 16.2274 16.24819 16.27073 16.29493 16.31231 16.32666 16.34444 16.36269 16.38009 16.40082 16.41972 16.43383 16.44334 16.4499 16.4525 16.44915 16.44375 16.42436 16.40751 16.39093 16.38065 16.36774 16.34925 16.32451 16.30397 16.27912 16.26717 16.26102 16.24991 16.2325 16.2215 16.21857 16.21898 16.21754 16.20902 16.20265 16.19904 16.19836 16.19811 16.19892 16.19847 16.19699 16.19811 16.1934 16.18698 16.18372 16.17495 16.15013 16.13359 16.10821
0 0 0 18.66514 18.23549 16.49902 15.77075 15.19195 15.25928 15.32842 15.39381 15.45898 15.50677 15.55545 15.59623 15.63789 15.67507 15.7076 15.73734 15.76385 15.78471 15.80567 15.82012 15.83494 15.85053 15.86172 15.87779 15.89174 15.90116 15.90874 15.91767 15.92569 15.93265 15.93754 15.9429 15.94572 15.94563 15.94501 15.94565 15.94217 15.94457 15.95304 15.95701 15.95771 15.97041 15.98972 16.00668 16.02443 16.03546 16.04457 16.05494 16.07382 16.09152 16.10662 16.12347 16.13376 16.15391 16.1797 16.19439 16.21558 16.23996 16.26227 16.28629 16.30915 16.32603 16.34066 16.3544 16.37202 16.39533 16.41529 16.43362 16.44528 16.44995 16.45164 16.44968 16.44115 16.42102 16.40668 16.3969 16.38411 16.37398 16.35574 16.33566 16.31119 16.29501 16.2879 16.28171 16.26726 16.26272 16.26086 16.25423 16.2535 16.25447 16.25007 16.24687 16.24562 16.24583 16.24376 16.24541 16.24254 16.24635 16.25055 16.24425 16.24124 16.23856 16.23495 16.22056 16.1954 16.17383
0 0 0 19.5461 18.4906 16.46638 15.44315 15.20617 15.28013 15.3542 15.42331 15.47927 15.52498 15.57388 15.61663 15.65766 15.68912 15.71659 15.74067 15.76098 15.77612 15.79711 15.81113 15.82519 15.83746 15.85181 15.86362 15.87742 15.88212 15.8936 15.90205 15.91377 15.92324 15.93258 15.93554 15.93482 15.93683 15.93247 15.92949 15.93053 15.9306 15.93301 15.93591 15.94085 15.95099 15.96969 15.98482 15.99871 16.01061 16.02428 16.03953 16.0592 16.07091 16.08392 16.10312 16.1233 16.14261 16.16024 16.17674 16.2067 16.23491 16.25957 16.28439 16.30754 16.3239 16.33615 16.3544 16.36978 16.38455 16.40815 16.42903 16.43823 16.44484 16.44472 16.43759 16.43005 16.41081 16.39599 16.39348 16.38379 16.37676 16.36388 16.34503 16.32488 16.31439 16.30803 16.30605 16.29682 16.29205 16.29224 16.28709 16.28739 16.28454 16.28411 16.28421 16.28169 16.28299 16.28269 16.28478 16.28952 16.29327 16.29583 16.29048 16.28726 16.28653 16.28207 16.27457 16.256 16.23758
0 0 0 19.55849 17.20774 15.72771 15.17025 15.24745 15.3265 15.39323 15.44939 15.50324 15.54896 15.5949 15.63725 15.67027 15.69798 15.71736 15.73673 15.74828 15.76281 15.77816 15.79184 15.8026 15.81515 15.82939 15.84788 15.8605 15.86557 15.87603 15.887 15.90088 15.91324 15.92355 15.93145 15.92803 15.92404 15.92228 15.92409 15.92432 15.92363 15.92484 15.9277 15.93318 15.94067 15.95645 15.96888 15.98436 15.99855 16.01719 16.04318 16.05918 16.0742 16.08775 16.09901 16.12148 16.14161 16.16199 16.18084 16.2007 16.22817 16.25686 16.28464 16.30563 16.32603 16.33984 16.35103 16.3665 16.37984 16.3936 16.41514 16.42531 16.43142 16.43214 16.42412 16.4156 16.40437 16.39263 16.38632 16.37678 16.36612 16.36272 16.34442 16.33162 16.32851 16.32466 16.32576 16.32816 16.32777 16.32901 16.33208 16.33377 16.3299 16.32813 16.32914 16.32726 16.32476 16.3231 16.32586 16.33283 16.34159 16.33854 16.33356 16.33061 16.32766 16.32597 16.31678 16.30004 16.27748
15.14166 15.14505 16.44307 17.19538 15.37773 15.13053 15.20809 15.29262 15.36942 15.43027 15.47921 15.52532 15.56849 15.60692 15.64235 15.67182 15.699 15.71631 15.72798 15.73232 15.74253 15.75299 15.76379 15.77491 15.78918 15.80888 15.82648 15.84368 15.85443 15.8682 15.87881 15.89276 15.90736 15.91413 15.92243 15.92206 15.91839 15.91859 15.92075 15.9209 15.9216 15.92772 15.92763 15.93091 15.93959 15.95183 15.96334 15.97292 15.99414 16.01754 16.04531 16.06562 16.08099 16.09621 16.11238 16.13262 16.14615 16.16729 16.18962 16.20652 16.22638 16.25211 16.2873 16.30853 16.32326 16.33225 16.34535 16.36457 16.38061 16.38858 16.40171 16.41008 16.41712 16.41511 16.41231 16.40441 16.39991 16.38376 16.37236 16.36537 16.35836 16.35179 16.34742 16.34274 16.34506 16.33732 16.34373 16.35361 16.35616 16.36053 16.37064 16.37473 16.37416 16.36943 16.37325 16.36951 16.36905 16.36635 16.37236 16.38134 16.38757 16.38827 16.38635 16.38296 16.38093 16.37617 16.36333 16.34843 16.33191
15.1445 15.13881 15.15183 15.17085 15.1825 15.23118 15.29687 15.36502 15.42524 15.47739 15.51695 15.55448 15.59359 15.61943 15.6472 15.67125 15.69139 15.70496 15.71379 15.71411 15.7197 15.72606 15.73576 15.74602 15.76154 15.78416 15.80575 15.82959 15.8442 15.86 15.87491 15.88251 15.89651 15.90838 15.91327 15.9181 15.91753 15.91982 15.92218 15.92073 15.92417 15.93449 15.93873 15.9408 15.94402 15.95521 15.96262 15.9717 15.9912 16.01642 16.0423 16.06661 16.08332 16.101 16.12058 16.1379 16.15537 16.17471 16.19095 16.20952 16.232 16.25996 16.28974 16.30826 16.32218 16.32725 16.34185 16.35867 16.36843 16.38255 16.39196 16.39853 16.40419 16.40554 16.40367 16.40305 16.39396 16.38722 16.37473 16.36425 16.3565 16.3517 16.35681 16.36196 16.35879 16.36175 16.37744 16.39233 16.40267 16.40981 16.41276 16.41502 16.40842 16.40323 16.40491 16.40819 16.405 16.40509 16.4096 16.42229 16.42756 16.43165 16.43763 16.43581 16.42594 16.4158 16.40786 16.39551 16.38533
15.23209 15.24981 15.26817 15.28916 15.31178 15.35078 15.3993 15.44112 15.48255 15.51916 15.54784 15.575 15.59808 15.62333 15.64245 15.65929 15.68073 15.69313 15.69557 15.69542 15.69339 15.69549 15.70696 15.71687 15.73492 15.76128 15.7893 15.81364 15.8328 15.85063 15.86751 15.87924 15.89102 15.90608 15.91117 15.9149 15.91902 15.92144 15.92477 15.92878 15.93205 15.93709 15.93967 15.94487 15.94635 15.95443 15.96365 15.97164 15.99189 16.01698 16.04583 16.07205 16.09156 16.10919 16.12847 16.15214 16.17222 16.19385 16.21022 16.22421 16.23875 16.26132 16.2859 16.30227 16.31704 16.32902 16.34451 16.35613 16.36883 16.37739 16.38411 16.39151 16.39282 16.40142 16.40434 16.39325 16.39081 16.38809 16.37853 16.37364 16.37262 16.3718 16.37723 16.3878 16.39572 16.40518 16.41583 16.43132 16.44957 16.45529 16.46818 16.47208 16.46392 16.46139 16.45742 16.45494 16.4561 16.46475 16.47106 16.477 16.47979 16.48463 16.48678 16.4845 16.47048 16.46213 16.45093 16.4424 16.43606
15.31262 15.33449 15.35976 15.3841 15.40753 15.43508 15.45901 15.48506 15.51326 15.53689 15.554 15.5769 15.59734 15.61602 15.63301 15.64809 15.66349 15.67739 15.67968 15.67851 15.67292 15.67301 15.68663 15.69954 15.71812 15.74525 15.776 15.80164 15.8196 15.84299 15.85784 15.87314 15.89002 15.90606 15.9169 15.92447 15.92711 15.93124 15.93503 15.93548 15.93632 15.94274 15.94627 15.94944 15.9558 15.96304 15.96857 15.98004 16.00206 16.03024 16.05829 16.08316 16.10784 16.13075 16.15159 16.17119 16.19292 16.21254 16.2279 16.24719 16.25986 16.28123 16.29721 16.30481 16.31743 16.33146 16.34871 16.361 16.36937 16.37936 16.38362 16.3921 16.39726 16.40332 16.40621 16.3992 16.39579 16.3914 16.38714 16.38737 16.38531 16.38887 16.39787 16.4068 16.41952 16.43941 16.45623 16.47353 16.49555 16.50882 16.52469 16.53428 16.53291 16.52958 16.51897 16.51974 16.52298 16.53213 16.54128 16.55222 16.57209 16.57982 16.56789 16.55656 16.5483 16.53906 16.53354 16.52286 16.51452
15.39164 15.41142 15.42872 15.44172 15.45443 15.46919 15.48201 15.49625 15.51463 15.52928 15.54241 15.56261 15.57774 15.59855 15.6164 15.63513 15.64945 15.66372 15.66687 15.66568 15.66129 15.66373 15.67841 15.69695 15.71723 15.74329 15.77369 15.7959 15.8156 15.83664 15.85595 15.87586 15.89481 15.9116 15.9256 15.93471 15.94242 15.94687 15.95096 15.95275 15.95005 15.95558 15.95981 15.97076 15.98241 15.99094 16.00368 16.01722 16.03895 16.0597 16.08615 16.11511 16.13813 16.16262 16.18222 16.20645 16.22609 16.24754 16.26892 16.28483 16.29726 16.31239 16.32929 16.34441 16.35787 16.36938 16.37915 16.38318 16.3973 16.40669 16.40473 16.41021 16.41289 16.41939 16.42246 16.42719 16.42127 16.41456 16.41071 16.41012 16.41524 16.42469 16.43454 16.45047 16.46956 16.49229 16.51415 16.53079 16.55648 16.5803 16.59314 16.60222 16.60031 16.58284 16.57583 16.57588 16.5806 16.58957 16.61093 16.63595 16.65581 16.66108 16.65732 16.64692 16.63916 16.62875 16.61615 16.60493 16.59544
15.43267 15.44438 15.45213 15.45656 15.4635 15.467 15.47248 15.48478 15.49716 15.51297 15.52838 15.54668 15.56627 15.58211 15.60077 15.61619 15.6331 15.64737 15.65579 15.65757 15.65819 15.66272 15.67618 15.70045 15.72224 15.74842 15.77419 15.8014 15.8221 15.84182 15.86393 15.88639 15.90205 15.9227 15.93686 15.94967 15.95809 15.96216 15.96836 15.97389 15.97861 15.98452 15.98736 16.00022 16.0251 16.03804 16.05396 16.07704 16.0946 16.11692 16.14515 16.17032 16.19387 16.2157 16.24 16.26258 16.28867 16.31491 16.33355 16.34876 16.36678 16.3759 16.38668 16.39456 16.40406 16.41407 16.41785 16.43075 16.43477 16.43804 16.44006 16.43842 16.44163 16.44644 16.44143 16.44405 16.44156 16.44072 16.44393 16.45047 16.46513 16.47696 16.48913 16.51047 16.52947 16.5579 16.58428 16.61103 16.63975 16.65658 16.67408 16.68779 16.68524 16.67573 16.66735 16.66391 16.6649 16.66847 16.68346 16.70187 16.71761 16.72667 16.72706 16.72138 16.71356 16.70723 16.69687 16.68432 16.67334
15.43881 15.44677 15.4483 15.4453 15.44322 15.44772 15.4558 15.46669 15.48197 15.49786 15.51424 15.53435 15.55012 15.57068 15.59148 15.60708 15.622 15.64114 15.64523 15.65111 15.65905 15.66824 15.68608 15.70997 15.73585 15.76049 15.78688 15.81383 15.83908 15.86283 15.8854 15.90693 15.92678 15.94401 15.96064 15.97158 15.98151 15.98732 15.99462 16.00166 16.01307 16.02032 16.03404 16.056 16.07853 16.0982 16.12114 16.14139 16.16339 16.18033 16.20881 16.23421 16.26306 16.29404 16.31905 16.33972 16.36445 16.38763 16.41287 16.42936 16.44306 16.45057 16.46084 16.4703 16.47735 16.48306 16.4832 16.48724 16.48356 16.48478 16.48428 16.4913 16.49089 16.49124 16.48454 16.4786 16.48024 16.48375 16.49548 16.50964 16.52355 16.53494 16.55065 16.56218 16.58747 16.6156 16.64882 16.67245 0 0 16.71329 16.73619 16.73824 16.73947 16.72161 16.71209 16.71581 16.7201 16.72005 0 0 16.73973 16.78757 16.78294 16.77942 16.77755 16.7789 16.77597 16.76478
