ncols        109
nrows        82
xllcorner    -1.041666666667
yllcorner    37.041665395101
cellsize     0.083333333333
NODATA_value -9999
0.0 0 0 0 0 0 0 0 0 0 0 0 0 0 0 0 0 0 0 0 0 0 0 0 0 0 0 0 0 0 0 0 0 0 0 0 0 0 0 0 0 0 0 0 0 0 0 0 0 0 0 0 0 0 0 0 0 0 0 0 0 0 0 0 0 0 0 0 0 0 0 0 0 0 0 0 0 0 0 0 0 0 0 0 0 0 0 0 0 0 0 0 0 0 0 0 0 0 0 0 0 0 0 0 0 17.70159 16.34961 15.04758 15.04409
0 0 0 0 0 0 0 0 0 0 0 0 0 0 0 0 0 0 0 0 0 0 0 0 0 0 0 0 0 0 0 0 0 0 0 0 0 0 0 0 0 0 0 0 0 0 0 0 0 0 0 0 0 0 0 0 0 0 0 0 0 0 0 0 0 0 0 0 0 0 0 0 0 0 0 0 0 0 0 0 0 0 0 0 0 0 0 0 0 0 0 0 0 0 0 0 0 0 0 0 0 15.2191 15.23788 15.0335 15.03893 15.03843 15.02798 15.0178 14.99828
0 0 0 0 0 0 0 0 0 0 0 0 0 0 0 0 0 0 0 0 0 0 0 0 0 0 0 0 0 0 0 0 0 0 0 0 0 0 0 0 0 0 0 0 0 0 0 0 0 0 0 0 0 0 0 0 0 0 0 0 0 0 0 0 0 0 0 0 0 0 0 0 0 0 0 0 0 0 0 0 0 0 0 0 0 0 0 0 0 0 0 0 0 0 0 0 0 0 15.02777 15.03194 15.03059 15.02348 15.0036 14.99496 14.97943 14.95076 14.91973 14.89192 14.86977
0 0 0 0 0 0 0 0 0 0 0 0 0 0 0 0 0 0 0 0 0 0 0 0 0 0 0 0 0 0 0 0 0 0 0 0 0 0 0 0 0 0 0 0 0 0 0 0 0 0 0 0 0 0 0 0 0 0 0 0 0 0 0 0 0 0 0 0 0 0 0 0 0 0 0 0 0 0 0 0 0 0 0 0 0 0 0 0 0 0 0 0 0 0 0 0 0 16.60432 15.01528 15.01033 14.97963 14.9468 14.91609 14.8941 14.86258 14.83386 14.80039 14.77734 14.74531
0 0 0 0 0 0 0 0 0 0 0 0 0 0 0 0 0 0 0 0 0 0 0 0 0 0 0 0 0 0 0 0 0 0 0 0 0 0 0 0 0 0 0 0 0 0 0 0 0 0 0 0 0 0 0 0 0 0 16.34806 15.96789 15.6665 15.79605 0 0 0 0 0 0 0 0 0 0 0 0 0 0 0 0 0 0 0 0 0 0 0 0 0 0 0 0 0 0 0 0 0 15.42287 15.01142 15.01464 14.9778 14.94643 14.90307 14.84707 14.7946 14.75407 14.71857 14.68744 14.66381 14.64091 14.61494
0 0 0 0 0 0 0 0 0 0 0 0 0 0 0 0 0 0 0 0 0 0 0 0 0 0 0 0 0 0 0 0 0 0 0 0 0 0 0 0 0 0 0 0 0 0 0 0 0 0 0 0 0 0 0 0 15.86488 15.90046 15.6264 15.40593 15.33238 15.31412 15.39889 15.60025 15.8092 15.93299 15.92499 0 0 0 0 16.28826 0 0 0 0 0 0 0 0 0 0 0 0 0 0 0 0 0 0 0 0 0 15.9645 14.95888 14.99148 14.97537 14.93751 14.89017 14.83116 14.77476 14.72232 14.67499 14.635 14.61439 14.59665 14.58078 14.55616 14.54328
0 0 0 0 0 0 0 0 0 0 0 0 0 0 0 0 0 0 0 0 0 0 0 0 0 0 0 0 0 0 0 0 0 0 0 0 0 0 0 0 0 0 0 0 0 0 0 0 0 0 0 0 0 0 0 16.00434 15.62312 15.30547 15.13367 14.88366 14.95685 14.98741 15.15695 15.27826 15.42119 15.53166 15.61564 15.80886 16.01469 15.98497 15.93813 15.70662 15.5124 15.57474 15.73479 15.48269 15.48373 0 0 0 0 0 0 0 0 0 0 0 0 0 0 0 15.30556 14.98041 14.9718 14.94975 14.91403 14.85751 14.79709 14.73318 14.67578 14.61717 14.57397 14.54232 14.53862 14.52897 14.5213 14.51484 14.51286
0 0 0 0 0 0 0 0 0 0 0 0 0 0 0 0 0 0 0 0 0 0 0 0 0 0 0 0 0 0 0 0 0 0 0 0 0 0 0 0 0 0 0 0 0 0 0 0 0 0 0 15.66309 15.82554 15.97447 15.73715 15.32366 15.11337 14.864 14.76052 14.84129 14.90213 14.9303 14.92846 15.10672 15.0945 15.29241 15.28647 15.29546 15.3223 15.21939 15.10988 15.14587 15.02298 15.22445 15.25505 15.43779 0 0 0 0 0 0 0 0 0 0 0 0 0 0 0 0 14.96332 14.97178 14.92977 14.87475 14.81837 14.74627 14.67962 14.62036 14.57511 14.53352 14.50873 14.50039 14.50055 14.4972 14.49387 14.49488 14.49602
0 0 0 0 0 0 0 0 0 0 0 0 0 0 0 0 0 0 0 0 0 0 0 0 0 0 0 0 0 0 0 0 0 0 0 0 0 0 0 0 0 0 0 0 0 0 0 0 0 0 15.86539 15.69906 15.46467 15.41127 15.32083 15.04958 14.73515 14.80866 14.67128 14.74198 14.7891 14.81436 14.83291 15.02152 15.01657 15.2172 15.21726 15.23517 15.09454 14.95929 15.00006 15.04798 14.91354 15.11399 15.13303 15.34051 15.34446 15.16368 15.17814 15.55355 16.01002 16.76492 0 0 0 0 0 0 0 15.86026 15.31918 14.95784 14.97034 14.93622 14.86136 14.79403 14.72243 14.65822 14.60123 14.54917 14.51261 14.48906 14.47804 14.4772 14.4785 14.48282 14.48898 14.49482 14.50444
0 0 0 0 0 0 0 0 0 0 0 0 0 0 0 0 0 0 0 0 0 0 0 0 0 0 0 0 0 0 0 0 0 0 0 0 0 0 0 0 0 0 0 0 0 0 0 0 0 16.72777 15.56311 15.47162 15.41979 15.1332 14.97226 14.80849 14.8587 14.70021 14.75058 14.79985 14.83894 14.86492 14.88627 15.09624 15.10646 15.11692 15.13251 15.13935 15.14813 14.99627 15.02927 14.89803 14.7522 14.76858 14.78015 14.79721 14.80506 14.82225 14.84325 14.84888 15.2285 15.78156 0 15.59201 16.16145 16.64076 16.94384 16.6695 16.20048 14.92366 14.94943 14.95376 14.92705 14.85262 14.76218 14.68919 14.6207 14.56931 14.52544 14.50066 14.48245 14.48258 14.48039 14.48713 14.4845 14.49305 14.50639 14.51556 14.52411
0 0 0 0 0 0 0 0 0 0 0 0 0 0 0 0 0 0 0 0 0 0 0 0 0 0 0 0 0 0 0 0 0 0 0 0 0 0 0 0 0 0 0 0 0 0 0 0 0 16.42644 15.54046 15.27169 14.99225 14.85043 14.89604 14.73288 14.76127 14.80722 14.84655 14.88301 14.92207 14.94182 14.9516 14.95865 14.97111 14.81192 14.67922 14.83599 14.83915 14.8509 14.86324 14.71069 14.71677 14.72418 14.73275 14.74458 14.7635 14.77689 14.799 14.81588 14.8361 14.86309 14.8829 14.90195 14.93042 14.9417 15.92542 16.11197 15.72108 14.9021 14.89156 14.85212 14.80491 14.72646 14.66897 14.60851 14.55744 14.51288 14.48818 14.47892 14.48413 14.4934 14.50608 14.50873 14.51927 14.52604 14.53081 14.53802 14.54871
0 0 0 0 0 0 0 0 0 0 0 0 0 0 0 0 0 0 0 0 0 0 0 0 0 0 0 0 0 0 0 0 0 0 0 0 0 0 0 0 0 0 0 0 0 0 0 0 0 16.15873 15.48847 15.20853 14.88153 14.93985 14.77866 14.83111 14.86081 14.90405 14.93595 14.96773 14.79916 14.81757 14.82741 14.8315 14.83163 14.67154 14.67883 14.681 14.66189 14.65978 14.66414 14.66435 14.6676 14.675 14.6818 14.68822 14.69634 14.70502 14.72113 14.74414 14.76758 14.79454 14.8103 14.82817 14.85106 14.87067 14.88166 14.883 14.8591 14.82197 14.78346 14.73024 14.67832 14.61766 14.57108 14.53945 14.51158 14.47315 14.4788 14.4976 14.51204 14.52208 14.53397 14.53833 14.55118 14.55566 14.5553 14.55985 14.57275
0 0 0 0 0 0 0 0 0 0 0 0 0 0 0 0 0 0 0 0 0 0 0 0 0 0 0 0 0 0 0 0 0 0 0 0 0 0 0 0 0 0 0 0 0 0 0 0 0 16.08567 15.3879 15.08774 14.95132 14.80763 14.86671 14.93353 14.77863 14.81033 14.64373 14.65202 14.66247 14.66632 14.66801 14.66672 14.66592 14.65705 14.65499 14.64825 14.63042 14.61177 14.60627 14.60025 14.5922 14.5885 14.58946 14.58985 14.60274 14.62296 14.64754 14.67234 14.68856 14.69692 14.70081 14.70872 14.71582 14.73094 14.7384 14.73104 14.70635 14.67514 14.64125 14.60806 14.57006 14.54391 14.52132 14.49261 14.47205 14.46752 14.48459 14.50911 14.53396 14.55565 14.57126 14.57518 14.58222 14.5873 14.59547 14.59096 14.60034
0 0 0 0 0 0 0 0 0 0 0 0 0 0 0 0 0 0 0 0 0 0 0 0 0 0 0 0 0 0 0 0 0 0 0 0 0 0 0 0 0 0 0 0 0 0 0 0 0 15.96049 15.44577 15.12759 14.99808 14.85722 14.91702 14.77899 14.63827 14.65749 14.67127 14.67098 14.66795 14.6603 14.65328 14.64811 14.64346 14.63431 14.62441 14.61413 14.59476 14.57888 14.56185 14.54633 14.53194 14.51913 14.5047 14.49203 14.49577 14.51435 14.5392 14.55602 14.56617 14.56829 14.56471 14.57085 14.58121 14.60143 14.61413 14.61454 14.59346 14.55369 14.52022 14.49421 14.48427 14.48524 14.47197 14.4648 14.47144 14.48607 14.49904 14.52258 14.54857 14.57946 14.59801 14.61093 14.61412 14.62628 14.63573 14.63779 14.63155
0 0 0 0 0 0 0 0 0 0 0 0 0 0 0 0 0 0 0 0 0 0 0 0 0 0 0 0 0 0 0 0 0 0 0 0 0 0 0 0 0 0 0 0 0 0 0 0 0 16.01248 15.2572 14.93182 15.0457 14.91309 14.96971 14.80258 14.65437 14.66423 14.66746 14.65848 14.64623 14.63635 14.62629 14.61824 14.60817 14.59314 14.57168 14.55679 14.53313 14.50867 14.48855 14.46694 14.44819 14.43917 14.43612 14.43902 14.44285 14.45243 14.46106 14.46984 14.47071 14.47179 14.47417 14.47575 14.48299 14.49547 14.49288 14.48784 14.47993 14.46905 14.46005 14.45812 14.45565 14.46022 14.46727 14.4794 14.49942 14.51927 14.53906 14.55961 14.57936 14.6099 14.63538 14.64948 14.65637 14.66105 14.66508 14.67619 14.67046
0 0 0 0 0 0 0 0 0 0 0 0 0 0 0 0 0 0 0 0 0 0 0 0 0 0 0 0 0 0 0 0 0 0 0 0 0 0 0 0 0 0 0 0 0 0 0 0 0 15.5238 15.30173 14.95473 14.86868 14.7694 14.82131 14.65205 14.66305 14.66 14.65235 14.63795 14.61929 14.59974 14.58576 14.57581 14.56408 14.54746 14.53133 14.51428 14.49587 14.46775 14.43866 14.40902 14.39116 14.37827 14.3765 14.37683 14.37702 14.38288 14.39173 14.40179 14.40158 14.40606 14.41533 14.42499 14.4321 14.43584 14.43889 14.43625 14.43177 14.42621 14.42482 14.44338 14.45416 14.47254 14.49087 14.51012 14.53512 14.55598 14.5764 14.59193 14.60691 14.63346 14.65849 14.68603 14.69252 14.70185 14.70239 14.70709 14.71916
0 0 0 0 0 0 0 0 0 0 0 0 0 0 0 0 0 0 0 0 0 0 0 0 0 0 0 0 0 0 0 0 0 0 0 0 0 0 0 0 0 0 0 0 0 0 0 0 0 0 15.0638 15.01904 14.9292 14.64157 14.67595 14.67065 14.6721 14.65791 14.64169 14.62349 14.6001 14.57888 14.55905 14.54429 14.53031 14.51606 14.50325 14.48789 14.46811 14.44673 14.41436 14.38957 14.37462 14.3613 14.35022 14.34621 14.34566 14.34377 14.3473 14.35932 14.3636 14.36718 14.37168 14.37824 14.39138 14.40202 14.40396 14.40921 14.41824 14.42342 14.43426 14.44974 14.46773 14.49212 14.52308 14.54947 14.57084 14.58815 14.61127 14.63105 14.65247 14.67459 14.6937 14.71335 14.72097 14.7223 14.73008 14.74131 14.75315
0 0 0 0 0 0 0 0 0 0 0 0 0 0 0 0 0 0 0 0 0 0 0 0 0 0 0 0 0 0 0 0 0 0 0 0 0 0 0 0 0 0 0 0 0 0 0 0 0 0 15.21084 14.83265 14.58779 14.66466 14.6862 14.68695 14.67494 14.65348 14.63302 14.60694 14.57693 14.55371 14.5365 14.53054 14.52054 14.50969 14.4983 14.48204 14.46624 14.44447 14.41967 14.39492 14.37571 14.35684 14.34584 14.34012 14.33606 14.33336 14.33757 14.34179 14.34335 14.35202 14.36331 14.37222 14.37918 14.38818 14.40034 14.41205 14.42488 14.43204 14.44896 14.4739 14.4949 14.51746 14.55539 14.58037 14.6022 14.62118 14.64468 14.67039 14.69622 14.71374 14.7286 14.74898 14.76061 14.76071 14.76286 14.78001 14.79769
0 0 0 0 0 0 0 0 0 0 0 0 0 0 0 0 0 0 0 0 0 0 0 0 0 0 0 0 0 0 0 0 0 0 0 0 0 0 0 0 0 0 0 0 0 0 0 0 0 0 0 0 14.61225 14.65661 14.6803 14.68897 14.67929 14.65194 14.62402 14.59412 14.56399 14.53721 14.52002 14.51574 14.51592 14.50983 14.50211 14.48788 14.47228 14.45519 14.43702 14.41188 14.39095 14.37422 14.3553 14.34873 14.33819 14.3377 14.33924 14.34372 14.34818 14.35022 14.36205 14.37356 14.39104 14.4032 14.42172 14.42812 14.43811 14.45388 14.47676 14.49979 14.52267 14.55556 14.58563 14.6151 14.64336 14.65944 14.6826 14.70577 14.72272 14.74373 14.76854 14.77727 14.79116 14.79657 14.79969 14.81663 14.83825
0 0 0 0 0 0 0 0 0 0 0 0 0 0 0 0 0 0 0 0 0 0 0 0 0 0 0 0 0 0 0 0 0 0 0 0 0 0 0 0 0 0 0 0 0 0 0 0 0 0 16.80232 15.25459 14.84931 14.6841 14.69176 14.69203 14.67442 14.64474 14.61566 14.5858 14.56087 14.53852 14.52246 14.52019 14.52356 14.52343 14.52225 14.51247 14.50479 14.48669 14.4583 14.43617 14.41116 14.39302 14.38189 14.3646 14.35449 14.35116 14.35455 14.36278 14.36872 14.37072 14.3818 14.3906 14.40557 14.42195 14.43595 14.44644 14.45542 14.47485 14.4955 14.52452 14.55402 14.59361 14.6183 14.64582 14.67209 14.68953 14.71331 14.73103 14.7521 14.77262 14.7941 14.81369 14.83054 14.831 14.84133 14.8616 14.87999
0 0 0 0 0 0 0 0 0 0 0 0 0 0 0 0 0 0 0 0 0 0 0 0 0 0 0 0 0 0 0 0 0 0 0 0 0 0 0 0 0 0 0 0 0 0 0 0 0 0 16.16255 15.27797 15.08665 14.70461 14.69654 14.68455 14.66925 14.63634 14.61195 14.59129 14.57036 14.55438 14.54847 14.55076 14.55348 14.56052 14.56011 14.55162 14.54715 14.52688 14.50171 14.4786 14.45382 14.42784 14.40929 14.38944 14.38306 14.37507 14.38031 14.38918 14.40095 14.41223 14.42176 14.43493 14.44371 14.45128 14.46346 14.4727 14.48485 14.50151 14.52867 14.56011 14.59306 14.6273 14.65267 14.67919 14.70285 14.72345 14.7425 14.76354 14.78421 14.80108 14.82308 14.849 14.86441 14.86578 14.87411 14.89352 14.92038
0 0 0 0 0 0 0 0 0 0 0 0 0 0 0 0 0 0 0 0 0 0 0 0 0 0 0 0 0 0 0 0 0 0 0 0 0 0 0 0 0 0 0 0 0 0 0 0 0 0 0 15.31465 14.89929 14.72146 14.70314 14.67999 14.67062 14.64165 14.6174 14.60146 14.58792 14.57866 14.57792 14.58535 14.59434 14.60479 14.60466 14.60452 14.59215 14.57762 14.55545 14.52857 14.5024 14.47393 14.44718 14.42812 14.41222 14.40745 14.40824 14.41761 14.43058 14.44689 14.45952 14.47249 14.48559 14.49669 14.51204 14.52347 14.54368 14.56811 14.59883 14.62907 14.65668 14.67777 14.69959 14.72018 14.73986 14.75794 14.78204 14.79682 14.8189 14.83724 14.86511 14.89396 14.89852 14.90592 14.91396 14.93746 14.97142
0 0 0 0 0 0 0 0 0 0 0 0 0 0 0 0 0 0 0 0 0 0 0 0 0 0 0 0 0 0 0 0 0 0 0 0 0 0 0 0 0 0 0 0 0 0 0 0 0 0 0 15.1066 14.72453 14.73345 14.70936 14.68501 14.67296 14.64947 14.63226 14.62719 14.62091 14.6208 14.63081 14.64355 14.65398 14.65683 14.66447 14.6639 14.64963 14.62649 14.60358 14.57418 14.55045 14.51758 14.49187 14.47417 14.46039 14.4573 14.45311 14.45815 14.46743 14.4822 14.49726 14.51465 14.52578 14.53375 14.54819 14.57537 14.60075 14.63545 14.67038 14.69148 14.71296 14.73272 14.75521 14.77221 14.78616 14.80526 14.82576 14.83792 14.8534 14.87877 14.90007 14.92045 14.93033 14.93859 14.95393 14.98538 15.00958
0 0 0 0 0 0 0 0 0 0 0 0 0 0 0 0 0 0 0 0 0 0 0 0 0 0 0 0 0 0 0 0 0 0 0 0 0 0 0 0 0 0 0 0 0 0 0 0 0 0 0 14.75907 14.76049 14.75415 14.72909 14.69566 14.67527 14.65414 14.64768 14.64709 14.65066 14.66527 14.68226 14.69743 14.71096 14.72874 14.73111 14.72394 14.71543 14.69234 14.66424 14.62719 14.59264 14.56055 14.53359 14.51261 14.49754 14.49188 14.49305 14.49986 14.51843 14.54083 14.55771 14.56924 14.57916 14.59735 14.61654 14.64567 14.67649 14.70917 14.72952 14.75457 14.76946 14.78555 14.79901 14.82126 14.838 14.8511 14.87279 14.88849 14.91026 14.91986 14.93735 14.95464 14.95771 14.97477 14.99441 15.02637 15.05349
0 0 0 0 0 0 0 0 0 0 0 0 0 0 0 0 0 0 0 0 0 0 0 0 0 0 0 0 0 0 0 0 0 0 0 0 0 0 0 0 0 0 0 0 0 0 0 0 0 16.69692 15.73744 14.7969 14.78857 14.76551 14.73706 14.71147 14.68907 14.67246 14.67384 14.68309 14.70095 14.72056 14.73734 14.7564 14.76593 14.78632 14.78565 14.78252 14.7697 14.74838 14.72863 14.69668 14.66549 14.62438 14.58742 14.57034 14.55615 14.54319 14.54584 14.55453 14.57606 14.59372 14.61371 14.62768 14.64121 14.66133 14.68232 14.70831 14.73879 14.76605 14.78934 14.8134 14.82651 14.84112 14.86138 14.88433 14.89702 14.91045 14.91965 14.93637 14.95758 14.9636 14.97277 14.98609 14.99449 15.01051 15.03244 15.06603 15.09595
0 0 0 0 0 0 0 0 0 0 0 0 0 0 0 0 0 0 0 0 0 0 0 0 0 0 0 0 0 0 0 0 0 0 0 0 0 0 0 0 0 0 0 0 0 0 0 0 15.82599 15.30818 15.06728 14.84386 14.81831 14.78637 14.75474 14.73547 14.71821 14.70667 14.70946 14.72923 14.75151 14.77528 14.80029 14.81459 14.83291 14.84365 14.85122 14.85 14.83835 14.80792 14.78581 14.75283 14.71508 14.68095 14.6489 14.62873 14.61693 14.60789 14.61467 14.62892 14.64509 14.66791 14.6857 14.7 14.71759 14.73334 14.752 14.76629 14.78589 14.81697 14.83708 14.85285 14.87126 14.8931 14.91582 14.93967 14.95337 14.97273 14.99125 15.00317 15.01689 15.02726 15.02483 15.02357 15.02417 15.03652 15.06277 15.08907 15.11803
0 0 0 0 0 0 0 0 0 0 0 0 0 0 0 0 0 0 0 0 0 0 0 0 0 0 0 0 0 0 0 0 0 0 0 0 0 0 0 0 0 0 0 0 0 15.50305 15.36658 15.905 15.39106 15.40801 15.14992 14.8929 14.85591 14.81882 14.78864 14.76969 14.75956 14.74886 14.75069 14.76966 14.79718 14.8188 14.8461 14.85858 14.88184 14.89092 14.90571 14.91471 14.89863 14.8733 14.83705 14.80635 14.77438 14.74693 14.71521 14.68543 14.67599 14.67482 14.68136 14.69314 14.70697 14.72847 14.74627 14.75933 14.78017 14.80157 14.81659 14.83295 14.85079 14.87822 14.89463 14.91464 14.93275 14.95488 14.98171 14.99802 15.01417 15.03304 15.04944 15.06628 15.07411 15.07597 15.07306 15.07041 15.06571 15.07057 15.093 15.11187 15.14139
0 0 0 0 0 0 0 0 0 0 0 0 0 0 0 0 0 0 0 0 0 0 0 0 0 0 0 0 0 0 0 0 0 0 0 0 0 0 0 0 0 0 17.53816 17.23625 16.25576 15.43849 14.95139 14.96567 15.47735 15.21164 14.96469 14.92391 14.88788 14.85219 14.8264 14.81407 14.80721 14.80251 14.80972 14.82641 14.85453 14.87922 14.89747 14.91609 14.93644 14.95146 14.96275 14.96326 14.94791 14.91882 14.88492 14.86212 14.83429 14.80378 14.77556 14.75435 14.74283 14.74233 14.75447 14.77226 14.78625 14.80316 14.81875 14.82512 14.84113 14.85912 14.88094 14.88965 14.90801 14.92799 14.94153 14.96583 14.99272 15.02557 15.03727 15.06127 15.08077 15.09961 15.12477 15.1334 15.13394 15.13329 15.12678 15.11927 15.11427 15.11096 15.12293 15.13869 15.1621
0 0 0 0 0 0 0 0 0 0 0 0 0 0 0 0 0 0 0 0 0 0 0 0 0 0 0 0 0 0 0 0 0 0 0 0 0 0 0 0 16.61799 17.01739 17.28674 16.3469 15.50184 15.00613 15.02588 15.03954 15.03741 15.01921 14.99719 14.9615 14.92106 14.88926 14.8647 14.85366 14.85414 14.84778 14.85579 14.87668 14.90674 14.93134 14.95227 14.97068 14.98872 15.00149 15.00722 15.01219 15.00523 14.98527 14.95212 14.93144 14.90919 14.87413 14.83964 14.82058 14.80853 14.80147 14.81686 14.83186 14.85414 14.8684 14.88665 14.89577 14.90781 14.92289 14.94589 14.95825 14.97421 14.98341 15.00018 15.01894 15.04407 15.06775 15.08611 15.1097 15.1282 15.14364 15.16887 15.17801 15.17911 15.18307 15.17687 15.16622 15.15953 15.15645 15.17265 15.19082 15.20328
0 0 0 0 0 0 0 0 0 0 0 0 0 0 0 0 0 0 0 0 0 0 0 0 0 0 0 0 0 0 0 0 0 0 0 0 0 0 0 16.82137 16.58431 16.04891 15.80544 15.01859 15.03478 15.05105 15.06344 15.07697 15.07327 15.04923 15.01611 14.98847 14.9572 14.9274 14.90987 14.90868 14.91316 14.91889 14.92191 14.9444 14.96735 14.98936 15.01454 15.02605 15.04453 15.06037 15.07443 15.07364 15.06411 15.04599 15.02316 15.00146 14.98357 14.95285 14.92943 14.91204 14.89841 14.88721 14.88776 14.89945 14.91612 14.92887 14.93547 14.94569 14.95476 14.97052 14.99509 15.01521 15.02757 15.03852 15.05353 15.07383 15.09507 15.12018 15.13708 15.1527 15.16962 15.18679 15.21237 15.22098 15.22035 15.21497 15.20984 15.19917 15.20161 15.20538 15.21068 15.22806 15.23546
0 0 0 0 0 0 0 0 0 0 0 0 0 0 0 0 0 0 0 0 0 0 0 0 0 0 0 0 0 0 0 0 0 0 0 0 0 0 16.03785 15.75629 15.51624 15.03014 15.06254 15.07714 15.08726 15.09739 15.10298 15.10368 15.09766 15.08185 15.05303 15.02697 15.01467 14.98173 14.96694 14.95856 14.9686 14.97234 14.98929 15.01192 15.03419 15.05138 15.0692 15.08619 15.10253 15.11823 15.1328 15.13958 15.13345 15.11447 15.09975 15.07462 15.04614 15.02376 14.99147 14.97604 14.96364 14.95419 14.9537 14.95898 14.97821 14.99341 14.99945 15.00734 15.01817 15.03302 15.05826 15.06742 15.08092 15.10002 15.10746 15.11786 15.13936 15.15899 15.17362 15.1919 15.20451 15.22732 15.23901 15.26193 15.26826 15.26275 15.26386 15.26448 15.26569 15.26564 15.27151 15.28004 15.28371
0 0 0 0 0 0 0 0 0 0 0 0 0 0 0 0 0 0 0 0 0 0 0 0 0 0 0 0 0 0 0 0 0 0 17.66393 18.27924 17.43574 15.77532 14.98109 15.01282 15.04465 15.06454 15.08557 15.10488 15.11782 15.1221 15.12639 15.1283 15.12844 15.12848 15.11334 15.10935 15.09494 15.07158 15.05642 15.04641 15.04658 15.04542 15.06439 15.07442 15.09342 15.10246 15.11415 15.13181 15.1523 15.1675 15.18258 15.19196 15.19363 15.18844 15.17795 15.15119 15.12262 15.09909 15.074 15.05584 15.0435 15.02842 15.02069 15.02988 15.03276 15.04324 15.05409 15.05332 15.06834 15.08747 15.1057 15.11976 15.13318 15.14719 15.16488 15.18155 15.20008 15.21817 15.22626 15.23717 15.24692 15.26634 15.28151 15.29219 15.30036 15.29965 15.30632 15.31543 15.3284 15.32814 15.33544 15.34054 15.33445
0 0 0 0 0 0 0 0 0 0 0 0 0 0 0 0 0 0 0 0 0 0 0 0 0 0 0 0 0 18.09284 17.70068 17.486 17.48751 17.27651 16.9991 16.43052 14.99675 15.0201 15.04207 15.0627 15.07935 15.09407 15.11311 15.12027 15.12962 15.13728 15.14269 15.1396 15.14558 15.15136 15.16256 15.16788 15.16136 15.144 15.12742 15.12493 15.12142 15.12189 15.1435 15.15091 15.15721 15.16372 15.17087 15.18319 15.20247 15.21345 15.22826 15.23307 15.23353 15.23377 15.22636 15.20863 15.18686 15.17222 15.15084 15.13685 15.12276 15.113 15.10638 15.10815 15.10809 15.11655 15.12259 15.12758 15.13835 15.1425 15.15127 15.16741 15.17835 15.19684 15.21586 15.22814 15.24958 15.26562 15.27411 15.28399 15.28724 15.29983 15.32596 15.33806 15.35852 15.35937 15.36867 15.38865 15.3946 15.39441 15.39149 15.38386 15.3541
0 0 0 0 0 0 0 0 0 0 0 0 0 0 0 0 0 0 0 0 0 0 0 0 0 17.85186 17.13815 17.14993 16.23439 15.59784 15.30402 15.03334 15.02922 15.03104 15.03032 15.03193 15.03937 15.05149 15.0676 15.08529 15.0982 15.11423 15.12159 15.13408 15.13922 15.14263 15.15466 15.15908 15.17321 15.19609 15.21492 15.23192 15.23692 15.21886 15.18947 15.18844 15.18653 15.18214 15.18815 15.20041 15.20423 15.20766 15.21628 15.23087 15.24863 15.2665 15.27575 15.27702 15.28287 15.28551 15.28583 15.27404 15.25981 15.24549 15.22886 15.20888 15.19404 15.18458 15.18522 15.1878 15.18561 15.18767 15.19499 15.19793 15.20181 15.20853 15.21482 15.22354 15.23527 15.25318 15.27229 15.28323 15.29746 15.31598 15.32357 15.33036 15.3312 15.34137 15.36319 15.37755 15.40571 15.42367 15.44407 15.46681 15.47336 15.47443 15.44433 15.4139 15.35122
0 0 0 0 0 0 0 0 0 0 0 0 0 0 0 0 0 0 0 0 0 0 0 18.00633 17.16226 16.60552 16.3053 16.00092 15.09135 15.0883 15.08293 15.07538 15.07259 15.06558 15.05898 15.05616 15.06006 15.07017 15.08294 15.09253 15.10315 15.11802 15.12912 15.13608 15.14359 15.15551 15.16845 15.18247 15.1984 15.22968 15.26463 15.28585 15.29556 15.28979 15.26111 15.23656 15.2334 15.23254 15.23437 15.2431 15.25545 15.25881 15.25751 15.26981 15.28284 15.30292 15.31119 15.31314 15.31418 15.32503 15.33373 15.33152 15.3281 15.31744 15.30871 15.29516 15.2849 15.27768 15.27955 15.27845 15.27396 15.26758 15.26801 15.26724 15.26151 15.2555 15.26136 15.26945 15.27776 15.29771 15.3119 15.32788 15.34757 15.36877 15.38127 15.38006 15.38225 15.39353 15.40988 15.4347 15.46262 15.48958 15.51167 15.52422 15.52793 15.51296 15.469 15.41803 15.3368
0 0 0 0 0 0 0 0 0 0 0 0 0 0 0 0 0 0 0 0 0 0 17.43701 16.6189 16.3177 16.32738 16.02409 15.70555 15.10449 15.09215 15.08308 15.0786 15.07414 15.06762 15.06149 15.05846 15.06187 15.06992 15.0833 15.09706 15.1089 15.12078 15.12908 15.14506 15.15533 15.17544 15.19241 15.21111 15.23267 15.26374 15.29068 15.30298 15.31986 15.319 15.30204 15.28505 15.27066 15.26556 15.2657 15.27186 15.28118 15.28824 15.29636 15.30526 15.31565 15.3343 15.34701 15.35295 15.35941 15.36825 15.38253 15.3805 15.38011 15.37549 15.36323 15.35385 15.34987 15.34963 15.35595 15.3515 15.35342 15.35306 15.35243 15.3442 15.33869 15.33101 15.33099 15.33843 15.34623 15.35316 15.3621 15.37677 15.39843 15.41429 15.42407 15.41691 15.41943 15.43426 15.45916 15.4751 15.51618 15.54981 15.57205 15.57079 15.56728 15.54413 15.50063 15.42307 15.32332
0 0 0 0 0 0 0 0 0 0 0 0 0 0 0 0 0 0 0 0 0 18.65365 17.64911 16.606 16.01231 16.01886 15.70458 15.6982 15.09459 15.08316 15.0751 15.07099 15.06758 15.06079 15.05306 15.05183 15.057 15.06742 15.08346 15.0986 15.11027 15.12657 15.13938 15.15456 15.16949 15.19239 15.21834 15.23656 15.25606 15.27902 15.28801 15.31087 15.33722 15.33447 15.32741 15.32124 15.30871 15.29881 15.29529 15.30045 15.30361 15.31556 15.31951 15.3312 15.34293 15.36663 15.37945 15.38663 15.4011 15.41675 15.43132 15.43373 15.43537 15.43619 15.43119 15.43042 15.42593 15.42632 15.42464 15.42281 15.41038 15.40813 15.40562 15.3985 15.39219 15.39467 15.39919 15.40895 15.41994 15.41989 15.42217 15.43523 15.44679 15.45627 15.45912 15.47247 15.47857 15.49141 15.50821 15.53036 15.56381 15.58971 15.6043 15.60342 15.59247 15.56235 15.51709 15.43619 15.32376
0 0 0 0 0 0 0 0 0 0 0 0 0 0 0 0 0 0 0 0 0 0 0 17.17778 16.32956 16.02262 15.70743 15.38821 15.07776 15.06642 15.06325 15.06686 15.05847 15.05615 15.05675 15.05892 15.06349 15.0736 15.08553 15.10341 15.11714 15.13465 15.15261 15.17052 15.18768 15.20626 15.22904 15.24712 15.26631 15.27768 15.29094 15.3151 15.34205 15.35346 15.34616 15.34347 15.3511 15.34434 15.33724 15.33725 15.34421 15.34779 15.35154 15.36382 15.37424 15.39309 15.40513 15.41656 15.42874 15.4485 15.46468 15.47295 15.48027 15.48231 15.49029 15.49716 15.49971 15.49654 15.49504 15.49 15.48769 15.4842 15.47671 15.47017 15.46891 15.46781 15.47138 15.47566 15.47631 15.472 15.47515 15.48276 15.49044 15.49108 15.51652 15.53083 15.54146 15.5514 15.56953 15.59535 15.61593 15.63939 15.64728 15.64146 15.62682 15.58675 15.53571 15.42855 15.32316
0 0 0 0 0 0 0 0 0 0 0 0 0 0 0 0 0 0 0 0 0 19.07883 18.80339 17.82323 16.37816 16.0479 15.71981 15.69499 15.3572 15.05843 15.05796 15.05717 15.05587 15.05747 15.05957 15.06353 15.07067 15.08069 15.0971 15.11064 15.12328 15.14413 15.16107 15.17934 15.19368 15.21498 15.22972 15.25386 15.27881 15.29568 15.30855 15.32027 15.34759 15.36256 15.36424 15.37741 15.3813 15.3747 15.36878 15.37521 15.3734 15.37727 15.38901 15.4003 15.41833 15.43409 15.44854 15.45765 15.47147 15.49101 15.50635 15.52007 15.53105 15.53605 15.54461 15.54919 15.55157 15.54932 15.54578 15.54711 15.5482 15.54056 15.5434 15.54523 15.54429 15.5425 15.54279 15.54327 15.53989 15.53839 15.53859 15.53955 15.54732 15.55952 15.57137 15.58298 15.59157 15.60146 15.62191 15.64703 15.66463 15.68301 15.69472 15.6793 15.65134 15.60561 15.52982 15.43194 15.3049
0 0 0 0 0 0 0 0 0 0 0 0 0 0 0 0 0 0 0 19.07206 19.03353 18.95443 18.14856 17.05344 16.42357 16.07985 15.72847 16.03113 15.07295 15.05152 15.05193 15.05372 15.05834 15.06473 15.06987 15.07497 15.08058 15.09512 15.10723 15.12083 15.13632 15.15326 15.16865 15.18515 15.19732 15.21924 15.24012 15.26192 15.28771 15.30692 15.32656 15.34763 15.35922 15.38082 15.39576 15.40717 15.41715 15.41523 15.41106 15.39951 15.39795 15.40236 15.41416 15.42464 15.43846 15.45731 15.46708 15.47999 15.49669 15.51688 15.53412 15.55242 15.57156 15.58329 15.59856 15.61033 15.61834 15.62226 15.62145 15.62145 15.61761 15.61521 15.61315 15.61333 15.60644 15.59449 15.59357 15.58888 15.58558 15.58288 15.58202 15.59671 15.61226 15.62825 15.644 15.6483 15.66239 15.67555 15.6908 15.71123 15.72383 15.73293 15.73483 15.71398 15.67827 15.61426 15.54021 15.42407 15.29828
0 0 0 0 0 0 0 0 0 0 0 0 0 0 0 0 0 0 18.57983 18.47419 18.1528 17.72194 17.12113 16.48073 16.14088 16.10187 15.73676 15.39053 15.07448 15.05112 15.05066 15.05525 15.06396 15.06879 15.07637 15.08611 15.09588 15.10893 15.12149 15.13692 15.15436 15.17103 15.18711 15.20519 15.21699 15.23589 15.25679 15.28421 15.3115 15.33471 15.35992 15.38045 15.39833 15.41452 15.42931 15.43994 15.45077 15.45665 15.45661 15.45127 15.44304 15.43927 15.44003 15.44766 15.46791 15.48781 15.49969 15.50476 15.51372 15.52706 15.55249 15.5772 15.59962 15.61481 15.63321 15.65455 15.66693 15.67893 15.68047 15.68481 15.68889 15.6876 15.68677 15.6832 15.67514 15.66697 15.6557 15.6463 15.64111 15.63649 15.63346 15.64104 15.65344 15.67521 15.68873 15.70691 15.72672 15.73676 15.74835 15.77354 15.7808 15.78829 15.78382 15.75514 15.70888 15.63905 15.53684 15.43318 15.33742
0 0 0 0 0 0 0 0 0 0 0 0 0 0 0 0 0 18.99218 18.47544 17.88528 17.4231 16.82811 16.50782 16.5006 16.48792 16.10891 15.74426 15.0973 15.06954 15.05037 15.05071 15.05682 15.0634 15.07005 15.07995 15.09152 15.1042 15.11701 15.13002 15.1496 15.1669 15.18706 15.20472 15.22972 15.24382 15.26718 15.2908 15.31684 15.34603 15.37603 15.40534 15.43187 15.44734 15.45791 15.4685 15.47785 15.48859 15.49331 15.48985 15.48693 15.48401 15.48314 15.48247 15.48697 15.49702 15.51581 15.52765 15.53553 15.53523 15.55376 15.58067 15.60975 15.63667 15.65713 15.67511 15.69863 15.71851 15.72704 15.73735 15.7442 15.74945 15.74631 15.74539 15.738 15.73094 15.72029 15.70936 15.70162 15.69611 15.69198 15.68986 15.69773 15.71194 15.73383 15.75464 15.77501 15.79431 15.79319 15.80491 15.8141 15.82162 15.82493 15.81761 15.78689 15.73569 15.66234 15.56803 15.47922 15.38834
0 0 0 0 0 0 0 0 0 0 0 0 0 0 0 0 18.48309 18.46904 17.64142 17.10714 16.82283 16.50993 16.50743 16.50211 16.48182 16.10751 15.73237 15.09453 15.06426 15.05311 15.05398 15.05981 15.06741 15.07889 15.08893 15.10328 15.11641 15.13075 15.14514 15.16235 15.18438 15.20908 15.2286 15.25187 15.27573 15.29917 15.32219 15.34905 15.37354 15.40562 15.43861 15.46651 15.49134 15.50906 15.52185 15.53369 15.53739 15.54049 15.542 15.54422 15.53924 15.53625 15.52883 15.52525 15.53096 15.54043 15.55302 15.55965 15.56691 15.58372 15.60795 15.63547 15.66553 15.69015 15.71599 15.74336 15.76272 15.77699 15.79166 15.81191 15.81896 15.81744 15.81114 15.8034 15.79036 15.77289 15.76436 15.75358 15.74685 15.73999 15.73682 15.74886 15.76673 15.78939 15.81418 15.8255 15.83686 15.84643 15.85038 15.86107 15.87063 15.8718 15.86425 15.83635 15.78124 15.72979 15.64305 15.54382 15.44742
0 0 0 0 0 0 0 0 0 0 0 0 0 0 0 19.01683 18.30571 17.63168 17.08155 16.80546 16.49107 16.49824 16.49916 16.14922 16.12619 15.76948 15.11463 15.07775 15.05598 15.04936 15.0504 15.05963 15.07032 15.08234 15.09534 15.11499 15.13567 15.15575 15.17567 15.19298 15.21994 15.24804 15.27244 15.29731 15.32444 15.35216 15.37395 15.40127 15.42761 15.45907 15.48097 15.50399 15.52394 15.53834 15.55626 15.57222 15.57834 15.58695 15.59514 15.60295 15.60439 15.60085 15.60129 15.58728 15.58163 15.57266 15.5803 15.58475 15.59496 15.60852 15.63241 15.65921 15.68767 15.72012 15.75351 15.77986 15.79883 15.81949 15.83698 15.85515 15.86583 15.87097 15.86841 15.86345 15.85221 15.8386 15.83008 15.81871 15.80584 15.79737 15.79875 15.79969 15.81938 15.84249 15.85921 15.87425 15.87658 15.88589 15.89067 15.89702 15.90826 15.90927 15.89217 15.86778 15.83215 15.78469 15.71491 15.61276 15.51072
0 0 0 0 0 0 0 0 0 0 0 0 0 0 18.35735 18.35552 17.65823 17.07424 16.77852 16.46545 16.47488 16.132 16.12896 16.11214 15.76935 15.42059 15.09686 15.06005 15.05193 15.05584 15.06097 15.07049 15.08434 15.09789 15.11903 15.13587 15.15954 15.17873 15.2003 15.22884 15.25797 15.28605 15.31563 15.34926 15.38304 15.41259 15.44576 15.47929 15.50424 15.52661 15.54462 15.56037 15.57311 15.58689 15.60292 15.61882 15.61966 15.63041 15.63864 15.64998 15.65899 15.66411 15.66516 15.6519 15.63127 15.61816 15.61262 15.61109 15.61534 15.62746 15.6498 15.67798 15.71373 15.75076 15.79148 15.81917 15.8473 15.86853 15.89119 15.90418 15.91426 15.91408 15.91149 15.90619 15.89678 15.88651 15.87968 15.87232 15.8564 15.84574 15.84389 15.84693 15.86161 15.8766 15.89269 15.90443 15.91504 15.91907 15.92443 15.93036 15.93653 15.92624 15.91237 15.88677 15.86306 15.82088 15.74994 15.65301 15.53569
0 0 0 0 0 0 0 0 0 0 0 0 0 18.22949 18.40468 17.65235 17.05139 16.7604 16.4425 16.44946 16.11779 16.10866 16.09882 16.0897 15.74014 15.10568 15.07847 15.05204 15.0514 15.06063 15.07558 15.08984 15.11147 15.12978 15.14996 15.16933 15.18578 15.21091 15.24581 15.27428 15.30597 15.34097 15.3787 15.41509 15.45085 15.4847 15.51337 15.54245 15.56529 15.58432 15.59612 15.60931 15.62945 15.64186 15.65319 15.6613 15.65943 15.67063 0 0 0 15.66275 15.67738 15.72837 15.7076 15.67846 15.65507 15.64217 15.63578 15.64131 15.65891 15.68922 15.73093 15.77156 15.81444 15.8556 15.88374 15.91369 15.93493 15.95219 15.96114 15.96524 15.96861 15.96498 15.95414 15.93776 15.93303 15.92851 15.91498 15.89726 15.88938 15.88565 15.89585 15.90996 15.92479 15.93199 15.93625 15.94033 15.94605 15.95588 15.96431 15.94912 15.93444 15.91827 15.90261 15.86475 15.78642 15.6856 15.57469
0 0 0 0 0 0 0 0 0 0 0 0 0 18.60622 17.67757 17.05868 16.73845 16.40931 16.42079 16.09129 16.08562 16.08417 16.08618 15.13029 15.11139 15.09079 15.07037 15.05217 15.05718 15.07256 15.09494 15.11238 15.13714 15.15687 15.17386 15.19593 15.22882 15.255 15.29238 15.33083 15.37439 15.42363 15.46434 15.50549 15.54299 15.5706 15.60038 15.62398 15.63861 15.64321 15.65214 16.41857 15.67677 15.67784 15.68331 16.05094 16.81034 17.57603 0 0 0 0 0 16.14273 15.75579 15.72374 15.69106 15.66996 15.65598 15.65999 15.67668 15.71116 15.74712 15.79318 15.84578 15.88357 15.91626 15.9489 15.97581 15.99132 16.00091 15.99947 16.00803 16.00547 16.00135 15.99301 15.98664 15.97946 15.975 15.95882 15.95237 15.94818 15.95851 15.9563 15.97236 15.98105 15.97715 15.9659 15.97574 15.98682 15.99382 15.97808 15.96022 15.9453 15.93668 15.89442 15.81737 15.71485 15.59485
0 0 0 0 0 0 0 0 0 0 0 0 18.72261 17.93518 17.04414 16.71771 16.38083 16.0578 16.07332 16.07457 16.0688 16.07875 15.74964 15.12517 15.10155 15.08599 15.07212 15.06598 15.07687 15.09502 15.11833 15.14282 15.16357 15.182 15.20164 15.22699 15.248 15.28524 15.327 15.3803 15.43217 15.48077 15.5282 15.56737 15.60344 15.63087 15.64279 0 0 15.64465 0 17.31198 16.49675 16.08824 16.47014 16.45434 17.21271 17.62297 18.59489 16.42048 15.70449 0 0 0 17.37917 15.74086 15.70775 15.68822 15.67294 15.6768 15.69887 15.73173 15.77249 15.81703 15.87045 15.911 15.95266 15.99025 16.01928 16.04083 16.04677 16.04993 16.05048 16.04785 16.04466 16.03522 16.03311 16.0305 16.02364 16.01942 16.01502 16.00883 16.01548 16.00765 16.01488 16.01274 16.01527 16.01857 16.01851 16.02425 16.03821 16.02043 15.99774 15.98274 15.96518 15.91718 15.84327 15.7413 15.61789
0 0 0 0 0 0 0 0 0 0 0 17.93237 17.92666 17.02392 16.69836 16.02979 16.05833 16.06727 16.06268 16.0688 16.08559 15.44 15.13524 15.11892 15.09946 15.08737 15.0844 15.08307 15.10259 15.1218 15.14596 15.16725 15.18851 15.2075 15.2315 15.26123 15.29322 15.34312 15.38816 15.44612 15.49758 15.54218 15.57855 15.61177 16.4048 0 0 0 0 0 18.06785 18.82372 18.60326 18.04892 17.68945 17.2517 17.22885 16.05617 15.68618 15.69593 15.7049 15.71264 15.7179 17.7268 18.09083 15.74022 15.71431 15.6984 15.69166 15.69647 15.7216 15.75046 15.79003 15.83285 15.88493 15.93555 15.986 16.02254 16.05171 16.07219 16.0861 16.08843 16.09068 16.09188 16.08681 16.08067 16.08034 16.08484 16.08725 16.08304 16.0795 16.07705 16.07132 16.06579 16.0606 16.06189 16.05668 16.06485 16.05991 16.05969 16.07607 16.05241 16.02863 16.01393 15.99449 15.94288 15.87562 15.77577 15.65018
0 0 0 0 0 0 0 0 0 0 18.65256 17.93834 17.01117 16.34364 16.03624 15.72842 15.74397 15.75451 15.75718 15.75898 15.76518 15.14704 15.13578 15.12632 15.11331 15.10257 15.1013 15.10731 15.12567 15.14705 15.17001 15.19294 15.21276 15.23172 15.25745 15.29368 15.3385 15.39291 15.43748 15.49619 15.55339 15.59214 15.982 0 0 0 0 0 0 0 0 0 0 0 18.05008 17.68095 16.86883 15.68249 15.69185 15.70808 15.71565 15.72158 15.7279 15.73629 15.74174 15.74393 15.73069 15.72386 15.72077 15.7279 15.74422 15.77696 15.81619 15.86272 15.91257 15.96131 16.00986 16.0442 16.07781 16.10047 16.11259 16.11732 16.1145 16.11965 16.11735 16.11188 16.116 16.12519 16.12849 16.13314 16.13555 16.13502 16.12843 16.12091 16.1249 16.11872 16.12013 16.12062 16.11515 16.10996 16.11837 16.09474 16.07047 16.04594 16.01223 15.96404 15.89653 15.80832 15.69103
0 0 0 0 0 0 0 0 0 0 18.20767 16.98832 16.32877 16.02401 15.42369 15.43365 15.14309 15.1436 15.14755 15.15112 15.15008 15.14513 15.14114 15.13809 15.13302 15.13013 15.13217 15.14424 15.15787 15.17757 15.20431 15.21892 15.24361 15.26761 15.29344 15.3343 15.37823 15.41836 15.46566 15.52282 16.71877 0 0 0 0 0 0 0 0 0 0 0 0 0 18.67419 17.32206 15.70697 15.70946 15.72408 15.74511 15.76435 15.76637 15.76212 15.75753 15.75802 15.75928 15.7516 15.74593 15.7483 15.75559 15.77688 15.80853 15.8402 15.88619 15.93782 15.98619 16.03291 16.07182 16.10582 16.12475 16.13413 16.13773 16.1412 16.14792 16.15353 16.14922 16.15673 16.16573 16.16986 16.17338 16.17587 16.17042 16.16917 16.16454 16.15933 16.15997 16.16237 16.16454 16.15944 16.16099 16.15367 16.13719 16.11748 16.08226 16.03613 15.98885 15.92372 15.84594 15.73954
0 0 0 0 0 0 0 0 0 18.29783 17.68061 16.6557 16.00271 15.40236 15.13445 15.12932 15.12354 15.12083 15.13047 15.14176 15.14461 15.14697 15.14891 15.15347 15.15263 15.15296 15.15579 15.16866 15.18729 15.2091 15.23429 15.25515 15.27363 15.30111 15.33221 15.37635 15.41054 15.45655 15.50597 16.28596 16.51599 0 0 0 0 0 0 0 0 0 0 0 0 17.96341 17.73883 16.50727 15.7159 15.72702 15.75108 15.78202 15.80015 15.80509 15.79835 15.78992 15.78826 15.79256 15.78761 15.78089 15.78476 15.79035 15.81155 15.83801 15.87067 15.91063 15.95599 16.00195 16.04996 16.08924 16.12245 16.14247 16.15305 16.15791 16.16085 16.17278 16.18048 16.18487 16.19678 16.20622 16.21515 16.21523 16.20936 16.20202 16.19482 16.19582 16.19854 16.1974 16.20169 16.20468 16.18832 16.19082 16.17943 16.16756 16.14248 16.10009 16.06027 16.00964 15.93986 15.86389 15.76956
0 0 0 0 0 0 0 0 19.1827 18.01974 16.64287 15.96921 15.66387 15.09204 15.08494 15.09319 15.09779 15.10826 15.11822 15.12659 15.14075 15.15486 15.16836 15.17249 15.17289 15.17834 15.19037 15.20279 15.21846 15.24383 15.26261 15.27905 15.30434 15.33145 15.36524 15.40598 15.44051 15.47986 15.87378 16.28985 16.73019 17.54835 0 18.38147 18.9843 0 0 0 0 0 0 0 18.73001 17.73742 16.93659 15.71385 15.7202 15.75244 15.78255 15.80865 15.82036 15.82067 15.82023 15.81807 15.81676 15.81302 15.81147 15.81695 15.82199 15.83282 15.85272 15.87834 15.91455 15.94463 15.99041 16.04013 16.0765 16.11444 16.14458 16.17063 16.18034 16.18185 16.18725 16.19635 16.1981 16.20546 16.21958 16.22961 16.23747 16.23762 16.23316 16.22516 16.22311 16.22697 16.23242 16.23199 16.24502 16.2417 16.22963 16.21825 16.21231 16.18411 16.15834 16.1179 16.06605 16.01256 15.94216 15.8665 15.77491
0 0 0 0 0 0 0 0 19.1934 18.02585 16.63229 15.9606 15.0703 15.06653 15.06301 15.06185 15.07805 15.09234 15.10886 15.13034 15.15195 15.17077 15.18318 15.19578 15.20367 15.2192 15.23808 15.25164 15.27515 15.30072 15.32118 15.33797 15.36062 15.38079 15.4123 15.44547 15.47641 15.49634 15.51913 15.91512 16.31468 16.73663 17.16783 17.59437 18.37275 0 0 0 0 0 0 18.10893 17.32649 17.33029 15.70478 15.72749 15.754 15.79046 15.81702 15.83427 15.84249 15.8413 15.8421 15.84189 15.84105 15.84118 15.84049 15.84368 15.85096 15.86538 15.87839 15.9078 15.93979 15.97513 16.02001 16.07145 16.10488 16.13868 16.16799 16.19368 16.2041 16.21003 16.21457 16.22145 16.23043 16.23196 16.24683 16.25909 16.25943 16.25822 16.25381 16.24992 16.25161 16.25479 16.25761 16.26206 16.27224 16.26539 16.25823 16.24123 16.23182 16.21907 16.18144 16.13452 16.07887 16.00809 15.9379 15.86234 15.76407
0 0 0 0 0 0 0 0 0 18.03834 16.63075 15.95662 15.05829 15.04549 15.04238 15.04633 15.05752 15.07901 15.10538 15.13406 15.16177 15.18428 15.19916 15.22089 15.23584 15.25778 15.27787 15.31134 15.34258 15.37386 15.39663 15.40814 15.41992 15.43507 15.45892 15.48768 15.50233 15.51599 15.53707 15.54856 15.56134 15.57758 15.59296 15.97501 16.79833 17.60969 18.39816 18.75129 0 0 18.40036 17.28629 16.47133 15.69273 15.7183 15.75211 15.78861 15.81479 15.84069 15.85458 15.86367 15.86713 15.8723 15.87109 15.87466 15.868 15.87315 15.87875 15.88187 15.89325 15.91261 15.9369 15.96897 16.00827 16.05315 16.09555 16.1301 16.15899 16.19315 16.21523 16.22685 16.23863 16.23807 16.24569 16.25197 16.25801 16.26852 16.28622 16.29327 16.28619 16.28736 16.28929 16.28754 16.28909 16.29009 16.28907 16.2907 16.28479 16.27899 16.26975 16.24714 16.22445 16.18602 16.1406 16.08556 16.00932 15.93159 15.85065 15.75694
0 0 0 0 0 0 0 0 0 19.05209 17.36077 16.29674 15.32887 15.04333 15.03251 15.04042 15.05008 15.07201 15.10161 15.13545 15.16891 15.20127 15.22201 15.25047 15.27511 15.30398 15.34228 15.38265 15.41662 15.4485 15.46919 15.47375 15.48276 15.49216 15.50205 15.51762 15.53186 15.54193 15.5517 15.55354 15.56468 15.57536 15.5994 15.61425 15.99399 16.40385 16.8182 17.21978 18.38696 17.25333 16.02374 15.66685 15.68954 15.71349 15.7464 15.78093 15.80845 15.83782 15.85996 15.87367 15.8791 15.88527 15.88478 15.88625 15.88976 15.89694 15.90197 15.90554 15.91268 15.93075 15.95158 15.97833 16.00866 16.04642 16.08593 16.12789 16.15692 16.19072 16.21439 16.23129 16.24541 16.25808 16.26322 16.26817 16.27582 16.28439 16.29638 16.30277 16.31183 16.31573 16.31974 16.319 16.30497 16.31153 16.31257 16.3078 16.30722 16.30399 16.29782 16.28566 16.25114 16.21795 16.19903 16.15562 16.09974 16.01744 15.93752 15.83011 15.74049
0 0 0 0 0 0 0 0 0 19.1882 18.35137 16.65243 15.62962 15.03573 15.02909 15.03617 15.0432 15.06215 15.09402 15.13563 15.16531 15.20787 15.2363 15.26291 15.29993 15.35268 15.40333 15.4529 15.5021 15.52409 15.53448 15.54085 15.54406 15.54745 15.5513 15.55644 15.56682 15.57332 15.5684 15.57385 15.58053 15.58443 15.59647 15.61489 15.62917 15.64556 16.0345 0 17.25948 16.04586 15.68066 15.70364 15.73399 15.76633 15.79679 15.82089 15.84543 15.86678 15.88377 15.89075 15.898 15.90041 15.90855 15.91481 15.91842 15.92464 15.92454 15.92994 15.93995 15.95921 15.97633 15.99962 16.03583 16.07122 16.11197 16.14779 16.1779 16.20303 16.22106 16.24094 16.25405 16.26452 16.27353 16.28292 16.29055 16.30917 16.32296 16.32437 16.33075 16.3415 16.34241 16.33581 16.32846 16.32569 16.32426 16.31963 16.31698 16.31613 16.29719 16.2843 16.25356 16.22021 16.19816 16.1582 16.09581 16.01281 15.92614 15.82646 15.71823
0 0 0 0 0 0 0 0 0 0 18.89351 17.40886 15.95296 15.33205 15.04902 15.03854 15.04002 15.05675 15.08549 15.11953 15.16105 15.20795 15.24338 15.27918 15.3234 15.38372 15.44757 15.50127 0 0 0 15.77918 15.57479 15.58336 15.58524 15.5886 15.59001 15.59978 15.60473 15.60614 15.60071 15.60349 15.60959 15.61985 15.64002 15.65717 15.67944 16.08299 15.70099 15.71293 15.73332 15.7602 15.7886 15.81464 15.83024 15.84836 15.86461 15.88869 15.90708 15.91735 15.93018 15.9409 15.9384 15.94619 15.94833 15.95114 15.95739 15.96549 15.97317 15.98927 16.01129 16.03665 16.06869 16.10602 16.14032 16.17509 16.19696 16.21958 16.2349 16.25571 16.26578 16.27155 16.28388 16.29294 16.29625 16.31308 16.33365 16.34635 16.3522 16.36206 16.35791 16.35289 16.34855 16.34045 16.33704 16.33328 16.3326 16.33345 16.31677 16.29228 16.25792 16.22615 16.19738 16.14936 16.08158 16.00629 15.92962 15.82197 15.70041
0 0 0 0 0 0 0 0 0 0 0 18.79557 17.42646 15.96713 15.32769 15.04639 15.03608 15.05355 15.07501 15.10948 15.1575 15.20755 15.25095 15.28947 15.33877 15.40818 15.81761 16.22406 0 0 0 16.41403 16.70171 15.59188 15.60295 15.5972 15.60286 15.61083 15.62347 15.62656 15.61683 15.61331 15.62358 15.64099 15.66104 15.68545 15.70465 15.72761 15.74457 15.75936 15.78646 15.81633 15.83901 15.85946 15.87257 15.89667 15.90937 15.92387 15.93459 15.94092 15.95064 15.9579 15.96904 15.96746 15.97596 15.98286 15.99086 15.99886 16.01037 16.0276 16.05078 16.08282 16.11652 16.14582 16.17844 16.20274 16.22575 16.24732 16.26601 16.27202 16.27973 16.28809 16.29526 16.30676 16.31517 16.32644 16.33959 16.35452 16.36905 16.37405 16.36788 16.35811 16.35267 16.34547 16.34732 16.34625 16.34344 16.34138 16.3338 16.31336 16.28425 16.24285 16.20849 16.15137 16.08064 16.01855 15.93004 15.82635 15.70383
0 0 0 0 0 0 0 0 0 0 0 0 19.02889 17.79148 15.94497 15.31722 15.0261 15.03722 15.06512 15.10338 15.15129 15.20724 15.25545 15.2974 15.34393 15.41444 16.1775 0 0 17.77781 17.88264 16.32352 15.58747 15.59339 15.59088 15.60559 15.6124 15.62071 15.63573 15.63963 15.63216 15.63568 15.64173 15.66244 15.68972 15.71788 15.73524 15.75269 15.77339 15.79318 15.81685 15.8452 15.87632 15.89859 15.92181 15.93385 15.94941 15.9641 15.97469 15.97552 15.97723 15.98743 16.0006 16.00034 16.00579 16.01225 16.01794 16.03075 16.04161 16.05936 16.08234 16.11451 16.14687 16.18323 16.20657 16.22755 16.25207 16.27778 16.28522 16.29587 16.30781 16.31239 16.31782 16.32586 16.33466 16.34567 16.35873 16.36743 16.38011 16.38406 16.37122 16.36828 16.36347 16.36349 16.35693 16.35445 16.34178 16.34124 16.33929 16.32291 16.28852 16.25116 16.21823 16.16496 16.09282 16.02694 15.9436 15.85175 15.73006
0 0 0 0 0 0 0 0 0 0 0 0 0 0 0 15.91981 15.2842 15.02932 15.05953 15.09635 15.15522 15.20983 15.25642 15.29742 15.33626 15.74294 15.81277 16.21848 16.62099 18.71898 17.88861 16.3073 15.58504 15.58949 15.59189 15.61188 15.62321 15.63627 15.64162 15.64848 15.64971 15.65233 15.66213 15.68065 15.70359 15.72999 15.74861 15.76886 15.78555 15.80967 15.84121 15.87438 15.90713 15.93261 15.95588 15.96585 15.97647 15.99332 16.00628 16.0071 16.00748 16.01466 16.01594 16.01889 16.02786 16.03204 16.04346 16.06077 16.07921 16.10278 16.12278 16.14886 16.18511 16.21925 16.24 16.26 16.28084 16.29524 16.31002 16.32777 16.33728 16.34245 16.34687 16.35649 16.35653 16.36411 16.37424 16.37787 16.38431 16.383 16.37078 16.37416 16.37653 16.37401 16.36817 16.36434 16.35447 16.34258 16.33596 16.3249 16.30438 16.27271 16.23186 16.17762 16.1208 16.03996 15.96602 15.87064 15.76271
0 0 0 0 0 0 0 0 0 0 0 0 0 0 0 16.5771 15.91498 15.02126 15.06519 15.10263 15.16449 15.22159 15.27044 15.30976 15.34199 15.39846 16.16942 16.23142 16.64423 0 17.93904 15.58079 15.58349 15.58341 15.60591 15.6098 15.62928 15.64483 15.6502 15.65977 15.6714 15.67353 15.68621 15.70244 15.72052 15.74462 15.76301 15.77626 15.80742 15.83555 15.86902 15.89693 15.92265 15.95401 15.97819 15.99234 16.0015 16.0134 16.02963 16.0347 16.03588 16.03392 16.02953 16.03747 16.04599 16.05419 16.07266 16.08911 16.10868 16.12838 16.15306 16.18205 16.22082 16.24808 16.27104 16.28952 16.3068 16.32649 16.34428 16.36457 16.37739 16.38116 16.38682 16.38674 16.3869 16.38668 16.3914 16.39501 16.39514 16.39002 16.39036 16.38686 16.38734 16.37914 16.36956 16.35657 16.35683 16.34097 16.33722 16.32868 16.30953 16.28578 16.25493 16.2014 16.15168 16.072 16.0005 15.91961 15.82438
0 0 0 0 0 0 0 0 0 0 0 0 0 17.71244 17.37069 16.60263 15.94499 15.04174 15.08629 15.13268 15.19025 15.2474 15.29328 15.33539 15.36449 15.40721 16.54067 16.98463 17.44153 17.36787 18.33906 15.92669 15.57515 15.5839 15.60169 15.61889 15.64187 15.66091 15.66649 15.67496 15.67929 15.68858 15.70243 15.72634 15.74466 15.75337 15.77158 15.79622 15.82751 15.85838 15.89032 15.91268 15.93954 15.95989 15.97822 16.00359 16.01717 16.03381 16.04215 16.04929 16.05211 16.05304 16.05537 16.06362 16.06867 16.08284 16.09637 16.11334 16.13698 16.15941 16.18688 16.21649 16.24991 16.27294 16.29998 16.31594 16.33855 16.34987 16.37021 16.39885 16.41543 16.41733 16.42036 16.42055 16.42275 16.42069 16.40852 16.40111 16.39891 16.39227 16.38785 16.38342 16.37909 16.37281 16.36391 16.35742 16.35784 16.34844 16.34287 16.3357 16.31635 16.29217 16.25778 16.21463 16.16237 16.10463 16.04232 15.96985 15.89011
0 0 0 0 0 0 0 0 0 0 0 0 16.93987 16.5902 16.62773 16.3038 15.66396 15.07911 15.125 15.17213 15.22666 15.28605 15.32945 15.36578 15.39814 15.4382 16.20435 16.2518 17.05084 17.86334 16.29704 15.55933 15.58061 15.6046 15.63337 15.6554 15.67476 15.68167 15.68561 15.69044 15.70094 15.71413 15.72437 15.74101 15.75739 15.77393 15.79938 15.8197 15.84528 15.87326 15.89839 15.9185 15.9431 15.96875 15.99563 16.01299 16.02744 16.03983 16.04805 16.05288 16.06248 16.07091 16.07931 16.08767 16.09919 16.11381 16.12267 16.1357 16.15685 16.18344 16.21954 16.25291 16.28294 16.31736 16.33829 16.35759 16.37274 16.38272 16.3981 16.42814 16.44325 16.44174 16.44489 16.44355 16.44461 16.44269 16.43483 16.41921 16.41021 16.39619 16.38529 16.37771 16.36755 16.36445 16.35258 16.35954 16.36708 16.34944 16.35072 16.34247 16.33223 16.31047 16.27984 16.24405 16.19722 16.14165 16.08525 16.02314 15.94798
0 0 0 0 0 0 0 0 18.48163 17.84929 16.83067 16.14906 16.20449 16.22563 15.94891 16.01755 15.73557 15.13708 15.1871 15.23712 15.29142 15.34609 15.38704 15.41537 15.44356 15.4799 15.51445 15.53713 15.55349 15.56505 15.56833 15.58652 15.60719 15.63905 15.66127 15.68039 15.69223 15.70086 15.70287 15.70333 15.71301 15.73402 15.74985 15.76019 15.77954 15.80155 15.81951 15.83801 15.86281 15.89246 15.91099 15.93755 15.9575 15.97905 15.99814 16.01187 16.02952 16.04301 16.05602 16.06617 16.07728 16.08727 16.09842 16.10883 16.11688 16.13399 16.14564 16.1631 16.18363 16.21934 16.25314 16.28761 16.32405 16.35797 16.38093 16.39092 16.40909 16.41875 16.44104 16.46204 16.46883 16.4803 16.48744 16.47924 16.4657 16.4562 16.44679 16.43563 16.4173 16.40288 16.39104 16.38156 16.36678 16.35925 16.35483 16.3654 16.36718 16.36836 16.37769 16.36963 16.3529 16.32964 16.30766 16.27308 16.23357 16.18864 16.14079 16.08702 16.02312
0 0 0 0 0 0 0 17.47687 17.49258 16.08752 15.78592 15.80923 15.85114 15.93091 16.00796 15.75255 15.16125 15.19512 15.24545 15.29477 15.35418 15.39852 15.43078 15.46234 15.48961 15.51812 15.5475 15.57305 15.59924 15.61587 15.62578 15.64345 15.66419 15.67849 15.68965 15.70126 15.71232 15.71527 15.71692 15.72012 15.7312 15.74838 15.76544 15.77183 15.79504 15.81923 15.83977 15.85839 15.87615 15.89012 15.90374 15.92619 15.94829 15.97339 15.99569 16.00977 16.03028 16.04969 16.06506 16.07859 16.09181 16.10237 16.11162 16.12309 16.13332 16.15005 16.16364 16.18764 16.21521 16.24829 16.28163 16.32025 16.34988 16.37589 16.40446 16.42494 16.43813 16.45184 16.46801 16.48128 16.50142 16.50657 16.50892 16.51358 16.50084 16.48348 16.46985 16.45358 16.43569 16.42277 16.40158 16.38455 16.3732 16.37766 16.37456 16.37803 16.38359 16.39138 16.39794 16.3919 16.37709 16.35746 16.33377 16.29887 16.26257 16.22542 16.17972 16.13266 16.07863
0 0 0 0 0 0 17.95915 17.85362 16.07964 15.75446 15.75732 15.80213 15.8941 15.67129 15.44319 15.19276 15.22011 15.26632 15.31184 15.36398 15.4051 15.4418 15.47954 15.50385 15.52735 15.54582 15.5741 15.61107 15.6421 15.65758 15.66648 15.68743 15.70007 15.70906 15.71105 15.72011 15.72994 15.73598 15.74219 15.74584 15.75172 15.763 15.77191 15.78669 15.80644 15.82048 15.83388 15.8484 15.86228 15.87512 15.89177 15.91241 15.93661 15.96359 15.9849 16.00469 16.02395 16.04058 16.05747 16.07729 16.09656 16.11237 16.12324 16.13739 16.14949 16.16765 16.18793 16.21318 16.23752 16.27073 16.31189 16.34757 16.37 16.39454 16.4233 16.44895 16.47248 16.48163 16.49633 16.50948 16.5159 16.51595 16.52204 16.52022 16.51508 16.49847 16.47371 16.45144 16.43359 16.41442 16.3996 16.38428 16.37355 16.37985 16.37943 16.40314 16.40238 16.41299 16.41362 16.4124 16.40255 16.38795 16.36248 16.33192 16.29302 16.26303 16.23453 16.193 16.14362
0 0 0 0 0 0 18.90796 17.11589 16.0708 15.74105 15.47074 15.55499 15.34257 15.12928 15.19387 15.2517 15.2903 15.32828 15.37364 15.41549 15.45396 15.49445 15.52129 15.54054 15.56343 15.57602 15.60535 15.64679 15.67124 15.68236 15.69551 15.71123 15.72057 15.72662 15.72707 15.7338 15.74242 15.741 15.75069 15.75363 15.76658 15.77307 15.78693 15.79977 15.80803 15.81324 15.82225 15.83079 15.84648 15.86254 15.87849 15.89864 15.92185 15.94169 15.9752 15.99493 16.011 16.02766 16.04761 16.07124 16.08683 16.10516 16.11973 16.14263 16.16177 16.17788 16.20147 16.23394 16.261 16.29658 16.32959 16.36412 16.39429 16.4266 16.4599 16.48756 16.51009 16.51893 16.53004 16.53985 16.53679 16.53207 16.52588 16.51752 16.50307 16.48802 16.4729 16.44631 16.43465 16.41337 16.40207 16.38727 16.38604 16.38475 16.40019 16.42658 16.41991 16.42463 16.42771 16.42412 16.41499 16.40435 16.38522 16.36348 16.33884 16.31307 16.28467 16.24547 16.21188
0 0 0 0 0 18.91358 18.31511 17.07688 16.08486 15.78889 15.26155 15.03888 15.10059 15.16903 15.23108 15.286 15.33016 15.37528 15.42149 15.46023 15.49779 15.52646 15.5588 15.58248 15.60246 15.61838 15.64525 15.68299 15.69901 15.71273 15.71972 15.72926 15.74231 15.74198 15.74277 15.74841 15.75189 15.74882 15.75258 15.76047 15.76972 15.77712 15.7821 15.78575 15.79202 15.80391 15.81223 15.82618 15.84211 15.8619 15.87709 15.89667 15.91043 15.93057 15.94852 15.96914 15.99284 16.01639 16.03877 16.05673 16.07364 16.09233 16.1166 16.15297 16.17656 16.20328 16.229 16.25599 16.29432 16.33075 16.36151 16.38998 16.42901 16.4597 16.48413 16.51072 16.533 16.53793 16.55619 16.55994 16.55245 16.53999 16.52434 16.50796 16.48872 16.46745 16.45099 16.43867 16.42846 16.42387 16.41089 16.40019 16.40239 16.40039 16.42651 16.44601 16.44606 16.43956 16.44513 16.44444 16.43912 16.42729 16.39718 16.38474 16.3714 16.34519 16.31571 16.28338 16.25254
0 0 0 0 17.85405 17.32641 15.96844 15.70912 15.46331 14.97186 15.0278 15.08654 15.1512 15.20953 15.26274 15.31285 15.35892 15.4025 15.44745 15.48603 15.51333 15.55398 15.58303 15.60485 15.63088 15.65676 15.68625 15.71082 15.72336 15.73855 15.7373 15.74996 15.75271 15.75256 15.75769 15.75866 15.7527 15.75469 15.75513 15.75956 15.7611 15.76833 15.77119 15.76905 15.7803 15.79401 15.80421 15.81824 15.83317 15.85208 15.86626 15.88333 15.89776 15.91506 15.93535 15.95264 15.96587 15.98445 16.01278 16.03546 16.0582 16.08429 16.10857 16.15379 16.18805 16.21987 16.24415 16.2808 16.31959 16.35928 16.39416 16.42257 16.4514 16.48346 16.51334 16.53427 16.54522 16.55014 16.55855 16.57071 16.56119 16.54701 16.52857 16.50719 16.47819 16.45683 16.4441 16.43228 16.42493 16.42096 16.4135 16.41383 16.41587 16.42691 16.44397 16.45467 16.45392 16.44937 16.4583 16.45817 16.4598 16.44927 16.43595 16.42608 16.40356 16.37507 16.35021 16.3214 16.29648
0 0 0 0 18.93706 16.23913 14.85322 14.88493 14.95416 15.01181 15.08674 15.15764 15.21086 15.26034 15.30952 15.36522 15.40887 15.43509 15.47122 15.5037 15.53562 15.5728 15.60066 15.62939 15.65066 15.67382 15.70355 15.7274 15.7427 15.74866 15.75189 15.76065 15.76793 15.76807 15.76715 15.76321 15.76429 15.7662 15.75649 15.76171 15.76868 15.76025 15.75697 15.7611 15.76833 15.78162 15.80057 15.81384 15.82707 15.83629 15.84885 15.86445 15.88292 15.90001 15.91373 15.93217 15.952 15.97385 15.99672 16.02167 16.04811 16.07568 16.11571 16.16033 16.19891 16.23171 16.26689 16.30775 16.33898 16.3716 16.40363 16.43559 16.46878 16.50183 16.52982 16.54346 16.55472 16.55798 16.5639 16.57084 16.57433 16.55736 16.53242 16.51048 16.48475 16.45859 16.44207 16.43175 16.42641 16.42671 16.42783 16.43049 16.4305 16.44344 16.45294 16.45504 16.44982 16.45621 16.46485 16.46753 16.46384 16.46025 16.45095 16.44736 16.42691 16.40857 16.38705 16.36321 16.33794
0 0 0 17.75703 17.25675 15.88535 14.84059 14.91003 14.98471 15.06135 15.14314 15.2029 15.25842 15.30447 15.35406 15.3981 15.43055 15.45874 15.49439 15.53044 15.56825 15.59791 15.61428 15.64166 15.66174 15.68262 15.7123 15.73229 15.74515 15.7528 15.76619 15.77648 15.78027 15.77999 15.7752 15.777 15.77153 15.76843 15.76041 15.76729 15.75908 15.74895 15.74626 15.753 15.76126 15.7749 15.79037 15.80209 15.81223 15.82387 15.83714 15.85223 15.86666 15.87639 15.8917 15.907 15.92782 15.95401 15.98581 16.01527 16.04457 16.07925 16.12096 16.15952 16.19832 16.23709 16.27788 16.30585 16.3411 16.37907 16.41401 16.44445 16.47804 16.5147 16.54112 16.55196 16.5582 16.56019 16.56394 16.56893 16.56217 16.55498 16.52571 16.50732 16.48212 16.46918 16.45455 16.43849 16.44571 16.44062 16.44619 16.46055 16.4577 16.45719 16.45967 16.46029 16.45574 16.46238 16.47058 16.47453 16.48133 16.47478 16.46521 16.4585 16.45645 16.43779 16.41215 16.38649 16.3651
0 0 0 17.62661 17.20771 15.85184 15.34309 14.93105 15.03654 15.12057 15.1873 15.24455 15.28928 15.33648 15.37963 15.40904 15.44946 15.47434 15.50035 15.53504 15.56886 15.5996 15.62616 15.64826 15.67222 15.69198 15.70974 15.72319 15.74509 15.75658 15.77363 15.78253 15.78678 15.78829 15.78472 15.77714 15.77167 15.76622 15.76517 15.75653 15.7472 15.73665 15.73714 15.73941 15.74865 15.76481 15.77693 15.7889 15.80046 15.81128 15.81624 15.83037 15.84942 15.85563 15.87037 15.88452 15.90766 15.94171 15.97191 16.00558 16.04403 16.08394 16.11666 16.16833 16.2072 16.24247 16.27098 16.32203 16.35454 16.38931 16.43029 16.46859 16.49517 16.52093 16.5403 16.55765 16.5576 16.56302 16.56332 16.56061 16.55546 16.54698 16.53563 16.51863 16.50051 16.47905 16.46853 16.46222 16.46103 16.46268 16.46939 16.4743 16.47692 16.47376 16.47408 16.47512 16.47363 16.48041 16.48564 16.48721 16.49689 16.49314 16.49124 16.48427 16.48024 16.4725 16.46128 16.43207 16.40759
0 0 0 18.68787 17.43788 15.85129 15.10029 14.93992 15.04598 15.14458 15.22918 15.27114 15.31168 15.35999 15.39791 15.42418 15.45831 15.48589 15.51595 15.54959 15.58233 15.60042 15.61813 15.6365 15.6597 15.67533 15.6999 15.71958 15.73701 15.75274 15.76374 15.77463 15.78412 15.79226 15.78318 15.7694 15.77031 15.76847 15.75771 15.75158 15.73581 15.72339 15.72115 15.72481 15.73225 15.74683 15.76062 15.77677 15.7834 15.7885 15.79381 15.81224 15.82953 15.8477 15.85995 15.87596 15.90085 15.93683 15.96511 16.00486 16.04843 16.08955 16.13183 16.17692 16.20871 16.24568 16.2893 16.32845 16.35143 16.39085 16.43281 16.47067 16.49844 16.51428 16.52717 16.54014 16.54216 16.54283 16.54891 16.55328 16.55231 16.55041 16.54448 16.53868 16.52081 16.50285 16.49623 16.48162 16.48019 16.48185 16.48563 16.49027 16.48947 16.49595 16.49204 16.49286 16.49896 16.50335 16.50645 16.50711 16.50935 16.5109 16.50988 16.51202 16.50955 16.50118 16.49059 16.47629 16.4628
0 0 0 18.71357 16.37372 15.29342 14.87318 14.977 15.09289 15.18042 15.24745 15.28975 15.33207 15.36242 15.40277 15.43424 15.46464 15.49524 15.52396 15.54516 15.56946 15.58905 15.60229 15.619 15.63231 15.64944 15.66835 15.70039 15.72127 15.73677 15.75087 15.7639 15.78548 15.80229 15.79237 15.77959 15.76929 15.76537 15.75916 15.75013 15.74037 15.73398 15.72899 15.72874 15.7283 15.73299 15.7444 15.75874 15.7702 15.77591 15.79435 15.80993 15.82661 15.84798 15.86126 15.87705 15.89923 15.94234 15.97463 16.01308 16.05543 16.10052 16.14363 16.18175 16.22486 16.25257 16.28433 16.3243 16.3536 16.38557 16.4172 16.45161 16.47984 16.4954 16.50697 16.52071 16.5372 16.5363 16.53826 16.54795 16.54924 16.54835 16.54072 16.54261 16.53991 16.52933 16.52648 16.51755 16.50761 16.50299 16.51061 16.51838 16.52466 16.52665 16.5251 16.52619 16.52911 16.53075 16.53126 16.53245 16.53481 16.53863 16.53964 16.54106 16.53468 16.52793 16.519 16.51068 16.49453
14.88573 14.8868 15.95587 16.3911 14.97676 14.82397 14.92506 15.04842 15.14286 15.2196 15.27303 15.31262 15.34641 15.36757 15.39514 15.42901 15.45497 15.48586 15.51077 15.52528 15.54411 15.55651 15.57861 15.59596 15.6126 15.62558 15.64963 15.67495 15.70689 15.73977 15.75413 15.76616 15.78765 15.79602 15.79576 15.78792 15.7757 15.76358 15.7621 15.76078 15.75482 15.75055 15.74138 15.7339 15.72405 15.72965 15.73727 15.74852 15.7679 15.7839 15.79589 15.81474 15.83712 15.85583 15.87058 15.8921 15.91399 15.95669 15.99173 16.02719 16.06107 16.09969 16.15026 16.18965 16.22404 16.25049 16.28272 16.31351 16.34982 16.3792 16.40739 16.42993 16.45565 16.47907 16.49384 16.50814 16.51802 16.52341 16.52359 16.53289 16.53476 16.53391 16.53611 16.54095 16.54589 16.53218 16.53097 16.52833 16.52718 16.52992 16.53763 16.54357 16.55054 16.5523 16.55218 16.55015 16.55547 16.55647 16.5608 16.56712 16.57087 16.57813 16.57913 16.57076 16.56425 16.56607 16.54999 16.54011 16.53503
14.89127 14.8802 14.88892 14.90555 14.9105 14.98112 15.06821 15.15356 15.21549 15.26762 15.30636 15.3345 15.34694 15.36035 15.38359 15.41726 15.43852 15.45763 15.4779 15.49984 15.51295 15.53448 15.55806 15.57258 15.58726 15.60771 15.62652 15.6623 15.69065 15.71864 15.74043 15.76696 15.78732 15.80108 15.80644 15.80632 15.79096 15.77657 15.77292 15.7761 15.77208 15.76205 15.7542 15.73897 15.7335 15.73407 15.74134 15.74971 15.76878 15.79147 15.80934 15.83293 15.85131 15.87158 15.89518 15.91625 15.94545 15.9831 16.01299 16.04108 16.06902 16.10867 16.1503 16.18409 16.21692 16.25141 16.28106 16.30996 16.33448 16.36635 16.39334 16.41126 16.43086 16.46054 16.47704 16.49215 16.49644 16.49989 16.50955 16.51308 16.51549 16.52127 16.54045 16.55596 16.54523 16.54473 16.54492 16.53938 16.54121 16.55305 16.55933 16.5682 16.57644 16.57804 16.57819 16.57814 16.5799 16.57835 16.58175 16.58723 16.59489 16.59812 16.60043 16.60138 16.60415 16.59341 16.58202 16.57665 16.57588
15.0171 15.02765 15.0454 15.06507 15.08369 15.13367 15.17921 15.2253 15.2577 15.30398 15.32671 15.33868 15.34237 15.36199 15.38195 15.41882 15.44404 15.46007 15.46572 15.4736 15.48305 15.51069 15.52679 15.53841 15.55716 15.58436 15.61438 15.6525 15.68264 15.71146 15.74087 15.7664 15.79162 15.81185 15.81261 15.80924 15.80454 15.79524 15.78778 15.79144 15.79387 15.78606 15.77168 15.76374 15.75424 15.75473 15.75516 15.76696 15.78381 15.80449 15.82664 15.85636 15.87844 15.90044 15.92017 15.94283 15.97436 16.01059 16.03765 16.06235 16.09031 16.12088 16.15462 16.18648 16.21532 16.24842 16.28214 16.31081 16.32897 16.35279 16.37835 16.39807 16.41745 16.44804 16.46732 16.46695 16.47346 16.4829 16.49102 16.49041 16.5047 16.50436 16.52315 16.52658 16.52441 16.5395 16.55533 16.57165 16.58427 16.58789 16.5986 16.60743 16.61415 16.61809 16.61845 16.61534 16.61658 16.61925 16.61918 16.62515 16.62873 16.63278 16.63188 16.63535 16.63305 16.62782 16.61724 16.61514 16.61009
15.09297 15.11267 15.13827 15.15391 15.1725 15.19347 15.22234 15.24353 15.26873 15.29423 15.30794 15.32323 15.3269 15.33903 15.37139 15.39804 15.41323 15.41988 15.43329 15.44873 15.46899 15.47628 15.48303 15.5095 15.53649 15.57551 15.5969 15.63153 15.66165 15.70406 15.74 15.78244 15.81767 15.83609 15.83841 15.83675 15.82501 15.82109 15.81604 15.80662 15.80497 15.80702 15.79537 15.78172 15.77784 15.78039 15.78214 15.79523 15.81235 15.83388 15.85647 15.88124 15.90534 15.93296 15.95178 15.9738 16.00398 16.03178 16.05527 16.08914 16.11401 16.14459 16.17511 16.19972 16.22703 16.25765 16.28245 16.30985 16.33174 16.35851 16.37446 16.3973 16.41495 16.42929 16.44709 16.45741 16.46623 16.47342 16.47338 16.47981 16.48321 16.48181 16.48891 16.49763 16.50944 16.53686 16.57311 16.60034 16.61727 16.62731 16.64358 16.65459 16.66689 16.67285 16.67114 16.66951 16.67411 16.68802 16.69195 16.69988 16.71129 16.714 16.70688 16.69562 16.69009 16.68026 16.6699 16.66456 16.66358
15.15675 15.17178 15.17805 15.18664 15.19716 15.20934 15.23004 15.24998 15.26324 15.27481 15.29139 15.30131 15.30671 15.32574 15.35751 15.3781 15.39568 15.4169 15.43209 15.43853 15.44973 15.4644 15.48039 15.51493 15.54285 15.59366 15.61108 15.63045 15.6624 15.70488 15.74731 15.79464 15.82887 15.85309 15.86296 15.85946 15.85248 15.84963 15.84384 15.8401 15.82951 15.82547 15.82197 15.82267 15.82112 15.8229 15.8285 15.84138 15.85797 15.87768 15.89557 15.924 15.94931 15.97055 15.99222 16.01649 16.04226 16.06235 16.09823 16.13009 16.15521 16.18312 16.20688 16.23325 16.26506 16.30119 16.32189 16.33598 16.35297 16.38101 16.40434 16.42525 16.43583 16.44276 16.4538 16.4651 16.47315 16.47417 16.48092 16.48852 16.50486 16.51653 16.52437 16.53383 16.54968 16.58399 16.623 16.65361 16.68265 16.69844 16.70806 16.71873 16.73145 16.73951 16.74128 16.73553 16.73512 16.74629 16.76835 16.79009 16.80799 16.80855 16.79715 16.78671 16.79039 16.78772 16.77971 16.76804 16.76108
15.18016 15.17699 15.1799 15.1865 15.19894 15.20788 15.2208 15.2354 15.23931 15.25101 15.26881 15.27968 15.28254 15.30895 15.33465 15.35488 15.38486 15.40841 15.41327 15.44025 15.44015 15.47946 15.49222 15.53538 15.56368 15.60768 15.62989 15.65279 15.69001 15.73286 15.78064 15.82208 15.84731 15.8686 15.88186 15.88545 15.88144 15.87618 15.87428 15.86626 15.86213 15.85995 15.86295 15.85682 15.87375 15.87912 15.89324 15.91463 15.92815 15.94845 15.96608 15.99142 16.01396 16.03839 16.06263 16.08608 16.11169 16.13952 16.16626 16.18889 16.22466 16.24517 16.26664 16.28312 16.31057 16.33629 16.35192 16.37183 16.38994 16.41139 16.43698 16.45214 16.46578 16.47464 16.46815 16.48103 16.48579 16.49318 16.50016 16.51169 16.53082 16.55012 16.5715 16.59657 16.62012 16.65181 16.68833 16.73566 16.76787 16.7873 16.80657 16.81452 16.8211 16.82151 16.81911 16.81204 16.80682 16.81178 16.83161 16.8566 16.87795 16.88383 16.88238 16.87602 16.87131 16.8713 16.87135 16.86218 16.85523
15.18759 15.18948 15.18885 15.18427 15.18516 15.19638 15.20816 15.21889 15.23179 15.23901 15.25887 15.2647 15.2784 15.3046 15.3192 15.34426 15.3695 15.38569 15.40244 15.42394 15.44888 15.47917 15.52108 15.56446 15.60408 15.64116 15.66772 15.70195 15.74563 15.78629 15.81938 15.84671 15.87247 15.89701 15.90277 15.91022 15.91152 15.90885 15.90785 15.90154 15.90392 15.90997 15.91762 15.9289 15.93487 15.94767 15.96705 15.98652 16.00832 16.01762 16.04059 16.06017 16.08561 16.11849 16.14593 16.17219 16.19274 16.21722 16.24426 16.26514 16.29505 16.31251 16.34086 16.35817 16.3842 16.39656 16.4124 16.42505 16.44457 16.46318 16.49105 16.51051 16.52091 16.52349 16.51676 16.51661 16.51965 16.52906 16.54769 16.56816 16.57675 16.59638 16.62759 16.64913 16.67727 16.71235 16.7551 16.79761 0 0 16.86115 16.88739 16.88359 16.87965 16.87299 16.86537 16.86992 16.88122 16.88155 0 0 16.90014 16.9564 16.95544 16.95244 16.95131 16.95699 16.953 16.94165
