ncols        109
nrows        82
xllcorner    -1.041666666667
yllcorner    37.041665395101
cellsize     0.083333333333
NODATA_value -9999
0.0 0 0 0 0 0 0 0 0 0 0 0 0 0 0 0 0 0 0 0 0 0 0 0 0 0 0 0 0 0 0 0 0 0 0 0 0 0 0 0 0 0 0 0 0 0 0 0 0 0 0 0 0 0 0 0 0 0 0 0 0 0 0 0 0 0 0 0 0 0 0 0 0 0 0 0 0 0 0 0 0 0 0 0 0 0 0 0 0 0 0 0 0 0 0 0 0 0 0 0 0 0 0 0 0 17.23035 15.92115 14.78313 14.78413
0 0 0 0 0 0 0 0 0 0 0 0 0 0 0 0 0 0 0 0 0 0 0 0 0 0 0 0 0 0 0 0 0 0 0 0 0 0 0 0 0 0 0 0 0 0 0 0 0 0 0 0 0 0 0 0 0 0 0 0 0 0 0 0 0 0 0 0 0 0 0 0 0 0 0 0 0 0 0 0 0 0 0 0 0 0 0 0 0 0 0 0 0 0 0 0 0 0 0 0 0 14.93488 14.95106 14.76342 14.77319 14.77238 14.76547 14.77503 14.77242
0 0 0 0 0 0 0 0 0 0 0 0 0 0 0 0 0 0 0 0 0 0 0 0 0 0 0 0 0 0 0 0 0 0 0 0 0 0 0 0 0 0 0 0 0 0 0 0 0 0 0 0 0 0 0 0 0 0 0 0 0 0 0 0 0 0 0 0 0 0 0 0 0 0 0 0 0 0 0 0 0 0 0 0 0 0 0 0 0 0 0 0 0 0 0 0 0 0 14.76182 14.76688 14.7655 14.75664 14.7407 14.74501 14.73604 14.70951 14.69112 14.6758 14.659
0 0 0 0 0 0 0 0 0 0 0 0 0 0 0 0 0 0 0 0 0 0 0 0 0 0 0 0 0 0 0 0 0 0 0 0 0 0 0 0 0 0 0 0 0 0 0 0 0 0 0 0 0 0 0 0 0 0 0 0 0 0 0 0 0 0 0 0 0 0 0 0 0 0 0 0 0 0 0 0 0 0 0 0 0 0 0 0 0 0 0 0 0 0 0 0 0 16.08995 14.76142 14.75663 14.73073 14.70719 14.68212 14.66626 14.63389 14.60936 14.57928 14.56081 14.52487
0 0 0 0 0 0 0 0 0 0 0 0 0 0 0 0 0 0 0 0 0 0 0 0 0 0 0 0 0 0 0 0 0 0 0 0 0 0 0 0 0 0 0 0 0 0 0 0 0 0 0 0 0 0 0 0 0 0 15.96188 15.58269 15.24841 15.38168 0 0 0 0 0 0 0 0 0 0 0 0 0 0 0 0 0 0 0 0 0 0 0 0 0 0 0 0 0 0 0 0 0 15.12624 14.75428 14.76582 14.72977 14.71107 14.6667 14.61715 14.56383 14.53194 14.49515 14.45645 14.43045 14.39922 14.36361
0 0 0 0 0 0 0 0 0 0 0 0 0 0 0 0 0 0 0 0 0 0 0 0 0 0 0 0 0 0 0 0 0 0 0 0 0 0 0 0 0 0 0 0 0 0 0 0 0 0 0 0 0 0 0 0 15.39734 15.44052 15.18641 14.98971 14.92669 14.89342 14.97337 15.17087 15.39328 15.5293 15.53401 0 0 0 0 15.79264 0 0 0 0 0 0 0 0 0 0 0 0 0 0 0 0 0 0 0 0 0 15.56884 14.69668 14.73448 14.72994 14.71012 14.66545 14.60989 14.55067 14.49954 14.44857 14.40371 14.37854 14.35626 14.35042 14.31601 14.29424
0 0 0 0 0 0 0 0 0 0 0 0 0 0 0 0 0 0 0 0 0 0 0 0 0 0 0 0 0 0 0 0 0 0 0 0 0 0 0 0 0 0 0 0 0 0 0 0 0 0 0 0 0 0 0 15.58239 15.19188 14.90381 14.7389 14.50803 14.57542 14.6022 14.75978 14.88232 15.02374 15.1126 15.18734 15.36853 15.5654 15.52202 15.46646 15.23908 15.06328 15.11909 15.25055 15.02634 15.03491 0 0 0 0 0 0 0 0 0 0 0 0 0 0 0 15.00359 14.71902 14.72856 14.71807 14.70892 14.64048 14.58597 14.51532 14.45466 14.40141 14.34508 14.31989 14.32066 14.30583 14.29278 14.28784 14.27889
0 0 0 0 0 0 0 0 0 0 0 0 0 0 0 0 0 0 0 0 0 0 0 0 0 0 0 0 0 0 0 0 0 0 0 0 0 0 0 0 0 0 0 0 0 0 0 0 0 0 0 15.25477 15.3681 15.58065 15.35772 14.94015 14.73015 14.50892 14.41773 14.49226 14.56377 14.58651 14.5629 14.72537 14.69823 14.89118 14.88788 14.88621 14.90684 14.82164 14.74923 14.79735 14.69441 14.87523 14.89592 15.04308 0 0 0 0 0 0 0 0 0 0 0 0 0 0 0 0 14.71336 14.72291 14.70596 14.68605 14.61733 14.54461 14.47337 14.4037 14.36403 14.32178 14.28865 14.28142 14.28662 14.27848 14.27529 14.26834 14.2465
0 0 0 0 0 0 0 0 0 0 0 0 0 0 0 0 0 0 0 0 0 0 0 0 0 0 0 0 0 0 0 0 0 0 0 0 0 0 0 0 0 0 0 0 0 0 0 0 0 0 15.50473 15.30629 15.08991 15.05874 14.95382 14.68844 14.38671 14.47825 14.36007 14.433 14.47552 14.49464 14.49515 14.66321 14.65885 14.85238 14.85547 14.87511 14.74448 14.64064 14.6922 14.7427 14.62897 14.8152 14.82734 15.00691 15.00289 14.82952 14.83409 15.12746 15.52312 16.18782 0 0 0 0 0 0 0 15.47168 15.00865 14.70074 14.72453 14.69959 14.66602 14.59632 14.5294 14.45924 14.39395 14.35369 14.31964 14.29035 14.26991 14.26831 14.27051 14.27588 14.27912 14.27547 14.27335
0 0 0 0 0 0 0 0 0 0 0 0 0 0 0 0 0 0 0 0 0 0 0 0 0 0 0 0 0 0 0 0 0 0 0 0 0 0 0 0 0 0 0 0 0 0 0 0 0 16.36668 15.21203 15.13393 15.06786 14.7757 14.61326 14.46448 14.5315 14.40749 14.45374 14.4948 14.52626 14.54278 14.54924 14.74581 14.77222 14.79387 14.82306 14.83344 14.82686 14.69124 14.73168 14.62237 14.50694 14.51882 14.53582 14.54045 14.54504 14.56216 14.58199 14.59578 14.90836 15.34942 0 15.2059 15.70978 16.14871 16.45763 16.21133 15.77254 14.67404 14.70276 14.72206 14.69761 14.63977 14.55814 14.48498 14.4267 14.37799 14.32788 14.29918 14.27324 14.27177 14.26813 14.27162 14.26683 14.27815 14.28739 14.28178 14.27494
0 0 0 0 0 0 0 0 0 0 0 0 0 0 0 0 0 0 0 0 0 0 0 0 0 0 0 0 0 0 0 0 0 0 0 0 0 0 0 0 0 0 0 0 0 0 0 0 0 16.03909 15.20312 14.91797 14.63076 14.51247 14.55734 14.41599 14.45844 14.51257 14.55122 14.58222 14.61368 14.63294 14.6405 14.65935 14.67599 14.5525 14.43696 14.57489 14.57825 14.58921 14.60759 14.48031 14.47982 14.48714 14.49357 14.50515 14.52136 14.54449 14.57741 14.59242 14.6037 14.62329 14.64815 14.67017 14.70203 14.71297 15.5742 15.74472 15.40627 14.69463 14.6673 14.61444 14.59829 14.53734 14.46641 14.41441 14.35887 14.31926 14.2771 14.26501 14.27227 14.28116 14.30268 14.30597 14.30907 14.30988 14.30488 14.29843 14.29213
0 0 0 0 0 0 0 0 0 0 0 0 0 0 0 0 0 0 0 0 0 0 0 0 0 0 0 0 0 0 0 0 0 0 0 0 0 0 0 0 0 0 0 0 0 0 0 0 0 15.80041 15.15327 14.86015 14.55225 14.62325 14.47502 14.51595 14.56903 14.62099 14.65848 14.68393 14.53091 14.55224 14.56813 14.58348 14.59231 14.45416 14.46487 14.46456 14.44678 14.44751 14.45684 14.45606 14.44999 14.4529 14.45457 14.45735 14.4651 14.48661 14.5169 14.54621 14.5623 14.58664 14.60675 14.6278 14.65519 14.67968 14.69661 14.69462 14.65752 14.60668 14.56684 14.52844 14.4993 14.41989 14.37941 14.34078 14.31096 14.25138 14.25989 14.28948 14.30371 14.3131 14.33159 14.33057 14.33626 14.32008 14.31589 14.31825 14.31926
0 0 0 0 0 0 0 0 0 0 0 0 0 0 0 0 0 0 0 0 0 0 0 0 0 0 0 0 0 0 0 0 0 0 0 0 0 0 0 0 0 0 0 0 0 0 0 0 0 15.7442 15.05567 14.7622 14.6412 14.49977 14.55913 14.64656 14.52855 14.56751 14.42348 14.43064 14.44393 14.45729 14.46705 14.46562 14.46542 14.46407 14.47543 14.46991 14.44775 14.42113 14.4114 14.39898 14.36483 14.35633 14.35895 14.35671 14.38058 14.40148 14.4228 14.45032 14.4696 14.48546 14.49099 14.5195 14.53877 14.55448 14.55843 14.55101 14.52134 14.4892 14.45567 14.43865 14.40001 14.36323 14.3348 14.2894 14.25154 14.25678 14.26503 14.28449 14.32567 14.34503 14.3509 14.34909 14.35267 14.35234 14.3542 14.34344 14.34228
0 0 0 0 0 0 0 0 0 0 0 0 0 0 0 0 0 0 0 0 0 0 0 0 0 0 0 0 0 0 0 0 0 0 0 0 0 0 0 0 0 0 0 0 0 0 0 0 0 15.62148 15.11139 14.81803 14.69469 14.55496 14.62662 14.52691 14.41886 14.44517 14.46924 14.48409 14.49333 14.49005 14.48223 14.47545 14.4615 14.4539 14.44816 14.43745 14.4204 14.39018 14.36333 14.33386 14.30634 14.29341 14.26991 14.25305 14.26006 14.28987 14.32478 14.3467 14.35771 14.36346 14.36271 14.3828 14.39774 14.42281 14.42859 14.4359 14.41172 14.37674 14.35836 14.33691 14.31099 14.30763 14.28348 14.26965 14.27127 14.26368 14.27281 14.29344 14.32689 14.369 14.36889 14.37533 14.38175 14.39177 14.39364 14.39838 14.37147
0 0 0 0 0 0 0 0 0 0 0 0 0 0 0 0 0 0 0 0 0 0 0 0 0 0 0 0 0 0 0 0 0 0 0 0 0 0 0 0 0 0 0 0 0 0 0 0 0 15.65339 14.92249 14.63937 14.75004 14.62265 14.70787 14.56592 14.45256 14.47033 14.48293 14.47599 14.46514 14.46216 14.45629 14.43952 14.43204 14.41908 14.39318 14.38178 14.34947 14.32288 14.3 14.26486 14.24336 14.23742 14.21706 14.21482 14.21262 14.22301 14.24558 14.25891 14.2656 14.27903 14.27883 14.27881 14.29196 14.33137 14.32607 14.31574 14.31351 14.29711 14.29549 14.29225 14.27663 14.27855 14.28436 14.28445 14.29075 14.2953 14.3092 14.31562 14.34202 14.3772 14.39302 14.40237 14.40666 14.40785 14.41016 14.42158 14.41665
0 0 0 0 0 0 0 0 0 0 0 0 0 0 0 0 0 0 0 0 0 0 0 0 0 0 0 0 0 0 0 0 0 0 0 0 0 0 0 0 0 0 0 0 0 0 0 0 0 15.18337 14.97422 14.66853 14.59412 14.51823 14.59374 14.45666 14.47656 14.48012 14.47457 14.456 14.43973 14.42589 14.41258 14.40186 14.3837 14.36535 14.34779 14.33462 14.31777 14.28752 14.24697 14.20513 14.1881 14.16511 14.15841 14.14866 14.13811 14.13969 14.15982 14.17792 14.18377 14.20452 14.22224 14.23501 14.25035 14.26273 14.271 14.2619 14.24724 14.23458 14.2343 14.26273 14.26722 14.28064 14.28571 14.29405 14.3181 14.33551 14.34769 14.3572 14.36913 14.38716 14.39937 14.42314 14.41501 14.42073 14.42454 14.43556 14.45998
0 0 0 0 0 0 0 0 0 0 0 0 0 0 0 0 0 0 0 0 0 0 0 0 0 0 0 0 0 0 0 0 0 0 0 0 0 0 0 0 0 0 0 0 0 0 0 0 0 0 14.77452 14.74308 14.68141 14.43909 14.4886 14.48499 14.49464 14.48769 14.46569 14.45081 14.42381 14.40627 14.39438 14.37534 14.35501 14.34277 14.33737 14.32055 14.29756 14.27119 14.22467 14.19778 14.17934 14.16145 14.13153 14.11684 14.1061 14.10532 14.11662 14.13713 14.15111 14.16066 14.16742 14.19586 14.21364 14.22117 14.22588 14.23665 14.24025 14.24052 14.23693 14.26028 14.27566 14.28921 14.30756 14.32537 14.3378 14.3552 14.37846 14.38545 14.39375 14.41169 14.41461 14.42817 14.42305 14.42094 14.44261 14.46504 14.47168
0 0 0 0 0 0 0 0 0 0 0 0 0 0 0 0 0 0 0 0 0 0 0 0 0 0 0 0 0 0 0 0 0 0 0 0 0 0 0 0 0 0 0 0 0 0 0 0 0 0 14.91083 14.57596 14.37786 14.46859 14.49822 14.51667 14.50986 14.48889 14.46815 14.44033 14.41581 14.39672 14.38056 14.37712 14.35813 14.34682 14.33583 14.32035 14.30126 14.27744 14.24536 14.21291 14.19647 14.16853 14.14425 14.12862 14.11491 14.11142 14.11631 14.12352 14.13447 14.16033 14.1833 14.1952 14.19867 14.2096 14.22389 14.24144 14.26017 14.24495 14.2573 14.28782 14.2975 14.31193 14.35385 14.35308 14.36783 14.38583 14.40955 14.43361 14.44201 14.44781 14.44436 14.44752 14.44598 14.44279 14.4628 14.48686 14.50951
0 0 0 0 0 0 0 0 0 0 0 0 0 0 0 0 0 0 0 0 0 0 0 0 0 0 0 0 0 0 0 0 0 0 0 0 0 0 0 0 0 0 0 0 0 0 0 0 0 0 0 0 14.41246 14.46534 14.50165 14.52659 14.53381 14.4976 14.47591 14.44931 14.41476 14.39348 14.38592 14.37215 14.35171 14.34143 14.34174 14.32623 14.30647 14.28466 14.25822 14.22502 14.19667 14.17955 14.15759 14.14224 14.12281 14.12037 14.11852 14.12875 14.14818 14.1654 14.1828 14.19402 14.21477 14.22427 14.23843 14.24288 14.2522 14.27054 14.29469 14.30845 14.31132 14.35105 14.36763 14.38534 14.41029 14.41112 14.41501 14.44732 14.45806 14.4611 14.46928 14.45774 14.46931 14.46672 14.48039 14.51081 14.53626
0 0 0 0 0 0 0 0 0 0 0 0 0 0 0 0 0 0 0 0 0 0 0 0 0 0 0 0 0 0 0 0 0 0 0 0 0 0 0 0 0 0 0 0 0 0 0 0 0 0 16.41049 15.01007 14.64589 14.49386 14.52216 14.53669 14.52918 14.50068 14.47236 14.43769 14.41557 14.39972 14.3906 14.37332 14.36115 14.35197 14.35073 14.3329 14.32089 14.30592 14.2757 14.2369 14.21004 14.18834 14.17767 14.15077 14.13275 14.12283 14.12173 14.13963 14.16014 14.16986 14.19751 14.20442 14.22025 14.23312 14.25818 14.2606 14.26943 14.27994 14.30331 14.32525 14.35338 14.37968 14.38711 14.41266 14.418 14.41527 14.43918 14.44832 14.45839 14.47376 14.48496 14.48576 14.49044 14.49249 14.50802 14.54477 14.57609
0 0 0 0 0 0 0 0 0 0 0 0 0 0 0 0 0 0 0 0 0 0 0 0 0 0 0 0 0 0 0 0 0 0 0 0 0 0 0 0 0 0 0 0 0 0 0 0 0 0 15.84945 15.04162 14.87198 14.51295 14.53207 14.52757 14.53019 14.49391 14.47031 14.44557 14.43157 14.41251 14.40079 14.38406 14.37444 14.38186 14.37087 14.34506 14.34604 14.32555 14.28534 14.25485 14.22865 14.20243 14.18244 14.15868 14.16024 14.14381 14.1397 14.15061 14.17087 14.19499 14.20922 14.22543 14.24208 14.26033 14.27896 14.29343 14.29534 14.3052 14.32957 14.36751 14.3779 14.38813 14.38975 14.40279 14.42232 14.4273 14.43606 14.44746 14.4674 14.49648 14.52407 14.53564 14.53028 14.5272 14.54055 14.57546 14.61201
0 0 0 0 0 0 0 0 0 0 0 0 0 0 0 0 0 0 0 0 0 0 0 0 0 0 0 0 0 0 0 0 0 0 0 0 0 0 0 0 0 0 0 0 0 0 0 0 0 0 0 15.08836 14.70496 14.53744 14.53822 14.52498 14.53131 14.50387 14.48109 14.47043 14.44791 14.42633 14.41514 14.40938 14.40506 14.41019 14.39042 14.38612 14.3679 14.34697 14.31472 14.28157 14.25557 14.22893 14.19747 14.17637 14.16483 14.15873 14.16789 14.18124 14.19707 14.22068 14.24234 14.24334 14.26467 14.28256 14.30186 14.31528 14.34351 14.36486 14.40354 14.42034 14.42124 14.42524 14.4295 14.44404 14.45501 14.45197 14.46927 14.47928 14.50487 14.52882 14.55608 14.59186 14.57648 14.56495 14.56939 14.60834 14.65207
0 0 0 0 0 0 0 0 0 0 0 0 0 0 0 0 0 0 0 0 0 0 0 0 0 0 0 0 0 0 0 0 0 0 0 0 0 0 0 0 0 0 0 0 0 0 0 0 0 0 0 14.90904 14.54858 14.56572 14.55083 14.53369 14.53211 14.50518 14.49552 14.48584 14.47197 14.46174 14.45333 14.45308 14.44273 14.42845 14.43249 14.42691 14.40949 14.37477 14.3448 14.31408 14.28467 14.2592 14.24518 14.20832 14.19005 14.18366 14.19849 14.20859 14.22292 14.25222 14.26989 14.29465 14.30559 14.31574 14.33629 14.36216 14.3915 14.42559 14.46074 14.47491 14.4853 14.49182 14.5038 14.51015 14.5201 14.51738 14.53188 14.53715 14.54638 14.55874 14.57359 14.60407 14.60786 14.59742 14.60617 14.65105 14.69395
0 0 0 0 0 0 0 0 0 0 0 0 0 0 0 0 0 0 0 0 0 0 0 0 0 0 0 0 0 0 0 0 0 0 0 0 0 0 0 0 0 0 0 0 0 0 0 0 0 0 0 14.59161 14.59528 14.59159 14.56266 14.54194 14.52994 14.51709 14.51856 14.50823 14.49297 14.48378 14.48263 14.47158 14.46714 14.48429 14.4735 14.45753 14.43939 14.41946 14.39968 14.3615 14.32746 14.30499 14.28712 14.25002 14.22683 14.22352 14.22976 14.24421 14.26991 14.30314 14.32697 14.34059 14.3534 14.3716 14.38763 14.41861 14.45698 14.50112 14.52783 14.54478 14.54572 14.55554 14.55624 14.56948 14.58793 14.59218 14.59134 14.58693 14.59732 14.5949 14.6009 14.62559 14.63234 14.64223 14.65787 14.6964 14.72377
0 0 0 0 0 0 0 0 0 0 0 0 0 0 0 0 0 0 0 0 0 0 0 0 0 0 0 0 0 0 0 0 0 0 0 0 0 0 0 0 0 0 0 0 0 0 0 0 0 16.431 15.50215 14.63347 14.61236 14.58881 14.57916 14.55451 14.54822 14.52506 14.54246 14.53917 14.53124 14.53083 14.52403 14.52024 14.51231 14.51586 14.50446 14.50048 14.4794 14.46208 14.44684 14.42728 14.40582 14.3705 14.31417 14.31889 14.30501 14.29242 14.30069 14.31217 14.33142 14.3513 14.37508 14.38576 14.39301 14.41224 14.42593 14.45552 14.49401 14.52686 14.5621 14.59504 14.59921 14.60513 14.61139 14.62385 14.63922 14.64164 14.62482 14.61925 14.63079 14.63405 14.62425 14.65038 14.67373 14.68981 14.71226 14.73355 14.75009
0 0 0 0 0 0 0 0 0 0 0 0 0 0 0 0 0 0 0 0 0 0 0 0 0 0 0 0 0 0 0 0 0 0 0 0 0 0 0 0 0 0 0 0 0 0 0 0 15.61353 15.13086 14.87467 14.67541 14.64017 14.61806 14.59467 14.59073 14.58615 14.57518 14.5721 14.58253 14.58073 14.58338 14.58245 14.57287 14.56108 14.55573 14.55849 14.56019 14.54847 14.52002 14.50022 14.47689 14.45066 14.42694 14.39397 14.38937 14.38698 14.37766 14.38268 14.38976 14.40477 14.42655 14.43163 14.43896 14.44912 14.46002 14.46665 14.4887 14.51503 14.55989 14.59082 14.61354 14.62533 14.64189 14.64507 14.65918 14.66925 14.67444 14.68362 14.67142 14.66055 14.67076 14.66805 14.67755 14.69765 14.71398 14.73945 14.75627 14.77471
0 0 0 0 0 0 0 0 0 0 0 0 0 0 0 0 0 0 0 0 0 0 0 0 0 0 0 0 0 0 0 0 0 0 0 0 0 0 0 0 0 0 0 0 0 15.34158 15.1995 15.71539 15.23649 15.23735 14.97167 14.72474 14.68819 14.66037 14.64675 14.64243 14.64222 14.63403 14.62234 14.62417 14.6287 14.62144 14.62685 14.61628 14.6157 14.60323 14.60879 14.61522 14.596 14.58769 14.55893 14.53216 14.51085 14.49809 14.48088 14.45507 14.44656 14.44119 14.44365 14.44792 14.45282 14.46206 14.46843 14.48495 14.49221 14.51068 14.5122 14.52308 14.56145 14.59861 14.6332 14.6683 14.67944 14.6926 14.71319 14.72088 14.73149 14.7357 14.73588 14.7315 14.72658 14.72217 14.71591 14.72554 14.72133 14.73661 14.7606 14.78455 14.80587
0 0 0 0 0 0 0 0 0 0 0 0 0 0 0 0 0 0 0 0 0 0 0 0 0 0 0 0 0 0 0 0 0 0 0 0 0 0 0 0 0 0 17.32164 17.04658 16.04398 15.29364 14.82922 14.8471 15.32112 15.06051 14.82556 14.78154 14.75398 14.72798 14.72054 14.71818 14.70553 14.68679 14.67913 14.67184 14.67978 14.67985 14.67722 14.67356 14.6685 14.66527 14.66979 14.6664 14.65255 14.63323 14.59944 14.58015 14.56685 14.55342 14.53492 14.51776 14.50778 14.50417 14.49945 14.51351 14.51887 14.52401 14.53767 14.54626 14.54388 14.55597 14.55753 14.56606 14.60309 14.63196 14.66374 14.70591 14.73944 14.76688 14.77996 14.81458 14.82958 14.83774 14.84933 14.83815 14.80895 14.78424 14.77617 14.7756 14.77295 14.77939 14.78673 14.81129 14.82965
0 0 0 0 0 0 0 0 0 0 0 0 0 0 0 0 0 0 0 0 0 0 0 0 0 0 0 0 0 0 0 0 0 0 0 0 0 0 0 0 16.43933 16.814 17.11209 16.14246 15.36785 14.87422 14.90072 14.91739 14.9116 14.88144 14.87707 14.84282 14.8087 14.78303 14.77084 14.75813 14.7611 14.73164 14.72084 14.7152 14.72205 14.72692 14.73772 14.72409 14.72675 14.72626 14.72746 14.73276 14.72235 14.70166 14.66508 14.6453 14.63879 14.62647 14.59685 14.58087 14.56846 14.55945 14.57038 14.57372 14.58363 14.58559 14.60521 14.60815 14.60577 14.61437 14.62012 14.63282 14.66328 14.68599 14.71276 14.7435 14.77709 14.80348 14.81766 14.84442 14.86573 14.89329 14.8971 14.89297 14.87614 14.85705 14.82976 14.82573 14.81895 14.81574 14.82703 14.84562 14.86594
0 0 0 0 0 0 0 0 0 0 0 0 0 0 0 0 0 0 0 0 0 0 0 0 0 0 0 0 0 0 0 0 0 0 0 0 0 0 0 16.65589 16.41227 15.87516 15.6491 14.88408 14.89914 14.92002 14.93681 14.94831 14.94218 14.92504 14.91063 14.87465 14.84889 14.8211 14.80217 14.80417 14.80578 14.79119 14.75755 14.77378 14.77897 14.78509 14.7914 14.77873 14.78513 14.79626 14.80463 14.81404 14.79868 14.77255 14.73917 14.719 14.70815 14.70107 14.68944 14.67042 14.6564 14.65098 14.64807 14.65306 14.65723 14.6591 14.6566 14.65564 14.65603 14.66695 14.68329 14.70877 14.72289 14.74179 14.76888 14.80881 14.84403 14.87025 14.86753 14.88694 14.91037 14.92122 14.92721 14.9308 14.91996 14.89132 14.86119 14.85849 14.86309 14.85829 14.86013 14.87999 14.88944
0 0 0 0 0 0 0 0 0 0 0 0 0 0 0 0 0 0 0 0 0 0 0 0 0 0 0 0 0 0 0 0 0 0 0 0 0 0 15.88988 15.62811 15.40395 14.9251 14.94338 14.95821 14.96399 14.98119 14.98452 14.99079 14.98617 14.97325 14.95577 14.94218 14.92654 14.88207 14.85767 14.84451 14.8557 14.83735 14.82203 14.82902 14.84036 14.84984 14.84345 14.84139 14.85046 14.86336 14.87863 14.88975 14.87764 14.85249 14.83205 14.79948 14.77245 14.76076 14.7411 14.72519 14.71702 14.71034 14.71578 14.71515 14.72763 14.73123 14.73088 14.73416 14.73656 14.74059 14.76408 14.77196 14.79226 14.82633 14.85622 14.87481 14.89449 14.91361 14.90251 14.9189 14.92405 14.95268 14.93945 14.94637 14.93277 14.91279 14.89367 14.89088 14.89936 14.90714 14.91102 14.9142 14.92516
0 0 0 0 0 0 0 0 0 0 0 0 0 0 0 0 0 0 0 0 0 0 0 0 0 0 0 0 0 0 0 0 0 0 17.52354 18.13166 17.30148 15.67765 14.90957 14.93001 14.96266 14.9781 14.99385 14.99535 15.00375 15.01469 15.02395 15.04966 15.07199 15.08272 15.06753 15.05747 15.02932 14.98496 14.9567 14.93536 14.92433 14.9106 14.91355 14.89462 14.90647 14.90086 14.89592 14.90062 14.91086 14.92567 14.93922 14.95243 14.9549 14.94895 14.9271 14.89472 14.86673 14.84449 14.81941 14.79848 14.79324 14.78194 14.77653 14.78362 14.78887 14.79748 14.79664 14.79261 14.79494 14.80333 14.82193 14.84255 14.84747 14.88033 14.91553 14.93392 14.95371 14.96682 14.96622 14.95949 14.95604 14.97171 14.9754 14.96213 14.94549 14.93125 14.91695 14.92083 14.9411 14.94465 14.94986 14.95319 14.96269
0 0 0 0 0 0 0 0 0 0 0 0 0 0 0 0 0 0 0 0 0 0 0 0 0 0 0 0 0 17.9621 17.57076 17.36334 17.37354 17.166 16.88948 16.31519 14.92548 14.95212 14.97363 14.99404 15.00635 15.0106 15.02473 15.035 15.06159 15.08216 15.10115 15.11772 15.14738 15.15485 15.16838 15.15274 15.12624 15.08509 15.03151 15.01365 14.99439 14.98463 15.0006 14.98182 14.97844 14.97386 14.96537 14.96085 14.97358 14.98521 15.00335 15.00814 15.00297 15.00314 14.99142 14.97167 14.94684 14.93528 14.89393 14.88467 14.88235 14.8591 14.8538 14.86408 14.86613 14.87718 14.88222 14.87121 14.87304 14.86954 14.87006 14.8951 14.90103 14.93243 14.9636 14.9753 14.99422 15.01395 15.01198 15.00314 14.9845 14.98614 14.99574 14.97905 14.96591 14.95528 14.95184 14.96004 14.97514 14.98611 14.99018 14.99613 14.98721
0 0 0 0 0 0 0 0 0 0 0 0 0 0 0 0 0 0 0 0 0 0 0 0 0 17.74708 17.04352 17.06294 16.16639 15.55633 15.26 14.98227 14.9748 14.97625 14.96678 14.96047 14.96623 14.97838 14.99945 15.01809 15.03252 15.05551 15.08714 15.12731 15.15536 15.15262 15.17638 15.20803 15.23654 15.26051 15.2685 15.24559 15.21932 15.16967 15.10115 15.08559 15.06014 15.05354 15.03991 15.04352 15.03857 15.02596 15.01804 15.02179 15.02961 15.0434 15.0543 15.05902 15.05806 15.06279 15.0631 15.04141 15.01973 15.01043 14.98929 14.96102 14.95011 14.93841 14.93568 14.94323 14.94086 14.94872 14.95995 14.95678 14.95326 14.96002 14.95847 14.96026 14.9725 14.99139 15.01948 15.03154 15.04617 15.05542 15.06311 15.05439 15.02931 15.0008 14.99749 14.99998 14.99394 14.98982 14.99815 15.01526 15.03241 15.02707 15.01326 15.01578 14.99347
0 0 0 0 0 0 0 0 0 0 0 0 0 0 0 0 0 0 0 0 0 0 0 17.91658 17.08671 16.53472 16.23942 15.94184 15.04725 15.04201 15.02385 15.0065 14.99894 14.98829 14.98602 14.99131 15.00053 15.01386 15.02907 15.04152 15.04984 15.08306 15.11473 15.14363 15.16864 15.20099 15.22181 15.26872 15.28895 15.31657 15.34336 15.31422 15.27883 15.2472 15.18329 15.12625 15.10753 15.09699 15.0918 15.0968 15.10666 15.08717 15.07246 15.07959 15.08363 15.09968 15.10483 15.11105 15.10846 15.11731 15.1266 15.11242 15.10535 15.08861 15.06916 15.04963 15.04384 15.03416 15.03399 15.03841 15.03166 15.02739 15.03418 15.02726 15.02634 15.01992 15.01897 15.01451 15.01918 15.03816 15.06034 15.07207 15.09107 15.1043 15.09618 15.07764 15.06232 15.04297 15.03592 15.04738 15.04783 15.05695 15.05921 15.07416 15.06036 15.04955 15.03344 15.02116 14.99319
0 0 0 0 0 0 0 0 0 0 0 0 0 0 0 0 0 0 0 0 0 0 17.35663 16.53234 16.24942 16.26424 15.96036 15.63823 15.04402 15.03246 15.0198 15.01294 15.00532 15.00002 15.00706 15.01443 15.01856 15.01954 15.0317 15.05399 15.06122 15.08639 15.1217 15.15828 15.1831 15.23064 15.27268 15.31062 15.34325 15.36019 15.36918 15.33861 15.31352 15.28193 15.23794 15.19277 15.15417 15.13689 15.12942 15.13668 15.14275 15.13055 15.12623 15.12782 15.13065 15.14392 15.15966 15.16263 15.17286 15.17739 15.19023 15.17591 15.17128 15.1622 15.14614 15.13277 15.12662 15.11537 15.1204 15.10806 15.11141 15.11929 15.11831 15.10777 15.10302 15.08646 15.08574 15.08368 15.07844 15.08485 15.09382 15.11683 15.13421 15.13006 15.11344 15.08877 15.0806 15.07971 15.08601 15.09445 15.10696 15.10934 15.12287 15.1028 15.08749 15.08639 15.06488 15.03978 14.99744
0 0 0 0 0 0 0 0 0 0 0 0 0 0 0 0 0 0 0 0 0 18.55216 17.56036 16.52516 15.94006 15.95776 15.64572 15.64038 15.04263 15.03125 15.02733 15.02007 15.01415 15.01419 15.01812 15.02029 15.02648 15.0308 15.04791 15.06617 15.08206 15.10471 15.13204 15.15892 15.19085 15.24747 15.30455 15.34398 15.3546 15.35739 15.35163 15.32814 15.32188 15.30023 15.27448 15.24284 15.20751 15.18265 15.16911 15.17334 15.16483 15.16707 15.15742 15.16037 15.16731 15.19214 15.20309 15.21297 15.21997 15.22997 15.24027 15.2311 15.23217 15.23131 15.22811 15.2214 15.20969 15.19346 15.18887 15.18191 15.17553 15.17289 15.16322 15.15036 15.14511 15.14539 15.13118 15.13145 15.1385 15.14009 15.14535 15.16272 15.16149 15.1477 15.12524 15.11567 15.13062 15.13448 15.13756 15.13564 15.1357 15.14698 15.15124 15.14845 15.14377 15.11991 15.10605 15.06252 14.99052
0 0 0 0 0 0 0 0 0 0 0 0 0 0 0 0 0 0 0 0 0 0 0 17.09375 16.25079 15.95952 15.64716 15.33881 15.02707 15.02359 15.0262 15.02848 15.02768 15.03101 15.02854 15.03372 15.04594 15.05868 15.06392 15.08551 15.0998 15.11859 15.14094 15.17225 15.21186 15.26829 15.31 15.32919 15.34237 15.34534 15.34508 15.34494 15.34148 15.32448 15.2914 15.27374 15.26522 15.24466 15.22205 15.21791 15.2123 15.20902 15.19864 15.20177 15.20966 15.22902 15.24096 15.24773 15.25579 15.26844 15.2819 15.28173 15.2825 15.29204 15.29561 15.28975 15.27626 15.2676 15.26245 15.2566 15.24987 15.23545 15.22184 15.20749 15.212 15.20359 15.19235 15.19314 15.19219 15.18521 15.19212 15.19531 15.1779 15.1504 15.15992 15.17818 15.18744 15.18558 15.18978 15.17598 15.176 15.18662 15.20431 15.20671 15.18166 15.16356 15.12591 15.06491 14.98663
0 0 0 0 0 0 0 0 0 0 0 0 0 0 0 0 0 0 0 0 0 18.96203 18.6903 17.72662 16.29328 15.98586 15.66178 15.64783 15.32071 15.02514 15.02784 15.02744 15.04015 15.04306 15.03775 15.04373 15.07117 15.08446 15.09091 15.10199 15.11401 15.13069 15.13917 15.17645 15.1999 15.23903 15.2643 15.29895 15.31969 15.34032 15.35815 15.35603 15.34475 15.33792 15.31214 15.31094 15.30389 15.28658 15.26789 15.2577 15.24395 15.24676 15.2479 15.25429 15.26822 15.27592 15.28844 15.30111 15.30602 15.31379 15.32984 15.33886 15.34748 15.35059 15.35321 15.34986 15.34573 15.3293 15.31489 15.30698 15.30419 15.28654 15.28101 15.28524 15.27623 15.26765 15.26391 15.25474 15.24841 15.24455 15.23739 15.22337 15.21219 15.21019 15.2198 15.22743 15.22969 15.21955 15.22541 15.22122 15.21324 15.23323 15.24103 15.23658 15.22923 15.18926 15.14978 15.08095 14.98936
0 0 0 0 0 0 0 0 0 0 0 0 0 0 0 0 0 0 0 18.9396 18.88912 18.81395 18.02098 16.94941 16.33591 16.02144 15.68957 15.98258 15.04719 15.02695 15.02669 15.03064 15.04626 15.05312 15.04883 15.05676 15.06847 15.08831 15.10597 15.11571 15.12355 15.13121 15.14705 15.16376 15.18342 15.20387 15.22691 15.25425 15.29279 15.31691 15.34327 15.35269 15.35768 15.36504 15.35541 15.34945 15.34365 15.33203 15.31792 15.28652 15.27567 15.27185 15.28543 15.29187 15.29923 15.30813 15.31654 15.33147 15.34286 15.35915 15.37095 15.37421 15.39209 15.40579 15.40925 15.40899 15.40521 15.39727 15.38699 15.37444 15.36307 15.35544 15.35188 15.34573 15.33512 15.32227 15.31824 15.30942 15.29891 15.28903 15.27344 15.26866 15.26416 15.26954 15.28271 15.29168 15.29141 15.29148 15.27989 15.28481 15.27365 15.27899 15.27769 15.26806 15.25307 15.21397 15.16763 15.0892 14.99662
0 0 0 0 0 0 0 0 0 0 0 0 0 0 0 0 0 0 18.44646 18.32617 18.0152 17.57476 16.99451 16.36883 16.07149 16.05723 15.71531 15.37622 15.06161 15.03334 15.03473 15.03854 15.05274 15.05833 15.06066 15.0674 15.0749 15.09561 15.12158 15.13393 15.14768 15.1541 15.1708 15.19705 15.20323 15.21693 15.23607 15.26738 15.29996 15.32188 15.34889 15.36389 15.37462 15.38755 15.395 15.38794 15.38715 15.38056 15.36421 15.3484 15.33521 15.32684 15.32555 15.32878 15.33767 15.35206 15.36186 15.36373 15.36823 15.38138 15.4014 15.41189 15.42993 15.43739 15.44294 15.4514 15.44536 15.44302 15.4375 15.43404 15.43383 15.42153 15.41794 15.40664 15.39474 15.38317 15.37262 15.3631 15.35634 15.34306 15.32102 15.31066 15.30471 15.30912 15.31998 15.33168 15.3406 15.33992 15.34689 15.32424 15.30851 15.3089 15.31635 15.30536 15.28467 15.23527 15.18727 15.11553 15.02964
0 0 0 0 0 0 0 0 0 0 0 0 0 0 0 0 0 18.86896 18.33215 17.76544 17.29889 16.70402 16.40713 16.40902 16.41604 16.05963 15.71594 15.08781 15.05879 15.04118 15.04222 15.05554 15.06592 15.06333 15.06833 15.07901 15.08642 15.1059 15.12204 15.14235 15.16073 15.17751 15.19036 15.21569 15.22917 15.25216 15.27353 15.29917 15.32547 15.35926 15.39029 15.41683 15.42516 15.43637 15.43006 15.43145 15.42949 15.42449 15.41009 15.39122 15.38123 15.37321 15.37105 15.37001 15.37075 15.37899 15.38863 15.39295 15.39777 15.40956 15.42903 15.44235 15.46172 15.46853 15.47394 15.47654 15.48473 15.48719 15.48302 15.48664 15.48365 15.4734 15.46066 15.44791 15.44173 15.43319 15.42651 15.4196 15.41291 15.39645 15.37537 15.36699 15.35697 15.35938 15.37012 15.37932 15.38209 15.38694 15.3836 15.34859 15.3439 15.35708 15.3489 15.32843 15.30222 15.26399 15.22073 15.14831 15.07124
0 0 0 0 0 0 0 0 0 0 0 0 0 0 0 0 18.36524 18.34336 17.54209 17.00711 16.71878 16.41288 16.41282 16.41504 16.40308 16.06515 15.71288 15.09269 15.06102 15.05063 15.04923 15.06231 15.07261 15.08059 15.08975 15.10145 15.11872 15.13124 15.13749 15.14602 15.1663 15.18892 15.20947 15.23389 15.2644 15.28675 15.3069 15.33231 15.35881 15.39087 15.43055 15.45871 15.47358 15.47866 15.47925 15.4796 15.48112 15.4743 15.46339 15.45893 15.44668 15.43172 15.41626 15.4066 15.4059 15.40172 15.41316 15.42 15.42667 15.43667 15.44799 15.46016 15.48165 15.49892 15.50909 15.52156 15.52847 15.53292 15.54016 15.54946 15.54724 15.53756 15.52255 15.50696 15.49587 15.48744 15.47979 15.46744 15.45749 15.4401 15.41604 15.41755 15.39789 15.404 15.41169 15.40732 15.41102 15.42006 15.40371 15.38863 15.38722 15.38336 15.39965 15.38229 15.34335 15.31094 15.26592 15.19781 15.11178
0 0 0 0 0 0 0 0 0 0 0 0 0 0 0 18.9038 18.18199 17.5281 16.98233 16.7145 16.41188 16.42366 16.41384 16.084 16.07967 15.74673 15.11025 15.08277 15.06092 15.05591 15.05566 15.06447 15.07984 15.09141 15.10093 15.12233 15.13557 15.15206 15.16391 15.18114 15.20765 15.23541 15.25709 15.28504 15.31429 15.34013 15.3619 15.38827 15.41211 15.44076 15.46421 15.48584 15.49845 15.50873 15.51506 15.51836 15.51467 15.51853 15.5211 15.51929 15.51416 15.50604 15.48758 15.46806 15.45441 15.43967 15.44799 15.44911 15.45066 15.45637 15.47058 15.48349 15.49959 15.52258 15.54232 15.5592 15.5659 15.58065 15.58848 15.59425 15.59091 15.58363 15.57174 15.55966 15.55189 15.54461 15.53479 15.52391 15.50739 15.48744 15.47415 15.4551 15.44583 15.44468 15.4368 15.43092 15.43193 15.443 15.43682 15.42448 15.42716 15.4428 15.42854 15.4191 15.38992 15.35228 15.31763 15.25781 15.17253
0 0 0 0 0 0 0 0 0 0 0 0 0 0 18.21559 18.21331 17.52936 16.96216 16.67549 16.37841 16.39716 16.07124 16.07017 16.06187 15.73968 15.41207 15.10477 15.07988 15.06484 15.07125 15.07515 15.08633 15.1019 15.11187 15.13054 15.14167 15.15414 15.1707 15.19373 15.22335 15.2523 15.27595 15.30984 15.34588 15.37407 15.40326 15.43374 15.46703 15.48863 15.50832 15.52244 15.53343 15.54271 15.5522 15.55914 15.56428 15.56047 15.56342 15.57024 15.57091 15.57079 15.56448 15.54777 15.5303 15.50576 15.48601 15.47809 15.47035 15.47436 15.47693 15.48755 15.5055 15.52677 15.55133 15.58305 15.59988 15.61322 15.62688 15.63749 15.63758 15.63103 15.62106 15.61155 15.60329 15.5977 15.58991 15.58103 15.57085 15.55635 15.53334 15.5079 15.49358 15.48321 15.47334 15.46854 15.46451 15.46446 15.46671 15.47475 15.47042 15.47132 15.47949 15.47624 15.45425 15.43407 15.39082 15.35087 15.29259 15.20281
0 0 0 0 0 0 0 0 0 0 0 0 0 18.07992 18.24274 17.50252 16.91734 16.63193 16.34189 16.35958 16.04246 16.0412 16.04547 16.05733 15.73378 15.10875 15.09159 15.07754 15.07857 15.08867 15.10199 15.11842 15.13389 15.15052 15.16443 15.18017 15.19183 15.20989 15.24024 15.26484 15.29497 15.33069 15.37083 15.40427 15.4386 15.46754 15.49846 15.52456 15.54356 15.55753 15.56563 15.57754 15.58809 15.5945 15.60002 15.60173 15.59962 15.60627 0 0 0 15.56101 15.56035 15.59884 15.57536 15.54062 15.5197 15.5076 15.49833 15.49066 15.50106 15.51497 15.54068 15.56946 15.60226 15.62971 15.64488 15.66553 15.67999 15.68467 15.68412 15.67826 15.67101 15.66203 15.65524 15.64648 15.64322 15.62961 15.61378 15.58776 15.56072 15.53923 15.51884 15.51054 15.50302 15.49653 15.49062 15.48933 15.4941 15.50371 15.50432 15.50518 15.50207 15.49189 15.47424 15.44538 15.39211 15.32752 15.23809
0 0 0 0 0 0 0 0 0 0 0 0 0 18.45822 17.5388 16.91579 16.60353 16.28822 16.31287 16.00639 16.01565 16.02359 16.04592 15.11284 15.10757 15.10235 15.08978 15.0836 15.08843 15.10129 15.12765 15.13903 15.16312 15.17922 15.19474 15.21009 15.23726 15.25845 15.28688 15.31946 15.3643 15.40792 15.44898 15.48875 15.52412 15.55448 15.58118 15.59939 15.60801 15.61659 15.62478 16.38333 15.64084 15.62854 15.62425 15.98152 16.74357 17.51014 0 0 0 0 0 15.99653 15.61758 15.58483 15.55377 15.53767 15.52043 15.51388 15.51633 15.53267 15.55723 15.58919 15.62544 15.65725 15.67962 15.69898 15.71206 15.71735 15.72319 15.71236 15.7098 15.70262 15.69939 15.70016 15.69278 15.68217 15.66797 15.64715 15.62815 15.60775 15.59131 15.57415 15.56188 15.5446 15.54108 15.5266 15.52607 15.53797 15.54059 15.53501 15.53212 15.5245 15.50859 15.48259 15.42372 15.34956 15.26091
0 0 0 0 0 0 0 0 0 0 0 0 18.60668 17.8154 16.91178 16.58906 16.26174 15.9721 15.98743 16.00326 16.01589 16.03488 15.72242 15.10623 15.10583 15.09566 15.09208 15.09097 15.10496 15.1238 15.14528 15.16515 15.18577 15.20399 15.22076 15.24641 15.2621 15.29474 15.32952 15.37068 15.42401 15.4694 15.514 15.55196 15.58574 15.60925 15.61748 0 0 15.61646 0 17.26558 16.45287 16.03248 16.40633 16.3895 17.14916 17.56247 18.50765 16.34558 15.62414 0 0 0 17.19435 15.6007 15.56941 15.55067 15.53365 15.52569 15.53112 15.5473 15.5777 15.61158 15.64677 15.67765 15.70597 15.73069 15.74723 15.75822 15.76052 15.75261 15.745 15.74512 15.73831 15.73294 15.72648 15.71857 15.71442 15.70156 15.68707 15.66547 15.64911 15.63797 15.61949 15.60407 15.59326 15.58403 15.57366 15.58011 15.58579 15.5792 15.5792 15.55928 15.54604 15.51788 15.45855 15.3774 15.28185
0 0 0 0 0 0 0 0 0 0 0 17.8467 17.83265 16.92474 16.59845 15.95286 15.96913 15.98756 15.99747 16.01571 16.04418 15.41095 15.11154 15.10778 15.10025 15.09339 15.09984 15.10819 15.12787 15.1484 15.17329 15.19146 15.21228 15.23385 15.25482 15.28215 15.30794 15.35235 15.39648 15.44744 15.49934 15.54375 15.57341 15.59801 16.38277 0 0 0 0 0 18.03814 18.81069 18.56581 17.99223 17.61646 17.18752 17.16435 15.98807 15.62214 15.6268 15.62575 15.61986 15.6128 17.58225 17.93005 15.6076 15.58064 15.56274 15.54979 15.54128 15.54849 15.56349 15.59151 15.62449 15.66137 15.69405 15.72206 15.74842 15.7705 15.78858 15.79043 15.78348 15.78206 15.77406 15.76928 15.76494 15.76256 15.75374 15.75619 15.75728 15.74617 15.73287 15.71391 15.69455 15.68111 15.66751 15.64886 15.6348 15.62834 15.62124 15.62023 15.61428 15.61561 15.5967 15.58344 15.54824 15.49712 15.41549 15.31635
0 0 0 0 0 0 0 0 0 0 18.57713 17.86381 16.9298 16.25977 15.96918 15.67007 15.67691 15.69764 15.71525 15.72643 15.73744 15.12542 15.11944 15.11782 15.10773 15.10627 15.11198 15.1312 15.15338 15.17525 15.2001 15.21664 15.23728 15.26043 15.28056 15.31297 15.35387 15.40611 15.4578 15.51353 15.56533 15.60065 15.98688 0 0 0 0 0 0 0 0 0 0 0 17.99418 17.62104 16.80193 15.62943 15.63778 15.6436 15.6435 15.63818 15.63146 15.62919 15.621 15.61091 15.59141 15.57707 15.57352 15.56553 15.56713 15.58362 15.60909 15.6447 15.68341 15.71655 15.74532 15.7684 15.79144 15.80825 15.81347 15.81077 15.79884 15.79644 15.79341 15.78515 15.78508 15.78643 15.78853 15.79186 15.7883 15.77988 15.76678 15.75722 15.74719 15.73478 15.71572 15.70664 15.69466 15.67807 15.6694 15.66495 15.65679 15.6388 15.61308 15.5715 15.52238 15.44262 15.34694
0 0 0 0 0 0 0 0 0 0 18.13246 16.92417 16.25669 15.96244 15.37018 15.38308 15.10166 15.11076 15.11951 15.12717 15.13275 15.13075 15.13012 15.13258 15.13272 15.13123 15.14706 15.16673 15.18769 15.20813 15.22576 15.24594 15.2703 15.29321 15.31778 15.3528 15.39631 15.44287 15.49883 15.55446 16.75864 0 0 0 0 0 0 0 0 0 0 0 0 0 18.63256 17.25575 15.65618 15.65971 15.66627 15.67702 15.68331 15.67795 15.66863 15.65568 15.64292 15.62618 15.6127 15.59875 15.59543 15.58738 15.59136 15.60624 15.62846 15.66585 15.70182 15.73726 15.76962 15.79158 15.81876 15.82881 15.83368 15.82868 15.82851 15.82829 15.8293 15.82475 15.82563 15.82299 15.82427 15.82908 15.82208 15.81038 15.80521 15.80753 15.80549 15.79898 15.77414 15.7658 15.75451 15.744 15.7283 15.72138 15.71106 15.68108 15.64361 15.60467 15.55024 15.47186 15.38057
0 0 0 0 0 0 0 0 0 18.21352 17.59494 16.58671 15.94363 15.35144 15.08678 15.08888 15.08364 15.09212 15.10965 15.1266 15.13004 15.13397 15.14579 15.15036 15.14754 15.1561 15.17224 15.19285 15.21581 15.23437 15.25973 15.27777 15.2992 15.3253 15.35715 15.39664 15.43266 15.4831 15.53773 16.34193 16.56493 0 0 0 0 0 0 0 0 0 0 0 0 17.91057 17.68172 16.45154 15.67375 15.68521 15.6973 15.70943 15.72151 15.72202 15.71546 15.70086 15.67945 15.65905 15.64513 15.63276 15.62633 15.61874 15.62252 15.63327 15.65632 15.69098 15.72526 15.75482 15.78586 15.81335 15.83203 15.84139 15.84839 15.85004 15.8494 15.85136 15.85343 15.85966 15.86338 15.86313 15.86868 15.86719 15.86015 15.85064 15.84209 15.84494 15.84614 15.84088 15.83375 15.82286 15.80984 15.79377 15.77549 15.76758 15.74408 15.71278 15.67372 15.62917 15.57243 15.49586 15.40656
0 0 0 0 0 0 0 0 19.12284 17.94749 16.57076 15.91098 15.61254 15.05298 15.05702 15.06218 15.07195 15.08452 15.09844 15.11465 15.13358 15.15107 15.16246 15.16554 15.16598 15.18073 15.20209 15.21912 15.2422 15.26367 15.28008 15.29743 15.32249 15.35212 15.38404 15.42288 15.45646 15.50329 15.90509 16.34205 16.78489 17.60763 0 18.41951 18.99354 0 0 0 0 0 0 0 18.67799 17.68279 16.87776 15.67538 15.68796 15.70919 15.72887 15.74265 15.74586 15.74407 15.7358 15.71999 15.70379 15.68633 15.67121 15.66547 15.66123 15.65851 15.65943 15.67113 15.69257 15.72096 15.75414 15.7882 15.81387 15.84061 15.85797 15.869 15.8754 15.87929 15.88171 15.8797 15.87671 15.8871 15.88958 15.89332 15.89169 15.88711 15.88575 15.87991 15.8757 15.87491 15.87431 15.87341 15.87902 15.86492 15.84971 15.83423 15.82058 15.79991 15.77547 15.74567 15.6991 15.64312 15.57637 15.49804 15.41379
0 0 0 0 0 0 0 0 19.14183 17.97251 16.57611 15.90916 15.03429 15.04086 15.04474 15.05041 15.06507 15.08024 15.09705 15.12049 15.14153 15.15941 15.17174 15.18596 15.19267 15.21163 15.234 15.25287 15.28493 15.30969 15.33176 15.34959 15.37147 15.39068 15.41816 15.45142 15.48415 15.50782 15.54307 15.94678 16.35609 16.7759 17.2054 17.63789 18.39343 0 0 0 0 0 0 18.0752 17.26967 17.27055 15.66638 15.68885 15.71771 15.74291 15.76433 15.77329 15.77708 15.76702 15.75611 15.74398 15.72729 15.71001 15.6961 15.6915 15.69015 15.68689 15.68549 15.69987 15.72104 15.74762 15.78046 15.81677 15.84073 15.86655 15.8816 15.89572 15.90654 15.91351 15.91311 15.90807 15.91365 15.91655 15.9221 15.91539 15.91122 15.90604 15.90329 15.89956 15.8976 15.89893 15.89904 15.9014 15.90888 15.89515 15.8793 15.87175 15.85627 15.83051 15.80109 15.76016 15.70646 15.6486 15.58 15.50217 15.422
0 0 0 0 0 0 0 0 0 18.00459 16.58455 15.91352 15.0312 15.03253 15.03657 15.04813 15.05367 15.07252 15.10062 15.13103 15.15555 15.17116 15.1853 15.20765 15.22173 15.24698 15.27069 15.31279 15.34983 15.37687 15.39925 15.41234 15.42359 15.43683 15.46338 15.4898 15.50685 15.52259 15.54782 15.55755 15.57478 15.5892 15.60167 15.97723 16.7933 17.6136 18.39549 18.72487 0 0 18.37094 17.24711 16.42801 15.66055 15.68361 15.71407 15.75237 15.77653 15.79257 15.79734 15.79132 15.78568 15.77936 15.76945 15.75679 15.74053 15.73142 15.72643 15.72167 15.72134 15.7237 15.73616 15.75537 15.78157 15.81386 15.84255 15.86664 15.88626 15.90471 15.91863 15.92714 15.93417 15.93495 15.93828 15.94337 15.94338 15.94928 15.95047 15.94743 15.94032 15.93968 15.93837 15.93307 15.93577 15.93547 15.93086 15.92824 15.92511 15.91689 15.89907 15.88315 15.85363 15.81502 15.76876 15.71573 15.65989 15.58667 15.51112 15.43199
0 0 0 0 0 0 0 0 0 19.03842 17.32771 16.26581 15.31157 15.04395 15.04093 15.04726 15.04974 15.07021 15.10244 15.13349 15.1639 15.18772 15.20615 15.23445 15.26103 15.28926 15.33397 15.37871 15.41711 15.4464 15.46298 15.47007 15.47557 15.48994 15.50538 15.51749 15.53152 15.54011 15.5545 15.55354 15.56676 15.57243 15.5827 15.59503 15.9712 16.3821 16.79799 17.19748 18.36752 17.22307 15.98786 15.62889 15.65221 15.68369 15.71525 15.74647 15.77678 15.79531 15.80609 15.8072 15.80377 15.7969 15.7901 15.78162 15.77272 15.76737 15.76262 15.75515 15.74906 15.74887 15.76058 15.77124 15.79274 15.8191 15.84676 15.87574 15.89655 15.91515 15.93068 15.94329 15.95091 15.95512 15.95736 15.96202 15.96595 15.96948 15.97425 15.97843 15.9823 15.97672 15.97126 15.9717 15.96696 15.96518 15.95947 15.9565 15.95875 15.95349 15.94403 15.92831 15.90454 15.871 15.83041 15.78154 15.73541 15.67304 15.60182 15.5228 15.43712
0 0 0 0 0 0 0 0 0 19.17604 18.3342 16.64131 15.62711 15.05523 15.05803 15.06238 15.05291 15.07295 15.10636 15.14319 15.16509 15.20021 15.22747 15.24771 15.28886 15.34096 15.39356 15.4462 15.49488 15.51649 15.52498 15.53103 15.53278 15.54138 15.54787 15.55688 15.5589 15.56092 15.56276 15.5624 15.56691 15.56939 15.57628 15.59236 15.60499 15.61969 16.00264 0 17.23176 16.01035 15.65267 15.67625 15.70069 15.72279 15.75338 15.77386 15.7986 15.81275 15.8203 15.82352 15.8212 15.81387 15.81038 15.80326 15.79822 15.79606 15.78915 15.78321 15.77741 15.7809 15.7895 15.79854 15.82067 15.84464 15.86843 15.89149 15.91592 15.93072 15.94482 15.95897 15.96779 15.97626 15.98204 15.98478 15.99362 15.99874 16.0054 16.00824 16.01345 16.01047 16.00343 15.99931 15.99329 15.98754 15.98468 15.98617 15.98803 15.98223 15.95693 15.94279 15.91554 15.88005 15.8402 15.80124 15.74484 15.68028 15.60664 15.53028 15.43077
0 0 0 0 0 0 0 0 0 0 18.888 17.40841 15.96645 15.36584 15.0875 15.07708 15.07271 15.07805 15.10408 15.12905 15.16659 15.20322 15.23577 15.26723 15.31465 15.37564 15.44092 15.49152 0 0 0 15.76954 15.56678 15.5745 15.57586 15.5762 15.58083 15.58305 15.58016 15.57577 15.57047 15.57458 15.5817 15.59382 15.61104 15.62759 15.64545 16.03964 15.66381 15.67366 15.6961 15.72093 15.74452 15.76847 15.78935 15.80855 15.82185 15.83202 15.84095 15.84245 15.84266 15.84633 15.83966 15.84113 15.83191 15.8286 15.82842 15.82252 15.81734 15.81827 15.82118 15.82956 15.8476 15.87047 15.89107 15.91803 15.9397 15.95529 15.96722 15.97967 15.98636 15.99325 16.00057 16.00863 16.01367 16.01475 16.02074 16.0258 16.02693 16.02805 16.02528 16.02467 16.02248 16.01639 16.01086 16.01269 16.01105 16.00429 15.98755 15.95875 15.9299 15.88625 15.8549 15.81527 15.75805 15.69153 15.61605 15.52924 15.43018
0 0 0 0 0 0 0 0 0 0 0 18.82477 17.47282 16.01965 15.37804 15.08392 15.08473 15.08657 15.09875 15.12616 15.16164 15.20047 15.24641 15.28261 15.33245 15.39997 15.81192 16.21664 0 0 0 16.40255 16.69212 15.57985 15.58406 15.58025 15.58494 15.59045 15.59172 15.58891 15.58038 15.57883 15.58786 15.60444 15.62472 15.6441 15.66056 15.68102 15.6952 15.7093 15.73384 15.76405 15.78897 15.81041 15.82412 15.83896 15.84653 15.85103 15.85811 15.8619 15.86476 15.86359 15.86325 15.85708 15.85756 15.85984 15.85907 15.8556 15.85284 15.85207 15.85857 15.86842 15.88648 15.90497 15.92569 15.94508 15.96423 15.98173 15.99826 16.00737 16.01548 16.01672 16.01996 16.02714 16.03103 16.03471 16.03546 16.04679 16.05805 16.05819 16.0532 16.04973 16.04457 16.03414 16.028 16.02287 16.01669 16.00684 15.99417 15.96746 15.94426 15.90395 15.86727 15.82455 15.76569 15.70336 15.62275 15.54001 15.44014
0 0 0 0 0 0 0 0 0 0 0 0 19.08236 17.86244 16.01609 15.37549 15.08426 15.08292 15.0992 15.12555 15.15888 15.2 15.24705 15.28793 15.33741 15.40413 16.17217 0 0 17.7639 17.87465 16.30982 15.56937 15.57209 15.56993 15.58293 15.58778 15.59768 15.59934 15.59614 15.58852 15.58936 15.59782 15.61258 15.63468 15.65814 15.67654 15.69341 15.71084 15.73237 15.76052 15.79046 15.81848 15.83717 15.85373 15.86835 15.87603 15.87945 15.88395 15.88674 15.88651 15.88868 15.89146 15.88684 15.88869 15.88756 15.88336 15.88333 15.88206 15.88737 15.89189 15.90258 15.91843 15.93807 15.9581 15.97759 15.99432 16.00994 16.0195 16.03523 16.03901 16.04361 16.04882 16.05628 16.05518 16.0626 16.07433 16.07022 16.08166 16.08498 16.08182 16.07389 16.06006 16.05428 16.04433 16.03363 16.02193 16.00598 15.99285 15.97535 15.9517 15.91426 15.87853 15.83248 15.7733 15.71903 15.64575 15.57073 15.47964
0 0 0 0 0 0 0 0 0 0 0 0 0 0 0 16.00875 15.36257 15.07852 15.09384 15.12367 15.1618 15.20036 15.24339 15.287 15.32674 15.72902 15.80007 16.20436 16.60577 18.70112 17.87404 16.28528 15.55841 15.56007 15.5625 15.57807 15.5889 15.60238 15.60657 15.60597 15.60182 15.60609 15.6134 15.62646 15.64274 15.66453 15.68185 15.69985 15.71919 15.74758 15.77597 15.81091 15.83973 15.86124 15.88405 15.89463 15.89469 15.90148 15.9113 15.9104 15.91035 15.90831 15.90589 15.905 15.90567 15.90358 15.90599 15.91147 15.91982 15.92851 15.92826 15.93587 15.95162 15.97246 15.99243 16.01008 16.02701 16.03872 16.04798 16.06093 16.06888 16.07303 16.07645 16.07965 16.08166 16.09061 16.09712 16.10237 16.09747 16.09819 16.09504 16.08926 16.07955 16.06851 16.0613 16.0507 16.03239 16.0153 15.99749 15.98477 15.96432 15.9332 15.89232 15.84515 15.80108 15.744 15.67771 15.60394 15.52327
0 0 0 0 0 0 0 0 0 0 0 0 0 0 0 16.70897 16.00757 15.07961 15.10596 15.13471 15.17367 15.20756 15.25383 15.29631 15.32829 15.38411 16.1462 16.20612 16.61804 0 17.91449 15.54616 15.54866 15.54756 15.56832 15.57238 15.58844 15.60691 15.61281 15.6173 15.62188 15.62011 15.6297 15.63911 15.65183 15.6737 15.69165 15.70637 15.73633 15.76643 15.80051 15.82779 15.85395 15.88276 15.9036 15.90774 15.91367 15.91828 15.92573 15.92982 15.93162 15.92571 15.91863 15.91641 15.9188 15.92398 15.93037 15.93717 15.94413 15.95206 15.96106 15.96773 15.98534 16.00831 16.02779 16.04544 16.05924 16.07457 16.09118 16.10737 16.10551 16.10075 16.10364 16.10724 16.1101 16.1085 16.10609 16.10634 16.10789 16.10733 16.10148 16.09179 16.08372 16.07224 16.06383 16.05469 16.03784 16.02192 16.00525 15.99564 15.97785 15.95716 15.91724 15.87553 15.8398 15.78207 15.72527 15.66339 15.595
0 0 0 0 0 0 0 0 0 0 0 0 0 17.86372 17.51792 16.73743 16.04783 15.10424 15.13153 15.16233 15.19766 15.23026 15.27533 15.31337 15.34731 15.38414 16.50719 16.94478 17.39987 17.32853 18.29629 15.88591 15.53702 15.5436 15.56197 15.57826 15.59746 15.6116 15.61909 15.62298 15.62754 15.63158 15.63971 15.65241 15.66459 15.67664 15.6966 15.72323 15.75477 15.78294 15.81389 15.83829 15.86434 15.88742 15.89965 15.91747 15.92842 15.93787 15.93962 15.94686 15.94288 15.94477 15.93844 15.93859 15.93936 15.94726 15.9517 15.95787 15.96706 15.97561 15.98742 15.99788 16.01509 16.03857 16.06259 16.0789 16.09372 16.10999 16.12714 16.13668 16.13339 16.13055 16.13072 16.13249 16.12939 16.12212 16.11861 16.11826 16.11468 16.10977 16.09941 16.09336 16.08623 16.08042 16.06932 16.06122 16.04702 16.04211 16.0273 16.01239 15.99486 15.97601 15.94211 15.89586 15.85624 15.80515 15.76406 15.71598 15.66219
0 0 0 0 0 0 0 0 0 0 0 0 17.09051 16.72309 16.75236 16.41271 15.74779 15.13928 15.16415 15.19379 15.2265 15.26293 15.30411 15.33744 15.3656 15.40311 16.15814 16.20207 17.00258 17.81913 16.24931 15.51315 15.533 15.55931 15.58329 15.60077 15.61448 15.62087 15.62566 15.63084 15.63716 15.64973 15.65317 15.65994 15.67242 15.68948 15.71588 15.73947 15.76497 15.7923 15.81413 15.83958 15.8653 15.88567 15.90649 15.92315 15.9399 15.94765 15.95323 15.95479 15.95696 15.95668 15.95587 15.9554 15.95698 15.9658 15.97358 15.98111 15.98736 15.99876 16.01721 16.02945 16.05189 16.07608 16.09887 16.11564 16.13258 16.14164 16.1493 16.15904 16.15185 16.15315 16.14825 16.14328 16.14013 16.13527 16.12823 16.12355 16.11699 16.10663 16.09903 16.09375 16.08923 16.08376 16.07371 16.06968 16.06156 16.04946 16.03853 16.02729 16.00697 15.98742 15.95967 15.9205 15.87819 15.84157 15.80627 15.76426 15.71126
0 0 0 0 0 0 0 0 18.81058 18.20291 17.07338 16.31819 16.32661 16.33907 16.03939 16.10021 15.80943 15.19193 15.21852 15.24985 15.2766 15.31378 15.34298 15.37181 15.40047 15.43356 15.4668 15.48674 15.50209 15.51152 15.51775 15.53387 15.55646 15.58422 15.59954 15.61424 15.62362 15.63042 15.63501 15.64016 15.64862 15.65982 15.66734 15.67265 15.6885 15.70807 15.72722 15.74577 15.76986 15.80265 15.82486 15.84724 15.86739 15.8882 15.90613 15.92079 15.93707 15.94991 15.95723 15.96311 15.96568 15.96299 15.9642 15.96974 15.97266 15.9851 15.99033 16.00131 16.01452 16.03377 16.04455 16.06491 16.08923 16.11557 16.13263 16.13942 16.15225 16.16777 16.17245 16.17657 16.1722 16.17141 16.17055 16.164 16.15414 16.14546 16.13822 16.12619 16.10942 16.09944 16.09478 16.09582 16.0946 16.09014 16.08511 16.07629 16.06478 16.05691 16.04293 16.03163 16.01674 15.99624 15.97547 15.94214 15.90881 15.87946 15.84162 15.80914 15.76115
0 0 0 0 0 0 0 17.83578 17.89558 16.32882 15.97262 15.97401 15.98875 16.01832 16.07707 15.81387 15.22213 15.24357 15.27299 15.30057 15.33225 15.35451 15.38607 15.41965 15.44998 15.47519 15.50512 15.52573 15.54055 15.55223 15.56336 15.57953 15.59952 15.61323 15.62527 15.62752 15.63522 15.64162 15.64823 15.65242 15.65558 15.66584 15.67775 15.67693 15.69676 15.71959 15.73654 15.7531 15.7701 15.78559 15.80302 15.82444 15.84392 15.86725 15.89161 15.91148 15.92715 15.94288 15.956 15.96199 15.96597 15.96764 15.97202 15.97603 15.98374 15.99688 16.00999 16.02866 16.04471 16.06327 16.07675 16.09806 16.12168 16.14125 16.15777 16.16864 16.17601 16.18666 16.18674 16.19209 16.19083 16.18472 16.17729 16.17325 16.1686 16.15442 16.13482 16.12361 16.10486 16.09857 16.09409 16.09545 16.09913 16.09736 16.089 16.08222 16.07759 16.07363 16.06628 16.04736 16.03276 16.01212 15.99359 15.9653 15.93931 15.89785 15.86313 15.82486 15.7821
0 0 0 0 0 0 18.32789 18.29102 16.34595 15.96335 15.96272 15.98412 16.02873 15.75395 15.4969 15.23778 15.26503 15.29248 15.31835 15.34592 15.37496 15.3947 15.42545 15.45318 15.48702 15.51319 15.53802 15.56309 15.582 15.59213 15.60067 15.61694 15.62965 15.63946 15.64025 15.6402 15.64662 15.65228 15.66008 15.6638 15.66337 15.66977 15.67534 15.68455 15.7004 15.71207 15.72655 15.74062 15.75163 15.76506 15.78104 15.79856 15.82026 15.84455 15.86654 15.889 15.91236 15.92765 15.94235 15.95518 15.9699 15.97803 15.9829 15.99072 15.99788 16.01562 16.03451 16.0527 16.06618 16.09229 16.11619 16.13685 16.15652 16.17753 16.19013 16.19324 16.2014 16.20249 16.20164 16.2045 16.19837 16.18915 16.1793 16.17017 16.16584 16.15674 16.13117 16.11515 16.11082 16.10157 16.09166 16.09968 16.09397 16.09525 16.09559 16.09301 16.09046 16.09325 16.09021 16.07026 16.05119 16.03718 16.02335 16.0015 15.97529 15.93744 15.90105 15.86162 15.81797
0 0 0 0 0 0 19.18931 17.50335 16.318 15.95859 15.6565 15.70732 15.46169 15.21347 15.25364 15.29773 15.32815 15.3454 15.37069 15.3984 15.42222 15.44569 15.46589 15.49126 15.51794 15.5403 15.56219 15.58763 15.6066 15.61683 15.6236 15.63335 15.64086 15.6443 15.64248 15.64253 15.64297 15.6465 15.65197 15.65122 15.65796 15.66157 15.67571 15.69034 15.69981 15.70772 15.71551 15.72365 15.73634 15.75093 15.76712 15.78001 15.79767 15.81493 15.8552 15.87963 15.8929 15.91097 15.93035 15.94691 15.95732 15.96987 15.97694 15.99092 16.00911 16.02772 16.04568 16.06378 16.08427 16.11233 16.13209 16.15607 16.17631 16.19766 16.20984 16.21527 16.21634 16.21723 16.21423 16.21262 16.20248 16.19006 16.18067 16.1716 16.15636 16.14426 16.13052 16.11386 16.10699 16.09287 16.08908 16.08892 16.09057 16.09947 16.10224 16.10538 16.10368 16.10388 16.09967 16.07976 16.06613 16.06165 16.05991 16.0456 16.016 15.98743 15.95887 15.91393 15.87608
0 0 0 0 0 19.2215 18.77716 17.47203 16.31555 15.99194 15.39706 15.1629 15.22062 15.27295 15.31216 15.34185 15.36838 15.39321 15.41867 15.44572 15.4672 15.48395 15.50525 15.52749 15.55131 15.56974 15.58666 15.61613 15.62525 15.63488 15.63974 15.64353 15.64607 15.64393 15.64339 15.64485 15.64632 15.64367 15.64341 15.64541 15.64464 15.65156 15.65844 15.66504 15.67543 15.68437 15.68727 15.70035 15.71705 15.73278 15.74825 15.76514 15.77744 15.79496 15.81697 15.84009 15.86979 15.89696 15.91881 15.93596 15.94596 15.96012 15.97397 16.00052 16.02206 16.04319 16.058 16.07316 16.09819 16.12405 16.14088 16.15784 16.18448 16.19786 16.20562 16.21382 16.2203 16.21905 16.22092 16.21293 16.20092 16.18561 16.17239 16.16179 16.14982 16.1338 16.11947 16.10705 16.08631 16.08191 16.08006 16.07806 16.08203 16.09661 16.10482 16.10953 16.1113 16.11595 16.10792 16.09827 16.09178 16.07982 16.07307 16.05964 16.04015 16.01807 15.98355 15.95569 15.92132
0 0 0 0 18.24959 17.82101 16.2606 15.91575 15.63074 15.09651 15.14948 15.20781 15.26577 15.30577 15.34124 15.37136 15.40257 15.42756 15.45279 15.47317 15.48705 15.5071 15.53572 15.55771 15.5786 15.59934 15.61885 15.63789 15.64589 15.65134 15.65117 15.65283 15.6482 15.64317 15.64014 15.63696 15.63443 15.63975 15.63486 15.63083 15.63642 15.64571 15.64713 15.63973 15.64514 15.65636 15.66318 15.67269 15.68942 15.71017 15.72185 15.74098 15.75184 15.77217 15.79508 15.81601 15.82788 15.84167 15.87634 15.90254 15.92017 15.93689 15.95659 15.99453 16.02336 16.04305 16.05948 16.08579 16.1163 16.13882 16.15118 16.16367 16.18069 16.19618 16.20663 16.2159 16.22071 16.21607 16.20663 16.20161 16.18743 16.17283 16.16377 16.15245 16.12791 16.10869 16.0976 16.09273 16.07993 16.08048 16.07629 16.07968 16.08822 16.09436 16.10168 16.10777 16.11964 16.12342 16.11617 16.10799 16.11174 16.10716 16.09824 16.08634 16.07102 16.04781 16.02011 15.99756 15.97697
0 0 0 0 19.34534 16.61052 15.00843 15.02487 15.06933 15.12969 15.20029 15.26131 15.30812 15.34493 15.37672 15.40748 15.43681 15.46223 15.48887 15.50976 15.52397 15.53913 15.55981 15.57869 15.59893 15.61797 15.63634 15.65157 15.65392 15.65424 15.65407 15.6534 15.65099 15.64107 15.63514 15.63279 15.63787 15.63964 15.62691 15.62743 15.62807 15.62282 15.61434 15.61318 15.61997 15.63617 15.64784 15.65886 15.66443 15.6668 15.67492 15.68905 15.71426 15.74387 15.76533 15.78819 15.80646 15.82192 15.84342 15.86976 15.89215 15.91533 15.9515 15.98778 16.01894 16.04111 16.07103 16.09846 16.12229 16.13896 16.15253 16.16826 16.18509 16.19377 16.19929 16.20393 16.2102 16.21111 16.19609 16.17851 16.1731 16.16409 16.1386 16.12019 16.10188 16.08593 16.08206 16.08298 16.08538 16.09313 16.09113 16.09128 16.09646 16.10319 16.10825 16.11192 16.12017 16.12588 16.12155 16.11784 16.12006 16.12901 16.13111 16.12537 16.11656 16.10518 16.07431 16.05969 16.03715
0 0 0 18.3263 17.85025 16.22821 14.99521 15.03194 15.09408 15.16467 15.24359 15.29486 15.33822 15.37079 15.41097 15.44266 15.46961 15.49365 15.5156 15.53116 15.54171 15.56183 15.57784 15.59809 15.61407 15.62899 15.6451 15.65423 15.65569 15.65507 15.6581 15.65759 15.65784 15.64808 15.63908 15.63836 15.63445 15.63105 15.62105 15.6196 15.60957 15.60082 15.60148 15.6075 15.6171 15.62925 15.64174 15.64613 15.64646 15.64581 15.65051 15.66464 15.68948 15.70826 15.73238 15.75631 15.78267 15.80574 15.82913 15.85286 15.8747 15.90517 15.94454 15.97369 16.00654 16.03904 16.06906 16.08956 16.11555 16.1387 16.15536 16.16586 16.1836 16.18963 16.20379 16.20613 16.19587 16.19409 16.18561 16.16954 16.15026 16.1317 16.11396 16.10233 16.09097 16.09024 16.09367 16.09286 16.09012 16.09823 16.10997 16.1225 16.12397 16.12213 16.12286 16.12459 16.12708 16.1335 16.13664 16.13763 16.14008 16.15149 16.14816 16.14515 16.14798 16.14642 16.1165 16.10077 16.08533
0 0 0 18.25953 17.85007 16.22636 15.55744 15.05107 15.1269 15.20251 15.26981 15.31515 15.35456 15.39305 15.42962 15.46248 15.4863 15.50925 15.52531 15.54207 15.55417 15.57047 15.58573 15.59947 15.61518 15.63373 15.64364 15.6498 15.65067 15.65005 15.65422 15.65401 15.65517 15.65194 15.63818 15.62732 15.62036 15.61657 15.61138 15.60071 15.59778 15.59562 15.59516 15.59971 15.61217 15.62323 15.63142 15.63562 15.63822 15.63426 15.63529 15.6535 15.68115 15.69608 15.70847 15.73079 15.76179 15.78681 15.80727 15.83476 15.86622 15.89955 15.92888 15.98116 16.01345 16.03493 16.0459 16.08732 16.1207 16.14021 16.16709 16.18278 16.18877 16.19279 16.20794 16.20739 16.18409 16.17639 16.16736 16.15346 16.14167 16.12422 16.11098 16.09871 16.09292 16.09628 16.09861 16.09913 16.11255 16.12288 16.13318 16.14154 16.1489 16.15081 16.15203 16.15601 16.15974 16.16667 16.17175 16.17285 16.18127 16.18568 16.18073 16.17916 16.17687 16.17648 16.17081 16.14752 16.13795
0 0 0 19.22972 18.10933 16.21383 15.28644 15.08644 15.16517 15.23487 15.29004 15.32963 15.36983 15.40731 15.44087 15.46994 15.49169 15.51598 15.53346 15.54972 15.56522 15.57039 15.57832 15.58792 15.60147 15.61447 15.62846 15.63923 15.64146 15.64295 15.64053 15.6439 15.65204 15.64665 15.63201 15.6173 15.61252 15.60318 15.59506 15.59509 15.58968 15.58542 15.58956 15.59412 15.60319 15.61522 15.6198 15.62815 15.63016 15.62325 15.62326 15.6419 15.66677 15.69127 15.70859 15.7314 15.75561 15.77456 15.79404 15.82589 15.86517 15.8964 15.9428 15.98429 16.00849 16.02432 16.06112 16.08963 16.10964 16.14287 16.1623 16.18082 16.18931 16.19444 16.19363 16.19142 16.16439 16.14862 16.14664 16.1465 16.14232 16.13548 16.1208 16.10723 16.10818 16.11072 16.12351 16.13043 16.14235 16.15574 16.16011 16.17178 16.17565 16.18111 16.18216 16.18608 16.19137 16.19993 16.20195 16.21166 16.2172 16.22276 16.22122 16.22048 16.21806 16.21246 16.20883 16.19952 16.19039
0 0 0 19.21813 16.86586 15.52476 15.03997 15.12423 15.20255 15.26795 15.30722 15.34532 15.38321 15.42135 15.45194 15.46936 15.49204 15.50991 15.52411 15.53454 15.5485 15.55702 15.56263 15.57214 15.58223 15.59547 15.60588 15.6232 15.63278 15.63557 15.63913 15.64046 15.65005 15.65133 15.63703 15.61808 15.60319 15.59433 15.59214 15.59154 15.58826 15.58385 15.58739 15.59042 15.58851 15.59391 15.60533 15.62043 15.62493 15.61912 15.63775 15.65889 15.67568 15.69635 15.7122 15.72971 15.75081 15.77587 15.7997 15.82877 15.86342 15.90051 15.93902 15.97245 16.00765 16.02628 16.05144 16.07931 16.09624 16.11682 16.14421 16.15802 16.17763 16.18262 16.17372 16.16536 16.15152 16.13939 16.14021 16.13467 16.13147 16.13695 16.12529 16.11747 16.12743 16.13463 16.15192 16.16969 16.18334 16.19409 16.20402 16.21839 16.22205 16.22424 16.22772 16.23236 16.24212 16.24372 16.24647 16.25815 16.27209 16.27502 16.27419 16.27217 16.27041 16.26882 16.26269 16.25125 16.23405
14.99113 14.99434 16.20964 16.82253 15.19902 14.99544 15.08005 15.16927 15.24138 15.29108 15.3322 15.36443 15.39628 15.42518 15.45068 15.46848 15.48571 15.5018 15.51286 15.51557 15.5235 15.53591 15.54383 15.55381 15.56487 15.57415 15.59096 15.60904 15.62317 15.63486 15.64584 15.64896 15.64886 15.64471 15.63627 15.62315 15.6079 15.59945 15.59823 15.59449 15.59346 15.59259 15.59133 15.59123 15.59128 15.59682 15.60212 15.6112 15.61828 15.6341 15.65473 15.67399 15.68952 15.71095 15.73126 15.74931 15.75954 15.78594 15.81195 15.83653 15.86582 15.89633 15.94844 15.97573 16.00125 16.02114 16.04117 16.06657 16.09331 16.10838 16.12921 16.14397 16.16042 16.16706 16.16758 16.14803 16.14269 16.13521 16.1281 16.12221 16.12007 16.12783 16.13438 16.14017 16.15202 16.15119 16.17425 16.19912 16.21086 16.22372 16.2414 16.25541 16.26469 16.26913 16.27558 16.27679 16.28305 16.29237 16.30225 16.31735 16.33095 16.33793 16.3384 16.33532 16.33002 16.33257 16.32139 16.30614 16.2904
14.99502 14.98724 15.00078 15.01955 15.05225 15.10807 15.17695 15.24092 15.29256 15.33519 15.36458 15.38908 15.41378 15.42776 15.4445 15.4599 15.47201 15.47887 15.49002 15.49147 15.4937 15.50615 15.51762 15.52363 15.53673 15.55229 15.57007 15.59459 15.60883 15.62108 15.63314 15.64305 15.6459 15.64984 15.64763 15.63738 15.62404 15.6148 15.60552 15.60363 15.6017 15.60323 15.60441 15.60306 15.60146 15.60653 15.61095 15.61419 15.62343 15.64409 15.6677 15.68667 15.71206 15.73321 15.75569 15.77371 15.79027 15.81931 15.83943 15.85714 15.8741 15.91585 15.95459 15.98042 15.99988 16.01598 16.03935 16.06305 16.07757 16.10296 16.12294 16.13435 16.14778 16.15766 16.157 16.15164 16.14019 16.13756 16.12531 16.11796 16.11797 16.12926 16.14968 16.16907 16.17166 16.18161 16.20901 16.23714 16.25751 16.27408 16.28017 16.29579 16.30368 16.307 16.30819 16.32316 16.32968 16.33836 16.3476 16.36589 16.37994 16.38975 16.39268 16.38991 16.3814 16.36976 16.36383 16.3525 16.34653
15.10027 15.11332 15.13083 15.1541 15.19236 15.23664 15.27827 15.31451 15.34727 15.37422 15.38924 15.40565 15.41509 15.42584 15.43665 15.44837 15.4612 15.4626 15.46067 15.46101 15.46338 15.47105 15.48304 15.49921 15.50859 15.52835 15.55195 15.57627 15.59136 15.60325 15.62051 15.63459 15.64777 15.65897 15.65491 15.64472 15.63576 15.62905 15.61946 15.62296 15.62625 15.62232 15.621 15.62161 15.61809 15.62278 15.62447 15.62805 15.64212 15.65765 15.68807 15.72371 15.75024 15.77484 15.78574 15.80397 15.82837 15.85738 15.87618 15.88082 15.898 15.92395 15.954 15.97935 15.99875 16.01725 16.04291 16.06276 16.08188 16.09896 16.11 16.12238 16.13483 16.15054 16.15514 16.14091 16.1401 16.14145 16.12989 16.12226 16.13347 16.14816 16.166 16.18437 16.20658 16.22631 16.24747 16.27826 16.31009 16.32074 16.33942 16.35192 16.35475 16.36428 16.36992 16.38069 16.39336 16.40791 16.41236 16.42193 16.43142 16.43769 16.43571 16.43605 16.42646 16.42232 16.41318 16.40461 16.3998
15.18791 15.20529 15.22629 15.25431 15.28418 15.30885 15.33331 15.34849 15.36891 15.38068 15.38447 15.39704 15.40894 15.41565 15.42289 15.43399 15.44209 15.44392 15.43924 15.43819 15.43908 15.44459 15.45902 15.47351 15.48896 15.51365 15.53194 15.55937 15.57887 15.59833 15.61995 15.64543 15.66066 15.67261 15.67356 15.67089 15.66412 15.65707 15.65391 15.64901 15.64507 15.65544 15.65236 15.6432 15.64274 15.65186 15.65354 15.66026 15.67617 15.70027 15.73402 15.76419 15.79362 15.82271 15.8269 15.83819 15.86389 15.883 15.89349 15.92274 15.92923 15.95179 15.97075 15.98495 16.00763 16.02679 16.04823 16.07131 16.0873 16.10303 16.11346 16.12731 16.13691 16.15166 16.15558 16.15046 16.1493 16.1445 16.14058 16.14338 16.14713 16.15943 16.18084 16.19624 16.21451 16.2486 16.27989 16.30954 16.34577 16.37052 16.39174 16.40682 16.42058 16.43459 16.43799 16.45465 16.46964 16.48115 16.49384 16.50994 16.53195 16.54186 16.52774 16.5116 16.51044 16.50294 16.49639 16.48868 16.48227
15.26787 15.28437 15.2998 15.31422 15.32769 15.33911 15.34927 15.35734 15.36717 15.36638 15.36933 15.38054 15.39244 15.40051 15.40699 15.41551 15.42294 15.42755 15.42576 15.42646 15.42696 15.43716 15.45195 15.46713 15.4865 15.51819 15.53546 15.55741 15.57981 15.60326 15.63323 15.65816 15.67512 15.69009 15.69287 15.69328 15.69211 15.69074 15.69218 15.69203 15.68619 15.68353 15.68391 15.68827 15.6927 15.69907 15.70802 15.71798 15.7318 15.75266 15.78165 15.8136 15.84769 15.866 15.87188 15.88487 15.90546 15.92274 15.94575 15.96168 15.97952 15.99727 16.01459 16.03764 16.06081 16.0772 16.09027 16.09864 16.12311 16.1421 16.14557 16.1577 16.16901 16.1744 16.1784 16.18744 16.18239 16.17525 16.17064 16.17186 16.17915 16.1941 16.21497 16.24172 16.27032 16.29895 16.33192 16.36181 16.40684 16.44168 16.46365 16.4782 16.48479 16.48627 16.50526 16.51937 16.52784 16.5385 16.55962 16.58886 16.61176 16.62156 16.61911 16.60787 16.60087 16.58868 16.57986 16.57459 16.56847
15.30301 15.31131 15.31387 15.31793 15.32751 15.32936 15.33542 15.34024 15.3428 15.34608 15.35072 15.35785 15.36843 15.37734 15.38634 15.39599 15.40734 15.41624 15.42038 15.4231 15.43231 15.44013 15.45258 15.47876 15.49773 15.52729 15.55257 15.57522 15.60174 15.6279 15.65817 15.68603 15.69846 15.711 15.72147 15.72504 15.7236 15.72021 15.72085 15.72823 15.72331 15.72121 15.72028 15.72383 15.7535 15.76463 15.77827 15.79976 15.81401 15.83634 15.85306 15.87936 15.89892 15.91809 15.93487 15.94995 15.97097 15.99904 16.01529 16.02786 16.05597 16.06646 16.08181 16.09103 16.10727 16.1211 16.1299 16.14726 16.1595 16.17421 16.18661 16.19128 16.1975 16.20436 16.19658 16.20189 16.20089 16.20095 16.20449 16.2163 16.23674 16.25539 16.27104 16.30068 16.33314 16.36127 16.39205 16.43271 16.4784 16.5057 16.53637 16.56338 16.575 16.57957 16.59197 16.60237 16.60791 16.61202 16.62306 16.63872 16.66114 16.67203 16.67971 16.68131 16.67504 16.66844 16.66177 16.65068 16.64392
15.29668 15.30049 15.30056 15.299 15.29756 15.30026 15.30451 15.3089 15.31573 15.32426 15.33302 15.34069 15.34878 15.36001 15.37137 15.37998 15.3912 15.40692 15.4167 15.42595 15.44095 15.45386 15.47592 15.50193 15.5305 15.55803 15.58391 15.61648 15.645 15.67679 15.69731 15.71575 15.73186 15.75049 15.75579 15.76357 15.76526 15.76604 15.77021 15.77053 15.77531 15.77775 15.78404 15.80956 15.82966 15.84164 15.85935 15.87578 15.8969 15.90276 15.92718 15.94104 15.9689 15.99978 16.0163 16.03417 16.05174 16.07577 16.09344 16.11114 16.12666 16.14079 16.15833 16.1743 16.18777 16.19167 16.20158 16.20654 16.21123 16.21444 16.22383 16.23925 16.24509 16.24651 16.24069 16.23928 16.24467 16.25096 16.26663 16.28692 16.29885 16.30864 16.33222 16.35463 16.38455 16.41287 16.44643 16.47822 0 0 16.55915 16.5961 16.61148 16.62461 16.63225 16.63241 16.63751 16.64405 16.64476 0 0 16.68402 16.7232 16.72388 16.71848 16.71523 16.7145 16.7114 16.70181
