ncols        109
nrows        82
xllcorner    -1.041666666667
yllcorner    37.041665395101
cellsize     0.083333333333
NODATA_value -9999
0.0 0 0 0 0 0 0 0 0 0 0 0 0 0 0 0 0 0 0 0 0 0 0 0 0 0 0 0 0 0 0 0 0 0 0 0 0 0 0 0 0 0 0 0 0 0 0 0 0 0 0 0 0 0 0 0 0 0 0 0 0 0 0 0 0 0 0 0 0 0 0 0 0 0 0 0 0 0 0 0 0 0 0 0 0 0 0 0 0 0 0 0 0 0 0 0 0 0 0 0 0 0 0 0 0 17.99505 16.69362 15.40037 15.39275
0 0 0 0 0 0 0 0 0 0 0 0 0 0 0 0 0 0 0 0 0 0 0 0 0 0 0 0 0 0 0 0 0 0 0 0 0 0 0 0 0 0 0 0 0 0 0 0 0 0 0 0 0 0 0 0 0 0 0 0 0 0 0 0 0 0 0 0 0 0 0 0 0 0 0 0 0 0 0 0 0 0 0 0 0 0 0 0 0 0 0 0 0 0 0 0 0 0 0 0 0 15.61691 15.63459 15.42327 15.4201 15.40712 15.3885 15.37552 15.35403
0 0 0 0 0 0 0 0 0 0 0 0 0 0 0 0 0 0 0 0 0 0 0 0 0 0 0 0 0 0 0 0 0 0 0 0 0 0 0 0 0 0 0 0 0 0 0 0 0 0 0 0 0 0 0 0 0 0 0 0 0 0 0 0 0 0 0 0 0 0 0 0 0 0 0 0 0 0 0 0 0 0 0 0 0 0 0 0 0 0 0 0 0 0 0 0 0 0 15.44164 15.43209 15.42143 15.40919 15.39224 15.38322 15.35727 15.31971 15.27274 15.23291 15.20769
0 0 0 0 0 0 0 0 0 0 0 0 0 0 0 0 0 0 0 0 0 0 0 0 0 0 0 0 0 0 0 0 0 0 0 0 0 0 0 0 0 0 0 0 0 0 0 0 0 0 0 0 0 0 0 0 0 0 0 0 0 0 0 0 0 0 0 0 0 0 0 0 0 0 0 0 0 0 0 0 0 0 0 0 0 0 0 0 0 0 0 0 0 0 0 0 0 17.0908 15.43766 15.41305 15.37155 15.32814 15.29514 15.27121 15.23759 15.2005 15.16112 15.12933 15.08661
0 0 0 0 0 0 0 0 0 0 0 0 0 0 0 0 0 0 0 0 0 0 0 0 0 0 0 0 0 0 0 0 0 0 0 0 0 0 0 0 0 0 0 0 0 0 0 0 0 0 0 0 0 0 0 0 0 0 17.26729 16.89609 16.60002 16.72669 0 0 0 0 0 0 0 0 0 0 0 0 0 0 0 0 0 0 0 0 0 0 0 0 0 0 0 0 0 0 0 0 0 15.941 15.49171 15.46684 15.41347 15.36036 15.29734 15.2327 15.17934 15.13726 15.09337 15.05435 15.02244 14.99136 14.96155
0 0 0 0 0 0 0 0 0 0 0 0 0 0 0 0 0 0 0 0 0 0 0 0 0 0 0 0 0 0 0 0 0 0 0 0 0 0 0 0 0 0 0 0 0 0 0 0 0 0 0 0 0 0 0 0 16.81064 16.83636 16.53604 16.29059 16.18795 16.17986 16.28243 16.50303 16.71187 16.81383 16.80171 0 0 0 0 17.10581 0 0 0 0 0 0 0 0 0 0 0 0 0 0 0 0 0 0 0 0 0 16.5527 15.47051 15.49276 15.4642 15.40369 15.32651 15.255 15.17766 15.11357 15.06183 15.01903 14.99083 14.96731 14.94778 14.92202 14.90142
0 0 0 0 0 0 0 0 0 0 0 0 0 0 0 0 0 0 0 0 0 0 0 0 0 0 0 0 0 0 0 0 0 0 0 0 0 0 0 0 0 0 0 0 0 0 0 0 0 0 0 0 0 0 0 16.95089 16.54047 16.18764 15.96198 15.67194 15.72865 15.75413 15.94454 16.08902 16.2355 16.34945 16.4331 16.62658 16.83559 16.80467 16.73908 16.46773 16.23005 16.27943 16.45427 16.17214 16.18175 0 0 0 0 0 0 0 0 0 0 0 0 0 0 0 15.8536 15.50397 15.48281 15.45108 15.40145 15.33252 15.25192 15.17086 15.09214 15.01981 14.97089 14.92725 14.91308 14.90177 14.89248 14.88715 14.88491
0 0 0 0 0 0 0 0 0 0 0 0 0 0 0 0 0 0 0 0 0 0 0 0 0 0 0 0 0 0 0 0 0 0 0 0 0 0 0 0 0 0 0 0 0 0 0 0 0 0 0 16.56246 16.7535 16.90445 16.65024 16.21677 15.96557 15.66522 15.52717 15.58768 15.63533 15.65899 15.66407 15.86443 15.85705 16.04662 16.01713 16.01364 16.0376 15.92453 15.79736 15.81747 15.64745 15.8573 15.89021 16.0979 0 0 0 0 0 0 0 0 0 0 0 0 0 0 0 0 15.51139 15.50412 15.44213 15.37883 15.30967 15.22833 15.14554 15.06379 14.99827 14.95152 14.92351 14.89771 14.89109 14.88761 14.88555 14.88474 14.88281
0 0 0 0 0 0 0 0 0 0 0 0 0 0 0 0 0 0 0 0 0 0 0 0 0 0 0 0 0 0 0 0 0 0 0 0 0 0 0 0 0 0 0 0 0 0 0 0 0 0 16.72705 16.59342 16.34047 16.28213 16.17514 15.87222 15.51571 15.57755 15.41622 15.46501 15.50156 15.52479 15.53659 15.73887 15.72924 15.9379 15.93022 15.935 15.76756 15.61072 15.63656 15.66693 15.50149 15.71205 15.73156 15.96539 15.98901 15.7963 15.81841 16.24475 16.75903 17.6026 0 0 0 0 0 0 0 16.57399 15.969 15.54151 15.53309 15.47424 15.37931 15.29569 15.21687 15.13773 15.06418 15.00196 14.95483 14.92183 14.90664 14.90207 14.89771 14.89842 14.90036 14.90228 14.90784
0 0 0 0 0 0 0 0 0 0 0 0 0 0 0 0 0 0 0 0 0 0 0 0 0 0 0 0 0 0 0 0 0 0 0 0 0 0 0 0 0 0 0 0 0 0 0 0 0 17.57482 16.42335 16.31661 16.25118 15.93269 15.76062 15.5714 15.61775 15.43919 15.4801 15.52492 15.56271 15.5847 15.59081 15.80669 15.81172 15.81116 15.81375 15.81274 15.81637 15.63934 15.66211 15.49251 15.32192 15.33405 15.35041 15.37355 15.39137 15.4167 15.44668 15.45965 15.89046 16.50573 0 16.31796 16.93391 17.49484 17.80146 17.53373 16.99022 15.55361 15.5722 15.56187 15.50209 15.40495 15.29107 15.20059 15.11288 15.05637 14.99881 14.96172 14.93719 14.92924 14.92343 14.92209 14.91782 14.92086 14.92768 14.93201 14.93453
0 0 0 0 0 0 0 0 0 0 0 0 0 0 0 0 0 0 0 0 0 0 0 0 0 0 0 0 0 0 0 0 0 0 0 0 0 0 0 0 0 0 0 0 0 0 0 0 0 17.2594 16.3648 16.08088 15.76201 15.6004 15.6465 15.46365 15.49768 15.53732 15.57762 15.60868 15.64062 15.65133 15.65581 15.65477 15.65542 15.47222 15.30494 15.47073 15.46491 15.46146 15.46315 15.28575 15.28595 15.28585 15.30776 15.3226 15.33971 15.36014 15.38718 15.4141 15.44305 15.4775 15.502 15.52473 15.55974 15.57382 16.66728 16.87641 16.44492 15.53071 15.51162 15.46474 15.39529 15.29861 15.21465 15.13452 15.06237 15.01623 14.97713 14.95647 14.95204 14.95191 14.95411 14.95657 14.96141 14.96503 14.96855 14.97258 14.97586
0 0 0 0 0 0 0 0 0 0 0 0 0 0 0 0 0 0 0 0 0 0 0 0 0 0 0 0 0 0 0 0 0 0 0 0 0 0 0 0 0 0 0 0 0 0 0 0 0 16.98592 16.29442 15.97651 15.61619 15.68274 15.50377 15.55092 15.58378 15.62354 15.65234 15.67812 15.49302 15.50554 15.50647 15.50107 15.49061 15.29697 15.29157 15.28305 15.2582 15.24341 15.23829 15.23247 15.23142 15.23222 15.25748 15.26277 15.27067 15.27739 15.2901 15.30964 15.3378 15.37534 15.40603 15.43299 15.46367 15.48974 15.50462 15.50846 15.49181 15.45483 15.41241 15.35311 15.27666 15.20076 15.138 15.07934 15.04047 15.00047 14.98453 14.98104 14.98171 14.98636 14.99167 14.99568 15.00069 15.00575 15.00534 15.0105 15.0158
0 0 0 0 0 0 0 0 0 0 0 0 0 0 0 0 0 0 0 0 0 0 0 0 0 0 0 0 0 0 0 0 0 0 0 0 0 0 0 0 0 0 0 0 0 0 0 0 0 16.88993 16.16321 15.82856 15.67638 15.51425 15.57422 15.63601 15.46459 15.48928 15.2999 15.30972 15.31319 15.31231 15.30892 15.30147 15.28574 15.27046 15.25754 15.24115 15.21296 15.18604 15.17837 15.16849 15.15896 15.15217 15.16796 15.16937 15.17181 15.17939 15.18638 15.20199 15.22816 15.25855 15.28568 15.31065 15.32474 15.34056 15.34968 15.34569 15.32882 15.30927 15.27715 15.23567 15.18169 15.12842 15.08534 15.0542 15.03897 15.01479 15.01192 15.01557 15.02142 15.02776 15.03621 15.04257 15.04663 15.04887 15.04913 15.05057 15.05423
0 0 0 0 0 0 0 0 0 0 0 0 0 0 0 0 0 0 0 0 0 0 0 0 0 0 0 0 0 0 0 0 0 0 0 0 0 0 0 0 0 0 0 0 0 0 0 0 0 16.75473 16.20536 15.85732 15.71399 15.55337 15.60915 15.4467 15.28246 15.29629 15.30171 15.29809 15.29308 15.28407 15.26986 15.25347 15.2379 15.22092 15.20419 15.18605 15.16559 15.1471 15.1327 15.11599 15.10225 15.08759 15.07926 15.06751 15.06171 15.05809 15.05973 15.06907 15.08872 15.11771 15.14077 15.16458 15.18569 15.20734 15.21967 15.22063 15.20808 15.18794 15.16631 15.13953 15.10616 15.07307 15.05216 15.04218 15.04699 15.05055 15.05326 15.05815 15.06214 15.06848 15.07596 15.08261 15.08474 15.08782 15.08703 15.09049 15.09449
0 0 0 0 0 0 0 0 0 0 0 0 0 0 0 0 0 0 0 0 0 0 0 0 0 0 0 0 0 0 0 0 0 0 0 0 0 0 0 0 0 0 0 0 0 0 0 0 0 16.80609 16.00256 15.63857 15.74925 15.59851 15.65053 15.45984 15.27267 15.28171 15.28526 15.27637 15.26451 15.25206 15.23727 15.2204 15.20639 15.18977 15.16909 15.14852 15.12365 15.09571 15.06838 15.04465 15.02839 15.01446 15.00157 14.99511 14.98977 14.99254 14.99561 14.9976 15.00777 15.01917 15.03276 15.04417 15.05944 15.0762 15.08705 15.09272 15.09222 15.08994 15.08303 15.07331 15.06325 15.058 15.05746 15.05996 15.06631 15.07489 15.08317 15.08959 15.09707 15.10504 15.11443 15.12082 15.11933 15.116 15.11588 15.1187 15.12388
0 0 0 0 0 0 0 0 0 0 0 0 0 0 0 0 0 0 0 0 0 0 0 0 0 0 0 0 0 0 0 0 0 0 0 0 0 0 0 0 0 0 0 0 0 0 0 0 0 16.2894 16.05955 15.67068 15.55739 15.43393 15.47463 15.2749 15.26638 15.26729 15.2598 15.2454 15.22714 15.21125 15.19723 15.18667 15.17641 15.16122 15.14083 15.12093 15.09487 15.066 15.03287 15.00401 14.98043 14.96215 14.95117 14.94311 14.93754 14.93338 14.93664 14.94059 14.95209 14.96336 14.97606 14.98753 15.00034 15.0137 15.02151 15.02876 15.03067 15.0325 15.038 15.04141 15.04652 15.05164 15.06256 15.07557 15.08811 15.09807 15.10797 15.1174 15.12701 15.13579 15.14293 15.1498 15.15333 15.15401 15.15194 15.15249 15.16137
0 0 0 0 0 0 0 0 0 0 0 0 0 0 0 0 0 0 0 0 0 0 0 0 0 0 0 0 0 0 0 0 0 0 0 0 0 0 0 0 0 0 0 0 0 0 0 0 0 0 15.79915 15.73698 15.6156 15.27523 15.29286 15.28278 15.25846 15.24868 15.23569 15.22153 15.20537 15.19198 15.1807 15.16541 15.15059 15.13991 15.12479 15.10548 15.07935 15.05208 15.02259 14.99511 14.96977 14.95373 14.9413 14.93494 14.92712 14.92174 14.91983 14.92052 14.9283 14.93489 14.939 14.94963 14.9599 14.96962 14.97898 14.98804 14.99923 15.00877 15.02291 15.03527 15.04337 15.05462 15.07087 15.09014 15.10462 15.11761 15.12931 15.14201 15.15157 15.1635 15.17251 15.17849 15.18301 15.17746 15.17652 15.17908 15.18755
0 0 0 0 0 0 0 0 0 0 0 0 0 0 0 0 0 0 0 0 0 0 0 0 0 0 0 0 0 0 0 0 0 0 0 0 0 0 0 0 0 0 0 0 0 0 0 0 0 0 15.98151 15.54706 15.24242 15.28843 15.28691 15.27555 15.24222 15.22732 15.21364 15.19762 15.18381 15.17207 15.1663 15.15816 15.15177 15.14582 15.13461 15.11934 15.09707 15.06884 15.03853 15.00763 14.98298 14.96526 14.95342 14.94434 14.93669 14.93139 14.92729 14.92474 14.92578 14.92864 14.93569 14.94201 14.94959 14.95611 14.96494 14.97328 14.98515 14.99681 15.01222 15.03124 15.04761 15.06457 15.08734 15.10668 15.12346 15.13757 15.14931 15.16104 15.17426 15.1849 15.19504 15.20399 15.20833 15.20947 15.20848 15.21075 15.2235
0 0 0 0 0 0 0 0 0 0 0 0 0 0 0 0 0 0 0 0 0 0 0 0 0 0 0 0 0 0 0 0 0 0 0 0 0 0 0 0 0 0 0 0 0 0 0 0 0 0 0 0 15.2668 15.27819 15.26818 15.25063 15.23187 15.21572 15.20081 15.18739 15.17398 15.16762 15.16435 15.16399 15.16645 15.16353 15.16026 15.15056 15.13257 15.10698 15.07501 15.0422 15.01379 14.99311 14.97676 14.96745 14.95879 14.95012 14.94399 14.93709 14.9345 14.93486 14.93998 14.94291 14.95093 14.96002 14.96821 14.97758 14.98874 15.00221 15.02107 15.04338 15.06361 15.08575 15.11103 15.1355 15.15398 15.16722 15.17945 15.18788 15.19702 15.21005 15.21817 15.22484 15.23129 15.23696 15.2359 15.23812 15.25029
0 0 0 0 0 0 0 0 0 0 0 0 0 0 0 0 0 0 0 0 0 0 0 0 0 0 0 0 0 0 0 0 0 0 0 0 0 0 0 0 0 0 0 0 0 0 0 0 0 0 17.65565 15.99464 15.52544 15.30712 15.27728 15.24822 15.22656 15.21131 15.1948 15.18085 15.17365 15.17065 15.17129 15.17442 15.18146 15.18381 15.18208 15.17668 15.16661 15.14711 15.11778 15.08684 15.05543 15.03051 15.0113 14.99352 14.97877 14.96696 14.95561 14.94676 14.94416 14.94534 14.94927 14.95344 14.95806 14.96809 14.97889 14.98732 14.99934 15.01628 15.03977 15.06767 15.09382 15.12144 15.14625 15.16931 15.18767 15.19996 15.21042 15.21746 15.22414 15.23172 15.24004 15.24699 15.25501 15.25755 15.26264 15.27186 15.28232
0 0 0 0 0 0 0 0 0 0 0 0 0 0 0 0 0 0 0 0 0 0 0 0 0 0 0 0 0 0 0 0 0 0 0 0 0 0 0 0 0 0 0 0 0 0 0 0 0 0 17.011 16.035 15.7943 15.33377 15.30178 15.26758 15.24259 15.21728 15.19989 15.18861 15.18998 15.18987 15.19012 15.19934 15.20878 15.21511 15.21367 15.21128 15.19797 15.17678 15.14565 15.11455 15.08071 15.05564 15.03256 15.01304 14.99371 14.97888 14.96709 14.95843 14.95457 14.95722 14.9604 14.96898 14.97742 14.98578 14.99331 15.0049 15.019 15.03779 15.06696 15.09662 15.12922 15.16139 15.18798 15.21385 15.23255 15.24579 15.25148 15.25543 15.25672 15.2587 15.26062 15.26802 15.27368 15.27894 15.28653 15.29953 15.31799
0 0 0 0 0 0 0 0 0 0 0 0 0 0 0 0 0 0 0 0 0 0 0 0 0 0 0 0 0 0 0 0 0 0 0 0 0 0 0 0 0 0 0 0 0 0 0 0 0 0 0 16.10203 15.60774 15.36483 15.32911 15.2958 15.26122 15.2324 15.21566 15.2087 15.21207 15.21399 15.22048 15.23412 15.24874 15.25749 15.2579 15.25695 15.24319 15.22109 15.18873 15.15269 15.11592 15.0844 15.05338 15.02994 15.0092 14.9931 14.98189 14.97267 14.96974 14.97318 14.97822 14.98427 14.99548 15.00782 15.0207 15.03694 15.05517 15.08272 15.11682 15.14599 15.1755 15.20133 15.2268 15.2484 15.26924 15.27819 15.286 15.28887 15.29059 15.29057 15.29459 15.30121 15.30644 15.31214 15.32183 15.33904 15.35997
0 0 0 0 0 0 0 0 0 0 0 0 0 0 0 0 0 0 0 0 0 0 0 0 0 0 0 0 0 0 0 0 0 0 0 0 0 0 0 0 0 0 0 0 0 0 0 0 0 0 0 15.89178 15.42549 15.3931 15.35645 15.32183 15.28491 15.26016 15.24541 15.24554 15.25094 15.25816 15.26767 15.2823 15.29443 15.29888 15.2992 15.29646 15.28181 15.25682 15.22271 15.18151 15.1472 15.11202 15.07877 15.05186 15.03113 15.01651 15.0039 14.99693 14.99612 14.99907 15.0048 15.01259 15.02394 15.03601 15.05294 15.07164 15.09975 15.13306 15.16676 15.2006 15.22971 15.25265 15.27513 15.29412 15.30792 15.31718 15.32165 15.32345 15.32021 15.32038 15.32122 15.32933 15.3376 15.34642 15.35644 15.37551 15.39533
0 0 0 0 0 0 0 0 0 0 0 0 0 0 0 0 0 0 0 0 0 0 0 0 0 0 0 0 0 0 0 0 0 0 0 0 0 0 0 0 0 0 0 0 0 0 0 0 0 0 0 15.50315 15.46108 15.42076 15.37879 15.34594 15.30794 15.28708 15.27692 15.28014 15.28636 15.29609 15.31093 15.32725 15.33634 15.34985 15.3544 15.34725 15.3334 15.30521 15.26815 15.22452 15.18219 15.13834 15.10296 15.0733 15.05133 15.03422 15.0228 15.02106 15.02569 15.03397 15.04272 15.05531 15.07316 15.09101 15.11013 15.13463 15.16418 15.19526 15.22204 15.25217 15.27318 15.29448 15.31547 15.33234 15.3463 15.35311 15.35812 15.3594 15.35926 15.35623 15.35955 15.36467 15.37024 15.3788 15.39021 15.40799 15.42908
0 0 0 0 0 0 0 0 0 0 0 0 0 0 0 0 0 0 0 0 0 0 0 0 0 0 0 0 0 0 0 0 0 0 0 0 0 0 0 0 0 0 0 0 0 0 0 0 0 17.60987 16.59143 15.53612 15.49469 15.45025 15.41085 15.37201 15.34239 15.31979 15.3162 15.31734 15.32544 15.33302 15.34893 15.36695 15.37631 15.38779 15.39064 15.3884 15.37192 15.34675 15.31594 15.27358 15.22988 15.18369 15.1439 15.11059 15.08572 15.06597 15.05702 15.05417 15.06027 15.07082 15.08336 15.09793 15.11764 15.14097 15.16527 15.19294 15.2258 15.25616 15.28663 15.31025 15.32981 15.34781 15.36512 15.38024 15.39012 15.39837 15.39888 15.39642 15.39696 15.39244 15.39168 15.39404 15.39958 15.40873 15.41964 15.44066 15.45881
0 0 0 0 0 0 0 0 0 0 0 0 0 0 0 0 0 0 0 0 0 0 0 0 0 0 0 0 0 0 0 0 0 0 0 0 0 0 0 0 0 0 0 0 0 0 0 0 16.64227 16.08434 15.81937 15.55573 15.51552 15.46832 15.42423 15.39095 15.36087 15.34327 15.33306 15.3396 15.35359 15.37123 15.38758 15.40107 15.42188 15.43293 15.43766 15.43098 15.41661 15.39329 15.35722 15.31345 15.2673 15.22285 15.1816 15.14721 15.11918 15.10084 15.0926 15.09301 15.10537 15.12288 15.13919 15.15677 15.17904 15.20633 15.2308 15.2534 15.27809 15.30544 15.33057 15.35696 15.37465 15.39003 15.40602 15.42427 15.43536 15.44204 15.44407 15.4447 15.44692 15.44018 15.43136 15.42978 15.43034 15.43419 15.44349 15.45855 15.476
0 0 0 0 0 0 0 0 0 0 0 0 0 0 0 0 0 0 0 0 0 0 0 0 0 0 0 0 0 0 0 0 0 0 0 0 0 0 0 0 0 0 0 0 0 16.26567 16.13685 16.68993 16.13418 16.14561 15.86408 15.59838 15.55275 15.50393 15.45741 15.41346 15.38934 15.36615 15.36104 15.36546 15.38185 15.39472 15.41604 15.43444 15.45373 15.46822 15.47952 15.47543 15.46114 15.43857 15.40561 15.36737 15.32029 15.27916 15.236 15.19478 15.16558 15.14339 15.13287 15.13173 15.14557 15.1667 15.18426 15.20619 15.23629 15.26742 15.29572 15.3191 15.33788 15.36022 15.38539 15.40088 15.41819 15.43634 15.45221 15.46532 15.47256 15.48019 15.48654 15.48832 15.48913 15.48395 15.47433 15.46955 15.46718 15.46795 15.47268 15.48161 15.49698
0 0 0 0 0 0 0 0 0 0 0 0 0 0 0 0 0 0 0 0 0 0 0 0 0 0 0 0 0 0 0 0 0 0 0 0 0 0 0 0 0 0 18.4056 18.09178 17.06863 16.19998 15.6572 15.66639 16.2113 15.92007 15.64932 15.63034 15.5909 15.54213 15.49295 15.45767 15.42548 15.41013 15.40441 15.4111 15.42825 15.4394 15.46023 15.4824 15.50146 15.51113 15.51417 15.5069 15.49188 15.46855 15.43857 15.40008 15.36018 15.32014 15.27865 15.24318 15.2111 15.19376 15.18608 15.18983 15.20498 15.22704 15.24683 15.26831 15.29445 15.32112 15.34798 15.36539 15.38562 15.40336 15.42312 15.44057 15.45763 15.47993 15.49244 15.5077 15.52057 15.52939 15.53734 15.53914 15.53889 15.53092 15.51913 15.50791 15.50104 15.4973 15.49909 15.50744 15.51934
0 0 0 0 0 0 0 0 0 0 0 0 0 0 0 0 0 0 0 0 0 0 0 0 0 0 0 0 0 0 0 0 0 0 0 0 0 0 0 0 17.43903 17.8766 18.1373 17.16016 16.25488 15.70373 15.71845 15.7308 15.72791 15.71525 15.69502 15.67374 15.62106 15.57014 15.52243 15.48941 15.46221 15.44611 15.44891 15.4533 15.46978 15.48416 15.50948 15.53511 15.55145 15.55668 15.55573 15.54987 15.53584 15.51131 15.47841 15.44377 15.4055 15.36658 15.32585 15.28887 15.25292 15.23335 15.22849 15.23389 15.25058 15.27288 15.30012 15.32199 15.3484 15.38095 15.4074 15.42401 15.43907 15.45316 15.46684 15.48122 15.49491 15.51122 15.52936 15.54198 15.55565 15.56587 15.57673 15.57713 15.57678 15.57056 15.56075 15.54804 15.54024 15.53593 15.53761 15.54518 15.5536
0 0 0 0 0 0 0 0 0 0 0 0 0 0 0 0 0 0 0 0 0 0 0 0 0 0 0 0 0 0 0 0 0 0 0 0 0 0 0 17.64527 17.39791 16.83632 16.57742 15.72118 15.73927 15.75212 15.76092 15.77016 15.76927 15.75945 15.73754 15.69834 15.648 15.59897 15.56657 15.5402 15.52132 15.51081 15.51075 15.52077 15.52849 15.54019 15.56052 15.58217 15.59135 15.5935 15.59068 15.58374 15.56736 15.55055 15.52329 15.48858 15.45283 15.42258 15.38545 15.3501 15.3201 15.29995 15.28944 15.28956 15.30287 15.32086 15.34286 15.36744 15.39192 15.42214 15.45049 15.46816 15.4803 15.49599 15.51021 15.51997 15.53029 15.54837 15.56648 15.58371 15.59888 15.60825 15.61453 15.61279 15.61094 15.60194 15.59345 15.58062 15.57261 15.56815 15.57179 15.57952 15.58582
0 0 0 0 0 0 0 0 0 0 0 0 0 0 0 0 0 0 0 0 0 0 0 0 0 0 0 0 0 0 0 0 0 0 0 0 0 0 16.80077 16.49642 16.23445 15.70072 15.73796 15.76868 15.79054 15.7938 15.80322 15.80521 15.79577 15.78095 15.75417 15.7212 15.68349 15.64198 15.6089 15.58636 15.57041 15.56006 15.56634 15.5752 15.58552 15.59738 15.61186 15.62622 15.63474 15.63898 15.63931 15.62804 15.61219 15.59459 15.56765 15.53457 15.4971 15.46305 15.42774 15.39866 15.37496 15.35362 15.34377 15.34643 15.36016 15.37792 15.40038 15.42491 15.44992 15.47605 15.49586 15.51051 15.5227 15.53955 15.54555 15.55463 15.56453 15.57932 15.59975 15.61939 15.63405 15.64411 15.64676 15.64893 15.64938 15.63931 15.62834 15.62391 15.61665 15.61243 15.61592 15.62597 15.63313
0 0 0 0 0 0 0 0 0 0 0 0 0 0 0 0 0 0 0 0 0 0 0 0 0 0 0 0 0 0 0 0 0 0 18.45912 19.08164 18.21779 16.49824 15.63823 15.6556 15.69042 15.72187 15.75405 15.77565 15.80054 15.81195 15.81489 15.81315 15.81226 15.81032 15.79286 15.7676 15.73534 15.70134 15.67935 15.6518 15.63223 15.62083 15.62483 15.62809 15.63367 15.63842 15.64763 15.65879 15.66641 15.67476 15.6752 15.67135 15.65964 15.64267 15.62225 15.59284 15.55943 15.52761 15.49442 15.46884 15.44313 15.42424 15.41433 15.41321 15.41842 15.43227 15.44919 15.46866 15.48786 15.51214 15.53397 15.54784 15.56121 15.57571 15.58763 15.59931 15.61201 15.62794 15.64345 15.65597 15.66665 15.67589 15.67515 15.67618 15.67517 15.66791 15.65938 15.65774 15.65722 15.65884 15.66698 15.68286 15.68747
0 0 0 0 0 0 0 0 0 0 0 0 0 0 0 0 0 0 0 0 0 0 0 0 0 0 0 0 0 18.9325 18.52092 18.29926 18.28846 18.05875 17.772 17.17969 15.64872 15.65881 15.67029 15.6886 15.71116 15.73581 15.75661 15.77784 15.79608 15.80936 15.8165 15.81416 15.8163 15.81345 15.80522 15.78944 15.7682 15.75251 15.73338 15.71744 15.70189 15.69703 15.69314 15.68924 15.69086 15.69421 15.69883 15.70732 15.71202 15.71243 15.70905 15.69881 15.69071 15.67993 15.66183 15.63492 15.60769 15.58305 15.5518 15.53165 15.5121 15.49809 15.49347 15.49114 15.49698 15.50758 15.52158 15.53116 15.54252 15.55611 15.57161 15.58293 15.59517 15.60767 15.61903 15.63505 15.65347 15.66929 15.68108 15.6923 15.70081 15.70998 15.71477 15.7148 15.71484 15.70777 15.70496 15.7058 15.70487 15.70869 15.71678 15.72889 15.71692
0 0 0 0 0 0 0 0 0 0 0 0 0 0 0 0 0 0 0 0 0 0 0 0 0 18.6918 17.9765 17.97892 17.02458 16.34792 16.01438 15.71113 15.70553 15.69651 15.68402 15.67802 15.67368 15.67386 15.68457 15.69808 15.71566 15.73322 15.75143 15.7703 15.77892 15.81213 15.82404 15.82756 15.8321 15.83568 15.83369 15.82148 15.80979 15.79483 15.77996 15.76975 15.75816 15.74345 15.73531 15.72727 15.72454 15.72913 15.7332 15.74177 15.74604 15.747 15.74266 15.73837 15.73528 15.72566 15.71134 15.69027 15.66509 15.63927 15.61467 15.59084 15.57118 15.55955 15.55432 15.55234 15.55683 15.56652 15.58231 15.58892 15.59888 15.6114 15.62178 15.63482 15.64502 15.65488 15.66811 15.68524 15.6975 15.7118 15.71875 15.7248 15.73168 15.73735 15.74314 15.74709 15.74774 15.74879 15.7515 15.75662 15.7629 15.76747 15.77232 15.76225 15.72194
0 0 0 0 0 0 0 0 0 0 0 0 0 0 0 0 0 0 0 0 0 0 0 18.85725 18.01305 17.43183 17.10634 16.77603 15.78609 15.76489 15.74735 15.73082 15.7241 15.71402 15.6982 15.6897 15.68377 15.68408 15.69308 15.70104 15.71189 15.73114 15.75211 15.7724 15.78728 15.81068 15.82091 15.83314 15.84253 15.85152 15.86044 15.85464 15.84759 15.83681 15.82485 15.81757 15.81076 15.79534 15.78243 15.76631 15.75619 15.75838 15.76013 15.7644 15.76559 15.76846 15.7645 15.76337 15.76118 15.75899 15.74752 15.73093 15.71789 15.69615 15.68053 15.66546 15.65213 15.64594 15.63894 15.636 15.6388 15.64204 15.64617 15.64642 15.65316 15.66056 15.66974 15.67721 15.68735 15.69936 15.71304 15.72857 15.7392 15.75095 15.76292 15.76552 15.76713 15.77125 15.77769 15.78353 15.78669 15.7935 15.7939 15.80245 15.81039 15.80962 15.80235 15.77476 15.71856
0 0 0 0 0 0 0 0 0 0 0 0 0 0 0 0 0 0 0 0 0 0 18.28186 17.4316 17.1108 17.12066 16.80146 16.44684 15.78664 15.76365 15.74612 15.73338 15.72117 15.7066 15.69669 15.68995 15.6817 15.68032 15.68569 15.69871 15.71292 15.73161 15.75067 15.77762 15.79663 15.81047 15.82226 15.83579 15.84435 15.85899 15.86386 15.86171 15.85719 15.85014 15.8438 15.84134 15.83528 15.82215 15.80697 15.78901 15.78606 15.78399 15.78743 15.78857 15.78712 15.7917 15.79405 15.79358 15.79044 15.78649 15.782 15.76698 15.7515 15.73627 15.72813 15.71826 15.70851 15.7067 15.70545 15.70481 15.70879 15.7099 15.71108 15.71076 15.71848 15.72841 15.73624 15.74212 15.74752 15.75202 15.76127 15.77181 15.77927 15.78939 15.79221 15.79422 15.79618 15.80045 15.80721 15.81351 15.82509 15.83681 15.84053 15.84778 15.85562 15.85214 15.83133 15.78196 15.71265
0 0 0 0 0 0 0 0 0 0 0 0 0 0 0 0 0 0 0 0 0 19.4975 18.48181 17.41017 16.77552 16.78018 16.43687 16.42324 15.76549 15.74695 15.73299 15.72211 15.70924 15.69884 15.68679 15.67725 15.67126 15.66955 15.67352 15.68863 15.7058 15.72379 15.74115 15.76631 15.78706 15.80546 15.82416 15.83635 15.84268 15.85373 15.86014 15.86181 15.86145 15.85754 15.85884 15.85176 15.84712 15.83166 15.81274 15.8043 15.80094 15.7993 15.79665 15.79772 15.80093 15.80826 15.81444 15.82207 15.82024 15.82409 15.82155 15.81416 15.80764 15.79908 15.79377 15.78712 15.78282 15.77728 15.77271 15.76542 15.76174 15.75953 15.75655 15.75979 15.76644 15.77763 15.78928 15.79607 15.80203 15.80432 15.8117 15.81746 15.82507 15.82843 15.83145 15.83355 15.83509 15.83653 15.83894 15.84346 15.85172 15.85777 15.86246 15.87152 15.87823 15.87457 15.84096 15.78368 15.7036
0 0 0 0 0 0 0 0 0 0 0 0 0 0 0 0 0 0 0 0 0 0 0 17.99787 17.10241 16.76777 16.41907 16.08354 15.74236 15.72532 15.71517 15.70901 15.69752 15.69097 15.68094 15.66843 15.65965 15.66389 15.66491 15.67508 15.69099 15.71231 15.7413 15.76369 15.78306 15.79503 15.81113 15.82682 15.83367 15.84072 15.85291 15.86309 15.86646 15.86371 15.86265 15.86129 15.8549 15.84354 15.83277 15.82557 15.82229 15.82056 15.81906 15.81995 15.81875 15.8258 15.83457 15.83995 15.84543 15.85004 15.85353 15.85347 15.85201 15.84854 15.84798 15.85139 15.85171 15.84472 15.84216 15.83725 15.8342 15.83021 15.82539 15.82438 15.82648 15.8371 15.84376 15.84854 15.84747 15.84571 15.84669 15.85141 15.85237 15.85687 15.86348 15.87201 15.87598 15.88102 15.8824 15.88889 15.89301 15.89532 15.90173 15.90869 15.90861 15.88979 15.84867 15.78052 15.69924
0 0 0 0 0 0 0 0 0 0 0 0 0 0 0 0 0 0 0 0 0 19.87217 19.58317 18.60375 17.12614 16.77434 16.4197 16.40297 16.03975 15.71168 15.70309 15.69369 15.692 15.68774 15.67443 15.66323 15.65891 15.65948 15.6621 15.67374 15.69133 15.71326 15.73603 15.75646 15.77111 15.78692 15.79785 15.81963 15.8343 15.84441 15.8551 15.86703 15.87446 15.87049 15.86974 15.87214 15.86494 15.85368 15.84695 15.84032 15.83078 15.83292 15.83464 15.83606 15.84526 15.85152 15.86098 15.86547 15.87205 15.88036 15.88567 15.89313 15.89579 15.89675 15.89846 15.90323 15.90116 15.8982 15.89495 15.89057 15.8871 15.88575 15.88244 15.8899 15.89227 15.89965 15.90419 15.90537 15.90058 15.89683 15.89335 15.89249 15.89165 15.89437 15.90156 15.90943 15.91245 15.91419 15.91617 15.92139 15.9246 15.92698 15.93318 15.93522 15.92752 15.90227 15.85538 15.78668 15.69562
0 0 0 0 0 0 0 0 0 0 0 0 0 0 0 0 0 0 0 19.88346 19.82097 19.72303 18.90073 17.80789 17.15419 16.79624 16.42651 16.7458 15.72649 15.70271 15.69029 15.68386 15.6851 15.68201 15.67255 15.66824 15.66277 15.66241 15.6676 15.68021 15.69598 15.71441 15.73238 15.74971 15.76317 15.77685 15.79284 15.80954 15.82914 15.84825 15.86613 15.88498 15.89299 15.89624 15.89894 15.89445 15.8889 15.87843 15.8715 15.85607 15.84722 15.84137 15.84598 15.84919 15.85554 15.86106 15.871 15.87919 15.88735 15.89834 15.91082 15.92056 15.93344 15.94142 15.95095 15.95912 15.96097 15.96023 15.95862 15.95591 15.95274 15.94751 15.94692 15.94665 15.94711 15.94721 15.94433 15.94179 15.93598 15.93273 15.9278 15.92943 15.93316 15.93544 15.94701 15.9533 15.95998 15.96322 15.963 15.96783 15.96915 15.96916 15.96472 15.96047 15.94516 15.90993 15.86384 15.79066 15.70016
0 0 0 0 0 0 0 0 0 0 0 0 0 0 0 0 0 0 19.3679 19.25674 18.91257 18.46199 17.85016 17.18794 16.84463 16.81202 16.43723 16.06894 15.72707 15.69575 15.68154 15.67602 15.67817 15.67748 15.67161 15.67186 15.67455 15.67227 15.67663 15.68698 15.70605 15.722 15.738 15.75556 15.76672 15.78014 15.79261 15.81127 15.832 15.85665 15.87499 15.89316 15.91012 15.91951 15.9231 15.92575 15.92138 15.91336 15.90197 15.89416 15.8812 15.87331 15.86811 15.86565 15.8731 15.87955 15.8898 15.89145 15.89913 15.91215 15.92738 15.94153 15.95667 15.96781 15.98328 15.99491 15.99733 16.00475 16.01268 16.01508 16.01866 16.01515 16.01786 16.01609 16.01071 16.00229 15.99193 15.98269 15.97602 15.9681 15.96318 15.96216 15.966 15.97085 15.97845 15.98626 15.9938 16.00284 16.00323 16.00567 16.00675 16.00607 15.99788 15.98869 15.96874 15.93401 15.88084 15.81324 15.73193
0 0 0 0 0 0 0 0 0 0 0 0 0 0 0 0 0 19.78943 19.25604 18.65383 18.1595 17.54205 17.21018 17.20292 17.18991 16.8015 16.42938 15.74897 15.71169 15.68186 15.66857 15.66719 15.66998 15.66905 15.66886 15.67402 15.67652 15.68419 15.68908 15.70011 15.71568 15.72866 15.74187 15.76492 15.77671 15.79215 15.81144 15.83029 15.85323 15.8777 15.90326 15.92957 15.94786 15.95548 15.95871 15.95871 15.9642 15.95777 15.94499 15.93062 15.91915 15.91254 15.91206 15.91227 15.91083 15.90685 15.90818 15.91393 15.91506 15.93166 15.94859 15.96994 15.9909 16.00354 16.01571 16.02896 16.04162 16.04933 16.05781 16.06432 16.06604 16.06416 16.06462 16.05811 16.05248 16.03977 16.02648 16.01546 16.00854 16.00278 16.00282 16.00214 16.00452 16.01007 16.0162 16.02397 16.03318 16.03474 16.03599 16.03477 16.03233 16.02921 16.02132 16.00943 15.98539 15.95039 15.90227 15.84069 15.77127
0 0 0 0 0 0 0 0 0 0 0 0 0 0 0 0 19.27686 19.26039 18.42795 17.85719 17.54876 17.21823 17.20546 17.19817 17.17602 16.7967 16.40978 15.73413 15.69274 15.67191 15.66217 15.65937 15.66645 15.67052 15.67095 15.67583 15.68285 15.68986 15.69634 15.70721 15.72142 15.73804 15.75398 15.77304 15.79141 15.81108 15.83061 15.85399 15.8777 15.90638 15.93661 15.96279 15.97836 15.98657 15.99145 15.99451 16.00649 16.00531 15.99183 15.98476 15.97734 15.97002 15.95571 15.94633 15.93298 15.92406 15.93018 15.93369 15.93089 15.94559 15.96323 15.98843 16.01179 16.02948 16.04767 16.06591 16.08128 16.09465 16.10552 16.11426 16.11685 16.1161 16.11398 16.1064 16.09611 16.08039 16.06512 16.04746 16.0361 16.02883 16.0246 16.02796 16.02948 16.03628 16.04468 16.05102 16.05884 16.06044 16.06273 16.06121 16.05926 16.05816 16.05143 16.03807 16.01378 15.98485 15.93783 15.87873 15.80849
0 0 0 0 0 0 0 0 0 0 0 0 0 0 0 19.82377 19.09545 18.41528 17.83158 17.52485 17.19629 17.19769 17.19499 16.83238 16.80682 16.43915 15.74832 15.70952 15.68055 15.6641 15.65255 15.65423 15.66216 15.66981 15.67018 15.68075 15.69469 15.70766 15.71507 15.72769 15.74822 15.76628 15.78456 15.8053 15.82769 15.84984 15.87105 15.89488 15.92157 15.95003 15.97402 15.99088 16.00107 16.01014 16.01949 16.02204 16.02124 16.02898 16.0366 16.03663 16.03428 16.02622 16.00266 15.98343 15.96685 15.94653 15.94318 15.94363 15.94339 15.95604 15.97535 16.00056 16.02712 16.05073 16.07318 16.09413 16.10789 16.12313 16.13217 16.14036 16.14759 16.14917 16.14966 16.14384 16.13536 16.12645 16.11039 16.0925 16.07679 16.06626 16.05948 16.06211 16.06299 16.06616 16.06706 16.0704 16.07326 16.07609 16.07627 16.07338 16.07087 16.07043 16.06944 16.05948 16.03988 16.01239 15.9748 15.91637 15.85258
0 0 0 0 0 0 0 0 0 0 0 0 0 0 19.15296 19.15154 18.4438 17.82572 17.50373 17.16804 17.17193 16.81506 16.80574 16.79257 16.43537 16.06239 15.72182 15.68557 15.66883 15.65889 15.65112 15.65627 15.66354 15.67602 15.68395 15.69216 15.70765 15.71737 15.7317 15.75157 15.77694 15.80174 15.82964 15.85807 15.88128 15.90408 15.93146 15.96182 15.98877 16.00973 16.02335 16.0336 16.04107 16.04992 16.05967 16.06537 16.06167 16.07042 16.08068 16.08772 16.08189 16.07384 16.05704 16.03108 16.00633 15.97364 15.95274 15.94856 15.95456 15.96616 15.98436 16.01193 16.04226 16.07156 16.1031 16.12475 16.14373 16.15655 16.16792 16.17449 16.18016 16.18066 16.17868 16.17106 16.16663 16.15897 16.14392 16.12772 16.11085 16.10047 16.0929 16.09342 16.09374 16.09595 16.09684 16.09361 16.09573 16.09362 16.09071 16.08845 16.08659 16.08683 16.08638 16.07766 16.05614 16.02773 15.98888 15.93616 15.87144
0 0 0 0 0 0 0 0 0 0 0 0 0 19.01987 19.19448 18.44205 17.80661 17.4902 17.14855 17.14844 16.79949 16.79081 16.7831 16.77022 16.40199 15.72196 15.69211 15.66333 15.65315 15.65275 15.65762 15.6673 15.68198 15.69672 15.70748 15.71819 15.72645 15.74143 15.76368 15.79126 15.82035 15.85081 15.88062 15.90901 15.93565 15.96541 15.99911 16.02743 16.04665 16.05809 16.06678 16.07462 16.08547 16.09359 16.10131 16.10176 16.0973 16.10789 0 0 0 16.07092 16.06382 16.0933 16.06219 16.0164 15.98598 15.97149 15.96699 15.97191 15.98782 16.01343 16.05023 16.08313 16.11773 16.14697 16.1676 16.18707 16.20268 16.21197 16.22026 16.22107 16.21718 16.2109 16.20527 16.20198 16.19102 16.17688 16.15647 16.14102 16.13112 16.12489 16.11952 16.11932 16.12103 16.11782 16.11107 16.10959 16.10574 16.10322 16.10628 16.10951 16.11178 16.10416 16.08508 16.05485 16.0117 15.95664 15.8866
0 0 0 0 0 0 0 0 0 0 0 0 0 19.39642 18.4687 17.81312 17.46518 17.11292 17.11906 16.76773 16.77071 16.77219 16.76643 15.73968 15.72051 15.6966 15.66952 15.6465 15.64641 15.64927 15.66622 15.68207 15.70354 15.71945 15.72747 15.74144 15.75748 15.775 15.80565 15.84756 15.88859 15.92981 15.96392 15.99348 16.02346 16.0567 16.08211 16.10037 16.10822 16.11428 16.12119 16.89616 16.1399 16.12933 16.12607 16.48479 17.25588 18.03009 0 0 0 0 0 16.48623 16.09919 16.05794 16.01909 15.99647 15.97894 15.97812 15.99383 16.02462 16.05825 16.093 16.13097 16.16497 16.19101 16.21182 16.22395 16.23364 16.2403 16.24023 16.24138 16.24113 16.23937 16.23646 16.23036 16.22102 16.20766 16.19352 16.18556 16.17878 16.1721 16.16536 16.16274 16.15406 16.14517 16.13858 16.13045 16.13054 16.12796 16.12859 16.12978 16.12289 16.10264 16.07382 16.03056 15.97253 15.89842
0 0 0 0 0 0 0 0 0 0 0 0 19.53479 18.74208 17.80091 17.44449 17.07925 16.73594 16.7461 16.75371 16.75854 16.76662 16.40523 15.73368 15.70986 15.6857 15.6658 15.64929 15.6503 15.66284 15.67607 15.69851 15.72406 15.7418 15.74772 15.76023 15.77576 15.80075 15.83634 15.89823 15.94909 15.99429 16.02943 16.05973 16.08924 16.11235 16.12169 0 0 16.11456 0 17.78052 16.96372 16.54232 16.91742 16.89147 17.65401 18.06801 19.03089 16.82598 16.09026 0 0 0 17.69024 16.07098 16.03516 16.01198 15.98623 15.98239 15.99932 16.02748 16.06277 16.10269 16.14243 16.17984 16.21289 16.23762 16.25313 16.26255 16.26615 16.26726 16.26652 16.2668 16.26568 16.26495 16.26132 16.25358 16.24615 16.23578 16.22564 16.21909 16.2114 16.20398 16.19914 16.18989 16.18187 16.17496 16.17157 16.16569 16.16129 16.16036 16.15482 16.14403 16.12547 16.09595 16.05175 15.98919 15.9088
0 0 0 0 0 0 0 0 0 0 0 18.77948 18.75351 17.79119 17.42644 16.7056 16.72434 16.74194 16.7457 16.75628 16.77519 16.08759 15.75056 15.73012 15.70621 15.68361 15.66938 15.66011 15.66938 15.6826 15.69948 15.72179 15.74112 15.75666 15.76515 15.78868 15.80706 15.85112 15.89505 15.96174 16.00974 16.04919 16.07795 16.10254 16.90585 0 0 0 0 0 18.55115 19.32177 19.08201 18.50416 18.11608 17.67943 17.65511 16.45943 16.08929 16.09368 16.09007 16.08703 16.07565 18.0562 18.40628 16.06574 16.0361 16.01344 15.99424 15.98965 16.00741 16.03162 16.0652 16.10469 16.15028 16.18834 16.22038 16.24706 16.26309 16.28119 16.28759 16.29072 16.28997 16.28702 16.28964 16.29104 16.29738 16.29422 16.29388 16.28621 16.27401 16.2618 16.24926 16.23836 16.23099 16.22223 16.21417 16.20744 16.20107 16.19387 16.18553 16.18733 16.17695 16.1634 16.14471 16.11636 16.07252 16.01092 15.92623
0 0 0 0 0 0 0 0 0 0 19.49565 18.77738 17.7872 17.04712 16.70614 16.37048 16.39484 16.41299 16.42609 16.4362 16.44496 15.77828 15.75653 15.73861 15.71647 15.69775 15.6845 15.677 15.68947 15.70356 15.72061 15.73973 15.75662 15.7702 15.78426 15.81318 15.85288 15.90211 15.94479 15.99646 16.05439 16.09544 16.48812 0 0 0 0 0 0 0 0 0 0 0 18.47287 18.09031 17.26221 16.079 16.09057 16.09817 16.09784 16.08571 16.0767 16.07694 16.07082 16.05882 16.03587 16.01721 16.00946 16.00793 16.01975 16.04357 16.07684 16.11674 16.16341 16.20321 16.23068 16.25463 16.27357 16.28911 16.29634 16.30218 16.29956 16.30182 16.30534 16.3104 16.31753 16.31877 16.32087 16.31979 16.3104 16.29973 16.28766 16.28051 16.27194 16.26355 16.25656 16.24782 16.24011 16.22886 16.22216 16.21476 16.20388 16.18326 16.15873 16.12801 16.08329 16.02176 15.94096
0 0 0 0 0 0 0 0 0 0 19.05186 17.78074 17.04815 16.6966 16.04212 16.05173 15.75929 15.77307 15.79067 15.79457 15.79502 15.79064 15.77533 15.75777 15.74015 15.72445 15.71533 15.71291 15.72353 15.73886 15.7566 15.76969 15.78287 15.80113 15.82007 15.85262 15.88926 15.92652 15.96616 16.01192 17.23369 0 0 0 0 0 0 0 0 0 0 0 0 0 19.08544 17.71912 16.10282 16.10552 16.11042 16.12006 16.12737 16.11857 16.10824 16.09766 16.08646 16.0659 16.045 16.02885 16.02624 16.02784 16.0392 16.06097 16.09117 16.13577 16.17692 16.20922 16.24012 16.2649 16.28682 16.29606 16.30697 16.3113 16.31475 16.32033 16.32582 16.33062 16.3383 16.34377 16.34267 16.33885 16.33296 16.32171 16.31282 16.30719 16.29925 16.29437 16.28532 16.27973 16.27541 16.26763 16.25728 16.2491 16.23401 16.20688 16.18019 16.14586 16.09973 16.03557 15.9558
0 0 0 0 0 0 0 0 0 19.13994 18.50387 17.4166 16.68351 16.024 15.73083 15.73879 15.74529 15.75989 15.77508 15.78581 15.79566 15.79946 15.79098 15.77631 15.76281 15.74491 15.73695 15.73892 15.75487 15.76696 15.78544 15.79991 15.81674 15.83656 15.85849 15.89093 15.91874 15.95095 15.99471 16.78048 17.01543 0 0 0 0 0 0 0 0 0 0 0 0 18.36384 18.13649 16.9004 16.11514 16.12479 16.1373 16.15308 16.16133 16.16011 16.15352 16.1364 16.11476 16.09423 16.0733 16.06064 16.05448 16.05487 16.06496 16.0828 16.11284 16.15042 16.18598 16.21751 16.24881 16.2741 16.29267 16.30411 16.31853 16.32102 16.33054 16.33708 16.34173 16.35009 16.36087 16.36758 16.36987 16.36675 16.3626 16.35042 16.34089 16.33384 16.32758 16.32067 16.31354 16.30593 16.29805 16.29438 16.2853 16.27249 16.25364 16.2243 16.19296 16.15522 16.10561 16.03896 15.96406
0 0 0 0 0 0 0 0 19.98116 18.86316 17.42451 16.66657 16.31579 15.70067 15.70387 15.7106 15.7164 15.72917 15.7469 15.76663 15.78583 15.80029 15.79908 15.78974 15.77577 15.76941 15.77187 15.77519 15.7874 15.80213 15.81142 15.8223 15.83989 15.86031 15.88521 15.91761 15.94453 15.96949 16.35889 16.78452 17.22844 18.05355 0 18.86884 19.46664 0 0 0 0 0 0 0 19.12986 18.13758 17.32982 16.10878 16.1206 16.14262 16.1648 16.18253 16.18523 16.18264 16.17328 16.15552 16.1343 16.11699 16.1017 16.09403 16.08986 16.09108 16.09687 16.11694 16.14368 16.17327 16.20813 16.24302 16.27003 16.29417 16.31444 16.32312 16.33511 16.34133 16.34525 16.3516 16.35557 16.36426 16.37272 16.38346 16.3868 16.38537 16.38398 16.37644 16.36702 16.36454 16.35745 16.35216 16.34817 16.34412 16.33855 16.33114 16.31871 16.30063 16.27694 16.24339 16.20463 16.15924 16.10505 16.03861 15.96628
0 0 0 0 0 0 0 0 19.99654 18.86885 17.41892 16.6518 15.67108 15.67756 15.68119 15.67841 15.69066 15.70917 15.73158 15.75827 15.78265 15.80272 15.80591 15.80218 15.79718 15.80052 15.811 15.81949 15.83768 15.85361 15.86668 15.87782 15.88976 15.90377 15.92234 15.94562 15.97108 15.98255 15.99934 16.40279 16.80425 17.21681 17.64545 18.06693 18.83963 0 0 0 0 0 0 18.51485 17.72077 17.72099 16.09557 16.12172 16.14962 16.1783 16.19607 16.20535 16.20868 16.20079 16.18951 16.1754 16.15825 16.14018 16.12836 16.11868 16.11781 16.11976 16.12278 16.1416 16.16423 16.19679 16.23036 16.26468 16.29124 16.31879 16.3349 16.3491 16.36074 16.36482 16.36731 16.37193 16.38007 16.38743 16.39706 16.40445 16.40799 16.40573 16.39998 16.39487 16.38992 16.38295 16.37659 16.37385 16.3722 16.36864 16.3615 16.35316 16.34092 16.31806 16.29093 16.255 16.2121 16.16153 16.10485 16.03957 15.96887
0 0 0 0 0 0 0 0 0 18.88761 17.42442 16.64995 15.65403 15.65454 15.65571 15.65707 15.67318 15.69475 15.72214 15.7541 15.7821 15.80539 15.81241 15.81672 15.82301 15.83475 15.84878 15.87275 15.90019 15.92235 15.93499 15.93765 15.94348 15.95042 15.96495 15.98752 15.99747 15.99918 16.01452 16.02225 16.02454 16.03266 16.04027 16.42355 17.24954 18.04789 18.83153 19.17134 0 0 18.78729 17.67763 16.85824 16.08103 16.10793 16.14066 16.18219 16.20201 16.2177 16.2227 16.22033 16.21824 16.21523 16.20066 16.1857 16.16918 16.16074 16.15474 16.15033 16.15283 16.1634 16.17578 16.19538 16.22576 16.25422 16.28472 16.31431 16.33815 16.35772 16.3698 16.37739 16.384 16.38601 16.39268 16.40042 16.41096 16.42246 16.43309 16.43465 16.43064 16.4263 16.42214 16.4153 16.40935 16.40529 16.40427 16.39672 16.3928 16.38317 16.37137 16.35549 16.33147 16.29858 16.25909 16.21363 16.16015 16.10201 16.03263 15.96122
0 0 0 0 0 0 0 0 0 19.87438 18.19433 17.03579 15.95338 15.64429 15.63909 15.64253 15.65469 15.68049 15.71418 15.74986 15.78518 15.81053 15.82319 15.83802 15.85485 15.87262 15.90536 15.93473 15.96453 15.98486 15.99654 15.99574 15.99519 16.00008 16.00544 16.01191 16.02187 16.02046 16.02407 16.02002 16.02481 16.02877 16.03483 16.0422 16.41802 16.83352 17.24651 17.63949 18.79123 17.64866 16.40877 16.05246 16.07341 16.09833 16.13431 16.16855 16.20063 16.21807 16.2298 16.23273 16.22991 16.22594 16.22043 16.21208 16.19957 16.19189 16.18593 16.18266 16.1797 16.18513 16.19648 16.21099 16.23402 16.25968 16.28882 16.31621 16.3385 16.36203 16.37793 16.38643 16.39603 16.40053 16.40238 16.40917 16.41656 16.42922 16.4424 16.45134 16.45567 16.45318 16.44891 16.44396 16.43926 16.43793 16.43296 16.42882 16.42243 16.41621 16.40586 16.387 16.37071 16.34518 16.31163 16.26796 16.21913 16.15773 16.09507 16.0246 15.94933
0 0 0 0 0 0 0 0 0 20.01005 19.20356 17.44012 16.28663 15.63892 15.6338 15.63895 15.6475 15.67198 15.70817 15.74345 15.77552 15.81604 15.83748 15.85502 15.88492 15.92367 15.97068 16.00868 16.04786 16.05814 16.05929 16.05785 16.05129 16.04719 16.04272 16.04651 16.04734 16.04325 16.03614 16.03321 16.03324 16.03188 16.03258 16.03621 16.04518 16.06038 16.45057 0 17.66054 16.43284 16.06872 16.0931 16.12136 16.14541 16.17586 16.20218 16.2293 16.24193 16.25044 16.24775 16.24287 16.23929 16.2356 16.23391 16.22491 16.21882 16.21019 16.20567 16.20492 16.21075 16.21795 16.23613 16.25762 16.28126 16.30721 16.33409 16.35644 16.37432 16.38848 16.39875 16.40661 16.41407 16.41822 16.42265 16.43456 16.4486 16.46204 16.47305 16.47921 16.47638 16.47369 16.46723 16.46301 16.45713 16.45204 16.44696 16.44085 16.43124 16.41612 16.4001 16.37834 16.34829 16.31705 16.27409 16.22138 16.15773 16.08853 16.01371 15.93153
0 0 0 0 0 0 0 0 0 0 19.727 18.252 16.67167 15.96373 15.64535 15.64174 15.64845 15.67186 15.7015 15.73583 15.77794 15.81973 15.85144 15.87819 15.91344 15.9636 16.01948 16.06568 0 0 0 16.2983 16.0832 16.07886 16.07432 16.06924 16.07029 16.06983 16.06641 16.05502 16.04215 16.04136 16.03924 16.04139 16.05319 16.06889 16.08512 16.48895 16.09953 16.10687 16.12324 16.14871 16.17191 16.19571 16.21501 16.23408 16.24827 16.26135 16.26473 16.26517 16.26732 16.2709 16.26491 16.26376 16.25687 16.25037 16.24861 16.24391 16.24272 16.24472 16.25273 16.26839 16.28464 16.30918 16.33215 16.3543 16.37369 16.3889 16.4014 16.41142 16.41881 16.42338 16.4323 16.4421 16.45483 16.46678 16.48 16.48985 16.49728 16.49803 16.49797 16.49458 16.48724 16.48152 16.47556 16.47147 16.46232 16.45131 16.43446 16.41149 16.38826 16.35746 16.3228 16.2766 16.22305 16.15734 16.08486 16.00908 15.91907
0 0 0 0 0 0 0 0 0 0 0 19.62634 18.27042 16.68111 15.96898 15.65284 15.65561 15.67418 15.69973 15.73714 15.7832 15.83798 15.87395 15.9014 15.94076 15.99938 16.41304 16.82123 0 0 0 16.95945 17.23987 16.09152 16.08963 16.08153 16.08359 16.08139 16.08029 16.07127 16.05981 16.0542 16.05519 16.06446 16.07913 16.09734 16.11337 16.1304 16.13827 16.14954 16.17305 16.19807 16.21898 16.23794 16.25284 16.27033 16.28056 16.28151 16.28443 16.2817 16.28258 16.28627 16.28601 16.28046 16.28257 16.28262 16.28036 16.27811 16.27692 16.2817 16.2911 16.30209 16.32191 16.34199 16.36305 16.38137 16.39731 16.41153 16.42418 16.43008 16.4381 16.4417 16.4491 16.46517 16.47671 16.48816 16.49843 16.50901 16.51588 16.51907 16.51879 16.5154 16.50672 16.50192 16.49744 16.49226 16.48579 16.47509 16.45587 16.43181 16.40336 16.3703 16.33294 16.29225 16.23628 16.16741 16.09112 16.0121 15.92317
0 0 0 0 0 0 0 0 0 0 0 0 19.82708 18.63975 16.67868 15.97825 15.65537 15.67247 15.70217 15.74241 15.79587 15.85355 15.8914 15.92347 15.95847 16.01993 16.79784 0 0 18.39557 18.48388 16.88297 16.10734 16.09311 16.08428 16.08967 16.08949 16.09311 16.09195 16.08453 16.076 16.07169 16.07194 16.08426 16.10034 16.1217 16.13876 16.15374 16.16362 16.18015 16.19984 16.22563 16.25435 16.26878 16.28924 16.30193 16.31492 16.31757 16.31703 16.31123 16.30851 16.3157 16.31701 16.30945 16.31004 16.31204 16.31198 16.30981 16.30761 16.3149 16.32164 16.33006 16.34768 16.36546 16.38718 16.40672 16.41954 16.4322 16.44305 16.45373 16.46031 16.46848 16.47941 16.49212 16.49907 16.50841 16.51991 16.52826 16.53498 16.53941 16.53709 16.53452 16.52916 16.52498 16.51956 16.51468 16.50795 16.4946 16.4749 16.44803 16.41662 16.38392 16.34955 16.3027 16.24757 16.17987 16.10419 16.02756 15.94865
0 0 0 0 0 0 0 0 0 0 0 0 0 0 0 16.67123 15.95539 15.66992 15.71003 15.75146 15.80803 15.87106 15.91029 15.93768 15.96428 16.36949 16.42787 16.83705 17.2287 19.37982 18.48987 16.87046 16.10238 16.08913 16.08166 16.08781 16.09568 16.10127 16.10275 16.1044 16.09776 16.09117 16.09229 16.09916 16.11283 16.12882 16.14529 16.1583 16.17322 16.19606 16.22207 16.25633 16.28313 16.30161 16.32415 16.33297 16.33608 16.3381 16.34317 16.34011 16.338 16.33768 16.33362 16.33067 16.33114 16.32975 16.33273 16.34092 16.34476 16.35473 16.36051 16.36787 16.37928 16.39632 16.41791 16.43363 16.44569 16.45485 16.46459 16.47531 16.48549 16.49431 16.50318 16.51315 16.52225 16.53092 16.54001 16.54727 16.55101 16.55197 16.55294 16.55307 16.5484 16.54361 16.54389 16.54129 16.53149 16.51369 16.49407 16.46845 16.44069 16.40704 16.37123 16.3266 16.27069 16.20532 16.13286 16.05778 15.98495
0 0 0 0 0 0 0 0 0 0 0 0 0 0 0 17.42116 16.65618 15.67276 15.71938 15.77049 15.83182 15.89786 15.9331 15.95625 15.97794 16.01867 16.803 16.8527 17.25855 0 18.53835 16.11852 16.10098 16.08644 16.09627 16.09128 16.10011 16.10841 16.11414 16.11191 16.10998 16.10518 16.11202 16.11813 16.12586 16.14218 16.15728 16.1681 16.19611 16.22282 16.25295 16.27622 16.29819 16.32593 16.3436 16.35071 16.35819 16.35921 16.36392 16.36118 16.35854 16.35344 16.34848 16.34357 16.34772 16.35401 16.35871 16.36565 16.37479 16.3807 16.39174 16.401 16.41497 16.4338 16.45052 16.46624 16.47709 16.48812 16.49745 16.50594 16.51359 16.52334 16.5333 16.54245 16.54825 16.55422 16.56232 16.56315 16.56317 16.56549 16.56746 16.56483 16.56219 16.55945 16.55763 16.55465 16.5453 16.53119 16.51162 16.49255 16.4682 16.43741 16.40168 16.36077 16.31002 16.24917 16.18278 16.11146 16.04479
0 0 0 0 0 0 0 0 0 0 0 0 0 18.62158 18.25144 17.43037 16.69962 15.70032 15.74395 15.79746 15.86442 15.92768 15.96235 15.98477 16.00689 16.03689 17.19578 17.63741 18.07729 17.97836 18.94242 16.48005 16.09505 16.09184 16.09643 16.10534 16.11902 16.1236 16.12464 16.12265 16.12007 16.11931 16.12617 16.13819 16.14707 16.15454 16.16972 16.19216 16.22213 16.24577 16.27006 16.29007 16.31224 16.33264 16.34535 16.36084 16.37091 16.38168 16.38147 16.37902 16.37642 16.37878 16.37517 16.37262 16.37435 16.37932 16.38323 16.39007 16.39643 16.40595 16.42026 16.43254 16.44673 16.46677 16.48172 16.49783 16.51109 16.52112 16.53004 16.53601 16.54226 16.54935 16.5588 16.56725 16.57234 16.57604 16.57809 16.58173 16.57842 16.57624 16.57772 16.58055 16.57546 16.574 16.57171 16.56828 16.56205 16.55034 16.53329 16.51265 16.49031 16.46219 16.43051 16.38756 16.33818 16.28946 16.22965 16.1662 16.09961
0 0 0 0 0 0 0 0 0 0 0 0 17.85232 17.44811 17.46118 17.09038 16.38738 15.74275 15.78529 15.83468 15.89051 15.95011 15.98487 16.00753 16.03077 16.05978 16.84591 16.87909 17.67667 18.48329 16.87194 16.09317 16.09738 16.10743 16.12477 16.13576 16.14205 16.14283 16.14348 16.14361 16.1454 16.14919 16.14886 16.15596 16.16673 16.18091 16.20186 16.22106 16.24368 16.26508 16.28283 16.30567 16.32468 16.34514 16.36377 16.38089 16.39509 16.4006 16.39974 16.39772 16.40164 16.40511 16.4033 16.40014 16.39954 16.40596 16.40936 16.41766 16.42553 16.43793 16.45369 16.46846 16.4888 16.50996 16.52584 16.53717 16.55145 16.56085 16.56519 16.5674 16.57308 16.57782 16.58497 16.58964 16.59498 16.59792 16.5965 16.59528 16.59032 16.58662 16.5864 16.59043 16.5857 16.58378 16.58096 16.57547 16.5728 16.56379 16.55126 16.53459 16.51662 16.49304 16.46476 16.424 16.37864 16.33231 16.27784 16.21936 16.15497
0 0 0 0 0 0 0 0 19.6635 19.04953 17.8653 17.0495 17.04733 17.05376 16.717 16.7687 16.46297 15.80869 15.84608 15.89417 15.94706 15.99863 16.02965 16.04996 16.07394 16.09587 16.11627 16.12413 16.12802 16.12704 16.11658 16.11962 16.12609 16.13949 16.15191 16.16195 16.16363 16.16513 16.16446 16.16199 16.16517 16.1711 16.17426 16.17954 16.19469 16.21035 16.22626 16.24122 16.26026 16.28575 16.30674 16.32411 16.33854 16.35676 16.37377 16.38718 16.40207 16.41268 16.41781 16.42121 16.42419 16.42307 16.42248 16.42193 16.42277 16.42843 16.43327 16.44065 16.45354 16.47426 16.48943 16.51188 16.5369 16.55829 16.56776 16.57551 16.58795 16.5954 16.59985 16.60178 16.60306 16.60635 16.60994 16.61431 16.61296 16.61179 16.60911 16.60591 16.60009 16.59942 16.59875 16.60008 16.59777 16.59374 16.59229 16.58783 16.58295 16.57595 16.56711 16.55434 16.54158 16.52249 16.49802 16.46369 16.42206 16.38023 16.33223 16.27319 16.22102
0 0 0 0 0 0 0 18.66957 18.74736 17.07268 16.67775 16.66865 16.68481 16.71696 16.77711 16.49306 15.83992 15.87569 15.91401 15.95945 16.00925 16.05158 16.07781 16.09603 16.11454 16.13466 16.14882 16.16042 16.16652 16.16742 16.16724 16.17384 16.1801 16.18188 16.18584 16.18716 16.18634 16.18523 16.1822 16.18041 16.18199 16.18572 16.19235 16.19356 16.21176 16.23 16.24294 16.25401 16.26766 16.28191 16.29608 16.3138 16.33549 16.35512 16.37502 16.39417 16.40921 16.41829 16.42714 16.43366 16.43813 16.44066 16.44258 16.44465 16.44801 16.45604 16.46476 16.4806 16.49496 16.51406 16.53236 16.55432 16.57442 16.59416 16.60752 16.61313 16.61865 16.62645 16.6275 16.62791 16.6309 16.63185 16.63087 16.62915 16.62946 16.62916 16.62465 16.6196 16.61018 16.60953 16.6074 16.60672 16.60755 16.60574 16.60581 16.60259 16.60123 16.59728 16.59113 16.58008 16.56796 16.54892 16.52894 16.49608 16.46063 16.41655 16.37228 16.32203 16.27037
0 0 0 0 0 0 19.19983 19.17198 17.09544 16.66747 16.65028 16.66605 16.72332 16.43375 16.16378 15.88876 15.90291 15.9381 15.97307 16.01231 16.0566 16.0909 16.11289 16.12659 16.14694 16.16423 16.17887 16.19563 16.20788 16.21327 16.21605 16.22116 16.22157 16.21676 16.21514 16.21155 16.2086 16.20501 16.20368 16.20356 16.19994 16.20323 16.20651 16.21326 16.22541 16.23654 16.2462 16.25546 16.26542 16.27691 16.29156 16.30625 16.328 16.35001 16.36916 16.38948 16.40994 16.4197 16.43163 16.44013 16.45195 16.45943 16.46231 16.46965 16.4751 16.48877 16.50262 16.52139 16.53801 16.5594 16.5807 16.60013 16.61685 16.63331 16.64262 16.64874 16.65351 16.65473 16.65578 16.65486 16.65407 16.65342 16.64875 16.64588 16.64518 16.64269 16.63381 16.62608 16.62293 16.62023 16.61642 16.61895 16.61509 16.61733 16.61916 16.61919 16.61693 16.61606 16.6151 16.60688 16.59765 16.58264 16.56597 16.5402 16.5073 16.46619 16.42569 16.37728 16.33353
0 0 0 0 0 0 20.06259 18.36493 17.05775 16.64415 16.30153 16.36012 16.09342 15.84332 15.90569 15.9583 15.98427 16.01045 16.04319 16.0755 16.10354 16.13333 16.14716 16.16199 16.18011 16.19283 16.20573 16.22625 16.23503 16.24146 16.24477 16.2485 16.24486 16.24036 16.2338 16.22668 16.22073 16.2135 16.21071 16.2087 16.21155 16.21362 16.22165 16.23044 16.23849 16.24227 16.24995 16.25769 16.26868 16.27877 16.28979 16.30113 16.32194 16.34011 16.36729 16.389 16.40524 16.41904 16.43167 16.44178 16.45358 16.46854 16.479 16.49032 16.50673 16.52076 16.53817 16.55851 16.57827 16.5967 16.6146 16.63143 16.64799 16.66455 16.67515 16.68059 16.68379 16.68384 16.6827 16.67692 16.67484 16.66677 16.66437 16.6613 16.65503 16.65219 16.64482 16.63705 16.63132 16.62731 16.62833 16.6258 16.62276 16.62886 16.63293 16.63344 16.63138 16.63031 16.632 16.62712 16.62047 16.6123 16.59921 16.57997 16.55177 16.52035 16.48544 16.44477 16.40243
0 0 0 0 0 20.1584 19.70092 18.34152 17.04771 16.67257 16.02852 15.77417 15.84331 15.9062 15.9601 16.00983 16.04218 16.07159 16.09944 16.12626 16.1494 16.16864 16.18169 16.19683 16.21384 16.22971 16.24283 16.25347 16.26023 16.26834 16.27064 16.26692 16.26244 16.25771 16.24909 16.2403 16.23301 16.22393 16.21792 16.21763 16.21672 16.21961 16.22808 16.22755 16.23076 16.24087 16.24066 16.2497 16.25966 16.2712 16.2838 16.30087 16.31445 16.33301 16.35269 16.37439 16.39526 16.41272 16.4271 16.44217 16.45814 16.47381 16.49225 16.51278 16.53151 16.55206 16.56793 16.5869 16.61012 16.62387 16.63562 16.64604 16.66455 16.67778 16.6894 16.69512 16.69667 16.69853 16.69324 16.68308 16.6764 16.6704 16.66602 16.66261 16.66236 16.65767 16.64893 16.64356 16.63667 16.63422 16.63715 16.63191 16.63097 16.63354 16.64283 16.64593 16.64265 16.64594 16.64709 16.64637 16.64164 16.6339 16.62316 16.60658 16.58461 16.55861 16.52958 16.49562 16.45609
0 0 0 0 19.2032 18.82943 17.08586 16.66322 16.31548 15.71284 15.76909 15.83706 15.89813 15.95186 16.00351 16.04754 16.07972 16.10559 16.13104 16.15457 16.17595 16.19683 16.21345 16.23059 16.24471 16.26027 16.27133 16.27672 16.28186 16.28485 16.28021 16.27917 16.27612 16.26682 16.26054 16.25145 16.2429 16.23706 16.22998 16.22587 16.22458 16.22433 16.22532 16.22329 16.22349 16.22663 16.23218 16.23674 16.25008 16.26431 16.27508 16.29353 16.30882 16.32964 16.35226 16.37116 16.38569 16.39608 16.41508 16.43565 16.45315 16.47263 16.49291 16.5206 16.54482 16.56199 16.58226 16.60728 16.62715 16.64383 16.65711 16.66668 16.67866 16.6869 16.69523 16.69841 16.70301 16.70372 16.69457 16.68711 16.68559 16.67969 16.67533 16.66888 16.66576 16.66026 16.65233 16.6488 16.64607 16.64573 16.63774 16.63835 16.64177 16.64542 16.6504 16.65455 16.65826 16.66404 16.6664 16.66721 16.66798 16.66146 16.65243 16.64058 16.62232 16.60172 16.58 16.55198 16.52187
0 0 0 0 20.29378 17.53118 15.71363 15.7031 15.72063 15.7732 15.83445 15.89793 15.95617 16.00209 16.04502 16.08792 16.11815 16.13768 16.16263 16.18612 16.20847 16.22666 16.24109 16.25634 16.26794 16.27752 16.28527 16.29267 16.29418 16.29583 16.28841 16.28686 16.28733 16.28095 16.27276 16.26579 16.25889 16.25069 16.23976 16.23911 16.2386 16.22909 16.21927 16.21679 16.21759 16.22395 16.22896 16.23735 16.24647 16.25435 16.26544 16.27992 16.29964 16.32322 16.34336 16.3648 16.38301 16.39722 16.41491 16.42971 16.44947 16.47004 16.49593 16.52373 16.54808 16.57099 16.59573 16.61833 16.63853 16.65826 16.67205 16.68172 16.69224 16.70052 16.70503 16.70621 16.70968 16.70757 16.70089 16.69609 16.69493 16.69196 16.68505 16.67785 16.67008 16.66511 16.66254 16.65961 16.66014 16.6579 16.65309 16.65588 16.6574 16.66211 16.66472 16.66543 16.6702 16.67675 16.68094 16.68533 16.68995 16.68471 16.68466 16.67628 16.66719 16.65416 16.63498 16.61427 16.58873
0 0 0 19.38223 18.93497 17.12114 15.70452 15.71437 15.76681 15.83318 15.89224 15.95269 16.00225 16.04455 16.08484 16.12345 16.15228 16.17377 16.19592 16.21753 16.23504 16.25431 16.26275 16.27131 16.27654 16.28138 16.29007 16.29496 16.29703 16.29741 16.29359 16.29425 16.29382 16.29221 16.28127 16.27425 16.2634 16.25593 16.25031 16.24934 16.24205 16.22783 16.21796 16.21599 16.21594 16.22036 16.22778 16.23696 16.24106 16.24646 16.25767 16.2754 16.29525 16.31212 16.33309 16.35411 16.37886 16.39493 16.41549 16.43277 16.45181 16.47211 16.49825 16.52135 16.54464 16.5697 16.59175 16.61425 16.64284 16.66374 16.68019 16.68823 16.69983 16.70664 16.70818 16.70788 16.70941 16.70848 16.70308 16.70236 16.69595 16.69175 16.68509 16.6825 16.67653 16.67641 16.67964 16.67978 16.68224 16.67999 16.68461 16.68743 16.68645 16.68692 16.69048 16.691 16.6941 16.69888 16.70549 16.7115 16.71618 16.72116 16.71743 16.71194 16.70693 16.69744 16.67901 16.66211 16.63837
0 0 0 19.3659 18.93425 17.11924 16.34135 15.7361 15.80747 15.88324 15.93974 15.99556 16.0357 16.0762 16.11522 16.14648 16.17748 16.20077 16.22108 16.23513 16.25081 16.26039 16.26743 16.27051 16.27248 16.27876 16.28495 16.28945 16.29106 16.2901 16.29262 16.29611 16.30239 16.29773 16.29242 16.28414 16.27133 16.2622 16.25453 16.24631 16.23348 16.22582 16.21858 16.21306 16.21312 16.21847 16.22469 16.23331 16.23908 16.24508 16.25492 16.27268 16.29192 16.30886 16.32824 16.35204 16.37951 16.40064 16.4138 16.4322 16.45117 16.47395 16.49544 16.52448 16.54744 16.56853 16.58796 16.61617 16.64139 16.66714 16.68825 16.70126 16.70515 16.70461 16.70795 16.70948 16.70746 16.70602 16.70538 16.70162 16.7001 16.69278 16.69028 16.68854 16.68974 16.69508 16.69668 16.69672 16.70449 16.70867 16.71476 16.71635 16.72032 16.72379 16.72833 16.73289 16.73588 16.73985 16.74437 16.74957 16.75912 16.76464 16.7637 16.76063 16.75415 16.74969 16.73556 16.71478 16.69103
0 0 0 20.22485 19.21062 17.0968 16.01403 15.759 15.83874 15.9149 15.97799 16.02463 16.06252 16.10109 16.13954 16.16781 16.19122 16.21252 16.22947 16.24209 16.25369 16.25991 16.26028 16.26059 16.26302 16.26667 16.27455 16.28228 16.28045 16.28412 16.28496 16.29194 16.29789 16.30047 16.29393 16.28205 16.27097 16.26058 16.25147 16.24329 16.22849 16.21624 16.21149 16.20758 16.20811 16.21238 16.21791 16.22487 16.2342 16.24008 16.25115 16.26911 16.28856 16.30897 16.33171 16.35614 16.3854 16.40317 16.41492 16.43146 16.45192 16.4758 16.50413 16.52932 16.5485 16.5681 16.59273 16.61696 16.6394 16.66755 16.68557 16.70078 16.70499 16.70822 16.70973 16.70695 16.70473 16.70362 16.70473 16.70194 16.69706 16.6995 16.6978 16.70223 16.70643 16.71466 16.72088 16.72289 16.72797 16.73895 16.74798 16.75293 16.75678 16.76094 16.76294 16.76804 16.77304 16.77698 16.78739 16.79484 16.80079 16.80629 16.80738 16.80396 16.80041 16.79465 16.78456 16.76942 16.74918
0 0 0 20.2289 17.87605 16.31257 15.72313 15.79376 15.87159 15.94193 15.99716 16.04184 16.07732 16.11959 16.15285 16.18046 16.19938 16.21152 16.22329 16.22638 16.23288 16.23794 16.23767 16.2349 16.24022 16.24672 16.25376 16.26038 16.26361 16.26733 16.27243 16.28106 16.29275 16.29908 16.29296 16.27699 16.26693 16.25382 16.24531 16.23647 16.22162 16.20885 16.20225 16.20054 16.19671 16.20147 16.20801 16.21745 16.22523 16.23257 16.25009 16.26716 16.28298 16.30802 16.33071 16.35193 16.37762 16.39832 16.4142 16.43086 16.45023 16.47802 16.5042 16.52883 16.55193 16.57153 16.59365 16.61685 16.64038 16.66243 16.68467 16.699 16.70445 16.70838 16.70433 16.70236 16.70146 16.70183 16.70248 16.69972 16.69925 16.7048 16.70928 16.71539 16.72624 16.73515 16.74606 16.75666 16.76375 16.7734 16.78236 16.79292 16.79986 16.80283 16.80824 16.81532 16.82008 16.82695 16.8365 16.8446 16.8521 16.85536 16.85558 16.85002 16.84603 16.83911 16.82787 16.81635 16.79428
15.67763 15.67918 17.0265 17.84514 15.94074 15.67477 15.75302 15.82978 15.90797 15.97361 16.02117 16.05983 16.09387 16.12672 16.15376 16.17662 16.19445 16.20459 16.21116 16.20848 16.20676 16.20508 16.21021 16.21014 16.21368 16.22259 16.23289 16.23897 16.24766 16.25872 16.26503 16.27448 16.28742 16.29123 16.28644 16.27415 16.26206 16.25091 16.24804 16.23808 16.22632 16.21235 16.20139 16.20022 16.19628 16.20083 16.20774 16.21232 16.22116 16.23594 16.25482 16.27234 16.28929 16.31163 16.33024 16.3528 16.37321 16.39773 16.41857 16.4402 16.45722 16.48456 16.51261 16.5361 16.56016 16.57812 16.59554 16.62077 16.64673 16.66539 16.68512 16.69564 16.70251 16.70814 16.70891 16.70483 16.7053 16.70503 16.69943 16.69577 16.70045 16.70981 16.72136 16.73083 16.74345 16.75342 16.76452 16.78032 16.79145 16.80349 16.81862 16.83319 16.84106 16.84907 16.85732 16.86209 16.87043 16.87847 16.88971 16.90291 16.90819 16.90964 16.91048 16.9075 16.90191 16.89264 16.87814 16.8611 16.84477
15.68063 15.67463 15.68228 15.70154 15.72072 15.76752 15.83093 15.90136 15.96733 16.01897 16.05389 16.08161 16.10945 16.1315 16.15159 16.17043 16.18267 16.18875 16.18762 16.18298 16.17997 16.17681 16.18035 16.18422 16.18851 16.20035 16.21072 16.22937 16.23858 16.25084 16.25889 16.26668 16.27908 16.28683 16.28344 16.27584 16.26184 16.25379 16.25259 16.24446 16.23645 16.22128 16.21243 16.20846 16.20833 16.2135 16.21233 16.22069 16.23053 16.24551 16.26257 16.28209 16.30439 16.32111 16.34315 16.36843 16.39263 16.4168 16.43971 16.45658 16.47242 16.49961 16.5236 16.54574 16.56692 16.58534 16.60537 16.62677 16.64727 16.66443 16.68178 16.69421 16.70506 16.71185 16.71245 16.71246 16.70823 16.70598 16.70517 16.70277 16.70898 16.71998 16.73342 16.74836 16.76189 16.77754 16.79441 16.81129 16.82852 16.84593 16.86175 16.87318 16.88234 16.89036 16.89455 16.90423 16.91255 16.92392 16.93511 16.94561 16.95199 16.95762 16.96032 16.95849 16.95086 16.9442 16.93309 16.91573 16.90393
15.7658 15.78224 15.80217 15.82367 15.8451 15.88437 15.93172 15.97894 16.02283 16.05642 16.0817 16.09858 16.11534 16.13214 16.14382 16.15462 16.16453 16.16951 16.1673 16.15907 16.15217 16.14743 16.15195 16.15374 16.16175 16.18018 16.19896 16.21825 16.23086 16.24331 16.25676 16.26556 16.27546 16.28773 16.28452 16.27465 16.26409 16.26034 16.25598 16.25193 16.24855 16.23356 16.22637 16.22311 16.22335 16.22823 16.23252 16.2339 16.24599 16.26022 16.28212 16.30676 16.33082 16.35026 16.37111 16.391 16.41717 16.44371 16.4664 16.48274 16.50121 16.51966 16.54116 16.56412 16.57909 16.60094 16.62112 16.6372 16.65432 16.67133 16.68544 16.69584 16.70558 16.7164 16.72162 16.71831 16.71316 16.71312 16.71312 16.71377 16.72343 16.73404 16.75159 16.77265 16.7897 16.81119 16.83238 16.85457 16.87852 16.89663 16.9147 16.92802 16.9339 16.94039 16.94631 16.95532 16.96942 16.98061 16.99045 17.00053 17.00764 17.01127 17.01045 17.00593 16.99558 16.9905 16.97884 16.96449 16.95291
15.84787 15.87082 15.89473 15.91755 15.94107 15.96772 15.99623 16.02415 16.05234 16.0689 16.08084 16.09425 16.10723 16.11819 16.12752 16.14041 16.15085 16.14868 16.14722 16.1407 16.13275 16.12714 16.12656 16.13403 16.14705 16.16888 16.183 16.20515 16.2228 16.2393 16.25412 16.26885 16.28261 16.29399 16.29363 16.2836 16.27698 16.27192 16.26703 16.26274 16.25982 16.25009 16.24215 16.23934 16.24266 16.24737 16.25399 16.2608 16.2762 16.29241 16.31662 16.34097 16.36225 16.38731 16.4045 16.42626 16.45264 16.47493 16.49582 16.51787 16.53561 16.55595 16.57304 16.58875 16.6058 16.6256 16.64268 16.65969 16.67302 16.68801 16.70102 16.71042 16.71905 16.72976 16.73211 16.73073 16.72941 16.73007 16.72736 16.73164 16.74316 16.75533 16.77395 16.79493 16.81672 16.84319 16.87174 16.89971 16.92553 16.94873 16.9702 16.98549 16.99759 17.00565 17.01195 17.02496 17.03734 17.05494 17.06969 17.08758 17.10298 17.10541 17.09518 17.08299 17.07487 17.0645 17.05225 17.03938 17.02813
15.93158 15.9502 15.9642 15.97681 15.98914 16.00252 16.01505 16.03165 16.04975 16.06085 16.06915 16.0739 16.08211 16.09395 16.10662 16.12087 16.12854 16.13039 16.12586 16.12441 16.1141 16.10986 16.112 16.12257 16.14043 16.16327 16.1834 16.20037 16.22192 16.23723 16.26004 16.28016 16.29471 16.30648 16.30983 16.30187 16.297 16.29399 16.29065 16.28411 16.27525 16.26879 16.26467 16.26833 16.27902 16.28367 16.29207 16.30496 16.31639 16.33309 16.35416 16.37844 16.40183 16.42123 16.44234 16.46529 16.49119 16.51314 16.5355 16.55581 16.57251 16.59458 16.61023 16.63031 16.64807 16.66459 16.68094 16.68949 16.69873 16.71268 16.72318 16.73526 16.74198 16.74869 16.74968 16.7505 16.75125 16.75024 16.75472 16.76204 16.77008 16.78462 16.80446 16.83475 16.86469 16.89326 16.92271 16.95246 16.98722 17.01612 17.03525 17.04693 17.0544 17.06312 17.0727 17.08496 17.09726 17.1109 17.13367 17.15937 17.18661 17.19277 17.18496 17.17145 17.1588 17.14988 17.13714 17.12548 17.117
15.98071 15.98836 15.99283 15.9957 15.99618 15.99585 15.9994 16.01162 16.02531 16.03898 16.04751 16.05284 16.05906 16.07217 16.08601 16.0996 16.11151 16.11518 16.11118 16.10741 16.09895 16.09757 16.10437 16.12285 16.14058 16.16401 16.18092 16.20938 16.23306 16.25009 16.26936 16.29496 16.31255 16.32422 16.32462 16.32376 16.32201 16.31919 16.3182 16.31187 16.30611 16.30165 16.29762 16.30548 16.32579 16.33606 16.34887 16.36422 16.37679 16.39561 16.41634 16.4403 16.46108 16.48608 16.50952 16.53258 16.55658 16.58178 16.60014 16.61827 16.63356 16.64433 16.66309 16.67643 16.69458 16.7077 16.7178 16.72842 16.73499 16.74085 16.75309 16.75851 16.76905 16.77454 16.77697 16.78229 16.7817 16.78407 16.78956 16.79992 16.814 16.83441 16.85812 16.88595 16.91839 16.95143 16.98375 17.02432 17.06245 17.08554 17.10661 17.12073 17.13348 17.14213 17.15095 17.154 17.16094 17.17378 17.1949 17.21769 17.24019 17.24898 17.24927 17.24588 17.23798 17.23024 17.22005 17.20786 17.19819
15.99127 15.99158 15.9886 15.97965 15.97668 15.97632 15.97874 15.98872 15.99878 16.01296 16.02542 16.03318 16.04051 16.05412 16.0677 16.09055 16.09877 16.10525 16.10151 16.0959 16.09425 16.09585 16.11045 16.13354 16.15812 16.1805 16.20448 16.22438 16.25111 16.27425 16.30014 16.32068 16.34052 16.35394 16.35476 16.35745 16.35569 16.35122 16.34803 16.34618 16.34674 16.34468 16.34937 16.3672 16.38537 16.40142 16.4185 16.43401 16.45476 16.46614 16.48972 16.51157 16.53704 16.56495 16.58915 16.61092 16.63117 16.65645 16.67479 16.68499 16.69829 16.70968 16.72773 16.7419 16.75625 16.75971 16.7692 16.77811 16.78808 16.79654 16.80748 16.8159 16.8231 16.82657 16.82521 16.82479 16.82591 16.83042 16.84172 16.85962 16.87623 16.89438 16.91909 16.94113 16.96978 17.00211 17.03922 17.07005 0 0 17.14012 17.17818 17.1896 17.19923 17.20509 17.20614 17.21374 17.22641 17.22988 0 0 17.25938 17.29906 17.29779 17.29491 17.29495 17.29792 17.29428 17.28195
