ncols        109
nrows        82
xllcorner    -1.041666666667
yllcorner    37.041665395101
cellsize     0.083333333333
NODATA_value -9999
0.0 0 0 0 0 0 0 0 0 0 0 0 0 0 0 0 0 0 0 0 0 0 0 0 0 0 0 0 0 0 0 0 0 0 0 0 0 0 0 0 0 0 0 0 0 0 0 0 0 0 0 0 0 0 0 0 0 0 0 0 0 0 0 0 0 0 0 0 0 0 0 0 0 0 0 0 0 0 0 0 0 0 0 0 0 0 0 0 0 0 0 0 0 0 0 0 0 0 0 0 0 0 0 0 0 18.73528 17.42641 16.01689 16.01112
0 0 0 0 0 0 0 0 0 0 0 0 0 0 0 0 0 0 0 0 0 0 0 0 0 0 0 0 0 0 0 0 0 0 0 0 0 0 0 0 0 0 0 0 0 0 0 0 0 0 0 0 0 0 0 0 0 0 0 0 0 0 0 0 0 0 0 0 0 0 0 0 0 0 0 0 0 0 0 0 0 0 0 0 0 0 0 0 0 0 0 0 0 0 0 0 0 0 0 0 0 16.18434 16.20663 15.98593 15.99194 15.99355 15.99339 15.97856 15.94627
0 0 0 0 0 0 0 0 0 0 0 0 0 0 0 0 0 0 0 0 0 0 0 0 0 0 0 0 0 0 0 0 0 0 0 0 0 0 0 0 0 0 0 0 0 0 0 0 0 0 0 0 0 0 0 0 0 0 0 0 0 0 0 0 0 0 0 0 0 0 0 0 0 0 0 0 0 0 0 0 0 0 0 0 0 0 0 0 0 0 0 0 0 0 0 0 0 0 15.98337 15.98 15.97146 15.96176 15.94183 15.92916 15.91138 15.88812 15.85724 15.82447 15.7956
0 0 0 0 0 0 0 0 0 0 0 0 0 0 0 0 0 0 0 0 0 0 0 0 0 0 0 0 0 0 0 0 0 0 0 0 0 0 0 0 0 0 0 0 0 0 0 0 0 0 0 0 0 0 0 0 0 0 0 0 0 0 0 0 0 0 0 0 0 0 0 0 0 0 0 0 0 0 0 0 0 0 0 0 0 0 0 0 0 0 0 0 0 0 0 0 0 17.69116 15.96493 15.94382 15.90562 15.86561 15.8326 15.80848 15.78337 15.75324 15.72442 15.70128 15.67132
0 0 0 0 0 0 0 0 0 0 0 0 0 0 0 0 0 0 0 0 0 0 0 0 0 0 0 0 0 0 0 0 0 0 0 0 0 0 0 0 0 0 0 0 0 0 0 0 0 0 0 0 0 0 0 0 0 0 16.93627 16.57114 16.27014 16.38593 0 0 0 0 0 0 0 0 0 0 0 0 0 0 0 0 0 0 0 0 0 0 0 0 0 0 0 0 0 0 0 0 0 16.44124 15.9884 15.96929 15.92371 15.87696 15.82242 15.76069 15.70937 15.6659 15.62633 15.59818 15.57395 15.55786 15.5485
0 0 0 0 0 0 0 0 0 0 0 0 0 0 0 0 0 0 0 0 0 0 0 0 0 0 0 0 0 0 0 0 0 0 0 0 0 0 0 0 0 0 0 0 0 0 0 0 0 0 0 0 0 0 0 0 16.46176 16.50313 16.2477 16.04258 15.96987 15.94978 16.02186 16.21293 16.41033 16.51901 16.51623 0 0 0 0 16.86242 0 0 0 0 0 0 0 0 0 0 0 0 0 0 0 0 0 0 0 0 0 17.0178 15.94689 15.97366 15.94665 15.89322 15.82239 15.75299 15.69153 15.6311 15.58426 15.54465 15.52506 15.50914 15.49596 15.4819 15.47485
0 0 0 0 0 0 0 0 0 0 0 0 0 0 0 0 0 0 0 0 0 0 0 0 0 0 0 0 0 0 0 0 0 0 0 0 0 0 0 0 0 0 0 0 0 0 0 0 0 0 0 0 0 0 0 16.62323 16.25626 15.96354 15.7874 15.54734 15.61679 15.64658 15.80769 15.92781 16.05517 16.15069 16.21556 16.39298 16.58947 16.57001 16.5258 16.31164 16.13486 16.19402 16.34318 16.10552 16.10862 0 0 0 0 0 0 0 0 0 0 0 0 0 0 0 16.31441 15.96385 15.95445 15.92547 15.87316 15.80021 15.7265 15.65835 15.59157 15.52933 15.48848 15.45003 15.4372 15.43074 15.43237 15.43305 15.44177
0 0 0 0 0 0 0 0 0 0 0 0 0 0 0 0 0 0 0 0 0 0 0 0 0 0 0 0 0 0 0 0 0 0 0 0 0 0 0 0 0 0 0 0 0 0 0 0 0 0 0 16.26991 16.41217 16.59305 16.39132 16.00271 15.79419 15.54847 15.44961 15.52131 15.58278 15.60925 15.60401 15.7692 15.76116 15.94068 15.92384 15.92007 15.9444 15.85978 15.77754 15.82602 15.71444 15.90212 15.92742 16.09263 0 0 0 0 0 0 0 0 0 0 0 0 0 0 0 0 15.95332 15.96159 15.90623 15.84107 15.75961 15.67595 15.60352 15.54159 15.49409 15.4577 15.43531 15.41252 15.40952 15.41096 15.41635 15.42521 15.43641
0 0 0 0 0 0 0 0 0 0 0 0 0 0 0 0 0 0 0 0 0 0 0 0 0 0 0 0 0 0 0 0 0 0 0 0 0 0 0 0 0 0 0 0 0 0 0 0 0 0 16.47884 16.30006 16.09751 16.07501 16.00007 15.7337 15.4267 15.50308 15.37431 15.43549 15.47927 15.505 15.51996 15.70433 15.69524 15.87683 15.87465 15.88316 15.75258 15.64685 15.69894 15.7437 15.62629 15.81207 15.83715 16.03319 16.03686 15.88591 15.91623 16.27421 16.73477 17.49125 0 0 0 0 0 0 0 16.9099 16.34825 15.95469 15.96049 15.92598 15.8338 15.74706 15.66448 15.59073 15.52484 15.46766 15.43405 15.41354 15.40532 15.40658 15.41067 15.41805 15.42782 15.43921 15.45319
0 0 0 0 0 0 0 0 0 0 0 0 0 0 0 0 0 0 0 0 0 0 0 0 0 0 0 0 0 0 0 0 0 0 0 0 0 0 0 0 0 0 0 0 0 0 0 0 0 17.3229 16.18272 16.10968 16.0776 15.80157 15.6512 15.49623 15.54432 15.39869 15.44711 15.49787 15.53874 15.56594 15.57993 15.78076 15.78416 15.79828 15.81835 15.82482 15.83431 15.69308 15.73492 15.61481 15.49254 15.51294 15.5293 15.54685 15.55834 15.59587 15.62773 15.64209 16.01397 16.55712 0 16.46216 17.04916 17.5899 17.89835 17.6784 17.22759 15.91627 15.95119 15.95371 15.91517 15.83903 15.73603 15.65206 15.56747 15.51162 15.46323 15.43007 15.41467 15.41323 15.41682 15.42409 15.43388 15.44404 15.45332 15.46867 15.48074
0 0 0 0 0 0 0 0 0 0 0 0 0 0 0 0 0 0 0 0 0 0 0 0 0 0 0 0 0 0 0 0 0 0 0 0 0 0 0 0 0 0 0 0 0 0 0 0 0 17.0124 16.16654 15.91796 15.64829 15.521 15.57051 15.41708 15.4576 15.50411 15.54482 15.58391 15.62065 15.63831 15.64871 15.65693 15.66827 15.52573 15.41062 15.55795 15.55629 15.56951 15.58894 15.45733 15.46554 15.47774 15.49744 15.51529 15.53797 15.5665 15.59531 15.62145 15.6523 15.68657 15.7377 15.77999 15.82309 15.84688 16.86389 17.07317 16.72366 15.88831 15.88422 15.85057 15.79738 15.7217 15.64847 15.57961 15.52285 15.47425 15.44224 15.42726 15.43076 15.438 15.45115 15.46292 15.47646 15.48736 15.49869 15.50947 15.52076
0 0 0 0 0 0 0 0 0 0 0 0 0 0 0 0 0 0 0 0 0 0 0 0 0 0 0 0 0 0 0 0 0 0 0 0 0 0 0 0 0 0 0 0 0 0 0 0 0 16.75696 16.12214 15.85582 15.5405 15.60479 15.45451 15.51168 15.55929 15.6058 15.63636 15.66531 15.50768 15.52631 15.53677 15.5461 15.55224 15.41034 15.42164 15.42132 15.40589 15.40606 15.41399 15.42134 15.42585 15.43695 15.45759 15.46544 15.48116 15.49942 15.51597 15.54085 15.5696 15.6185 15.66518 15.70587 15.74677 15.77625 15.79891 15.82155 15.82508 15.81062 15.77989 15.73076 15.6683 15.60837 15.55635 15.51555 15.483 15.45123 15.446 15.45408 15.46357 15.47546 15.49191 15.50519 15.51772 15.52968 15.54021 15.55324 15.56344
0 0 0 0 0 0 0 0 0 0 0 0 0 0 0 0 0 0 0 0 0 0 0 0 0 0 0 0 0 0 0 0 0 0 0 0 0 0 0 0 0 0 0 0 0 0 0 0 0 16.68812 16.02189 15.73681 15.62099 15.47836 15.54099 15.61052 15.47772 15.51484 15.36432 15.37402 15.3879 15.39234 15.39498 15.39933 15.39849 15.39363 15.39472 15.39034 15.37954 15.36649 15.36329 15.36058 15.35931 15.35972 15.37169 15.38268 15.39733 15.41449 15.43326 15.45442 15.47673 15.51172 15.55232 15.58852 15.62022 15.64418 15.66001 15.66812 15.67209 15.66734 15.64464 15.60796 15.56413 15.5281 15.50211 15.48405 15.47498 15.46546 15.47484 15.48723 15.50166 15.51779 15.53657 15.54999 15.56003 15.56841 15.58032 15.58811 15.60117
0 0 0 0 0 0 0 0 0 0 0 0 0 0 0 0 0 0 0 0 0 0 0 0 0 0 0 0 0 0 0 0 0 0 0 0 0 0 0 0 0 0 0 0 0 0 0 0 0 16.56337 16.07142 15.77937 15.67143 15.53448 15.59988 15.46659 15.34262 15.37065 15.38541 15.38994 15.39319 15.38943 15.38357 15.38142 15.37848 15.3714 15.36384 15.35565 15.34156 15.32723 15.32179 15.31223 15.30523 15.3002 15.29389 15.29278 15.30133 15.30968 15.32522 15.33613 15.35411 15.38447 15.42026 15.4604 15.49259 15.51705 15.53393 15.54488 15.55467 15.55151 15.5323 15.50505 15.48046 15.46756 15.46052 15.47015 15.48763 15.49633 15.51163 15.52631 15.54016 15.55607 15.57282 15.58869 15.59661 15.60427 15.6154 15.62577 15.63977
0 0 0 0 0 0 0 0 0 0 0 0 0 0 0 0 0 0 0 0 0 0 0 0 0 0 0 0 0 0 0 0 0 0 0 0 0 0 0 0 0 0 0 0 0 0 0 0 0 16.60984 15.88659 15.5987 15.72541 15.60274 15.66924 15.51149 15.37283 15.38986 15.40102 15.3984 15.3926 15.38562 15.37938 15.374 15.36795 15.35634 15.33999 15.32867 15.30801 15.29128 15.27508 15.26338 15.25127 15.24619 15.24103 15.2407 15.24393 15.25159 15.26134 15.27189 15.2869 15.3085 15.32668 15.34798 15.37029 15.39711 15.41523 15.42655 15.43482 15.44091 15.44225 15.44335 15.44232 15.44538 15.45321 15.46604 15.48603 15.5097 15.53485 15.55213 15.57068 15.58678 15.60447 15.61918 15.6278 15.63552 15.64248 15.6516 15.66706
0 0 0 0 0 0 0 0 0 0 0 0 0 0 0 0 0 0 0 0 0 0 0 0 0 0 0 0 0 0 0 0 0 0 0 0 0 0 0 0 0 0 0 0 0 0 0 0 0 16.14592 15.94135 15.63648 15.57123 15.48507 15.54379 15.39178 15.39121 15.40352 15.40432 15.39944 15.39079 15.38 15.37194 15.36428 15.35627 15.34464 15.32885 15.31519 15.29728 15.27527 15.25449 15.23728 15.22206 15.21055 15.20353 15.19915 15.19662 15.2044 15.21579 15.22752 15.24126 15.26211 15.281 15.30068 15.31888 15.33616 15.35284 15.36446 15.3714 15.37676 15.38546 15.40084 15.41605 15.43376 15.45524 15.4764 15.50185 15.52364 15.54841 15.56784 15.58733 15.60523 15.62435 15.63823 15.65034 15.66215 15.67244 15.68484 15.70175
0 0 0 0 0 0 0 0 0 0 0 0 0 0 0 0 0 0 0 0 0 0 0 0 0 0 0 0 0 0 0 0 0 0 0 0 0 0 0 0 0 0 0 0 0 0 0 0 0 0 15.75323 15.718 15.65246 15.38748 15.42621 15.42902 15.40926 15.40814 15.40994 15.40328 15.39183 15.38154 15.37354 15.36459 15.35268 15.34417 15.33107 15.31789 15.29695 15.27704 15.25323 15.2345 15.22186 15.20982 15.19869 15.1929 15.18893 15.19516 15.2024 15.21059 15.22092 15.23716 15.24884 15.26183 15.27722 15.29203 15.30504 15.31924 15.33172 15.34588 15.36402 15.3855 15.40832 15.43136 15.45875 15.48644 15.50867 15.53584 15.55875 15.58055 15.60325 15.62189 15.64175 15.65969 15.67342 15.68483 15.69751 15.71173 15.73069
0 0 0 0 0 0 0 0 0 0 0 0 0 0 0 0 0 0 0 0 0 0 0 0 0 0 0 0 0 0 0 0 0 0 0 0 0 0 0 0 0 0 0 0 0 0 0 0 0 0 15.91117 15.55915 15.33826 15.41512 15.43997 15.44132 15.41608 15.41099 15.40721 15.39919 15.38823 15.3817 15.37516 15.37204 15.36672 15.35978 15.35149 15.33614 15.31782 15.2983 15.27675 15.25432 15.24164 15.22457 15.21354 15.20713 15.20492 15.20462 15.20968 15.21284 15.22383 15.23336 15.24355 15.25688 15.26427 15.27709 15.28874 15.30207 15.31628 15.3302 15.35066 15.38087 15.40859 15.43673 15.46882 15.49873 15.52479 15.54947 15.57391 15.59437 15.61157 15.63121 15.65322 15.67482 15.68821 15.70374 15.72104 15.7363 15.75742
0 0 0 0 0 0 0 0 0 0 0 0 0 0 0 0 0 0 0 0 0 0 0 0 0 0 0 0 0 0 0 0 0 0 0 0 0 0 0 0 0 0 0 0 0 0 0 0 0 0 0 0 15.36004 15.40065 15.43096 15.43006 15.41661 15.41189 15.40717 15.40004 15.39179 15.38654 15.38868 15.38902 15.39332 15.3909 15.38496 15.37408 15.35609 15.33911 15.31866 15.29109 15.26774 15.25183 15.23758 15.22986 15.22542 15.22479 15.22484 15.22709 15.23256 15.23808 15.24699 15.25653 15.26731 15.27693 15.29067 15.29966 15.31538 15.33338 15.3588 15.38634 15.41703 15.45094 15.48386 15.51509 15.546 15.57284 15.59789 15.61994 15.63573 15.65271 15.66982 15.68858 15.70618 15.72218 15.73436 15.7563 15.78227
0 0 0 0 0 0 0 0 0 0 0 0 0 0 0 0 0 0 0 0 0 0 0 0 0 0 0 0 0 0 0 0 0 0 0 0 0 0 0 0 0 0 0 0 0 0 0 0 0 0 17.52503 16.00947 15.60757 15.44691 15.45003 15.43635 15.42306 15.41568 15.41078 15.40488 15.40033 15.40181 15.40703 15.41088 15.41723 15.42071 15.42049 15.41226 15.39961 15.38011 15.35786 15.33241 15.30534 15.2861 15.27208 15.2577 15.25163 15.24746 15.24357 15.24256 15.24403 15.24425 15.25279 15.26204 15.27175 15.28003 15.29315 15.30629 15.32336 15.34671 15.37521 15.40563 15.4397 15.47618 15.5083 15.54233 15.56871 15.58771 15.61432 15.63724 15.65499 15.67123 15.68769 15.70378 15.719 15.73469 15.75172 15.77556 15.8026
0 0 0 0 0 0 0 0 0 0 0 0 0 0 0 0 0 0 0 0 0 0 0 0 0 0 0 0 0 0 0 0 0 0 0 0 0 0 0 0 0 0 0 0 0 0 0 0 0 0 16.95173 16.06372 15.87109 15.49601 15.4867 15.46245 15.44682 15.4361 15.42801 15.42368 15.42387 15.42841 15.43584 15.44234 15.45169 15.46077 15.46083 15.45405 15.44043 15.42049 15.39275 15.36511 15.33648 15.31196 15.29505 15.27895 15.27057 15.26609 15.26311 15.25689 15.25899 15.25994 15.2649 15.27202 15.28118 15.28935 15.30396 15.3219 15.34308 15.36611 15.39549 15.43158 15.46982 15.5082 15.54024 15.5714 15.59902 15.62061 15.63836 15.65588 15.67534 15.6922 15.70362 15.71794 15.72885 15.74618 15.76702 15.78903 15.81723
0 0 0 0 0 0 0 0 0 0 0 0 0 0 0 0 0 0 0 0 0 0 0 0 0 0 0 0 0 0 0 0 0 0 0 0 0 0 0 0 0 0 0 0 0 0 0 0 0 0 0 16.14864 15.73155 15.55001 15.52814 15.5024 15.48283 15.46627 15.45793 15.45874 15.45725 15.46645 15.47557 15.48597 15.49736 15.51013 15.51311 15.51217 15.49803 15.47325 15.44462 15.41108 15.37916 15.34864 15.3228 15.3077 15.29513 15.28534 15.27736 15.27554 15.27417 15.27823 15.28561 15.29186 15.30045 15.31315 15.33036 15.34983 15.3756 15.40622 15.44328 15.47808 15.51455 15.5486 15.5785 15.60677 15.63123 15.64839 15.66706 15.68137 15.69454 15.71147 15.72544 15.73911 15.75269 15.7683 15.78978 15.81007 15.83911
0 0 0 0 0 0 0 0 0 0 0 0 0 0 0 0 0 0 0 0 0 0 0 0 0 0 0 0 0 0 0 0 0 0 0 0 0 0 0 0 0 0 0 0 0 0 0 0 0 0 0 15.97798 15.59055 15.59822 15.57341 15.55711 15.51687 15.50156 15.49637 15.49872 15.50531 15.51893 15.53227 15.54412 15.55744 15.5654 15.57026 15.57034 15.55271 15.52575 15.49439 15.45615 15.41913 15.39152 15.36209 15.34189 15.3261 15.31352 15.30534 15.30104 15.30282 15.30776 15.31475 15.32323 15.33329 15.3439 15.36247 15.38865 15.41835 15.45346 15.49438 15.53339 15.57261 15.60206 15.63112 15.6555 15.67531 15.69064 15.7016 15.71086 15.72031 15.73258 15.7472 15.76116 15.77676 15.79337 15.81154 15.83538 15.86207
0 0 0 0 0 0 0 0 0 0 0 0 0 0 0 0 0 0 0 0 0 0 0 0 0 0 0 0 0 0 0 0 0 0 0 0 0 0 0 0 0 0 0 0 0 0 0 0 0 0 0 15.64477 15.64119 15.63527 15.61103 15.58913 15.55301 15.5399 15.54052 15.54207 15.5527 15.57305 15.59275 15.6084 15.6231 15.63538 15.64206 15.64129 15.62911 15.59831 15.55596 15.5115 15.47012 15.43117 15.40003 15.37407 15.35422 15.33777 15.33111 15.33124 15.33931 15.35013 15.35705 15.36797 15.37846 15.39342 15.41834 15.44872 15.48301 15.51837 15.55467 15.58881 15.61951 15.6492 15.67279 15.69698 15.71669 15.72939 15.74135 15.74916 15.75391 15.76276 15.77572 15.79224 15.80607 15.81961 15.83863 15.85669 15.87887
0 0 0 0 0 0 0 0 0 0 0 0 0 0 0 0 0 0 0 0 0 0 0 0 0 0 0 0 0 0 0 0 0 0 0 0 0 0 0 0 0 0 0 0 0 0 0 0 0 17.6039 16.63943 15.69303 15.6872 15.66042 15.6337 15.60812 15.59155 15.58057 15.58315 15.59302 15.61216 15.6348 15.65352 15.67121 15.68512 15.69363 15.69718 15.69505 15.68363 15.65556 15.62007 15.57782 15.53252 15.49129 15.45154 15.42167 15.39876 15.38165 15.37362 15.37406 15.38306 15.39149 15.40183 15.41195 15.424 15.4435 15.47274 15.50538 15.5434 15.57805 15.61515 15.65052 15.67639 15.70414 15.72527 15.74509 15.76223 15.77524 15.77965 15.78677 15.78834 15.79393 15.80137 15.81732 15.83077 15.84665 15.86416 15.88131 15.90222
0 0 0 0 0 0 0 0 0 0 0 0 0 0 0 0 0 0 0 0 0 0 0 0 0 0 0 0 0 0 0 0 0 0 0 0 0 0 0 0 0 0 0 0 0 0 0 0 16.70953 16.19178 15.95684 15.73315 15.71207 15.67972 15.65159 15.62995 15.61327 15.60494 15.61004 15.6302 15.65842 15.68772 15.71788 15.73133 15.74477 15.75583 15.7594 15.75337 15.74215 15.71161 15.67571 15.62723 15.58155 15.53947 15.50161 15.47133 15.4493 15.43347 15.42658 15.4293 15.43758 15.45026 15.4628 15.47568 15.49189 15.51351 15.53935 15.56798 15.59893 15.63085 15.66303 15.69406 15.71889 15.7467 15.76632 15.78266 15.79842 15.81315 15.82628 15.83072 15.83258 15.83537 15.83915 15.8467 15.85739 15.86843 15.88228 15.8974 15.91431
0 0 0 0 0 0 0 0 0 0 0 0 0 0 0 0 0 0 0 0 0 0 0 0 0 0 0 0 0 0 0 0 0 0 0 0 0 0 0 0 0 0 0 0 0 16.37935 16.24325 16.78102 16.26331 16.28631 16.03042 15.77734 15.74533 15.71041 15.6791 15.6579 15.64836 15.64007 15.65016 15.66964 15.70212 15.73056 15.76162 15.77877 15.79397 15.80707 15.81458 15.81042 15.79772 15.77195 15.73649 15.69029 15.6436 15.60007 15.56271 15.53427 15.50637 15.49047 15.48379 15.48212 15.48784 15.50002 15.5158 15.53103 15.55274 15.57738 15.60505 15.63039 15.66078 15.68875 15.71525 15.74332 15.76985 15.79204 15.80945 15.82266 15.83799 15.84907 15.86349 15.87103 15.87313 15.87321 15.87252 15.87549 15.88293 15.89376 15.90535 15.91787 15.93274
0 0 0 0 0 0 0 0 0 0 0 0 0 0 0 0 0 0 0 0 0 0 0 0 0 0 0 0 0 0 0 0 0 0 0 0 0 0 0 0 0 0 18.40755 18.10893 17.13199 16.31474 15.82741 15.84552 16.3562 16.08406 15.83652 15.80425 15.77086 15.73817 15.71079 15.69501 15.68521 15.69387 15.70859 15.73285 15.7608 15.78735 15.81843 15.84205 15.86006 15.86754 15.86723 15.85893 15.84499 15.81742 15.78401 15.74206 15.70073 15.65635 15.6218 15.59101 15.5681 15.55477 15.5528 15.55531 15.55878 15.56984 15.58285 15.599 15.61446 15.63532 15.65875 15.67943 15.70513 15.73102 15.75581 15.78774 15.81472 15.84012 15.85285 15.87117 15.88988 15.90024 15.91221 15.91884 15.91917 15.9119 15.90857 15.90316 15.90549 15.91402 15.9229 15.9345 15.94756
0 0 0 0 0 0 0 0 0 0 0 0 0 0 0 0 0 0 0 0 0 0 0 0 0 0 0 0 0 0 0 0 0 0 0 0 0 0 0 0 17.4958 17.89359 18.15891 17.22687 16.3729 15.87587 15.90349 15.92077 15.91628 15.89734 15.86997 15.83542 15.7986 15.76807 15.74165 15.73233 15.73202 15.73908 15.75677 15.78112 15.80942 15.84118 15.87078 15.90059 15.91783 15.92345 15.92211 15.91795 15.90288 15.88016 15.84253 15.80617 15.7668 15.72347 15.68359 15.65092 15.62373 15.60776 15.60478 15.60786 15.61889 15.62612 15.64555 15.66331 15.67932 15.69774 15.71638 15.73906 15.76122 15.78819 15.81102 15.83174 15.8538 15.87327 15.88985 15.90713 15.92523 15.93797 15.94809 15.95166 15.95194 15.94562 15.93858 15.93407 15.93513 15.9388 15.94674 15.95664 15.96838
0 0 0 0 0 0 0 0 0 0 0 0 0 0 0 0 0 0 0 0 0 0 0 0 0 0 0 0 0 0 0 0 0 0 0 0 0 0 0 17.69768 17.46466 16.92727 16.67774 15.89037 15.90615 15.92328 15.9393 15.96006 15.95858 15.93435 15.90091 15.87021 15.83581 15.80791 15.79342 15.79428 15.79528 15.80786 15.8238 15.84949 15.8717 15.89816 15.92811 15.95125 15.96945 15.97411 15.97562 15.96985 15.95475 15.93169 15.90484 15.87421 15.83925 15.80243 15.76487 15.72874 15.70198 15.68153 15.66701 15.66588 15.67412 15.68336 15.69593 15.7172 15.73027 15.74678 15.76428 15.78518 15.80457 15.82987 15.85527 15.8781 15.89489 15.91657 15.93257 15.95002 15.96669 15.97758 15.98353 15.98167 15.97717 15.9719 15.96404 15.95751 15.95791 15.95949 15.9677 15.97878 15.99224
0 0 0 0 0 0 0 0 0 0 0 0 0 0 0 0 0 0 0 0 0 0 0 0 0 0 0 0 0 0 0 0 0 0 0 0 0 0 16.91005 16.6276 16.39262 15.90115 15.92923 15.94612 15.96012 15.96768 15.97521 15.98016 15.9747 15.95965 15.93307 15.90973 15.88461 15.85987 15.84934 15.84435 15.85446 15.86836 15.88394 15.90894 15.93941 15.96195 15.98895 16.01112 16.02417 16.03388 16.03857 16.03356 16.01908 15.99355 15.96819 15.93695 15.90031 15.86534 15.8272 15.7928 15.76636 15.74238 15.72967 15.72843 15.73708 15.74915 15.76327 15.77798 15.79047 15.80442 15.82497 15.84018 15.85547 15.87615 15.898 15.91503 15.92774 15.94359 15.96433 15.9813 15.99538 16.00663 16.00658 16.00831 16.00413 15.99808 15.99154 15.98824 15.98473 15.98895 16.00127 16.01607 16.0275
0 0 0 0 0 0 0 0 0 0 0 0 0 0 0 0 0 0 0 0 0 0 0 0 0 0 0 0 0 0 0 0 0 0 18.54408 19.15077 18.29573 16.64198 15.83786 15.87114 15.90844 15.93284 15.95736 15.97407 15.98791 15.99131 15.9963 15.99759 15.99361 15.98874 15.9765 15.96495 15.95158 15.93629 15.92957 15.9207 15.92568 15.92759 15.94711 15.96708 15.99479 16.00985 16.03351 16.0536 16.06638 16.08272 16.08764 16.0902 16.07795 16.06035 16.03698 16.0095 15.97715 15.94327 15.90794 15.87408 15.84501 15.82139 15.80389 15.79919 15.80065 15.80542 15.81874 15.82735 15.83998 15.85312 15.8738 15.88671 15.8998 15.91863 15.94163 15.96082 15.97253 15.9891 16.00293 16.0168 16.02894 16.03391 16.03297 16.02712 16.02618 16.01916 16.01325 16.01048 16.01233 16.01993 16.04179 16.06396 16.0696
0 0 0 0 0 0 0 0 0 0 0 0 0 0 0 0 0 0 0 0 0 0 0 0 0 0 0 0 0 18.99654 18.59958 18.38398 18.37724 18.15683 17.87551 17.29969 15.85666 15.87596 15.89314 15.91372 15.93304 15.95274 15.97863 15.99267 16.00462 16.00604 16.00688 16.00753 16.01032 16.01212 16.00885 16.0083 16.00138 15.99916 15.99382 15.99135 15.99523 15.99905 16.01572 16.04109 16.05756 16.07061 16.0885 16.10291 16.12012 16.12782 16.1353 16.13452 16.12675 16.11523 16.09336 16.06653 16.03874 16.01251 15.98151 15.9492 15.923 15.90238 15.89085 15.88685 15.88425 15.8853 15.89382 15.89848 15.90129 15.9097 15.92341 15.93732 15.94095 15.95912 15.97936 15.99282 16.01163 16.02667 16.0384 16.05299 16.06046 16.06625 16.06502 16.05976 16.05697 16.04763 16.04159 16.04179 16.04766 16.05812 16.07711 16.09217 16.08705
0 0 0 0 0 0 0 0 0 0 0 0 0 0 0 0 0 0 0 0 0 0 0 0 0 18.77424 18.0552 18.05775 17.12871 16.49531 16.19362 15.9113 15.90592 15.90486 15.89928 15.89459 15.89271 15.89998 15.90995 15.92563 15.94237 15.96575 15.98299 15.99856 16.00561 16.01263 16.01889 16.03119 16.04484 16.05314 16.05902 16.06257 16.06152 16.0586 16.05296 16.04808 16.05137 16.05433 16.06679 16.08336 16.09562 16.11266 16.12977 16.14763 16.16766 16.18226 16.18894 16.19641 16.1904 16.18067 16.16393 16.14205 16.11604 16.08914 16.0589 16.02801 15.9984 15.98004 15.96852 15.96142 15.95371 15.95348 15.95727 15.95942 15.96304 15.97156 15.98354 15.99539 16.00212 16.01129 16.02575 16.04106 16.05306 16.06651 16.07571 16.081 16.08382 16.08466 16.08569 16.08265 16.07859 16.073 16.07033 16.07677 16.08724 16.10458 16.11611 16.11529 16.08755
0 0 0 0 0 0 0 0 0 0 0 0 0 0 0 0 0 0 0 0 0 0 0 18.95672 18.09313 17.5176 17.2025 16.88762 15.97572 15.97032 15.9639 15.95 15.93497 15.92408 15.91702 15.91251 15.91451 15.91366 15.91949 15.93012 15.94709 15.96827 15.98513 15.999 16.01028 16.02206 16.03889 16.05587 16.07271 16.092 16.10475 16.10993 16.11343 16.10911 16.11035 16.10927 16.10583 16.10891 16.11526 16.1287 16.13557 16.14146 16.16343 16.1857 16.19991 16.21567 16.22776 16.23402 16.23071 16.2252 16.21502 16.201 16.18445 16.16671 16.14421 16.11869 16.09696 16.08051 16.06525 16.05207 16.04334 16.03634 16.028 16.02387 16.02252 16.02888 16.03287 16.03722 16.04706 16.05752 16.06714 16.08156 16.09332 16.10281 16.11029 16.11092 16.11373 16.11354 16.11236 16.11208 16.10998 16.10711 16.10438 16.11222 16.12346 16.13558 16.1393 16.12263 16.08491
0 0 0 0 0 0 0 0 0 0 0 0 0 0 0 0 0 0 0 0 0 0 18.39889 17.5421 17.22942 17.22675 16.90988 16.58483 15.98312 15.97087 15.96115 15.94715 15.93421 15.92313 15.91863 15.91273 15.9089 15.90914 15.91835 15.93445 15.94885 15.96434 15.9819 16.0029 16.0201 16.04049 16.06504 16.08312 16.0998 16.11485 16.12862 16.13444 16.13818 16.13903 16.13532 16.13607 16.14378 16.14681 16.15535 16.16291 16.17039 16.17885 16.20086 16.22012 16.23459 16.25362 16.2627 16.27031 16.27379 16.26859 16.25968 16.24531 16.23372 16.21873 16.20174 16.18454 16.16571 16.15409 16.1428 16.13354 16.12602 16.1135 16.10362 16.10061 16.09496 16.0961 16.10476 16.10655 16.1103 16.11323 16.11624 16.12387 16.1288 16.13318 16.13699 16.13499 16.13451 16.13466 16.13761 16.138 16.13932 16.1376 16.14241 16.15237 16.16195 16.16768 16.15678 16.12799 16.08137
0 0 0 0 0 0 0 0 0 0 0 0 0 0 0 0 0 0 0 0 0 19.61724 18.6083 17.53927 16.91968 16.91398 16.59094 16.5823 15.97841 15.96738 15.95785 15.94534 15.93372 15.92524 15.91793 15.91089 15.90821 15.91095 15.91902 15.93422 15.95469 15.97149 15.98988 16.0129 16.03493 16.05932 16.08599 16.10742 16.12287 16.13693 16.14896 16.15834 16.15991 16.15859 16.16192 16.16416 16.16652 16.17993 16.18319 16.18746 16.19395 16.20233 16.22216 16.23901 16.2555 16.27411 16.28572 16.29881 16.30074 16.30021 16.30056 16.29708 16.2891 16.27988 16.26841 16.25761 16.244 16.23229 16.2169 16.20465 16.18565 16.17343 16.15956 16.15603 16.15286 16.15585 16.16552 16.16822 16.17259 16.17523 16.17247 16.17767 16.17632 16.17615 16.1756 16.1724 16.17069 16.16807 16.1687 16.16536 16.16633 16.1689 16.17446 16.18408 16.19257 16.189 16.17331 16.13051 16.06863
0 0 0 0 0 0 0 0 0 0 0 0 0 0 0 0 0 0 0 0 0 0 0 18.13412 17.25338 16.92802 16.60386 16.27998 15.96728 15.95525 15.94726 15.94271 15.93353 15.92494 15.91625 15.91638 15.91403 15.91943 15.92353 15.94042 15.96003 15.98139 16.0045 16.02581 16.04642 16.06908 16.09169 16.11144 16.13094 16.14642 16.15898 16.17449 16.18153 16.18248 16.185 16.18458 16.1874 16.20162 16.20769 16.2175 16.22739 16.23699 16.24839 16.26473 16.27657 16.28557 16.30272 16.31728 16.32163 16.32664 16.33 16.33303 16.33217 16.33215 16.32806 16.32651 16.31741 16.30609 16.29308 16.27796 16.2623 16.25067 16.24002 16.231 16.22874 16.2269 16.22779 16.23123 16.22922 16.22353 16.221 16.21748 16.21229 16.20911 16.20709 16.21028 16.21012 16.20789 16.20801 16.20534 16.20725 16.21413 16.21969 16.22663 16.22659 16.21352 16.1837 16.13291 16.06121
0 0 0 0 0 0 0 0 0 0 0 0 0 0 0 0 0 0 0 0 0 20.04745 19.76204 18.78156 17.30665 16.96473 16.62306 16.59278 16.25462 15.95206 15.94334 15.93731 15.93206 15.92761 15.92349 15.9214 15.92187 15.92773 15.93732 15.94922 15.97056 15.99557 16.01808 16.0392 16.05737 16.07712 16.09552 16.1218 16.14328 16.16376 16.18019 16.19517 16.20287 16.20719 16.20771 16.20966 16.21307 16.22045 16.22677 16.24052 16.24897 16.2621 16.27409 16.286 16.29712 16.30963 16.32421 16.3415 16.34882 16.35331 16.36277 16.36963 16.37366 16.37896 16.38049 16.3766 16.36898 16.35568 16.3411 16.32775 16.31739 16.30834 16.30545 16.3023 16.30073 16.29592 16.29687 16.29442 16.28975 16.28053 16.2687 16.26355 16.25521 16.25194 16.24783 16.24618 16.24369 16.24214 16.24052 16.24044 16.24319 16.24746 16.25653 16.25893 16.25264 16.23227 16.19477 16.13983 16.05466
0 0 0 0 0 0 0 0 0 0 0 0 0 0 0 0 0 0 0 20.04991 20.004 19.91761 19.10017 18.00591 17.35278 17.00637 16.6463 16.93697 15.97671 15.95135 15.94286 15.93834 15.9391 15.93789 15.93447 15.93351 15.93376 15.94124 15.95501 15.96968 15.98807 16.00876 16.02816 16.05059 16.07053 16.08933 16.11287 16.13322 16.15689 16.17676 16.19912 16.22059 16.23694 16.24379 16.24871 16.25097 16.25649 16.25825 16.26756 16.26792 16.2752 16.28012 16.29085 16.30245 16.31764 16.32979 16.34386 16.357 16.36521 16.37701 16.39166 16.40385 16.41664 16.4237 16.43002 16.43212 16.42713 16.4186 16.40813 16.39983 16.38899 16.38086 16.37355 16.36953 16.36042 16.34815 16.33963 16.3371 16.32823 16.31825 16.30747 16.3061 16.30166 16.29851 16.29807 16.29581 16.29323 16.29084 16.29211 16.28983 16.28805 16.29167 16.29471 16.28944 16.27504 16.24663 16.20781 16.14867 16.06169
0 0 0 0 0 0 0 0 0 0 0 0 0 0 0 0 0 0 19.57697 19.4512 19.10883 18.65847 18.05876 17.40529 17.07287 17.03561 16.66675 16.31084 15.98812 15.95722 15.94796 15.94532 15.94659 15.94817 15.94824 15.95167 15.95506 15.96417 15.97564 15.99023 16.01204 16.03237 16.04998 16.07177 16.09278 16.11427 16.13127 16.15361 16.17868 16.2033 16.22322 16.24378 16.26245 16.27516 16.28302 16.29415 16.29576 16.30358 16.29912 16.30767 16.31101 16.31548 16.32152 16.32931 16.3418 16.35584 16.36744 16.37754 16.38442 16.39563 16.41306 16.42834 16.44403 16.45649 16.46654 16.47343 16.47246 16.47118 16.46882 16.46424 16.4603 16.45101 16.44697 16.43872 16.4272 16.41208 16.39701 16.38522 16.37243 16.36181 16.35215 16.34377 16.33842 16.3341 16.32984 16.32976 16.33258 16.32866 16.33002 16.3324 16.33239 16.33396 16.33274 16.32414 16.30534 16.27284 16.23289 16.17096 16.09023
0 0 0 0 0 0 0 0 0 0 0 0 0 0 0 0 0 20.02907 19.48631 18.86839 18.37066 17.75884 17.44485 17.4393 17.43101 17.04809 16.67741 16.02523 15.99463 15.96886 15.95836 15.95726 15.95936 15.96062 15.96075 15.96949 15.97479 15.98519 15.99671 16.01128 16.03351 16.05449 16.07507 16.10065 16.1224 16.14409 16.16413 16.18794 16.21675 16.24334 16.2649 16.28988 16.30823 16.32043 16.33059 16.33646 16.33478 16.33496 16.33805 16.34911 16.35046 16.35049 16.35585 16.36269 16.37042 16.38229 16.39293 16.40137 16.40581 16.41662 16.43479 16.45722 16.47519 16.49089 16.49956 16.50967 16.51603 16.51868 16.52026 16.51719 16.51467 16.50592 16.49754 16.48555 16.47271 16.45814 16.44479 16.43269 16.4187 16.40877 16.40018 16.39304 16.38798 16.37928 16.37386 16.37107 16.36965 16.36913 16.36882 16.36464 16.36726 16.36701 16.35922 16.34671 16.32861 16.29776 16.2574 16.19899 16.12892
0 0 0 0 0 0 0 0 0 0 0 0 0 0 0 0 19.55375 19.5278 18.6687 18.1033 17.79426 17.46862 17.45628 17.45581 17.4354 17.061 16.68332 16.03798 16.00174 15.97933 15.97112 15.97311 15.97683 15.98455 15.98489 15.99116 15.9999 16.00848 16.0193 16.03496 16.05791 16.07907 16.10309 16.12876 16.15524 16.17915 16.20298 16.22936 16.25513 16.28557 16.31143 16.33329 16.3521 16.36612 16.37449 16.38094 16.38456 16.3897 16.3907 16.39211 16.39391 16.39287 16.39193 16.39081 16.39161 16.39857 16.41086 16.41611 16.41966 16.4328 16.45162 16.47233 16.49582 16.51554 16.53359 16.5463 16.55808 16.5623 16.56937 16.57474 16.57428 16.56781 16.5559 16.54313 16.52654 16.50636 16.49156 16.47022 16.45317 16.43845 16.42861 16.42321 16.41703 16.4116 16.41141 16.40566 16.40032 16.40214 16.40229 16.40068 16.40174 16.39982 16.39711 16.38282 16.36315 16.33305 16.29183 16.23538 16.16569
0 0 0 0 0 0 0 0 0 0 0 0 0 0 0 20.12899 19.39055 18.69234 18.11989 17.81017 17.47823 17.48074 17.46858 17.11249 17.08926 16.73214 16.07033 16.03708 16.01048 15.99326 15.98506 15.98973 15.99999 16.01027 16.01297 16.02481 16.03429 16.04522 16.0581 16.07529 16.09981 16.12796 16.15427 16.1829 16.20937 16.23352 16.25853 16.28529 16.31144 16.33576 16.35818 16.37821 16.39434 16.40528 16.4167 16.42293 16.42679 16.43308 16.43923 16.449 16.44852 16.44719 16.44159 16.43038 16.41762 16.41658 16.41984 16.42698 16.43674 16.4482 16.4655 16.48626 16.51319 16.53606 16.55684 16.57516 16.58823 16.596 16.60311 16.60794 16.61185 16.61062 16.6063 16.59223 16.57807 16.56043 16.54232 16.52142 16.50221 16.47864 16.46661 16.4532 16.44883 16.44298 16.43714 16.42983 16.42023 16.42206 16.42372 16.42273 16.42368 16.42598 16.41757 16.40836 16.39044 16.36533 16.32894 16.27742 16.20872
0 0 0 0 0 0 0 0 0 0 0 0 0 0 19.47347 19.46878 18.7525 18.13978 17.81715 17.47902 17.48001 17.12723 17.09736 17.09124 16.74457 16.39373 16.06776 16.04411 16.02369 16.01031 16.00564 16.01477 16.02704 16.0407 16.05048 16.05897 16.06885 16.08024 16.09663 16.11981 16.1479 16.18128 16.21364 16.24462 16.27355 16.29998 16.32854 16.35696 16.38253 16.4049 16.41903 16.43744 16.45218 16.46056 16.46676 16.47426 16.47963 16.48698 16.49738 16.50881 16.50833 16.50601 16.49903 16.4829 16.46489 16.44781 16.44089 16.44188 16.45213 16.45855 16.47397 16.498 16.52813 16.55835 16.5863 16.60525 16.62539 16.63511 16.64516 16.64651 16.64624 16.64516 16.64161 16.62763 16.61539 16.60196 16.5808 16.56445 16.53553 16.51486 16.50158 16.48857 16.48196 16.47424 16.46855 16.45958 16.45309 16.44815 16.44851 16.44788 16.44897 16.44889 16.44474 16.43125 16.41325 16.38702 16.34723 16.29942 16.23218
0 0 0 0 0 0 0 0 0 0 0 0 0 19.35245 19.52652 18.76959 18.14437 17.82208 17.4754 17.47 17.12152 17.10316 17.09004 17.08973 16.73287 16.0856 16.06288 16.04376 16.03281 16.03128 16.03844 16.05251 16.07114 16.08561 16.095 16.10585 16.11514 16.12858 16.15083 16.17648 16.20983 16.24841 16.28339 16.31265 16.3418 16.36774 16.39815 16.42628 16.45006 16.46536 16.47708 16.4915 16.50104 16.50874 16.51369 16.51529 16.51857 16.53008 0 0 0 16.50446 16.51056 16.55429 16.53422 16.49993 16.47495 16.46289 16.46471 16.46513 16.47803 16.50038 16.53542 16.57043 16.6004 16.62705 16.64676 16.66979 16.68198 16.68844 16.68997 16.68823 16.68598 16.67838 16.66418 16.65321 16.63308 16.61514 16.58949 16.56678 16.54511 16.52871 16.51508 16.50287 16.49794 16.48852 16.47797 16.47092 16.46974 16.47129 16.47214 16.47387 16.47121 16.46166 16.44414 16.41545 16.37544 16.32404 16.25429
0 0 0 0 0 0 0 0 0 0 0 0 0 19.73755 18.79327 18.16087 17.80789 17.45516 17.45695 17.10171 17.09743 17.08917 17.09058 16.09955 16.08844 16.0775 16.06246 16.0524 16.05327 16.05796 16.06964 16.08445 16.10659 16.1236 16.1346 16.14823 16.16327 16.18053 16.20271 16.23793 16.2812 16.32429 16.36196 16.3958 16.42605 16.456 16.48614 16.50885 16.52127 16.53061 16.54051 17.32293 16.55643 16.54687 16.54373 16.907 17.6886 18.48642 0 0 0 0 0 16.96458 16.57474 16.54442 16.5116 16.49061 16.47568 16.47538 16.4857 16.50937 16.54357 16.57958 16.6166 16.64637 16.67366 16.69552 16.70931 16.71632 16.71711 16.71403 16.71628 16.71228 16.70773 16.69692 16.68485 16.66602 16.64861 16.62939 16.60938 16.58688 16.56878 16.55342 16.545 16.52964 16.516 16.50464 16.49805 16.49886 16.49751 16.49541 16.49399 16.48264 16.46411 16.44004 16.39614 16.34201 16.26932
0 0 0 0 0 0 0 0 0 0 0 0 19.89188 19.08755 18.14925 17.79563 17.42906 17.07946 17.08838 17.09995 17.09811 17.09795 16.75275 16.10161 16.09319 16.08265 16.07548 16.07374 16.07468 16.08461 16.0969 16.11565 16.13968 16.1582 16.16904 16.18514 16.20243 16.22275 16.25525 16.29466 16.34217 16.39151 16.43229 16.46737 16.50006 16.52401 16.53466 0 0 16.5308 0 18.21189 17.38757 16.96042 17.34256 17.31951 18.10648 18.52994 19.48943 17.28435 16.55056 0 0 0 18.19506 16.55698 16.52496 16.50205 16.47979 16.48166 16.49274 16.5151 16.54814 16.58918 16.62847 16.664 16.69571 16.72015 16.73757 16.74311 16.74816 16.74593 16.74739 16.74164 16.73389 16.72724 16.71785 16.70502 16.68864 16.67284 16.65546 16.63164 16.61154 16.59788 16.58197 16.57058 16.55556 16.54448 16.53616 16.53266 16.5292 16.52678 16.5218 16.50643 16.489 16.46312 16.4198 16.35844 16.28156
0 0 0 0 0 0 0 0 0 0 0 19.13287 19.1168 18.1553 17.7943 17.05927 17.07768 17.09217 17.10407 17.11032 17.12267 16.44594 16.12699 16.11747 16.10764 16.10006 16.09868 16.10378 16.10829 16.12186 16.13412 16.15228 16.1742 16.19612 16.21241 16.22972 16.2501 16.28207 16.3217 16.3741 16.42959 16.47386 16.50505 16.53251 17.33151 0 0 0 0 0 19.00288 19.79388 19.54707 18.95485 18.57315 18.13786 18.11922 16.91898 16.54552 16.55186 16.55059 16.54922 16.54297 18.57299 18.93499 16.54662 16.51962 16.50044 16.48943 16.48643 16.4977 16.52027 16.55298 16.59457 16.63507 16.67447 16.70318 16.73145 16.75049 16.7656 16.77235 16.77384 16.77472 16.76902 16.76109 16.75741 16.75707 16.74678 16.73614 16.71881 16.69989 16.68089 16.65883 16.63964 16.62214 16.60714 16.59032 16.57611 16.56816 16.5594 16.55321 16.54995 16.54541 16.53188 16.5121 16.48361 16.44529 16.3844 16.30252
0 0 0 0 0 0 0 0 0 0 19.88223 19.15261 18.16541 17.42594 17.07692 16.74868 16.76274 16.78138 16.79315 16.80189 16.81035 16.15932 16.15299 16.14099 16.13281 16.12633 16.13471 16.14409 16.15235 16.16296 16.17584 16.19287 16.21162 16.22818 16.24608 16.26889 16.29855 16.33808 16.38907 16.45637 16.51549 16.54778 16.94608 0 0 0 0 0 0 0 0 0 0 0 18.94639 18.57074 17.74665 16.55301 16.5627 16.56819 16.56427 16.55301 16.54563 16.54508 16.54239 16.53616 16.51638 16.50036 16.50422 16.50307 16.51339 16.5347 16.56795 16.60646 16.64375 16.68145 16.71292 16.74015 16.76061 16.77709 16.7843 16.78719 16.78517 16.78429 16.78131 16.78055 16.7771 16.77102 16.76373 16.75551 16.73867 16.72087 16.70134 16.6875 16.66958 16.65149 16.63259 16.62218 16.61168 16.599 16.58824 16.57907 16.56897 16.55406 16.52946 16.49942 16.4592 16.39614 16.31803
0 0 0 0 0 0 0 0 0 0 19.44311 18.16851 17.43084 17.07627 16.42495 16.43933 16.14324 16.15941 16.17967 16.18311 16.18336 16.18186 16.17813 16.17559 16.1716 16.17225 16.18786 16.20275 16.21282 16.22102 16.23435 16.246 16.25997 16.27577 16.29234 16.31619 16.34789 16.38874 16.44193 16.50915 17.74405 0 0 0 0 0 0 0 0 0 0 0 0 0 19.60614 18.2062 16.58397 16.58504 16.58987 16.59414 16.59622 16.58989 16.58159 16.57186 16.55937 16.54182 16.52349 16.51244 16.51937 16.52027 16.52764 16.54978 16.58018 16.61705 16.65517 16.68914 16.72254 16.75357 16.7765 16.7875 16.79591 16.79993 16.80273 16.80601 16.80753 16.80317 16.80202 16.79642 16.78937 16.77984 16.76549 16.74629 16.73012 16.72295 16.7077 16.69408 16.67 16.65966 16.65084 16.64078 16.62736 16.61439 16.59877 16.57808 16.55285 16.5198 16.47331 16.40957 16.3364
0 0 0 0 0 0 0 0 0 19.52998 18.88604 17.80767 17.07545 16.41611 16.12446 16.12856 16.13736 16.15395 16.17219 16.1865 16.19803 16.19996 16.20753 16.21303 16.21572 16.22381 16.23642 16.25202 16.26671 16.27678 16.29027 16.30079 16.31328 16.32731 16.34169 16.3659 16.39951 16.44447 16.49147 17.31887 17.55165 0 0 0 0 0 0 0 0 0 0 0 0 18.88281 18.64379 17.40025 16.59838 16.61016 16.62306 16.63313 16.63694 16.6337 16.62586 16.6119 16.59571 16.57416 16.55869 16.55108 16.54692 16.54463 16.55141 16.57348 16.59846 16.63188 16.6643 16.69714 16.73313 16.76034 16.78156 16.79645 16.80821 16.81299 16.82085 16.82171 16.82265 16.82284 16.82049 16.8219 16.82126 16.81112 16.80106 16.77907 16.7632 16.75347 16.74053 16.72712 16.71096 16.69595 16.6807 16.66896 16.6565 16.6434 16.61612 16.59438 16.56832 16.53326 16.48415 16.41957 16.34774
0 0 0 0 0 0 0 0 20.37168 19.2431 17.81686 17.05694 16.70975 16.09513 16.10379 16.11317 16.12573 16.14517 16.16747 16.18438 16.20575 16.22335 16.23791 16.24614 16.25193 16.26089 16.27744 16.29735 16.30701 16.3223 16.33032 16.34296 16.34954 16.36382 16.37623 16.40385 16.43411 16.47062 16.87776 17.32647 17.78535 18.62603 0 19.46813 20.05031 0 0 0 0 0 0 0 19.67315 18.65443 17.83652 16.6057 16.61689 16.63656 16.65585 16.66497 16.66519 16.65733 16.64417 16.63034 16.61731 16.60087 16.58722 16.58132 16.57572 16.57777 16.58489 16.60177 16.63129 16.65602 16.68845 16.72227 16.74888 16.77758 16.80088 16.81682 16.82888 16.83366 16.83576 16.83732 16.83562 16.84 16.84125 16.84334 16.84027 16.83146 16.8233 16.8085 16.79233 16.78221 16.7706 16.75803 16.75047 16.73183 16.71888 16.70464 16.69013 16.67015 16.63865 16.61228 16.57932 16.53745 16.48393 16.41753 16.3453
0 0 0 0 0 0 0 0 20.40066 19.26306 17.81664 17.0522 16.07403 16.08486 16.09096 16.10121 16.12339 16.14898 16.17075 16.19625 16.22338 16.24907 16.26228 16.27265 16.28429 16.30333 16.32838 16.35226 16.37071 16.38279 16.39353 16.40274 16.40442 16.40696 16.41885 16.4393 16.46763 16.49118 16.51558 16.93071 17.35786 17.79906 18.2383 18.68085 19.4546 0 0 0 0 0 0 19.06472 18.24962 18.24753 16.60717 16.62683 16.65296 16.67586 16.69028 16.69653 16.69408 16.68212 16.66756 16.65284 16.63545 16.62175 16.61255 16.59735 16.59614 16.59946 16.60639 16.62655 16.65064 16.67554 16.70859 16.7425 16.77177 16.80129 16.8253 16.84312 16.85468 16.86062 16.86298 16.8663 16.87211 16.86726 16.87105 16.86966 16.8614 16.85576 16.84215 16.82759 16.81115 16.79964 16.79045 16.78277 16.77744 16.75986 16.74134 16.72902 16.71167 16.68574 16.65383 16.61798 16.57835 16.53643 16.48379 16.41489 16.34045
0 0 0 0 0 0 0 0 0 19.29199 17.82365 17.05276 16.0676 16.07345 16.08127 16.09941 16.12333 16.15377 16.18114 16.21376 16.24892 16.27599 16.28951 16.30302 16.32104 16.34179 16.37456 16.40654 16.43207 16.45314 16.46047 16.46432 16.46178 16.46242 16.47205 16.49078 16.5058 16.51902 16.53179 16.54313 16.55412 16.56817 16.58039 16.97229 17.81568 18.65242 19.45646 19.7814 0 0 19.40185 18.23582 17.39511 16.602 16.62147 16.65289 16.68786 16.70912 16.71953 16.71986 16.71607 16.70565 16.69087 16.6763 16.66378 16.65006 16.64112 16.62904 16.62689 16.62966 16.64083 16.65468 16.67374 16.70295 16.72977 16.76176 16.79362 16.8226 16.84832 16.86503 16.87533 16.88331 16.88196 16.88725 16.89094 16.8908 16.89217 16.8933 16.89117 16.88041 16.86909 16.85752 16.8436 16.83295 16.82239 16.81217 16.79838 16.78786 16.7709 16.74807 16.72633 16.69431 16.65569 16.61868 16.57563 16.52974 16.47306 16.40863 16.33651
0 0 0 0 0 0 0 0 0 20.27988 18.59834 17.44857 16.37129 16.07106 16.07955 16.10336 16.12905 16.15784 16.19285 16.23313 16.26756 16.29794 16.31776 16.34118 16.36459 16.39682 16.43277 16.46936 16.4959 16.51254 16.5182 16.52008 16.51337 16.51127 16.52156 16.53127 16.54093 16.54714 16.55254 16.55456 16.55726 16.56128 16.56604 16.57562 16.96625 17.38708 17.81414 18.22746 19.42056 18.2462 16.95755 16.5821 16.60224 16.62463 16.65498 16.68248 16.71831 16.73393 16.74158 16.73779 16.72963 16.7193 16.70627 16.69199 16.67843 16.67069 16.66071 16.65333 16.6529 16.65908 16.66789 16.68473 16.70696 16.73321 16.76041 16.79092 16.81984 16.84596 16.86906 16.88347 16.89159 16.89942 16.89778 16.90437 16.90338 16.90606 16.90756 16.90831 16.91105 16.9036 16.89242 16.88447 16.87171 16.86044 16.84643 16.83472 16.82421 16.81303 16.79663 16.76759 16.74216 16.70337 16.66148 16.62266 16.58103 16.52636 16.46664 16.40479 16.32491
0 0 0 0 0 0 0 0 0 20.41642 19.60375 17.86571 16.71426 16.0741 16.08815 16.11506 16.13578 16.16545 16.20572 16.24531 16.27993 16.31708 16.34784 16.37896 16.4129 16.45585 16.50127 16.54541 16.58273 16.59262 16.59357 16.58791 16.56902 16.56229 16.56437 16.56875 16.57348 16.5741 16.57082 16.56651 16.56436 16.56387 16.5664 16.57259 16.58234 16.59189 16.98947 0 18.25879 16.984 16.6062 16.62896 16.651 16.67598 16.70101 16.72561 16.752 16.76093 16.76015 16.75547 16.74469 16.73374 16.72595 16.71489 16.70308 16.69394 16.68616 16.67792 16.67585 16.67833 16.68875 16.70443 16.72906 16.7541 16.77863 16.8071 16.83224 16.85934 16.87943 16.8946 16.90471 16.91192 16.91384 16.91761 16.91994 16.92532 16.93345 16.93133 16.93309 16.92537 16.91612 16.90611 16.89284 16.87917 16.86842 16.85854 16.84902 16.83487 16.80592 16.78188 16.74984 16.70745 16.66307 16.62918 16.58217 16.52325 16.45735 16.39306 16.30904
0 0 0 0 0 0 0 0 0 0 20.12848 18.67462 17.10764 16.41661 16.11663 16.12585 16.14389 16.17108 16.20432 16.24365 16.28434 16.33625 16.37328 16.4074 16.44527 16.49635 16.55134 16.59787 0 0 0 16.82773 16.6048 16.59769 16.59661 16.59904 16.60124 16.59598 16.58691 16.57726 16.56395 16.56213 16.56632 16.57601 16.58907 16.60072 16.61742 17.02154 16.63263 16.63572 16.65241 16.67232 16.69761 16.72086 16.73928 16.75737 16.77178 16.77384 16.77387 16.77202 16.76582 16.76015 16.74921 16.74633 16.73681 16.72747 16.72269 16.71437 16.71147 16.71367 16.71949 16.73243 16.75319 16.77451 16.80112 16.82657 16.85077 16.87233 16.88917 16.90394 16.91201 16.91648 16.92322 16.93248 16.93427 16.93836 16.94171 16.94563 16.94317 16.94163 16.93272 16.92687 16.91469 16.90391 16.89388 16.88445 16.87193 16.85683 16.83157 16.79943 16.76319 16.71639 16.67629 16.63662 16.58633 16.5276 16.45748 16.38433 16.29878
0 0 0 0 0 0 0 0 0 0 0 20.04854 18.72727 17.15253 16.43798 16.12496 16.14505 16.17118 16.20312 16.244 16.2943 16.35265 16.39466 16.42675 16.46703 16.52449 16.94187 17.35627 0 0 0 17.49823 17.78338 16.60467 16.6053 16.60922 16.61252 16.6072 16.59636 16.58595 16.57228 16.56689 16.5702 16.58277 16.60275 16.62176 16.63584 16.6518 16.65988 16.67406 16.69682 16.71808 16.74309 16.76045 16.77323 16.78184 16.78653 16.78789 16.78488 16.78647 16.78591 16.78096 16.7763 16.77028 16.76405 16.75686 16.75248 16.74788 16.74443 16.74708 16.75329 16.7662 16.78458 16.80486 16.82652 16.84726 16.86993 16.88951 16.90895 16.91464 16.92318 16.93077 16.93885 16.94589 16.95225 16.95684 16.95801 16.96327 16.97002 16.96723 16.95819 16.9491 16.93639 16.92121 16.91224 16.90048 16.8841 16.86586 16.84498 16.81153 16.77948 16.73656 16.69147 16.65279 16.5984 16.53392 16.45871 16.38366 16.30148
0 0 0 0 0 0 0 0 0 0 0 0 20.30387 19.14014 17.16562 16.45033 16.13893 16.16241 16.20272 16.24837 16.30782 16.3681 16.40823 16.44102 16.47697 16.53488 17.32244 0 0 18.96423 19.06304 17.41734 16.6226 16.60667 16.60488 16.60824 16.6134 16.61214 16.60737 16.59763 16.5881 16.58129 16.58178 16.59568 16.61389 16.63553 16.65501 16.66842 16.68522 16.70741 16.73132 16.75293 16.77571 16.79206 16.80378 16.81103 16.81476 16.81546 16.81147 16.80741 16.8077 16.80282 16.79874 16.79388 16.79109 16.78731 16.78542 16.77745 16.77425 16.77768 16.78312 16.79333 16.8086 16.82784 16.84588 16.86771 16.88725 16.91033 16.9233 16.93262 16.94169 16.94769 16.95656 16.96202 16.97025 16.97592 16.98352 16.9828 16.98961 16.99014 16.98213 16.96996 16.95419 16.94272 16.93019 16.9165 16.89565 16.87137 16.84976 16.82438 16.79359 16.74897 16.70708 16.66186 16.60803 16.55605 16.48222 16.40883 16.32732
0 0 0 0 0 0 0 0 0 0 0 0 0 0 0 17.17793 16.45063 16.16125 16.20461 16.26051 16.32246 16.38573 16.42151 16.44759 16.47445 16.87784 16.93739 17.34489 17.75513 19.97948 19.05926 17.3945 16.61348 16.60221 16.59672 16.6031 16.61427 16.62243 16.6235 16.6198 16.6122 16.60561 16.60588 16.61682 16.63139 16.64687 16.66665 16.68424 16.70546 16.73176 16.75738 16.77972 16.79977 16.81712 16.82927 16.83672 16.84311 16.84136 16.83714 16.83284 16.82861 16.82294 16.81719 16.8168 16.81879 16.81449 16.80985 16.80762 16.80665 16.81433 16.81763 16.8235 16.83744 16.85969 16.87359 16.89373 16.91282 16.92893 16.93514 16.9473 16.95725 16.96686 16.97146 16.97939 16.98473 16.99262 17.00139 17.00373 16.99807 16.99652 16.99403 16.9881 16.97333 16.9599 16.95095 16.93694 16.91637 16.88661 16.86238 16.8415 16.81326 16.77517 16.72839 16.67601 16.63089 16.58058 16.51359 16.43901 16.36248
0 0 0 0 0 0 0 0 0 0 0 0 0 0 0 17.9632 17.17771 16.16562 16.21977 16.28203 16.34554 16.40656 16.44114 16.46152 16.48211 16.5167 17.3065 17.35115 17.76595 0 19.09209 16.62247 16.60744 16.59576 16.60788 16.60486 16.61914 16.63225 16.63864 16.63826 16.63263 16.62946 16.63005 16.63779 16.64907 16.66369 16.67978 16.69816 16.72795 16.75676 16.7868 16.81326 16.83013 16.84333 16.85525 16.86645 16.86523 16.86276 16.8564 16.85126 16.84817 16.84282 16.83753 16.83564 16.83352 16.83187 16.82824 16.829 16.8323 16.84046 16.84543 16.85134 16.86684 16.88935 16.90752 16.92391 16.93967 16.95447 16.96296 16.97534 16.98559 16.99206 16.99902 17.00314 17.0092 17.01253 17.01795 17.0122 17.00765 17.00635 17 16.99278 16.98209 16.96913 16.95853 16.9455 16.92644 16.90328 16.87937 16.86053 16.8337 16.79993 16.75612 16.7116 16.66964 16.61747 16.55754 16.4922 16.42622
0 0 0 0 0 0 0 0 0 0 0 0 0 19.1679 18.79972 17.96721 17.21971 16.1896 16.24286 16.30811 16.37063 16.43493 16.46466 16.48256 16.50018 16.52101 17.69671 18.14041 18.59039 18.49758 19.49207 16.98261 16.59561 16.59499 16.60294 16.61551 16.63328 16.64628 16.65317 16.65593 16.65151 16.65005 16.64869 16.65413 16.66515 16.67752 16.69553 16.72264 16.74925 16.78006 16.8069 16.83134 16.8497 16.86397 16.87382 16.88202 16.88365 16.87896 16.87152 16.87028 16.86349 16.86259 16.85577 16.85321 16.84767 16.84833 16.84898 16.85075 16.85635 16.86041 16.86786 16.87849 16.89451 16.9125 16.93688 16.95432 16.9649 16.97887 16.99035 17.00075 17.00811 17.01282 17.01892 17.02312 17.02471 17.02649 17.02313 17.01913 17.01603 17.01236 17.00729 17.00202 16.98885 16.98123 16.96804 16.95513 16.93882 16.92762 16.90535 16.88306 16.85581 16.82673 16.78448 16.73521 16.69354 16.64191 16.59735 16.54383 16.48719
0 0 0 0 0 0 0 0 0 0 0 0 18.33822 17.93872 17.97141 17.59935 16.87919 16.22516 16.27234 16.32958 16.38883 16.44818 16.48213 16.50363 16.51892 16.53655 17.32948 17.35555 18.17015 19.00609 17.36628 16.58136 16.58936 16.60249 16.62221 16.63897 16.65349 16.66419 16.66538 16.66532 16.66468 16.662 16.66455 16.66875 16.68117 16.69477 16.71699 16.74037 16.76578 16.79276 16.81997 16.83913 16.85694 16.87151 16.88368 16.88949 16.89274 16.89398 16.89121 16.88635 16.88307 16.88142 16.87748 16.86851 16.866 16.86918 16.87551 16.8809 16.88823 16.89338 16.90449 16.91943 16.93683 16.95861 16.97698 16.9926 17.00542 17.01348 17.02046 17.02848 17.03304 17.03577 17.03811 17.04218 17.04678 17.04293 17.03543 17.02745 17.0203 17.01337 17.00802 17.00558 16.99636 16.98746 16.97673 16.96875 16.95835 16.93875 16.92155 16.90307 16.87879 16.84944 16.81435 16.77034 16.72893 16.69096 16.65093 16.60151 16.54393
0 0 0 0 0 0 0 0 20.08906 19.47281 18.29287 17.48841 17.50516 17.52725 17.18726 17.25778 16.9467 16.28575 16.33007 16.37699 16.42655 16.48674 16.51395 16.53226 16.54844 16.56133 16.5826 16.58536 16.59395 16.59598 16.58918 16.59639 16.61022 16.6263 16.64398 16.65652 16.6646 16.66861 16.67212 16.66995 16.67081 16.67202 16.67502 16.67934 16.69327 16.71413 16.73697 16.75813 16.77874 16.80035 16.8204 16.84208 16.86131 16.87955 16.89348 16.90567 16.91334 16.91462 16.90896 16.90388 16.90156 16.89295 16.88831 16.88551 16.88384 16.88786 16.89353 16.9051 16.9182 16.9339 16.94706 16.96596 16.9833 17.00187 17.01889 17.03067 17.04236 17.05 17.05497 17.05751 17.05992 17.06087 17.06296 17.06496 17.05752 17.05221 17.04665 17.03595 17.02125 17.01201 17.0058 17.00714 17.0041 16.99593 16.99031 16.97711 16.9635 16.94941 16.92949 16.91201 16.89641 16.87293 16.84697 16.81288 16.7743 16.73958 16.69872 16.65772 16.60741
0 0 0 0 0 0 0 19.06926 19.14277 17.47847 17.09285 17.08936 17.11273 17.1568 17.22204 16.94482 16.30268 16.3378 16.37966 16.42625 16.47868 16.52867 16.55292 16.56709 16.58447 16.59836 16.61547 16.62557 16.63203 16.63345 16.63478 16.64248 16.64955 16.65362 16.66225 16.67042 16.67153 16.67274 16.67265 16.67288 16.6716 16.67465 16.67867 16.68782 16.70327 16.72058 16.74066 16.76334 16.78557 16.80528 16.82268 16.8397 16.85544 16.87618 16.89532 16.91182 16.91974 16.92394 16.92388 16.92038 16.91858 16.9109 16.90692 16.90742 16.91049 16.9191 16.92841 16.94283 16.95629 16.97101 16.98976 17.01039 17.02668 17.03794 17.05328 17.06572 17.07553 17.07989 17.07877 17.08056 17.08424 17.08402 17.08082 17.07413 17.07362 17.0632 17.04941 17.04094 17.02351 17.01643 17.00857 17.00694 17.00899 17.00408 16.99272 16.98548 16.97782 16.96749 16.95791 16.9368 16.9207 16.89648 16.8781 16.85006 16.81903 16.77339 16.73643 16.69784 16.64749
0 0 0 0 0 0 19.57903 19.55864 17.48657 17.0609 17.04531 17.07084 17.13124 16.85562 16.58805 16.31043 16.34594 16.38609 16.42404 16.46987 16.51676 16.55811 16.58133 16.59083 16.61087 16.62758 16.64483 16.65921 16.66736 16.67281 16.67322 16.67539 16.67576 16.67499 16.67625 16.67713 16.67584 16.67428 16.67597 16.67416 16.67782 16.68339 16.68883 16.69849 16.71178 16.7234 16.73597 16.7553 16.77365 16.79672 16.8184 16.83739 16.85284 16.8668 16.88404 16.90065 16.91453 16.92155 16.92557 16.92768 16.92833 16.92612 16.92511 16.93172 16.94161 16.95731 16.97056 16.98897 17.00155 17.01822 17.03553 17.05404 17.06616 17.07974 17.09226 17.10113 17.1046 17.10449 17.10739 17.10501 17.10071 17.09762 17.09199 17.08447 17.07987 17.06872 17.05203 17.0363 17.02875 17.02139 17.0092 17.01302 17.00715 17.00733 17.0044 16.99811 16.99415 16.9959 16.99219 16.96864 16.95144 16.93498 16.92507 16.90071 16.8697 16.82407 16.78447 16.74489 16.69642
0 0 0 0 0 0 20.43721 18.74124 17.44223 17.03117 16.68809 16.75105 16.49649 16.25556 16.31968 16.37044 16.40833 16.44434 16.4808 16.51971 16.55755 16.59005 16.60249 16.61749 16.63624 16.65357 16.66751 16.68059 16.68676 16.69386 16.69323 16.69283 16.68821 16.68622 16.68197 16.67541 16.67341 16.67098 16.66949 16.67258 16.67968 16.68697 16.69543 16.70426 16.71078 16.71884 16.72732 16.73907 16.75769 16.78118 16.80473 16.8247 16.84195 16.85802 16.87051 16.88424 16.89917 16.91319 16.92344 16.92577 16.93313 16.94111 16.94856 16.95843 16.97299 16.99257 17.00916 17.02749 17.04106 17.05903 17.07168 17.08685 17.10063 17.11411 17.12559 17.13134 17.1289 17.12998 17.12714 17.1233 17.11547 17.10684 17.10026 17.09257 17.08 17.07099 17.05919 17.0371 17.03086 17.01791 17.01544 17.01068 17.00485 17.01077 17.01771 17.0154 17.00697 17.007 17.00706 16.98657 16.97468 16.97013 16.96664 16.95107 16.91565 16.88276 16.85127 16.80481 16.7639
0 0 0 0 0 20.50802 20.05521 18.70432 17.42922 17.05626 16.41697 16.16692 16.24364 16.30745 16.36452 16.41608 16.4549 16.48801 16.52283 16.55553 16.5893 16.61794 16.6316 16.64467 16.65909 16.67259 16.68512 16.69503 16.69989 16.70389 16.70101 16.69773 16.69502 16.69024 16.68159 16.67525 16.67075 16.66694 16.66481 16.66455 16.67364 16.68245 16.69029 16.69171 16.69757 16.70485 16.71212 16.72541 16.74354 16.76468 16.78511 16.80418 16.82189 16.83769 16.84996 16.86898 16.88779 16.90275 16.9192 16.93021 16.94147 16.95622 16.97298 16.99098 17.00784 17.02617 17.04132 17.05523 17.07149 17.0857 17.0967 17.10855 17.12359 17.13098 17.13796 17.14546 17.14577 17.14646 17.1457 17.13491 17.12238 17.11338 17.10521 17.09668 17.08613 17.07003 17.05588 17.04512 17.02515 17.01985 17.01718 17.01218 17.01144 17.01928 17.02544 17.02673 17.02395 17.0278 17.02141 17.00965 17.00583 16.994 16.98827 16.97351 16.94729 16.92423 16.88981 16.86016 16.82108
0 0 0 0 19.51181 19.13373 17.4258 17.03245 16.69831 16.10246 16.1556 16.22647 16.28976 16.34604 16.40023 16.4489 16.4805 16.51117 16.54352 16.57789 16.60704 16.63389 16.64828 16.65622 16.66931 16.68065 16.69517 16.70066 16.70255 16.70309 16.69917 16.69536 16.6912 16.68573 16.68053 16.67333 16.66698 16.66329 16.65992 16.66283 16.6657 16.67181 16.67537 16.67844 16.68408 16.68834 16.69834 16.7105 16.72918 16.74616 16.76474 16.78542 16.80204 16.81918 16.83937 16.86149 16.88234 16.89888 16.91423 16.93204 16.94807 16.97001 16.98921 17.01145 17.02919 17.04449 17.05594 17.07499 17.0894 17.10836 17.11983 17.12739 17.13534 17.14007 17.14963 17.15597 17.16127 17.15946 17.151 17.14629 17.13582 17.12535 17.11062 17.101 17.08782 17.07168 17.06636 17.05564 17.04001 17.03716 17.02933 17.03336 17.0351 17.0366 17.03374 17.03622 17.04236 17.04598 17.03678 17.02888 17.03326 17.02624 17.02171 17.00331 16.98987 16.96689 16.94382 16.92081 16.89568
0 0 0 0 20.58174 17.82375 16.05698 16.05789 16.09267 16.15286 16.21429 16.28133 16.34354 16.39374 16.43928 16.4792 16.51081 16.53784 16.56944 16.59897 16.62309 16.64234 16.65307 16.66464 16.67279 16.68356 16.69191 16.69664 16.69739 16.69442 16.69274 16.68992 16.68528 16.67975 16.6736 16.66559 16.65948 16.65516 16.65427 16.65282 16.65652 16.66232 16.66344 16.66287 16.66377 16.67003 16.6816 16.69249 16.70826 16.72309 16.74512 16.76525 16.78563 16.80303 16.82377 16.84835 16.87601 16.89469 16.91336 16.93182 16.95179 16.97226 16.99373 17.01732 17.03415 17.05438 17.07168 17.09144 17.10897 17.12886 17.13881 17.14715 17.15032 17.15199 17.15861 17.16138 17.16605 17.16586 17.15838 17.15388 17.14698 17.13448 17.11742 17.11051 17.09461 17.08119 17.07354 17.06416 17.05882 17.05925 17.05861 17.05715 17.05419 17.05369 17.05025 17.05008 17.05279 17.05818 17.05587 17.04882 17.04653 17.04945 17.05313 17.04758 17.03816 17.02839 17.00906 16.99224 16.96741
0 0 0 19.60623 19.15846 17.39208 16.03691 16.06236 16.12783 16.20103 16.26799 16.33322 16.38602 16.42846 16.47239 16.50523 16.53537 16.56406 16.5906 16.6124 16.62867 16.64735 16.6556 16.65908 16.66539 16.67411 16.68152 16.67949 16.68179 16.67727 16.67847 16.6794 16.68028 16.6744 16.66631 16.65938 16.64753 16.64488 16.64196 16.64297 16.64408 16.64362 16.64543 16.64422 16.64473 16.65319 16.66463 16.67773 16.69277 16.70332 16.72286 16.74628 16.7676 16.78947 16.81436 16.83958 16.86881 16.88798 16.91067 16.93222 16.95391 16.97573 17.0011 17.01766 17.03317 17.05407 17.07857 17.09987 17.12475 17.13914 17.15109 17.15741 17.16084 17.16267 17.16959 17.17198 17.1686 17.16804 17.16278 17.16093 17.15059 17.14011 17.12982 17.11909 17.10451 17.09607 17.09488 17.09181 17.08534 17.07871 17.07877 17.07989 17.0783 17.07238 17.06722 17.06465 17.06487 17.06816 17.07184 17.0706 17.07141 17.0789 17.07775 17.07499 17.07986 17.07693 17.05105 17.04248 17.01936
0 0 0 19.562 19.12272 17.36973 16.64583 16.08046 16.16401 16.24286 16.30665 16.36579 16.40974 16.45015 16.49057 16.52663 16.55344 16.57627 16.59707 16.61573 16.63171 16.64339 16.64793 16.64771 16.64614 16.65441 16.65919 16.65902 16.65782 16.6544 16.65962 16.66376 16.66491 16.66156 16.65462 16.64614 16.63595 16.63046 16.62831 16.62677 16.62555 16.6257 16.62509 16.6271 16.6314 16.64052 16.65024 16.66247 16.67528 16.69016 16.70945 16.73111 16.75261 16.78106 16.81018 16.83644 16.8639 16.89076 16.90816 16.93096 16.95504 16.97714 16.99772 17.02026 17.03856 17.05925 17.07643 17.10335 17.12726 17.1488 17.1642 17.17459 17.1756 17.17824 17.18331 17.18202 17.17285 17.17222 17.17046 17.16264 17.15609 17.14281 17.13516 17.1254 17.11661 17.11969 17.11747 17.11346 17.11772 17.11236 17.10978 17.10925 17.10897 17.10854 17.10139 17.09954 17.09839 17.10362 17.10654 17.10224 17.11135 17.11711 17.11345 17.11362 17.11288 17.11511 17.10655 17.08618 17.0702
0 0 0 20.45605 19.38752 17.35016 16.32397 16.09484 16.18413 16.26751 16.33886 16.38989 16.43001 16.47142 16.50824 16.53963 16.56002 16.57868 16.59474 16.61037 16.62297 16.6292 16.62735 16.62936 16.62545 16.62982 16.63504 16.63403 16.63417 16.63542 16.63849 16.64406 16.64532 16.64524 16.63868 16.63055 16.62277 16.61665 16.61163 16.60891 16.60354 16.60014 16.60136 16.60572 16.61082 16.61827 16.62638 16.64062 16.65683 16.67371 16.6958 16.71817 16.74119 16.77276 16.79972 16.83042 16.86126 16.88558 16.90821 16.93235 16.95581 16.97969 17.00319 17.02434 17.04279 17.05969 17.07688 17.10643 17.12938 17.1521 17.17007 17.18195 17.18842 17.19005 17.18705 17.18165 17.17147 17.1683 17.16765 17.16713 17.15771 17.15079 17.14204 17.13944 17.14209 17.14579 17.14935 17.14688 17.14832 17.14446 17.13908 17.14298 17.14024 17.14252 17.14054 17.13799 17.13749 17.13984 17.1405 17.14622 17.15085 17.15579 17.15209 17.14961 17.15242 17.15358 17.15097 17.13824 17.12536
0 0 0 20.46999 18.0989 16.60233 16.04673 16.13106 16.22106 16.29555 16.35899 16.40603 16.44459 16.48186 16.51503 16.54487 16.56154 16.57419 16.58752 16.5908 16.59639 16.5979 16.60084 16.59824 16.5975 16.5995 16.60175 16.60791 16.61121 16.61479 16.62099 16.62528 16.62816 16.62944 16.61881 16.60994 16.6044 16.5993 16.59459 16.58841 16.58268 16.57955 16.57788 16.58217 16.58627 16.59116 16.59788 16.61515 16.63362 16.65691 16.68099 16.70793 16.73445 16.7624 16.78911 16.82065 16.85174 16.87742 16.90174 16.92177 16.94944 16.9764 17.00021 17.02391 17.0467 17.06282 17.08289 17.10506 17.12076 17.13937 17.16032 17.1764 17.18367 17.18501 17.17729 17.17036 17.16493 17.16152 17.16149 17.16179 17.15535 17.15302 17.14329 17.1482 17.16018 17.16757 17.1752 17.18331 17.18241 17.18476 17.18471 17.19052 17.19121 17.18746 17.18922 17.18596 17.18818 17.18511 17.18427 17.19321 17.20528 17.20564 17.20079 17.19935 17.20309 17.20576 17.20021 17.18751 17.17036
16.00774 16.01006 17.32532 18.10155 16.24741 15.99797 16.08376 16.1737 16.25504 16.32897 16.37983 16.41888 16.4556 16.4858 16.51539 16.54242 16.56045 16.56924 16.57084 16.5641 16.56499 16.56689 16.56497 16.56228 16.56384 16.56746 16.57349 16.57827 16.58846 16.59873 16.60365 16.60665 16.61257 16.60693 16.6002 16.59365 16.58897 16.5857 16.5789 16.57029 16.56505 16.5631 16.56105 16.56514 16.56722 16.57195 16.57929 16.59501 16.61914 16.64044 16.66824 16.70074 16.73163 16.75541 16.78801 16.82156 16.84867 16.87591 16.89931 16.92703 16.94933 16.97514 17.00122 17.02846 17.04987 17.067 17.08358 17.10112 17.1222 17.13423 17.14904 17.16419 17.18005 17.18002 17.17394 17.16345 17.16256 17.15482 17.1517 17.15422 17.15472 17.15593 17.15776 17.1644 17.17896 17.18803 17.19365 17.20682 17.21079 17.21815 17.22568 17.2317 17.23462 17.22934 17.22774 17.22379 17.22812 17.23356 17.23875 17.25243 17.26177 17.26719 17.26914 17.26773 17.26842 17.26885 17.25568 17.24424 17.23532
16.01049 16.00498 16.01469 16.03536 16.0486 16.09952 16.17215 16.24449 16.3151 16.37482 16.41329 16.43922 16.46879 16.49098 16.512 16.53355 16.54518 16.55132 16.54431 16.53615 16.52636 16.52285 16.5255 16.52512 16.52889 16.53498 16.54143 16.55522 16.56558 16.57415 16.57587 16.57776 16.5794 16.5825 16.58048 16.58105 16.57635 16.57012 16.56598 16.56141 16.55878 16.55423 16.55316 16.55342 16.55675 16.56161 16.56948 16.58139 16.60245 16.63158 16.66567 16.69931 16.72957 16.76227 16.79325 16.8238 16.85371 16.87745 16.90434 16.93135 16.95469 16.98244 17.00726 17.03197 17.04948 17.0674 17.08261 17.1017 17.1124 17.13015 17.14491 17.1613 17.16861 17.17877 17.17234 17.17192 17.16634 17.16025 17.15871 17.15745 17.15839 17.16457 17.17528 17.18697 17.19665 17.20787 17.22449 17.23532 17.24963 17.26242 17.27162 17.28034 17.27462 17.26597 17.26372 17.27535 17.27715 17.27903 17.28824 17.30259 17.316 17.32406 17.33089 17.33373 17.32694 17.31877 17.31313 17.30298 17.29465
16.10332 16.12108 16.14064 16.16143 16.18253 16.22257 16.27421 16.32573 16.37456 16.41298 16.44078 16.45537 16.47092 16.48818 16.50142 16.51535 16.52712 16.52636 16.51415 16.50134 16.48849 16.47975 16.48276 16.48318 16.48894 16.50015 16.514 16.52954 16.54485 16.54788 16.54651 16.54896 16.55466 16.56339 16.56682 16.56468 16.56166 16.55636 16.55768 16.55633 16.5545 16.55169 16.54913 16.55293 16.55841 16.56554 16.57128 16.58089 16.60445 16.63426 16.6712 16.70738 16.7386 16.7708 16.80454 16.83842 16.86792 16.89379 16.91984 16.94544 16.97248 16.99458 17.01939 17.03808 17.05484 17.07287 17.09137 17.10566 17.11789 17.13065 17.14268 17.15573 17.16641 17.17551 17.17658 17.1682 17.16936 17.1673 17.16273 17.1627 17.16901 17.1759 17.18646 17.19838 17.21987 17.24113 17.26003 17.28079 17.30342 17.32065 17.33533 17.33616 17.33164 17.32707 17.32646 17.33104 17.33935 17.35248 17.35877 17.36638 17.37456 17.38367 17.39092 17.39313 17.38682 17.37972 17.36942 17.36017 17.35574
16.18587 16.20887 16.23698 16.26332 16.28553 16.31146 16.34226 16.37121 16.40134 16.42311 16.43868 16.45001 16.46049 16.47304 16.49004 16.49935 16.50227 16.49496 16.48273 16.4685 16.45367 16.443 16.44328 16.44883 16.45609 16.46901 16.48564 16.5048 16.52049 16.52829 16.52657 16.53486 16.54365 16.55158 16.55879 16.56105 16.56013 16.55731 16.5537 16.55342 16.55172 16.55325 16.55166 16.55461 16.56225 16.57451 16.58317 16.59357 16.61632 16.64687 16.68454 16.72112 16.75586 16.79511 16.82719 16.86193 16.89264 16.92079 16.94383 16.97142 16.99579 17.02062 17.04183 17.05653 17.07019 17.08609 17.10531 17.1217 17.12598 17.14044 17.14778 17.16 17.17186 17.18432 17.1804 17.17647 17.1772 17.17492 17.17264 17.17504 17.18044 17.18666 17.20405 17.22032 17.24336 17.27114 17.29472 17.32103 17.34685 17.36911 17.38453 17.39052 17.39133 17.3954 17.39102 17.40206 17.41429 17.42814 17.44663 17.46483 17.48891 17.49998 17.49859 17.48878 17.48132 17.47111 17.46225 17.45197 17.44336
16.26959 16.2881 16.30555 16.31684 16.32732 16.33999 16.35578 16.37029 16.38782 16.40346 16.41455 16.42159 16.42998 16.44524 16.45652 16.47046 16.47026 16.46492 16.45344 16.4435 16.42933 16.41754 16.42128 16.42928 16.43752 16.45424 16.47438 16.48988 16.50458 16.51283 16.51798 16.53094 16.54396 16.55409 16.56499 16.57187 16.5744 16.57554 16.57372 16.568 16.56982 16.57135 16.57275 16.57922 16.58958 16.60391 16.61905 16.63573 16.65682 16.6876 16.72326 16.7572 16.7934 16.82974 16.86451 16.89471 16.93202 16.95365 16.98067 17.00517 17.02935 17.05692 17.07553 17.09412 17.11123 17.12474 17.13548 17.14501 17.15602 17.16508 17.16943 17.18325 17.19263 17.19946 17.19563 17.19953 17.19616 17.19401 17.19298 17.19466 17.20305 17.2118 17.23381 17.26609 17.28955 17.3167 17.34807 17.37906 17.40945 17.43265 17.45135 17.46462 17.46872 17.4584 17.45654 17.46862 17.47864 17.489 17.51066 17.53744 17.56699 17.58482 17.58548 17.57187 17.56092 17.5521 17.54495 17.53832 17.52969
16.31194 16.32311 16.32852 16.3317 16.3347 16.33618 16.34038 16.35189 16.36306 16.37907 16.38964 16.39407 16.4012 16.41134 16.42616 16.43419 16.4388 16.43713 16.43152 16.42189 16.40971 16.40265 16.40576 16.41681 16.43354 16.44798 16.46448 16.48406 16.50206 16.5121 16.52514 16.53896 16.55296 16.57072 16.57919 16.58669 16.59304 16.5961 16.59737 16.59588 16.59589 16.60166 16.61033 16.62244 16.64031 16.66138 16.68456 16.7054 16.73071 16.75877 16.78836 16.82325 16.85537 16.88877 16.92342 16.95513 16.99353 17.01607 17.03654 17.05887 17.08319 17.10289 17.12644 17.14239 17.15886 17.16881 17.17323 17.18288 17.18888 17.1962 17.20149 17.2065 17.21086 17.21479 17.20891 17.21085 17.20926 17.21221 17.2171 17.22752 17.2496 17.271 17.29342 17.32188 17.35216 17.37943 17.41578 17.45417 17.48714 17.50853 17.52451 17.5417 17.55092 17.54656 17.5457 17.54961 17.55694 17.56457 17.57884 17.59999 17.62389 17.64019 17.64625 17.64422 17.63769 17.63502 17.63097 17.62212 17.61232
16.3207 16.32723 16.32286 16.31792 16.31677 16.31847 16.32276 16.32856 16.33669 16.35157 16.36178 16.36873 16.3797 16.38735 16.39809 16.40778 16.41169 16.41476 16.40928 16.40257 16.39723 16.39249 16.4016 16.4167 16.43843 16.45515 16.47174 16.49328 16.51606 16.533 16.54748 16.56645 16.58177 16.59531 16.60584 16.61654 16.62468 16.62904 16.63343 16.6359 16.63694 16.64571 16.66137 16.68175 16.70571 16.72861 16.75135 16.77702 16.80105 16.82747 16.85844 16.88593 16.91917 16.95535 16.98726 17.01564 17.04452 17.06929 17.09786 17.12 17.1437 17.16362 17.19011 17.2059 17.2249 17.22906 17.23874 17.24105 17.24426 17.24715 17.24972 17.25382 17.25469 17.2539 17.24684 17.24301 17.24431 17.25174 17.26269 17.27824 17.30099 17.31979 17.34743 17.37262 17.40422 17.43474 17.46889 17.49365 0 0 17.55943 17.59079 17.59619 17.59947 17.59789 17.59384 17.59951 17.60662 17.61194 0 0 17.65215 17.69829 17.70109 17.7022 17.70666 17.71996 17.72141 17.71137
