ncols        109
nrows        82
xllcorner    -1.041666666667
yllcorner    37.041665395101
cellsize     0.083333333333
NODATA_value -9999
0.0 0 0 0 0 0 0 0 0 0 0 0 0 0 0 0 0 0 0 0 0 0 0 0 0 0 0 0 0 0 0 0 0 0 0 0 0 0 0 0 0 0 0 0 0 0 0 0 0 0 0 0 0 0 0 0 0 0 0 0 0 0 0 0 0 0 0 0 0 0 0 0 0 0 0 0 0 0 0 0 0 0 0 0 0 0 0 0 0 0 0 0 0 0 0 0 0 0 0 0 0 0 0 0 0 18.54635 17.18427 15.71476 15.69867
0 0 0 0 0 0 0 0 0 0 0 0 0 0 0 0 0 0 0 0 0 0 0 0 0 0 0 0 0 0 0 0 0 0 0 0 0 0 0 0 0 0 0 0 0 0 0 0 0 0 0 0 0 0 0 0 0 0 0 0 0 0 0 0 0 0 0 0 0 0 0 0 0 0 0 0 0 0 0 0 0 0 0 0 0 0 0 0 0 0 0 0 0 0 0 0 0 0 0 0 0 15.93568 15.95371 15.71711 15.71564 15.706 15.68233 15.65755 15.62208
0 0 0 0 0 0 0 0 0 0 0 0 0 0 0 0 0 0 0 0 0 0 0 0 0 0 0 0 0 0 0 0 0 0 0 0 0 0 0 0 0 0 0 0 0 0 0 0 0 0 0 0 0 0 0 0 0 0 0 0 0 0 0 0 0 0 0 0 0 0 0 0 0 0 0 0 0 0 0 0 0 0 0 0 0 0 0 0 0 0 0 0 0 0 0 0 0 0 15.73535 15.72253 15.71108 15.69817 15.67512 15.65554 15.62705 15.58449 15.53716 15.49558 15.4648
0 0 0 0 0 0 0 0 0 0 0 0 0 0 0 0 0 0 0 0 0 0 0 0 0 0 0 0 0 0 0 0 0 0 0 0 0 0 0 0 0 0 0 0 0 0 0 0 0 0 0 0 0 0 0 0 0 0 0 0 0 0 0 0 0 0 0 0 0 0 0 0 0 0 0 0 0 0 0 0 0 0 0 0 0 0 0 0 0 0 0 0 0 0 0 0 0 17.56611 15.71285 15.68229 15.63312 15.59172 15.55533 15.52701 15.48975 15.45508 15.41685 15.38205 15.34272
0 0 0 0 0 0 0 0 0 0 0 0 0 0 0 0 0 0 0 0 0 0 0 0 0 0 0 0 0 0 0 0 0 0 0 0 0 0 0 0 0 0 0 0 0 0 0 0 0 0 0 0 0 0 0 0 0 0 17.39177 17.01523 16.71562 16.84392 0 0 0 0 0 0 0 0 0 0 0 0 0 0 0 0 0 0 0 0 0 0 0 0 0 0 0 0 0 0 0 0 0 16.24667 15.75177 15.72271 15.66303 15.6083 15.55092 15.48802 15.43207 15.38891 15.34609 15.30763 15.2739 15.24751 15.21647
0 0 0 0 0 0 0 0 0 0 0 0 0 0 0 0 0 0 0 0 0 0 0 0 0 0 0 0 0 0 0 0 0 0 0 0 0 0 0 0 0 0 0 0 0 0 0 0 0 0 0 0 0 0 0 0 16.92865 16.95578 16.65162 16.41178 16.30939 16.30152 16.40456 16.62759 16.83729 16.94547 16.93813 0 0 0 0 17.28363 0 0 0 0 0 0 0 0 0 0 0 0 0 0 0 0 0 0 0 0 0 16.9305 15.72567 15.74567 15.70248 15.63647 15.56545 15.49172 15.4237 15.36085 15.31081 15.27005 15.24039 15.21676 15.19435 15.16951 15.15016
0 0 0 0 0 0 0 0 0 0 0 0 0 0 0 0 0 0 0 0 0 0 0 0 0 0 0 0 0 0 0 0 0 0 0 0 0 0 0 0 0 0 0 0 0 0 0 0 0 0 0 0 0 0 0 17.06409 16.65303 16.30667 16.06894 15.76947 15.82514 15.84955 16.0421 16.19871 16.35609 16.46989 16.56368 16.77356 16.98019 16.94561 16.89695 16.62698 16.38135 16.43758 16.62557 16.32887 16.34063 0 0 0 0 0 0 0 0 0 0 0 0 0 0 0 16.14167 15.75419 15.72578 15.6848 15.62851 15.55744 15.47837 15.40007 15.33086 15.25732 15.21053 15.17068 15.1531 15.14132 15.13007 15.12117 15.11602
0 0 0 0 0 0 0 0 0 0 0 0 0 0 0 0 0 0 0 0 0 0 0 0 0 0 0 0 0 0 0 0 0 0 0 0 0 0 0 0 0 0 0 0 0 0 0 0 0 0 0 16.68933 16.87883 17.01714 16.76003 16.32244 16.0659 15.76105 15.61616 15.67764 15.71975 15.73748 15.74482 15.95177 15.94963 16.14408 16.11609 16.11026 16.13677 16.02205 15.90575 15.93793 15.77121 15.98756 16.01758 16.23617 0 0 0 0 0 0 0 0 0 0 0 0 0 0 0 0 15.73472 15.74031 15.67099 15.60105 15.52679 15.44703 15.36521 15.2866 15.22498 15.17732 15.1504 15.12835 15.11625 15.11019 15.10525 15.1052 15.10566
0 0 0 0 0 0 0 0 0 0 0 0 0 0 0 0 0 0 0 0 0 0 0 0 0 0 0 0 0 0 0 0 0 0 0 0 0 0 0 0 0 0 0 0 0 0 0 0 0 0 16.85342 16.72475 16.46442 16.39425 16.28753 15.96891 15.60326 15.66384 15.49326 15.54064 15.57665 15.59802 15.6121 15.82066 15.81244 16.02036 16.00983 16.01155 15.84501 15.70208 15.73698 15.7728 15.61048 15.8286 15.85398 16.09098 16.11586 15.92418 15.95021 16.39096 16.94051 17.84736 0 0 0 0 0 0 0 16.84008 16.19772 15.74696 15.74095 15.69117 15.59151 15.51116 15.42967 15.35467 15.28196 15.21457 15.17103 15.13951 15.12099 15.11029 15.10644 15.106 15.10499 15.10604 15.10814
0 0 0 0 0 0 0 0 0 0 0 0 0 0 0 0 0 0 0 0 0 0 0 0 0 0 0 0 0 0 0 0 0 0 0 0 0 0 0 0 0 0 0 0 0 0 0 0 0 17.69686 16.55059 16.44149 16.37293 16.03666 15.85782 15.66517 15.70562 15.52226 15.56041 15.60281 15.63784 15.65763 15.66722 15.89281 15.89361 15.89417 15.89999 15.90017 15.90849 15.73402 15.7626 15.58705 15.41355 15.43169 15.44892 15.47406 15.49206 15.52293 15.5538 15.56867 16.0197 16.66452 0 16.48446 17.12896 17.72228 18.03478 17.7548 17.21312 15.72332 15.74788 15.74278 15.68803 15.5938 15.48599 15.40378 15.32442 15.26622 15.20614 15.1668 15.14181 15.12993 15.12117 15.12157 15.11898 15.12352 15.12458 15.12759 15.13298
0 0 0 0 0 0 0 0 0 0 0 0 0 0 0 0 0 0 0 0 0 0 0 0 0 0 0 0 0 0 0 0 0 0 0 0 0 0 0 0 0 0 0 0 0 0 0 0 0 17.39733 16.49938 16.20002 15.87264 15.70448 15.74225 15.5492 15.58241 15.62249 15.65866 15.68901 15.72098 15.72926 15.7335 15.73005 15.73255 15.55015 15.37163 15.54722 15.54235 15.54193 15.54703 15.36847 15.36994 15.37634 15.39546 15.41091 15.43542 15.45879 15.48609 15.51548 15.54892 15.5851 15.61727 15.64544 15.68017 15.6983 16.84061 17.05772 16.62674 15.6803 15.6678 15.62031 15.55442 15.46375 15.38665 15.3194 15.25634 15.21531 15.17411 15.15059 15.14334 15.14345 15.14693 15.14744 15.1534 15.15644 15.15761 15.16341 15.16959
0 0 0 0 0 0 0 0 0 0 0 0 0 0 0 0 0 0 0 0 0 0 0 0 0 0 0 0 0 0 0 0 0 0 0 0 0 0 0 0 0 0 0 0 0 0 0 0 0 17.12509 16.42732 16.10048 15.72478 15.77651 15.58415 15.63174 15.66985 15.71077 15.73958 15.76587 15.57011 15.57801 15.57818 15.57322 15.56111 15.3658 15.35987 15.34611 15.32285 15.31444 15.31367 15.31253 15.31311 15.31906 15.34207 15.34916 15.36256 15.37461 15.39082 15.41405 15.44394 15.47933 15.51048 15.54165 15.57171 15.59977 15.62009 15.62909 15.61541 15.58244 15.54082 15.48436 15.41646 15.34821 15.28944 15.24084 15.20521 15.17951 15.16332 15.15779 15.15944 15.1634 15.16724 15.1713 15.17825 15.18542 15.18923 15.19322 15.20035
0 0 0 0 0 0 0 0 0 0 0 0 0 0 0 0 0 0 0 0 0 0 0 0 0 0 0 0 0 0 0 0 0 0 0 0 0 0 0 0 0 0 0 0 0 0 0 0 0 17.03877 16.29636 15.94358 15.77727 15.60106 15.66313 15.72601 15.54165 15.57017 15.37059 15.37802 15.37897 15.37652 15.37314 15.36535 15.35322 15.33654 15.32007 15.30068 15.27683 15.25217 15.24607 15.23748 15.2307 15.22682 15.24299 15.24638 15.25716 15.26774 15.2838 15.30114 15.32883 15.35871 15.38839 15.40848 15.42494 15.43945 15.45267 15.45338 15.43679 15.416 15.38396 15.3477 15.3014 15.257 15.22234 15.19204 15.17573 15.16819 15.16931 15.1719 15.17889 15.18701 15.19481 15.20377 15.21005 15.21435 15.21808 15.22099 15.23011
0 0 0 0 0 0 0 0 0 0 0 0 0 0 0 0 0 0 0 0 0 0 0 0 0 0 0 0 0 0 0 0 0 0 0 0 0 0 0 0 0 0 0 0 0 0 0 0 0 16.90058 16.33536 15.96693 15.8147 15.64138 15.70562 15.53106 15.35982 15.37082 15.37248 15.36373 15.35463 15.3462 15.33307 15.32064 15.3079 15.28715 15.27166 15.24912 15.22778 15.20899 15.19921 15.18696 15.17168 15.15645 15.15017 15.14432 15.14582 15.15178 15.15651 15.16473 15.18495 15.21303 15.23722 15.25966 15.28244 15.30294 15.31625 15.3208 15.31133 15.2888 15.26271 15.2378 15.21314 15.19015 15.17287 15.16477 15.17014 15.17905 15.18505 15.19416 15.20094 15.20821 15.21673 15.22888 15.2334 15.23924 15.24499 15.25119 15.26327
0 0 0 0 0 0 0 0 0 0 0 0 0 0 0 0 0 0 0 0 0 0 0 0 0 0 0 0 0 0 0 0 0 0 0 0 0 0 0 0 0 0 0 0 0 0 0 0 0 16.95276 16.12644 15.74543 15.84759 15.69121 15.74232 15.54224 15.35411 15.35539 15.3536 15.34415 15.32885 15.31531 15.3017 15.28797 15.27234 15.25308 15.23002 15.20744 15.18443 15.15824 15.13383 15.10921 15.0891 15.07439 15.06574 15.06398 15.07129 15.08036 15.08724 15.09451 15.10366 15.11359 15.12243 15.13627 15.15416 15.1685 15.18205 15.18963 15.18791 15.18474 15.18188 15.17509 15.16839 15.16683 15.1674 15.17411 15.18486 15.19745 15.20873 15.21955 15.22898 15.23727 15.24877 15.26026 15.26563 15.26767 15.27301 15.28094 15.29249
0 0 0 0 0 0 0 0 0 0 0 0 0 0 0 0 0 0 0 0 0 0 0 0 0 0 0 0 0 0 0 0 0 0 0 0 0 0 0 0 0 0 0 0 0 0 0 0 0 16.41951 16.17932 15.7749 15.64804 15.517 15.55759 15.35079 15.3443 15.33586 15.3267 15.31111 15.28996 15.2747 15.26146 15.24946 15.23575 15.21978 15.19985 15.17722 15.15196 15.12344 15.09049 15.06165 15.03792 15.02199 15.01032 15.00987 15.01157 15.01617 15.02021 15.02652 15.03444 15.0456 15.0573 15.07185 15.08815 15.10151 15.11479 15.12393 15.12804 15.13019 15.13576 15.13992 15.15053 15.16152 15.17211 15.18942 15.20755 15.221 15.23209 15.24155 15.25053 15.25866 15.26944 15.28216 15.29136 15.29723 15.30579 15.31454 15.32581
0 0 0 0 0 0 0 0 0 0 0 0 0 0 0 0 0 0 0 0 0 0 0 0 0 0 0 0 0 0 0 0 0 0 0 0 0 0 0 0 0 0 0 0 0 0 0 0 0 0 15.90374 15.83772 15.70231 15.34763 15.36774 15.35671 15.33033 15.32005 15.30543 15.28716 15.26675 15.2553 15.2413 15.22482 15.21172 15.20064 15.18307 15.16084 15.13366 15.1039 15.07162 15.043 15.02158 15.00614 15.00016 14.99544 14.99692 14.99675 14.99584 14.998 15.00538 15.01127 15.01529 15.02728 15.0425 15.0573 15.07216 15.08631 15.09936 15.10905 15.12321 15.13626 15.14788 15.16532 15.18526 15.20533 15.22055 15.23563 15.24738 15.26068 15.2734 15.28367 15.29345 15.30363 15.31319 15.31901 15.32836 15.33768 15.35323
0 0 0 0 0 0 0 0 0 0 0 0 0 0 0 0 0 0 0 0 0 0 0 0 0 0 0 0 0 0 0 0 0 0 0 0 0 0 0 0 0 0 0 0 0 0 0 0 0 0 16.08748 15.63929 15.31871 15.35868 15.36327 15.34689 15.3198 15.29961 15.2819 15.26272 15.24747 15.23468 15.22931 15.22091 15.21353 15.20381 15.19165 15.17056 15.14584 15.11981 15.08882 15.05823 15.03128 15.01459 15.00627 15.00128 15.00391 15.00109 14.99983 14.99675 14.99568 14.99942 15.00724 15.01488 15.02643 15.0397 15.05535 15.07271 15.08647 15.10055 15.11692 15.14078 15.15826 15.17872 15.20162 15.22333 15.24109 15.25488 15.26658 15.27858 15.28882 15.30027 15.31133 15.32505 15.33365 15.34273 15.35337 15.36801 15.38718
0 0 0 0 0 0 0 0 0 0 0 0 0 0 0 0 0 0 0 0 0 0 0 0 0 0 0 0 0 0 0 0 0 0 0 0 0 0 0 0 0 0 0 0 0 0 0 0 0 0 0 0 15.33864 15.34983 15.34113 15.32524 15.3045 15.28403 15.26623 15.25189 15.24016 15.23215 15.22632 15.2252 15.22615 15.223 15.21814 15.20546 15.18343 15.15657 15.12316 15.09051 15.05993 15.03586 15.02701 15.02073 15.0186 15.01446 15.00954 15.00686 15.00643 15.004 15.00662 15.01262 15.02535 15.03888 15.05634 15.07412 15.0925 15.1108 15.13119 15.15841 15.1831 15.20742 15.23024 15.25181 15.2702 15.28285 15.29677 15.30503 15.31407 15.32388 15.3313 15.34298 15.3511 15.36054 15.37212 15.38711 15.40965
0 0 0 0 0 0 0 0 0 0 0 0 0 0 0 0 0 0 0 0 0 0 0 0 0 0 0 0 0 0 0 0 0 0 0 0 0 0 0 0 0 0 0 0 0 0 0 0 0 0 17.78312 16.07715 15.60066 15.38093 15.35174 15.32018 15.29359 15.27395 15.26149 15.2472 15.24047 15.23769 15.24066 15.23985 15.24392 15.24728 15.2456 15.23768 15.22462 15.20178 15.16724 15.13451 15.10297 15.07431 15.06154 15.05263 15.04088 15.03167 15.02255 15.01783 15.0199 15.01715 15.01842 15.02516 15.03568 15.04956 15.06737 15.08772 15.10978 15.13548 15.16553 15.19703 15.22336 15.24925 15.26885 15.28874 15.30669 15.31732 15.32591 15.33343 15.34137 15.35042 15.35409 15.36349 15.37415 15.38128 15.39517 15.4128 15.43312
0 0 0 0 0 0 0 0 0 0 0 0 0 0 0 0 0 0 0 0 0 0 0 0 0 0 0 0 0 0 0 0 0 0 0 0 0 0 0 0 0 0 0 0 0 0 0 0 0 0 17.11069 16.10795 15.86655 15.40131 15.36694 15.33308 15.30363 15.27996 15.26928 15.25845 15.25937 15.26522 15.27134 15.27617 15.28346 15.28762 15.28858 15.28323 15.26885 15.24278 15.21114 15.17657 15.14444 15.11745 15.09807 15.08222 15.06881 15.05539 15.04418 15.04136 15.04363 15.04144 15.03974 15.04944 15.06144 15.07146 15.08983 15.11146 15.14139 15.17206 15.20995 15.24135 15.27309 15.29859 15.32038 15.34194 15.35785 15.368 15.37463 15.38045 15.38032 15.38309 15.38169 15.3876 15.39615 15.40807 15.42002 15.44012 15.46447
0 0 0 0 0 0 0 0 0 0 0 0 0 0 0 0 0 0 0 0 0 0 0 0 0 0 0 0 0 0 0 0 0 0 0 0 0 0 0 0 0 0 0 0 0 0 0 0 0 0 0 16.15875 15.66609 15.42327 15.38549 15.35255 15.32119 15.2999 15.28418 15.27918 15.28666 15.29754 15.3107 15.31846 15.33185 15.33957 15.34125 15.34005 15.32617 15.302 15.26678 15.2315 15.19455 15.1621 15.13321 15.11212 15.09328 15.07952 15.06819 15.06257 15.0601 15.06432 15.06736 15.07719 15.09066 15.10661 15.12653 15.15367 15.18833 15.22944 15.26772 15.30248 15.32934 15.35442 15.37274 15.3882 15.40461 15.41155 15.41764 15.42075 15.41892 15.41881 15.41482 15.42384 15.43375 15.44256 15.45579 15.47469 15.50212
0 0 0 0 0 0 0 0 0 0 0 0 0 0 0 0 0 0 0 0 0 0 0 0 0 0 0 0 0 0 0 0 0 0 0 0 0 0 0 0 0 0 0 0 0 0 0 0 0 0 0 15.93514 15.4726 15.44614 15.40733 15.38004 15.34482 15.32516 15.31392 15.32042 15.3296 15.34378 15.36084 15.37287 15.3848 15.39295 15.39336 15.38925 15.37561 15.35214 15.31713 15.27787 15.23817 15.20272 15.16784 15.14549 15.12654 15.11437 15.10846 15.10032 15.10062 15.10264 15.10681 15.11514 15.12696 15.14189 15.16842 15.205 15.24292 15.28915 15.33132 15.36952 15.40094 15.41744 15.43512 15.44529 15.45632 15.46328 15.45873 15.45567 15.45284 15.45094 15.45118 15.4575 15.46747 15.48119 15.49367 15.51155 15.53366
0 0 0 0 0 0 0 0 0 0 0 0 0 0 0 0 0 0 0 0 0 0 0 0 0 0 0 0 0 0 0 0 0 0 0 0 0 0 0 0 0 0 0 0 0 0 0 0 0 0 0 15.534 15.5036 15.47142 15.43725 15.40518 15.36702 15.34875 15.34612 15.35888 15.37102 15.39035 15.41541 15.43273 15.44482 15.45795 15.46112 15.45695 15.44551 15.41592 15.37381 15.32666 15.2815 15.24159 15.20591 15.17974 15.16085 15.14692 15.14232 15.14027 15.14594 15.14723 15.15997 15.1718 15.18711 15.20832 15.23832 15.27922 15.32083 15.36055 15.39842 15.43007 15.45182 15.4669 15.48359 15.49591 15.50703 15.51143 15.50986 15.50407 15.49794 15.49332 15.49695 15.50399 15.51363 15.52241 15.53176 15.54614 15.56677
0 0 0 0 0 0 0 0 0 0 0 0 0 0 0 0 0 0 0 0 0 0 0 0 0 0 0 0 0 0 0 0 0 0 0 0 0 0 0 0 0 0 0 0 0 0 0 0 0 17.65184 16.62887 15.56782 15.53642 15.50076 15.46011 15.42712 15.39903 15.38385 15.38934 15.39769 15.4181 15.44238 15.46595 15.48329 15.4963 15.51103 15.51316 15.50989 15.4983 15.47347 15.43391 15.38667 15.34095 15.29444 15.25541 15.22578 15.20337 15.19001 15.1863 15.18322 15.19149 15.19996 15.21047 15.22605 15.24549 15.27514 15.30928 15.34838 15.39177 15.43052 15.46687 15.49191 15.50904 15.52903 15.5447 15.55579 15.56532 15.56497 15.56029 15.55217 15.54559 15.54159 15.54133 15.54619 15.55243 15.55947 15.56589 15.58574 15.60427
0 0 0 0 0 0 0 0 0 0 0 0 0 0 0 0 0 0 0 0 0 0 0 0 0 0 0 0 0 0 0 0 0 0 0 0 0 0 0 0 0 0 0 0 0 0 0 0 16.70011 16.12803 15.86204 15.59809 15.56417 15.51924 15.47388 15.44298 15.41372 15.40779 15.41047 15.42738 15.45516 15.48933 15.51345 15.53304 15.55282 15.56547 15.56897 15.56478 15.55177 15.52351 15.48368 15.43789 15.38701 15.33734 15.29733 15.26638 15.24433 15.23316 15.22915 15.23081 15.24635 15.26377 15.28319 15.30223 15.32661 15.35496 15.38532 15.41752 15.44977 15.48304 15.51712 15.54058 15.55904 15.58009 15.59431 15.60624 15.61463 15.62051 15.61592 15.60992 15.60485 15.60096 15.5947 15.59448 15.59364 15.59558 15.60427 15.61615 15.63079
0 0 0 0 0 0 0 0 0 0 0 0 0 0 0 0 0 0 0 0 0 0 0 0 0 0 0 0 0 0 0 0 0 0 0 0 0 0 0 0 0 0 0 0 0 16.32491 16.19838 16.757 16.18359 16.19702 15.91767 15.64337 15.60358 15.55416 15.50532 15.46333 15.44341 15.43216 15.44022 15.4562 15.48875 15.51894 15.548 15.57022 15.5917 15.60709 15.61675 15.61196 15.59868 15.57351 15.53844 15.4969 15.44719 15.40105 15.36059 15.32692 15.29406 15.27802 15.27516 15.27936 15.29236 15.31405 15.34161 15.36872 15.40062 15.43252 15.46935 15.49928 15.52149 15.54838 15.57538 15.59557 15.61707 15.63836 15.64834 15.65319 15.66105 15.6629 15.66418 15.66255 15.65949 15.65591 15.64781 15.64435 15.64492 15.64469 15.64457 15.65113 15.66423
0 0 0 0 0 0 0 0 0 0 0 0 0 0 0 0 0 0 0 0 0 0 0 0 0 0 0 0 0 0 0 0 0 0 0 0 0 0 0 0 0 0 18.4864 18.16697 17.14525 16.25032 15.70571 15.71024 16.26385 15.97002 15.6964 15.67393 15.62913 15.58345 15.53157 15.49703 15.47728 15.47625 15.48126 15.50422 15.53449 15.56473 15.59441 15.61716 15.63944 15.65167 15.65698 15.64723 15.63337 15.60896 15.57883 15.53732 15.49624 15.44976 15.41422 15.38121 15.3521 15.33778 15.33958 15.34916 15.36594 15.38977 15.41769 15.44201 15.47335 15.50514 15.5365 15.55962 15.58586 15.60572 15.62479 15.64304 15.66792 15.69107 15.70092 15.71244 15.72014 15.7228 15.72854 15.7283 15.72177 15.71166 15.69635 15.68752 15.68567 15.68264 15.68043 15.6877 15.69562
0 0 0 0 0 0 0 0 0 0 0 0 0 0 0 0 0 0 0 0 0 0 0 0 0 0 0 0 0 0 0 0 0 0 0 0 0 0 0 0 17.53071 17.96245 18.21468 17.23458 16.31299 15.75408 15.76596 15.7776 15.77203 15.76107 15.73468 15.7048 15.65819 15.60902 15.56012 15.53302 15.51818 15.51768 15.52818 15.55253 15.57691 15.60802 15.64103 15.66897 15.69065 15.70129 15.70373 15.69494 15.67849 15.659 15.62561 15.58879 15.55006 15.5082 15.46737 15.4355 15.40558 15.39034 15.39179 15.40391 15.42653 15.4501 15.48461 15.51251 15.54396 15.57998 15.6085 15.6302 15.65 15.66838 15.68342 15.699 15.71157 15.72572 15.74472 15.75208 15.76245 15.7672 15.77377 15.77433 15.76903 15.75819 15.74356 15.73339 15.73013 15.72657 15.72684 15.72932 15.73254
0 0 0 0 0 0 0 0 0 0 0 0 0 0 0 0 0 0 0 0 0 0 0 0 0 0 0 0 0 0 0 0 0 0 0 0 0 0 0 17.74777 17.49487 16.91775 16.64674 15.77813 15.78833 15.79802 15.80848 15.81751 15.81301 15.79683 15.76789 15.73326 15.6907 15.64944 15.61784 15.59939 15.58889 15.58864 15.59803 15.61859 15.63852 15.66083 15.6927 15.71816 15.7292 15.73846 15.74051 15.7302 15.7144 15.69621 15.67395 15.64086 15.60688 15.57322 15.53852 15.50962 15.48721 15.47049 15.46644 15.46938 15.48861 15.51422 15.54187 15.57022 15.60173 15.63419 15.66195 15.68317 15.70131 15.72232 15.7365 15.75047 15.75942 15.77468 15.78946 15.80119 15.80978 15.81169 15.81518 15.81202 15.8044 15.79339 15.7794 15.77047 15.76551 15.76407 15.76742 15.77099 15.77271
0 0 0 0 0 0 0 0 0 0 0 0 0 0 0 0 0 0 0 0 0 0 0 0 0 0 0 0 0 0 0 0 0 0 0 0 0 0 16.91105 16.59457 16.32222 15.76776 15.79938 15.81892 15.83646 15.84045 15.84612 15.84399 15.84009 15.82233 15.79461 15.76283 15.72538 15.69405 15.6622 15.64534 15.64121 15.64594 15.66165 15.67726 15.69703 15.71886 15.74447 15.76461 15.77461 15.78073 15.78391 15.77366 15.7623 15.7447 15.72341 15.69011 15.65603 15.62396 15.59219 15.56931 15.55079 15.53636 15.53261 15.53868 15.55734 15.58538 15.61296 15.64331 15.66851 15.69431 15.71605 15.73235 15.74616 15.76408 15.77774 15.78709 15.79503 15.80623 15.82199 15.83202 15.84381 15.84468 15.84235 15.84355 15.84 15.82962 15.81577 15.81123 15.80762 15.80969 15.81463 15.81888 15.81709
0 0 0 0 0 0 0 0 0 0 0 0 0 0 0 0 0 0 0 0 0 0 0 0 0 0 0 0 0 0 0 0 0 0 18.59476 19.22077 18.33591 16.6093 15.72629 15.74476 15.76534 15.78573 15.80776 15.83149 15.85192 15.85856 15.86151 15.86033 15.85301 15.84529 15.82506 15.80018 15.77655 15.74993 15.73136 15.71303 15.703 15.70233 15.71171 15.72369 15.73944 15.75707 15.7761 15.79292 15.80606 15.8171 15.81709 15.81594 15.80941 15.79961 15.77946 15.75364 15.72279 15.69407 15.66853 15.64742 15.62794 15.61518 15.60809 15.61117 15.62364 15.64419 15.66902 15.69764 15.72604 15.74607 15.76466 15.77809 15.79081 15.80276 15.82024 15.83645 15.84264 15.85389 15.8612 15.86756 15.86994 15.8729 15.86773 15.8665 15.86247 15.85546 15.84426 15.83841 15.84067 15.84968 15.85953 15.87092 15.86527
0 0 0 0 0 0 0 0 0 0 0 0 0 0 0 0 0 0 0 0 0 0 0 0 0 0 0 0 0 19.1139 18.69438 18.45796 18.43839 18.19978 17.89477 17.29762 15.74189 15.74673 15.75179 15.76137 15.77807 15.79824 15.81738 15.83765 15.85225 15.86128 15.86528 15.86118 15.85942 15.85715 15.84434 15.83262 15.81212 15.79857 15.79303 15.78246 15.77725 15.775 15.78367 15.79166 15.79783 15.80904 15.82627 15.84107 15.8531 15.85483 15.8529 15.84655 15.84108 15.83365 15.8204 15.79885 15.77604 15.75396 15.73399 15.71739 15.70563 15.69881 15.69686 15.70013 15.71367 15.73128 15.75041 15.76918 15.78627 15.80054 15.8087 15.81696 15.82501 15.83498 15.85346 15.86819 15.88453 15.89095 15.90009 15.90392 15.90255 15.90235 15.90079 15.89903 15.89735 15.89039 15.88039 15.88283 15.88537 15.89166 15.90121 15.90641 15.88907
0 0 0 0 0 0 0 0 0 0 0 0 0 0 0 0 0 0 0 0 0 0 0 0 0 18.90248 18.15738 18.14763 17.17681 16.48308 16.14015 15.81566 15.80548 15.79297 15.77898 15.76412 15.75377 15.75371 15.75723 15.76829 15.78766 15.80681 15.82438 15.83621 15.8437 15.86475 15.87233 15.87424 15.87712 15.88104 15.88213 15.87244 15.86106 15.85096 15.84089 15.83393 15.82666 15.82018 15.82097 15.82234 15.82726 15.84034 15.85704 15.87429 15.88684 15.89472 15.89158 15.88977 15.88824 15.87927 15.86917 15.85366 15.8341 15.81503 15.79674 15.78149 15.76943 15.76258 15.763 15.76693 15.78292 15.79695 15.81791 15.83359 15.84347 15.85393 15.8583 15.86635 15.87437 15.88616 15.89984 15.9148 15.9216 15.92763 15.93363 15.93747 15.93205 15.92722 15.92406 15.92247 15.92479 15.92168 15.92013 15.9267 15.93089 15.9443 15.94781 15.93294 15.89142
0 0 0 0 0 0 0 0 0 0 0 0 0 0 0 0 0 0 0 0 0 0 0 19.10838 18.21912 17.61858 17.26398 16.91107 15.89617 15.8742 15.85698 15.83561 15.81919 15.80481 15.78659 15.77124 15.76434 15.76027 15.76216 15.77173 15.78645 15.80954 15.82577 15.83738 15.84729 15.86587 15.8737 15.88186 15.89341 15.90049 15.91182 15.90784 15.90192 15.89309 15.88396 15.87824 15.8714 15.86301 15.85577 15.85556 15.85695 15.86324 15.87886 15.89378 15.90293 15.90955 15.91249 15.91285 15.91274 15.91305 15.90723 15.89839 15.8859 15.87321 15.86483 15.85859 15.85307 15.84997 15.84915 15.85411 15.86415 15.87391 15.88272 15.89219 15.89599 15.90226 15.90379 15.90745 15.91558 15.92826 15.93766 15.94994 15.95994 15.96559 15.97222 15.96691 15.96506 15.95751 15.95611 15.95638 15.95625 15.95601 15.95344 15.96256 15.97117 15.97781 15.97041 15.94026 15.88283
0 0 0 0 0 0 0 0 0 0 0 0 0 0 0 0 0 0 0 0 0 0 18.53615 17.66844 17.31776 17.29157 16.93944 16.57117 15.89097 15.86893 15.84586 15.82495 15.8068 15.79219 15.77681 15.7643 15.75964 15.75532 15.75704 15.76866 15.78078 15.80272 15.81942 15.83628 15.8529 15.86816 15.87862 15.88917 15.89862 15.9128 15.92095 15.92108 15.9174 15.91367 15.90725 15.9076 15.90158 15.89081 15.88429 15.88019 15.8794 15.88658 15.89826 15.90836 15.91846 15.93021 15.93837 15.94319 15.94381 15.94467 15.9412 15.93447 15.92599 15.91511 15.91217 15.91518 15.91533 15.91811 15.92415 15.93244 15.94179 15.94908 15.95451 15.96156 15.96464 15.97536 15.97189 15.97538 15.97694 15.98019 15.98341 15.98917 15.9907 15.99242 15.9946 15.9914 15.98261 15.97696 15.97846 15.98188 15.98725 15.99089 15.99444 16.00536 16.01502 16.01268 15.99307 15.94394 15.87694
0 0 0 0 0 0 0 0 0 0 0 0 0 0 0 0 0 0 0 0 0 19.77381 18.75454 17.66148 16.98604 16.94838 16.57586 16.55159 15.87194 15.85073 15.82939 15.81248 15.79351 15.78328 15.77182 15.75833 15.74941 15.74558 15.74286 15.75883 15.77693 15.79811 15.81485 15.8338 15.85344 15.87047 15.88533 15.89352 15.90383 15.91401 15.9204 15.92704 15.92942 15.92689 15.92852 15.92367 15.91965 15.91244 15.90545 15.89936 15.90109 15.90413 15.90838 15.92008 15.93301 15.94801 15.959 15.96993 15.97677 15.98516 15.98537 15.98766 15.98499 15.98549 15.98763 15.98882 15.98752 15.99135 15.9943 15.99728 15.99909 16.00114 16.00313 16.01203 16.01969 16.02812 16.03595 16.03805 16.03987 16.03672 16.03312 16.03229 16.02906 16.02942 16.02663 16.02033 16.01334 16.00609 16.00477 16.00384 16.00882 16.01653 16.02129 16.03245 16.03519 16.03073 16.00081 15.94353 15.8667
0 0 0 0 0 0 0 0 0 0 0 0 0 0 0 0 0 0 0 0 0 0 0 18.26112 17.3464 16.95443 16.57051 16.21245 15.8545 15.83242 15.81528 15.80508 15.78656 15.77349 15.76285 15.75012 15.74062 15.73959 15.73851 15.74743 15.77021 15.78871 15.81423 15.83236 15.85226 15.8678 15.88291 15.89421 15.89873 15.90305 15.91439 15.93124 15.93938 15.94163 15.94317 15.94187 15.93565 15.93363 15.93258 15.93242 15.93318 15.9322 15.93625 15.94562 15.95393 15.96641 15.98119 15.99251 15.999 16.01076 16.01641 16.02327 16.03123 16.03847 16.04727 16.05575 16.06365 16.06881 16.07008 16.07486 16.07132 16.07256 16.07582 16.08493 16.08781 16.09519 16.09716 16.09163 16.08477 16.07805 16.06968 16.06464 16.06014 16.05819 16.05899 16.05574 16.04688 16.04312 16.0433 16.04407 16.04737 16.05226 16.05551 16.0655 16.06472 16.04839 16.00807 15.94142 15.85877
0 0 0 0 0 0 0 0 0 0 0 0 0 0 0 0 0 0 0 0 0 20.1934 19.87655 18.87022 17.3843 16.97976 16.58272 16.54775 16.16497 15.8217 15.80548 15.79127 15.78425 15.77137 15.75869 15.74903 15.74099 15.74066 15.74021 15.75067 15.76973 15.79386 15.81372 15.83031 15.84987 15.8622 15.87118 15.8851 15.89943 15.90913 15.92096 15.93579 15.94825 15.95389 15.95455 15.95863 15.95137 15.94686 15.94676 15.95105 15.94988 15.95492 15.9624 15.96987 15.98209 15.99406 16.01095 16.01786 16.02847 16.04062 16.05031 16.06252 16.07494 16.0884 16.09973 16.11317 16.12356 16.12521 16.13044 16.13281 16.13388 16.13756 16.14174 16.15109 16.15929 16.16363 16.16146 16.15366 16.14228 16.13241 16.12071 16.10764 16.10138 16.09896 16.09614 16.08845 16.08096 16.07948 16.07732 16.07785 16.07768 16.07851 16.08753 16.09308 16.08612 16.06227 16.01684 15.94842 15.85581
0 0 0 0 0 0 0 0 0 0 0 0 0 0 0 0 0 0 0 20.22483 20.14114 20.03505 19.19483 18.08203 17.40765 16.99875 16.59404 16.90029 15.84549 15.81272 15.79763 15.78555 15.77563 15.76605 15.75561 15.75033 15.74748 15.74933 15.75481 15.76399 15.77951 15.79701 15.81391 15.82979 15.84335 15.85488 15.8708 15.88443 15.90501 15.92172 15.93743 15.95365 15.96834 15.97829 15.98558 15.98685 15.98345 15.97771 15.97495 15.97489 15.97416 15.97196 15.97957 15.98967 16.00169 16.00838 16.02302 16.03455 16.04781 16.05869 16.07934 16.09802 16.11606 16.13533 16.15761 16.17551 16.19102 16.19985 16.20251 16.20481 16.20705 16.20736 16.20846 16.21121 16.21321 16.21521 16.20625 16.19474 16.18256 16.17007 16.15755 16.1485 16.14034 16.13791 16.13589 16.12932 16.12898 16.12567 16.1215 16.12135 16.11989 16.11981 16.12001 16.11828 16.10536 16.07492 16.02817 15.95219 15.8586
0 0 0 0 0 0 0 0 0 0 0 0 0 0 0 0 0 0 19.71358 19.59554 19.21939 18.75409 18.1328 17.45953 17.08038 17.01025 16.60247 16.20926 15.84843 15.81131 15.79385 15.78078 15.77359 15.76895 15.76182 15.76348 15.7633 15.76621 15.77342 15.78033 15.79525 15.81029 15.82306 15.83806 15.85042 15.86253 15.87599 15.89619 15.91846 15.93637 15.956 15.97597 15.99061 16.00116 16.01274 16.01711 16.01532 16.01618 16.0141 16.01026 16.00759 16.00578 16.00837 16.01504 16.02616 16.0323 16.04207 16.04777 16.05915 16.07491 16.09558 16.12098 16.14267 16.16735 16.19393 16.21424 16.23391 16.25076 16.26266 16.27488 16.27899 16.28464 16.2879 16.28504 16.2817 16.27391 16.25822 16.24206 16.22707 16.2098 16.19616 16.18555 16.17805 16.16897 16.16483 16.15986 16.16098 16.16061 16.15473 16.15406 16.15648 16.15487 16.14969 16.14531 16.12885 16.09865 16.04697 15.97526 15.88764
0 0 0 0 0 0 0 0 0 0 0 0 0 0 0 0 0 20.1626 19.61665 18.96831 18.45281 17.82205 17.47414 17.45646 17.43171 17.01696 16.61166 15.88317 15.84021 15.80718 15.78922 15.7767 15.77384 15.76956 15.77002 15.77346 15.77534 15.78294 15.78939 15.79833 15.80991 15.82105 15.8353 15.85529 15.8671 15.88226 15.90118 15.91932 15.94304 15.96636 15.9865 16.01025 16.02988 16.03865 16.0475 16.05129 16.05688 16.05859 16.05358 16.05158 16.04811 16.04493 16.04746 16.05386 16.06268 16.06605 16.06946 16.07458 16.07549 16.0988 16.12265 16.1491 16.17825 16.20371 16.2281 16.25105 16.27415 16.2938 16.31059 16.3252 16.33366 16.33564 16.34006 16.33474 16.32726 16.31485 16.30064 16.28254 16.26662 16.24999 16.23718 16.22808 16.21966 16.21462 16.20479 16.20111 16.19863 16.19462 16.18853 16.18202 16.18044 16.17836 16.17441 16.16974 16.15566 16.12083 16.0707 16.00721 15.93183
0 0 0 0 0 0 0 0 0 0 0 0 0 0 0 0 19.66591 19.65274 18.77531 18.17854 17.84824 17.49886 17.47721 17.4631 17.43235 17.02012 16.6025 15.87902 15.83129 15.80556 15.79052 15.77963 15.78035 15.78314 15.78259 15.78662 15.79097 15.79528 15.80234 15.81464 15.82844 15.84214 15.8574 15.87228 15.89102 15.90967 15.92784 15.9523 15.97105 15.99644 16.02385 16.04757 16.06605 16.07912 16.08547 16.09372 16.10284 16.10548 16.09855 16.0996 16.09784 16.09696 16.09271 16.09015 16.08904 16.08823 16.09152 16.09518 16.09201 16.11235 16.13811 16.17049 16.2005 16.22916 16.25648 16.28639 16.31502 16.33973 16.36192 16.38079 16.38893 16.39597 16.39232 16.38488 16.37136 16.35737 16.33544 16.31237 16.2911 16.27398 16.25859 16.25022 16.24354 16.23908 16.23767 16.23368 16.23131 16.22717 16.22292 16.21483 16.21175 16.21317 16.2135 16.20916 16.19463 16.16501 16.11393 16.04815 15.9718
0 0 0 0 0 0 0 0 0 0 0 0 0 0 0 20.23136 19.49325 18.7896 18.18021 17.84751 17.49169 17.48494 17.47577 17.09267 17.04877 16.65104 15.91017 15.86078 15.82485 15.80637 15.79083 15.7868 15.79134 15.79588 15.79734 15.80198 15.81053 15.82044 15.82658 15.83636 15.85473 15.87549 15.89821 15.91855 15.93939 15.9594 15.97918 15.99877 16.0213 16.0472 16.07001 16.08797 16.09905 16.10755 16.11573 16.12371 16.13082 16.13958 16.1484 16.1551 16.15378 16.15231 16.14303 16.13202 16.12243 16.11302 16.10706 16.10971 16.11416 16.12795 16.15135 16.18422 16.21812 16.24911 16.28272 16.31444 16.34067 16.36934 16.39562 16.41521 16.42542 16.42959 16.43227 16.42885 16.41559 16.39763 16.37423 16.34951 16.3279 16.30863 16.28915 16.27768 16.27262 16.26739 16.26326 16.25988 16.25507 16.24878 16.2465 16.24129 16.23413 16.23472 16.23451 16.23541 16.2241 16.19673 16.15365 16.08972 16.01682
0 0 0 0 0 0 0 0 0 0 0 0 0 0 19.56639 19.56935 18.84815 18.19705 17.85084 17.48344 17.46606 17.08313 17.07018 17.05211 16.66749 16.25731 15.88981 15.8456 15.82554 15.81103 15.80124 15.80016 15.80737 15.81424 15.81608 15.82197 15.83172 15.84223 15.85517 15.87073 15.89489 15.92023 15.94774 15.97406 15.99696 16.02157 16.04542 16.07056 16.09584 16.11497 16.12951 16.14198 16.15103 16.15889 16.16416 16.17067 16.17438 16.18531 16.19839 16.2096 16.21049 16.2089 16.20378 16.18477 16.1654 16.14312 16.13059 16.12614 16.1273 16.13828 16.15832 16.19389 16.23154 16.26999 16.3098 16.34674 16.38116 16.40907 16.43195 16.44706 16.45401 16.45697 16.45711 16.45226 16.44023 16.42485 16.40286 16.37737 16.34891 16.33374 16.31842 16.30625 16.30002 16.2955 16.28988 16.28337 16.2785 16.27369 16.27371 16.26789 16.26252 16.26035 16.25669 16.25507 16.24144 16.21307 16.17004 16.10959 16.03755
0 0 0 0 0 0 0 0 0 0 0 0 0 19.43325 19.61114 18.85372 18.19795 17.85857 17.48609 17.46055 17.08106 17.05534 17.0416 17.02726 16.62579 15.90417 15.87024 15.83604 15.82516 15.82254 15.82253 15.82975 15.83972 15.84536 15.84832 15.85696 15.86774 15.88181 15.90369 15.92399 15.95026 15.9789 16.00938 16.03248 16.05606 16.07948 16.1101 16.13901 16.15973 16.17432 16.18581 16.19519 16.20339 16.20892 16.21044 16.20919 16.20807 16.22613 0 0 0 16.20772 16.2136 16.25696 16.23174 16.19132 16.16183 16.14625 16.14089 16.14504 16.16315 16.19645 16.2369 16.28039 16.32482 16.3676 16.4036 16.43782 16.46323 16.48203 16.48549 16.48916 16.4868 16.48366 16.47488 16.46085 16.44037 16.41774 16.38693 16.36325 16.34685 16.33223 16.32408 16.31776 16.31616 16.31155 16.30339 16.2986 16.29606 16.29636 16.29226 16.29098 16.28663 16.28342 16.26979 16.23934 16.19343 16.13094 16.05316
0 0 0 0 0 0 0 0 0 0 0 0 0 19.81662 18.87199 18.20935 17.84136 17.46131 17.45106 17.05751 17.03728 17.03146 17.02673 15.93866 15.91094 15.88608 15.85462 15.83499 15.83298 15.83119 15.8367 15.85007 15.86646 15.87884 15.88571 15.89573 15.90813 15.92682 15.95331 15.98671 16.0288 16.06353 16.09148 16.11242 16.13842 16.1727 16.20367 16.22512 16.23284 16.24258 16.25028 17.04215 16.26211 16.24731 16.23759 16.60633 17.39994 18.2154 0 0 0 0 0 16.67548 16.27384 16.23581 16.19786 16.17114 16.15511 16.157 16.1727 16.20303 16.2432 16.2892 16.34084 16.38607 16.42654 16.46137 16.48571 16.50432 16.50822 16.50961 16.50724 16.50212 16.49958 16.49032 16.47798 16.45864 16.43568 16.41282 16.39628 16.38112 16.37326 16.36202 16.35692 16.3519 16.34528 16.33519 16.32924 16.32453 16.31802 16.31696 16.31301 16.30568 16.28982 16.25928 16.21227 16.14805 16.06504
0 0 0 0 0 0 0 0 0 0 0 0 19.96627 19.1649 18.19948 17.8234 17.42537 17.03712 17.0348 17.03083 17.02598 17.03292 16.64234 15.92852 15.89978 15.8796 15.85673 15.84123 15.83834 15.84719 15.85631 15.87321 15.89093 15.90884 15.91422 15.92648 15.94195 15.96361 15.9975 16.04286 16.08741 16.12788 16.15719 16.18772 16.2191 16.24187 16.25358 0 0 16.2419 0 17.95269 17.1113 16.67384 17.05546 17.02774 17.8167 18.25663 19.24054 16.99457 16.24756 0 0 0 17.93939 16.25096 16.21353 16.18861 16.16646 16.1666 16.18516 16.2153 16.25789 16.30395 16.35376 16.40266 16.44832 16.48371 16.50957 16.52729 16.53555 16.53154 16.53185 16.52751 16.52091 16.51245 16.50429 16.49137 16.47498 16.45574 16.43775 16.42684 16.41501 16.40617 16.39957 16.39392 16.38433 16.37673 16.36998 16.3645 16.35846 16.35337 16.34789 16.33579 16.31649 16.28246 16.2351 16.16743 16.07824
0 0 0 0 0 0 0 0 0 0 0 19.22844 19.19164 18.1878 17.79957 17.01634 17.01867 17.02411 17.02462 17.0296 17.04482 16.31489 15.95497 15.92464 15.90194 15.88163 15.86392 15.85061 15.85521 15.86806 15.88119 15.9006 15.92044 15.93662 15.94857 15.96805 15.98654 16.02283 16.06252 16.11144 16.16272 16.20308 16.23 16.25497 17.07189 0 0 0 0 0 18.75948 19.56626 19.31394 18.70048 18.30702 17.85706 17.8331 16.61481 16.23996 16.24832 16.24944 16.24492 16.23735 18.30672 18.67103 16.24347 16.2162 16.19759 16.18262 16.18383 16.20108 16.22865 16.27002 16.31565 16.36607 16.41533 16.46005 16.49542 16.52462 16.54454 16.55006 16.54914 16.54851 16.54542 16.54209 16.53621 16.53522 16.53244 16.52309 16.50664 16.48954 16.47522 16.46139 16.44629 16.43638 16.4278 16.41752 16.41052 16.40539 16.39947 16.39338 16.38708 16.37654 16.3637 16.34061 16.30772 16.25908 16.18971 16.1
0 0 0 0 0 0 0 0 0 0 19.95901 19.22936 18.19444 17.39831 17.00624 16.62958 16.64981 16.66622 16.67478 16.68661 16.69771 15.99066 15.96935 15.9391 15.9145 15.89226 15.87913 15.8723 15.88194 15.89561 15.90982 15.92601 15.94462 15.96104 15.9777 15.99948 16.03422 16.07384 16.12168 16.18054 16.23659 16.27115 16.6795 0 0 0 0 0 0 0 0 0 0 0 18.69433 18.3009 17.46101 16.24597 16.25852 16.26556 16.26382 16.25578 16.25093 16.24865 16.2454 16.2382 16.22102 16.21019 16.20678 16.20758 16.22307 16.24933 16.28781 16.33151 16.37937 16.42675 16.47086 16.50497 16.53333 16.5521 16.55932 16.56197 16.56 16.55794 16.55701 16.55842 16.55672 16.55483 16.55223 16.54511 16.52997 16.51724 16.50512 16.49242 16.47872 16.47073 16.4635 16.45942 16.45045 16.44181 16.4365 16.42601 16.40949 16.38747 16.35979 16.32596 16.27592 16.20614 16.11712
0 0 0 0 0 0 0 0 0 0 19.52033 18.21207 17.41905 17.0033 16.2765 16.27879 15.96131 15.9776 16.00403 16.01236 16.01255 16.00737 15.98809 15.96524 15.94089 15.92385 15.91289 15.91431 15.9292 15.93518 15.94754 15.96326 15.97997 15.99724 16.01514 16.04085 16.07436 16.11629 16.16817 16.22568 17.50054 0 0 0 0 0 0 0 0 0 0 0 0 0 19.35498 17.93009 16.2759 16.28025 16.28959 16.29818 16.2991 16.29073 16.2845 16.27646 16.26793 16.25095 16.23813 16.23126 16.23065 16.23405 16.24666 16.27473 16.30902 16.3504 16.39863 16.44214 16.48103 16.51212 16.5395 16.56137 16.57035 16.57338 16.5732 16.5749 16.57699 16.57677 16.57568 16.57613 16.57388 16.56757 16.55749 16.54534 16.53525 16.52276 16.51278 16.50508 16.49954 16.49761 16.49135 16.48675 16.47941 16.46692 16.44519 16.41856 16.38649 16.34711 16.29278 16.22466 16.13873
0 0 0 0 0 0 0 0 0 19.61122 18.96748 17.8246 17.01405 16.26506 15.93848 15.94087 15.95344 15.97306 15.99199 16.00527 16.01393 16.01794 16.00642 15.98794 15.97156 15.9587 15.95174 15.95418 15.96994 15.98177 15.9935 16.00679 16.02552 16.04281 16.05991 16.0865 16.11856 16.16079 16.2115 17.06239 17.29706 0 0 0 0 0 0 0 0 0 0 0 0 18.6224 18.37947 17.10946 16.29508 16.3082 16.32398 16.33342 16.33583 16.32981 16.32081 16.3135 16.30084 16.28302 16.27318 16.26215 16.26273 16.26899 16.28382 16.30532 16.33626 16.37405 16.41624 16.45381 16.4922 16.5232 16.54869 16.56932 16.57718 16.57986 16.58515 16.59071 16.59502 16.60015 16.5989 16.5996 16.59959 16.59259 16.58544 16.57536 16.56819 16.55538 16.54855 16.54132 16.53658 16.5334 16.52628 16.52073 16.51062 16.49447 16.46883 16.4374 16.40409 16.36051 16.30424 16.23513 16.15284
0 0 0 0 0 0 0 0 20.41037 19.33016 17.85332 17.01418 16.6059 15.91804 15.91143 15.91907 15.93414 15.95398 15.97175 15.98469 15.99785 16.01222 16.0067 16.00008 15.99415 15.98641 15.98614 15.99387 16.00829 16.02113 16.0332 16.04303 16.05958 16.0778 16.09336 16.11741 16.15109 16.18516 16.60748 17.06258 17.53528 18.39588 0 19.2408 19.82856 0 0 0 0 0 0 0 19.4191 18.39822 17.56025 16.30368 16.31435 16.33447 16.35251 16.36535 16.36753 16.35993 16.34884 16.33487 16.32383 16.31231 16.30455 16.29535 16.29828 16.31113 16.32673 16.34445 16.37528 16.40641 16.44493 16.48004 16.51343 16.54334 16.56944 16.58554 16.59524 16.60074 16.60499 16.6061 16.60953 16.61327 16.61816 16.61802 16.61689 16.61503 16.60844 16.60296 16.59709 16.5911 16.58424 16.57862 16.57535 16.57194 16.5681 16.55863 16.54555 16.52486 16.49668 16.45909 16.41936 16.36924 16.31028 16.23946 16.16009
0 0 0 0 0 0 0 0 20.42546 19.33708 17.8446 16.99306 15.9088 15.8911 15.88934 15.89207 15.90632 15.92854 15.94734 15.96837 15.98905 16.00751 16.00929 16.00894 16.01225 16.01681 16.03028 16.04381 16.06223 16.07904 16.09216 16.10221 16.11362 16.12552 16.13458 16.15335 16.17909 16.20094 16.22552 16.65292 17.08896 17.53108 17.97786 18.42731 19.21417 0 0 0 0 0 0 18.81837 17.98971 17.98482 16.30592 16.32569 16.34877 16.37337 16.39423 16.40505 16.40312 16.39361 16.38196 16.36826 16.35444 16.34152 16.33255 16.32821 16.33155 16.34233 16.35716 16.37839 16.40566 16.43637 16.46893 16.50365 16.53444 16.56786 16.59379 16.61189 16.6217 16.6259 16.62896 16.62852 16.6305 16.63835 16.64134 16.64537 16.64334 16.64184 16.63475 16.62654 16.6201 16.61643 16.60956 16.60372 16.59955 16.59741 16.59551 16.58636 16.57148 16.54676 16.51746 16.47569 16.42829 16.3735 16.31243 16.24221 16.16443
0 0 0 0 0 0 0 0 0 19.35367 17.85156 16.99684 15.88953 15.8664 15.86172 15.86546 15.88367 15.90643 15.92909 15.95415 15.98049 16.00239 16.00959 16.01673 16.03049 16.04695 16.06997 16.09267 16.12044 16.14541 16.16257 16.16809 16.17366 16.17813 16.18644 16.1998 16.21371 16.22391 16.23713 16.24689 16.25824 16.26927 16.28404 16.68095 17.53594 18.39055 19.20535 19.53597 0 0 19.14598 17.97757 17.12021 16.30454 16.3259 16.35532 16.38692 16.41102 16.427 16.43477 16.4329 16.42452 16.41493 16.40527 16.39063 16.38082 16.37535 16.3714 16.37261 16.38135 16.39786 16.41464 16.43709 16.46459 16.49448 16.52516 16.5552 16.5867 16.61281 16.63145 16.64084 16.6457 16.64671 16.64944 16.65519 16.65897 16.6652 16.67164 16.67173 16.6717 16.66537 16.6592 16.65277 16.64957 16.64515 16.63832 16.63095 16.62565 16.62088 16.60902 16.58858 16.56051 16.52258 16.48133 16.43127 16.37323 16.30855 16.23349 16.15939
0 0 0 0 0 0 0 0 0 20.29191 18.65954 17.4233 16.21485 15.85568 15.83898 15.84422 15.86086 15.88524 15.9105 15.94178 15.96852 15.99511 16.01104 16.03038 16.05602 16.08719 16.12149 16.15716 16.18628 16.2073 16.22048 16.22204 16.21948 16.2209 16.22581 16.23467 16.24151 16.24438 16.24887 16.24996 16.25846 16.26366 16.26749 16.27287 16.67064 17.09754 17.5298 17.94862 19.16071 17.97464 16.66816 16.28369 16.30407 16.33306 16.36265 16.3915 16.41922 16.43837 16.45136 16.45476 16.45256 16.4473 16.4402 16.43127 16.42075 16.41433 16.41068 16.406 16.40898 16.42124 16.43487 16.45131 16.47351 16.49966 16.52711 16.55566 16.5859 16.61191 16.63491 16.64894 16.6596 16.66272 16.66561 16.6713 16.67208 16.67828 16.68393 16.69051 16.6946 16.69313 16.68734 16.68278 16.67762 16.67566 16.67131 16.66394 16.65811 16.64843 16.64317 16.62824 16.60191 16.57544 16.53688 16.49006 16.43654 16.37179 16.30147 16.22261 16.14378
0 0 0 0 0 0 0 0 0 20.42714 19.65309 17.86028 16.57943 15.85141 15.82573 15.82674 15.83976 15.86183 15.8946 15.92646 15.95778 15.99109 16.02223 16.05356 16.08968 16.13433 16.18384 16.23047 16.27136 16.28173 16.28752 16.2833 16.273 16.26523 16.26305 16.26707 16.26829 16.26644 16.26268 16.25848 16.26148 16.26352 16.26471 16.27253 16.28028 16.29014 16.69579 0 17.97904 16.69234 16.30289 16.32592 16.35201 16.37696 16.40596 16.42981 16.45386 16.46554 16.47363 16.47504 16.47584 16.47123 16.46507 16.46093 16.45455 16.44877 16.44141 16.43715 16.43903 16.44886 16.46156 16.47815 16.49861 16.52666 16.55254 16.58184 16.60943 16.63415 16.65142 16.6618 16.66876 16.67404 16.68055 16.68669 16.69183 16.69874 16.70484 16.71105 16.71553 16.71075 16.70728 16.70315 16.70348 16.69629 16.69111 16.68251 16.67532 16.66811 16.65803 16.63976 16.61401 16.57903 16.54285 16.49891 16.44009 16.37096 16.29398 16.21227 16.12314
0 0 0 0 0 0 0 0 0 0 20.1425 18.69785 17.00404 16.19514 15.8332 15.81971 15.82685 15.84788 15.88015 15.91285 15.952 15.99912 16.03945 16.07565 16.12099 16.17345 16.23569 16.28717 0 0 0 16.5293 16.30502 16.29695 16.29121 16.29279 16.29138 16.2853 16.2765 16.26974 16.26225 16.26215 16.26846 16.2781 16.29324 16.30299 16.31807 16.73387 16.32972 16.33122 16.35002 16.37335 16.39807 16.42361 16.44605 16.4664 16.48044 16.48659 16.4932 16.49613 16.4999 16.50033 16.494 16.494 16.49096 16.48328 16.4805 16.47629 16.47737 16.48618 16.4974 16.51332 16.53407 16.55725 16.581 16.60645 16.62729 16.65028 16.6626 16.67405 16.68032 16.68471 16.69179 16.69855 16.70772 16.71294 16.71851 16.72474 16.72869 16.72862 16.72755 16.72562 16.72016 16.71653 16.71022 16.70601 16.69761 16.68858 16.67525 16.65473 16.62744 16.59171 16.55385 16.50335 16.4423 16.37002 16.2931 16.20954 16.11121
0 0 0 0 0 0 0 0 0 0 0 20.0247 18.6839 16.9846 16.1943 15.84172 15.82539 15.8422 15.87393 15.91307 15.96016 16.01702 16.06313 16.10239 16.14885 16.2096 16.6417 17.06669 0 0 0 17.21035 17.49766 16.30279 16.30184 16.29988 16.30225 16.29596 16.28606 16.27836 16.26823 16.26694 16.27289 16.28645 16.30684 16.3211 16.3359 16.35102 16.36256 16.37074 16.39417 16.41964 16.44492 16.46715 16.48172 16.49487 16.50476 16.51095 16.51429 16.51785 16.52356 16.52321 16.52254 16.5178 16.51637 16.51332 16.50796 16.50785 16.51318 16.52005 16.53367 16.5499 16.56626 16.58784 16.60994 16.63019 16.6503 16.66476 16.67823 16.68533 16.69411 16.70098 16.70429 16.71305 16.7217 16.72614 16.73166 16.73701 16.74113 16.74428 16.74025 16.73672 16.73293 16.73036 16.72878 16.72353 16.71716 16.70432 16.68769 16.66655 16.64177 16.60672 16.56438 16.51518 16.45577 16.38434 16.30548 16.22162 16.12414
0 0 0 0 0 0 0 0 0 0 0 0 20.17916 19.04309 16.95935 16.19742 15.83066 15.84169 15.87187 15.91817 15.97535 16.03453 16.07867 16.12027 16.16074 16.22532 17.03658 0 0 18.70284 18.79507 17.13399 16.32003 16.3032 16.29955 16.30088 16.30189 16.30122 16.29706 16.28987 16.28329 16.28154 16.28504 16.29548 16.31521 16.33639 16.35285 16.36662 16.38216 16.40341 16.42708 16.45523 16.48306 16.50377 16.51869 16.52842 16.53895 16.54591 16.54797 16.54591 16.54906 16.55461 16.55223 16.54854 16.54769 16.54532 16.541 16.54274 16.54296 16.55016 16.5622 16.57655 16.59078 16.60811 16.62846 16.64758 16.66507 16.6768 16.6871 16.69512 16.7034 16.71217 16.71891 16.7282 16.73422 16.73945 16.74414 16.74872 16.75166 16.75614 16.75658 16.75512 16.75256 16.74816 16.74568 16.74111 16.73513 16.7199 16.7003 16.67782 16.65073 16.61412 16.57627 16.5274 16.46882 16.40302 16.32682 16.24613 16.1562
0 0 0 0 0 0 0 0 0 0 0 0 0 0 0 16.93491 16.16096 15.84351 15.88037 15.92738 15.98949 16.05237 16.09315 16.12748 16.16056 16.58448 16.65063 17.07657 17.48061 19.74217 18.79351 17.11035 16.31159 16.29945 16.29445 16.29959 16.30363 16.30794 16.30637 16.30526 16.30465 16.30711 16.3066 16.31685 16.33209 16.35004 16.36937 16.38792 16.40472 16.42655 16.45569 16.48371 16.51378 16.53385 16.54872 16.55754 16.56631 16.57278 16.5778 16.57737 16.57564 16.57451 16.5713 16.57112 16.57103 16.57429 16.57356 16.57505 16.57606 16.58631 16.59648 16.60743 16.62022 16.6347 16.65652 16.6752 16.68538 16.69567 16.70097 16.70639 16.71323 16.72211 16.73063 16.73984 16.74687 16.75046 16.75557 16.75987 16.76051 16.76348 16.76746 16.76818 16.76447 16.76476 16.76531 16.76103 16.75345 16.73674 16.71958 16.69571 16.6708 16.63511 16.59493 16.54937 16.49419 16.43048 16.35838 16.27775 16.19502
0 0 0 0 0 0 0 0 0 0 0 0 0 0 0 17.72819 16.90225 15.85077 15.8937 15.94852 16.00953 16.07027 16.11337 16.14309 16.1734 16.2205 17.04007 17.09174 17.50196 0 18.82887 16.32339 16.30719 16.29344 16.30774 16.29962 16.30793 16.31451 16.31511 16.31817 16.32539 16.32647 16.33043 16.3367 16.34818 16.36952 16.38906 16.40778 16.43409 16.46164 16.49052 16.51644 16.54076 16.56032 16.57325 16.58353 16.5929 16.59849 16.60095 16.59808 16.59774 16.59401 16.59115 16.58635 16.59195 16.59284 16.59441 16.59809 16.60538 16.60953 16.62102 16.6347 16.65109 16.66894 16.68405 16.70121 16.7136 16.71942 16.72357 16.72719 16.73528 16.74258 16.75197 16.75729 16.76171 16.76719 16.77226 16.77276 16.77187 16.77403 16.7755 16.77524 16.77773 16.77725 16.77744 16.77272 16.76497 16.75204 16.73489 16.71815 16.69465 16.66414 16.62899 16.58585 16.53614 16.47553 16.4075 16.33293 16.2592
0 0 0 0 0 0 0 0 0 0 0 0 0 18.96517 18.58164 17.7266 16.94253 15.87765 15.91648 15.97223 16.03251 16.09883 16.1396 16.16844 16.19804 16.23199 17.44793 17.9011 18.34939 18.2429 19.23319 16.70217 16.30159 16.29691 16.30179 16.30877 16.31967 16.32484 16.32712 16.3322 16.33832 16.34045 16.34421 16.35136 16.36416 16.3836 16.40262 16.42933 16.45586 16.48211 16.51016 16.53525 16.55576 16.57542 16.58898 16.60221 16.6104 16.61792 16.61817 16.61733 16.6188 16.61919 16.6174 16.61643 16.61625 16.61593 16.61936 16.62365 16.62885 16.63447 16.64461 16.66016 16.67392 16.69015 16.70654 16.72235 16.73328 16.74255 16.74608 16.74716 16.75372 16.75906 16.76553 16.77098 16.7775 16.7809 16.78279 16.7845 16.78268 16.78173 16.78251 16.78514 16.78697 16.79045 16.7898 16.78369 16.77718 16.77281 16.75933 16.74408 16.71943 16.69474 16.66096 16.61877 16.57045 16.51768 16.45444 16.38687 16.31775
0 0 0 0 0 0 0 0 0 0 0 0 18.13516 17.72027 17.74057 17.3539 16.59911 15.91531 15.94972 15.99836 16.05158 16.11622 16.15631 16.18982 16.21745 16.24677 17.07836 17.11019 17.92249 18.76648 17.09788 16.29407 16.29824 16.30834 16.32333 16.33819 16.34796 16.34821 16.34609 16.34723 16.35408 16.35763 16.36203 16.37162 16.38434 16.40275 16.42487 16.44621 16.46675 16.49185 16.51544 16.53611 16.55707 16.57595 16.59357 16.6078 16.61768 16.62605 16.6246 16.62406 16.62935 16.63334 16.63578 16.634 16.63251 16.62878 16.63099 16.63858 16.64599 16.65721 16.67242 16.68682 16.7036 16.72445 16.7391 16.7505 16.75808 16.76465 16.76772 16.7685 16.77013 16.77473 16.78127 16.78663 16.79151 16.79334 16.79355 16.78994 16.78831 16.78504 16.78615 16.78979 16.7939 16.79605 16.80011 16.79638 16.79292 16.78811 16.77966 16.76759 16.74773 16.72436 16.69663 16.6583 16.61228 16.55733 16.50044 16.43945 16.37604
0 0 0 0 0 0 0 0 19.90547 19.29403 18.10121 17.26643 17.26974 17.28672 16.93685 16.99326 16.65694 15.96774 16.00466 16.04711 16.09645 16.15133 16.18939 16.22121 16.24224 16.27014 16.30233 16.3137 16.31553 16.31438 16.30249 16.30984 16.32115 16.33452 16.34649 16.35804 16.36416 16.36402 16.35798 16.35695 16.36532 16.36731 16.37321 16.38623 16.40062 16.41763 16.43855 16.45625 16.47542 16.49655 16.51738 16.53713 16.55555 16.57494 16.59404 16.60927 16.62291 16.62845 16.63193 16.63531 16.63881 16.64191 16.64269 16.64119 16.6428 16.642 16.64652 16.65414 16.66335 16.67851 16.69543 16.71607 16.73499 16.75241 16.7651 16.77627 16.78527 16.78823 16.78874 16.78547 16.78839 16.79366 16.79673 16.80061 16.80282 16.80166 16.79934 16.79682 16.79123 16.78887 16.78828 16.79327 16.79607 16.79728 16.80243 16.80159 16.79886 16.79851 16.79355 16.78462 16.77041 16.75333 16.72922 16.69803 16.65947 16.61174 16.55745 16.49926 16.4437
0 0 0 0 0 0 0 18.8742 18.95494 17.25952 16.85039 16.8458 16.86045 16.89692 16.95616 16.6565 15.98567 16.017 16.05543 16.09688 16.14462 16.19251 16.2289 16.25723 16.28032 16.30631 16.33451 16.35427 16.35469 16.34975 16.34767 16.3514 16.35958 16.36511 16.37289 16.37472 16.3777 16.37123 16.36781 16.36759 16.37178 16.37883 16.38376 16.39271 16.40763 16.42167 16.43957 16.45731 16.47572 16.49327 16.51118 16.53053 16.5493 16.57153 16.59465 16.61409 16.62753 16.63366 16.63849 16.6405 16.64336 16.64781 16.64943 16.65224 16.65434 16.65865 16.6642 16.67547 16.68901 16.70308 16.71969 16.73854 16.76049 16.77859 16.78667 16.79419 16.79879 16.80586 16.80115 16.79839 16.80156 16.80536 16.80927 16.81121 16.809 16.80659 16.80271 16.80221 16.7957 16.79522 16.79462 16.7993 16.8029 16.80693 16.81178 16.81478 16.81348 16.81405 16.81264 16.80737 16.79531 16.78254 16.76148 16.73155 16.6959 16.65563 16.60599 16.54977 16.49623
0 0 0 0 0 0 19.37032 19.37031 17.26608 16.81702 16.7942 16.8135 16.86948 16.56876 16.28408 15.99443 16.02441 16.06396 16.10181 16.14377 16.18776 16.22534 16.2574 16.28059 16.30469 16.33758 16.36557 16.38374 16.38873 16.38926 16.38707 16.39308 16.39106 16.38838 16.3903 16.38839 16.38451 16.37989 16.37868 16.38086 16.3802 16.38668 16.39187 16.40211 16.41205 16.4218 16.4358 16.45303 16.46909 16.48826 16.50486 16.52665 16.54548 16.56458 16.58231 16.60055 16.61579 16.62747 16.63518 16.64168 16.64917 16.65561 16.65788 16.66233 16.66774 16.67796 16.68798 16.70226 16.71414 16.73146 16.74887 16.77003 16.78875 16.80612 16.81345 16.81868 16.82081 16.82089 16.81695 16.81313 16.81404 16.81574 16.81601 16.81421 16.81051 16.80866 16.80596 16.80255 16.79951 16.79704 16.79753 16.80361 16.80815 16.81599 16.82234 16.82659 16.8298 16.83007 16.83021 16.83097 16.82762 16.81497 16.79888 16.77402 16.74189 16.70261 16.65881 16.61117 16.56033
0 0 0 0 0 0 20.20518 18.53546 17.21663 16.77744 16.42105 16.47509 16.2053 15.94466 16.0019 16.05082 16.08785 16.1223 16.15804 16.19363 16.22823 16.26294 16.28657 16.30865 16.32933 16.35897 16.38327 16.40353 16.40803 16.40837 16.40937 16.4099 16.40573 16.40266 16.39928 16.39459 16.38935 16.38421 16.3867 16.384 16.3842 16.38992 16.3985 16.40543 16.4105 16.42107 16.43211 16.44498 16.46024 16.47717 16.49669 16.51626 16.53776 16.5573 16.57178 16.58914 16.60585 16.61609 16.62474 16.63591 16.64518 16.65442 16.66335 16.67249 16.68224 16.69432 16.70655 16.72419 16.74151 16.7586 16.77324 16.79186 16.80955 16.82556 16.8373 16.84012 16.84134 16.83744 16.83129 16.82149 16.82147 16.82349 16.82088 16.81708 16.81355 16.81092 16.80716 16.80319 16.80239 16.80305 16.80545 16.81148 16.81454 16.82443 16.83354 16.83756 16.83955 16.84332 16.84616 16.84732 16.84777 16.84292 16.83366 16.81216 16.78489 16.75232 16.72013 16.67771 16.62957
0 0 0 0 0 20.27833 19.84606 18.4979 17.18769 16.79788 16.12663 15.85935 15.92961 15.99585 16.05093 16.10051 16.13774 16.17296 16.2073 16.23853 16.27008 16.30408 16.32436 16.34306 16.36921 16.39114 16.41029 16.42434 16.43085 16.43461 16.43232 16.4266 16.42202 16.4198 16.41128 16.40114 16.39323 16.3885 16.38809 16.38526 16.38674 16.38875 16.39813 16.39913 16.40201 16.41142 16.41827 16.43325 16.44844 16.46683 16.48478 16.49954 16.51812 16.53982 16.55844 16.57349 16.59105 16.60385 16.61478 16.6268 16.63816 16.65273 16.66492 16.6768 16.69141 16.70618 16.72316 16.74433 16.75855 16.77337 16.78842 16.80363 16.82104 16.83284 16.84588 16.8482 16.84661 16.84248 16.83309 16.824 16.82027 16.81946 16.81845 16.81779 16.81109 16.80519 16.80349 16.80372 16.80356 16.80827 16.81086 16.8162 16.82405 16.8333 16.84201 16.84865 16.8551 16.85755 16.85922 16.86337 16.86591 16.86749 16.85489 16.8377 16.81466 16.78491 16.75793 16.72404 16.68237
0 0 0 0 19.29254 18.92982 17.18535 16.77105 16.41968 15.79597 15.8429 15.90776 15.97464 16.03373 16.08251 16.13031 16.16423 16.19768 16.22978 16.26559 16.29959 16.32804 16.34902 16.36875 16.39244 16.41105 16.42854 16.4396 16.44625 16.44861 16.44593 16.43699 16.43367 16.42712 16.41842 16.41043 16.39904 16.39174 16.38601 16.38072 16.38104 16.38617 16.38793 16.39103 16.39126 16.39834 16.4087 16.42134 16.43703 16.45547 16.47352 16.48979 16.50728 16.52701 16.54784 16.5639 16.57828 16.59279 16.60253 16.61412 16.62719 16.64531 16.66012 16.67572 16.6976 16.71677 16.73608 16.75607 16.77065 16.78963 16.80492 16.81836 16.83134 16.8405 16.84547 16.85026 16.85006 16.84592 16.83438 16.82409 16.82228 16.82042 16.81763 16.81205 16.8071 16.80312 16.80198 16.80372 16.80893 16.81409 16.817 16.82211 16.83044 16.83902 16.84924 16.85661 16.86399 16.87078 16.87841 16.88581 16.89205 16.89085 16.88471 16.87453 16.85652 16.83301 16.81123 16.77787 16.74274
0 0 0 0 20.35069 17.61132 15.76789 15.7554 15.77869 15.83095 15.89004 15.95874 16.01758 16.06851 16.11335 16.15801 16.1911 16.21938 16.2532 16.2866 16.31672 16.34111 16.36296 16.38245 16.40308 16.42088 16.43367 16.44419 16.44839 16.44948 16.44446 16.44279 16.4362 16.43041 16.42158 16.40774 16.39777 16.38871 16.38122 16.3764 16.37939 16.38052 16.38076 16.38198 16.38742 16.39124 16.40153 16.41187 16.42513 16.44049 16.45693 16.47294 16.48989 16.51297 16.53051 16.54664 16.56185 16.5743 16.58707 16.60412 16.61815 16.63645 16.65601 16.67627 16.69307 16.71607 16.73789 16.7584 16.77676 16.79848 16.81367 16.82598 16.83541 16.84297 16.84705 16.84638 16.84806 16.84357 16.83458 16.82916 16.82648 16.82274 16.81837 16.81407 16.80957 16.80801 16.80712 16.81452 16.82004 16.82484 16.82851 16.83404 16.84113 16.84799 16.85569 16.86149 16.8684 16.87692 16.88885 16.90086 16.90719 16.91047 16.91053 16.90669 16.89509 16.87708 16.86226 16.83604 16.80398
0 0 0 19.42871 18.991 17.16891 15.74206 15.75066 15.79897 15.86282 15.93336 15.99713 16.05325 16.09854 16.14346 16.18195 16.21396 16.24435 16.27625 16.30715 16.33057 16.35531 16.36865 16.38321 16.3994 16.41282 16.42423 16.43129 16.43774 16.43893 16.43768 16.43832 16.43593 16.43298 16.42357 16.41202 16.39901 16.3873 16.38041 16.37559 16.37744 16.37481 16.37541 16.37757 16.38075 16.38434 16.39385 16.40275 16.41605 16.42853 16.44637 16.46072 16.476 16.49291 16.50786 16.52406 16.54415 16.55796 16.57488 16.59123 16.60627 16.62825 16.65192 16.67201 16.68811 16.71265 16.73331 16.75426 16.7746 16.79522 16.8126 16.82315 16.83181 16.83819 16.84365 16.84189 16.84054 16.83744 16.831 16.82948 16.82642 16.82641 16.81921 16.81692 16.81278 16.81394 16.81912 16.8273 16.83463 16.83866 16.84851 16.85559 16.86224 16.87097 16.87349 16.87817 16.8855 16.89561 16.90728 16.92076 16.92688 16.93367 16.93026 16.93145 16.92578 16.91301 16.89818 16.87577 16.84558
0 0 0 19.3997 18.97346 17.15015 16.36986 15.76304 15.8251 15.89492 15.96377 16.02306 16.07236 16.11925 16.16109 16.20078 16.23274 16.26249 16.29414 16.31734 16.33598 16.35004 16.36035 16.37141 16.3868 16.39692 16.40606 16.41638 16.42047 16.41757 16.42285 16.42712 16.43729 16.43153 16.42578 16.41583 16.40406 16.39064 16.38157 16.37858 16.37619 16.37548 16.37015 16.36527 16.37024 16.37693 16.38479 16.39854 16.41139 16.42414 16.44083 16.45597 16.46824 16.47689 16.49247 16.51099 16.53054 16.54929 16.56249 16.57888 16.59708 16.61929 16.64062 16.66536 16.68459 16.70677 16.72628 16.74803 16.76634 16.79037 16.80805 16.82107 16.82937 16.82997 16.83252 16.83247 16.83245 16.82986 16.82812 16.82327 16.82322 16.82131 16.821 16.81786 16.81924 16.82171 16.82941 16.83913 16.84571 16.85303 16.86719 16.87672 16.88469 16.89544 16.90162 16.90587 16.914 16.92466 16.933 16.94277 16.95479 16.96059 16.96699 16.96385 16.96222 16.95428 16.94279 16.92196 16.89636
0 0 0 20.2527 19.23541 17.11813 16.02468 15.77357 15.84944 15.92299 15.98816 16.04398 16.09116 16.13577 16.17738 16.21237 16.24119 16.26921 16.29472 16.31578 16.32768 16.33663 16.34439 16.35563 16.37029 16.37885 16.38826 16.39962 16.40095 16.40349 16.408 16.41715 16.42639 16.42782 16.42403 16.41568 16.40337 16.38963 16.37501 16.37356 16.36802 16.36707 16.36316 16.35999 16.35942 16.3671 16.37466 16.3903 16.40191 16.41548 16.43118 16.44452 16.45842 16.46876 16.48399 16.50156 16.52557 16.54302 16.55834 16.57405 16.59385 16.61538 16.63751 16.66034 16.67797 16.69834 16.72047 16.74132 16.75825 16.77984 16.7985 16.81193 16.81854 16.82045 16.82139 16.82082 16.82147 16.81824 16.81921 16.81373 16.81728 16.82241 16.82354 16.82638 16.83015 16.8375 16.84631 16.85385 16.86294 16.87316 16.89017 16.89883 16.90954 16.91851 16.92381 16.93045 16.93946 16.94618 16.96121 16.97136 16.98123 16.99119 16.99618 16.99788 16.996 16.98691 16.97886 16.96429 16.9427
0 0 0 20.24848 17.90575 16.32516 15.73162 15.80379 15.87783 15.94338 16.00275 16.05173 16.09723 16.14006 16.17782 16.21289 16.2402 16.2593 16.28337 16.29353 16.30417 16.31204 16.32466 16.33084 16.34458 16.35639 16.36647 16.38154 16.38887 16.39005 16.39571 16.40855 16.42098 16.42366 16.41749 16.41009 16.40198 16.3896 16.37522 16.36546 16.35922 16.35558 16.3525 16.34857 16.35029 16.35356 16.36446 16.3745 16.39048 16.40692 16.42519 16.43601 16.44704 16.46104 16.47627 16.49435 16.51537 16.53664 16.5556 16.57494 16.59168 16.61356 16.63378 16.65816 16.6805 16.69429 16.71266 16.73266 16.75273 16.77168 16.79358 16.80374 16.80986 16.81264 16.80997 16.80742 16.81182 16.80958 16.8105 16.81163 16.81604 16.82267 16.8287 16.83529 16.84503 16.85659 16.87116 16.88303 16.89078 16.90236 16.91828 16.93132 16.94476 16.95111 16.96007 16.96939 16.979 16.99334 17.00689 17.01782 17.02819 17.03676 17.04146 17.04083 17.03914 17.03109 17.01581 17.00698 16.98856
15.70164 15.70177 17.05023 17.88783 15.9569 15.6846 15.75975 15.83641 15.90723 15.96744 16.01476 16.06197 16.1044 16.14286 16.17698 16.20691 16.23264 16.25136 16.26216 16.26915 16.27616 16.28309 16.29298 16.30359 16.31615 16.33122 16.34566 16.35709 16.37126 16.38005 16.38756 16.3958 16.41212 16.41551 16.41079 16.40736 16.39655 16.39134 16.37975 16.367 16.35496 16.34987 16.34356 16.34273 16.34508 16.34956 16.35599 16.36602 16.38503 16.39769 16.41523 16.43271 16.44751 16.463 16.47111 16.48898 16.50993 16.5351 16.55691 16.57837 16.59113 16.61265 16.63647 16.65916 16.68077 16.69506 16.71114 16.72967 16.75017 16.76804 16.78596 16.79575 16.80174 16.79812 16.79636 16.79992 16.80452 16.8056 16.80867 16.81096 16.81622 16.82374 16.83455 16.84172 16.85507 16.87205 16.88838 16.90147 16.91463 16.92914 16.94779 16.96564 16.98096 16.99121 17.00276 17.01337 17.02915 17.03894 17.05342 17.06447 17.07644 17.08687 17.09605 17.09383 17.08963 17.08406 17.06952 17.05469 17.037
15.70564 15.69764 15.70202 15.71519 15.7313 15.77189 15.83559 15.89993 15.96138 16.0071 16.04494 16.07943 16.11482 16.14267 16.16955 16.19726 16.2166 16.23457 16.24081 16.24301 16.24509 16.25022 16.26258 16.27674 16.28852 16.30588 16.31998 16.3432 16.35369 16.36804 16.37677 16.38696 16.4022 16.40541 16.40163 16.40192 16.39916 16.39258 16.38787 16.37472 16.35975 16.35143 16.3485 16.34384 16.34643 16.35149 16.35513 16.36306 16.37642 16.39472 16.4159 16.43554 16.45074 16.46826 16.48016 16.49508 16.51742 16.53788 16.55856 16.5798 16.59721 16.61917 16.64095 16.66256 16.68137 16.69759 16.7122 16.73008 16.74306 16.76012 16.77608 16.7874 16.79447 16.79809 16.79665 16.79887 16.80111 16.80213 16.8055 16.81024 16.81918 16.82901 16.8413 16.85461 16.86827 16.88778 16.90601 16.92217 16.94152 16.96234 16.98201 16.99731 17.01053 17.02479 17.03818 17.05239 17.06499 17.07484 17.08995 17.10206 17.11468 17.13059 17.1349 17.13736 17.13422 17.12864 17.11765 17.10301 17.09186
15.79146 15.80238 15.81107 15.82392 15.84943 15.8862 15.93181 15.97456 16.01203 16.0406 16.06832 16.09214 16.11394 16.13676 16.15737 16.17502 16.19557 16.20837 16.21254 16.21626 16.21517 16.2141 16.22937 16.24592 16.25963 16.28526 16.30403 16.32742 16.34154 16.35246 16.36502 16.37854 16.3895 16.40048 16.40082 16.39624 16.39369 16.39447 16.39388 16.38983 16.37044 16.35889 16.35066 16.34852 16.35028 16.35713 16.35932 16.36781 16.38196 16.39587 16.41956 16.44182 16.46317 16.47991 16.49584 16.5126 16.53134 16.55306 16.57207 16.59357 16.61548 16.63495 16.6572 16.67291 16.68864 16.70265 16.71536 16.73037 16.74377 16.75666 16.7748 16.78448 16.79252 16.80044 16.80655 16.80272 16.80059 16.80113 16.80738 16.81312 16.82514 16.83587 16.85006 16.86919 16.88701 16.90752 16.93049 16.95446 16.98102 17.00465 17.02613 17.04267 17.05494 17.06908 17.08375 17.09635 17.10842 17.12285 17.13271 17.14704 17.16406 17.17584 17.17871 17.17726 17.17255 17.16748 17.15733 17.14725 17.13634
15.87081 15.8845 15.90188 15.92205 15.94222 15.96032 15.98494 16.0101 16.03196 16.0486 16.06436 16.08301 16.09899 16.11575 16.13468 16.15202 16.17039 16.1784 16.18565 16.18822 16.18768 16.1927 16.19997 16.22031 16.23995 16.26634 16.28707 16.3077 16.32322 16.34153 16.35626 16.37227 16.3856 16.39666 16.40283 16.40563 16.40405 16.40411 16.4023 16.39745 16.38394 16.37089 16.35925 16.35623 16.36303 16.36735 16.37083 16.37729 16.39118 16.40929 16.43297 16.45131 16.47305 16.49461 16.5118 16.52925 16.54861 16.57035 16.59229 16.61472 16.6353 16.65712 16.67659 16.68801 16.7023 16.71688 16.72945 16.74281 16.75371 16.77032 16.7828 16.79519 16.80268 16.81191 16.81623 16.81395 16.81344 16.81517 16.81466 16.82187 16.83456 16.84696 16.86489 16.88271 16.90649 16.93361 16.96115 16.99175 17.01968 17.04715 17.07058 17.08743 17.10424 17.11871 17.13385 17.15401 17.17153 17.19054 17.20705 17.22876 17.24835 17.25428 17.25135 17.24297 17.23593 17.22803 17.21846 17.20959 17.20285
15.95457 15.96512 15.9717 15.97501 15.97765 15.98753 15.99956 16.01249 16.02469 16.03571 16.04735 16.06112 16.07495 16.09259 16.10919 16.12994 16.14585 16.16118 16.16423 16.17098 16.17277 16.17472 16.18692 16.20726 16.23222 16.25866 16.28625 16.30516 16.3231 16.33856 16.36267 16.3785 16.39524 16.41321 16.42414 16.43048 16.43142 16.43046 16.4264 16.41936 16.40704 16.38923 16.38 16.37679 16.38554 16.39468 16.40167 16.40863 16.42071 16.43716 16.45702 16.47534 16.49524 16.51455 16.53714 16.55925 16.58518 16.60895 16.63497 16.65529 16.66905 16.68905 16.70891 16.72779 16.7397 16.75114 16.76019 16.76647 16.77888 16.79612 16.80854 16.81773 16.82354 16.83438 16.83674 16.83663 16.83727 16.83729 16.84036 16.84626 16.85631 16.87377 16.89809 16.92035 16.94887 16.97581 17.0104 17.04934 17.08886 17.12041 17.13972 17.1526 17.16311 17.17749 17.19591 17.2167 17.22859 17.24456 17.27079 17.29999 17.33452 17.34394 17.33349 17.32109 17.31652 17.31269 17.30918 17.29534 17.28651
16.00338 16.00366 15.99819 15.99118 15.98504 15.98456 15.9877 15.99586 16.00341 16.0107 16.02403 16.03716 16.05511 16.06985 16.08707 16.10229 16.12519 16.14056 16.15241 16.16037 16.16183 16.16471 16.1824 16.20479 16.23208 16.25872 16.27817 16.31193 16.33564 16.35103 16.3718 16.396 16.41565 16.43235 16.43798 16.45189 16.45657 16.45852 16.4576 16.44783 16.44313 16.42657 16.4171 16.41934 16.43431 16.44223 16.45267 16.46357 16.47599 16.49463 16.50715 16.52997 16.55069 16.57633 16.59742 16.61459 16.64887 16.6752 16.69711 16.71443 16.73085 16.74849 16.76594 16.77452 16.78751 16.79618 16.79728 16.80497 16.81065 16.82086 16.83464 16.84045 16.84974 16.85699 16.85633 16.85844 16.86044 16.86504 16.87182 16.88175 16.90027 16.9228 16.94948 16.97934 17.01125 17.04702 17.08321 17.12757 17.17094 17.199 17.22115 17.2371 17.25326 17.26325 17.28121 17.28805 17.29717 17.31089 17.33805 17.37086 17.4039 17.40983 17.40881 17.40197 17.39813 17.39266 17.39094 17.38026 17.37229
16.01151 16.00656 15.99521 15.97964 15.9671 15.96379 15.96611 15.97183 15.97741 15.98901 16.0037 16.01865 16.03314 16.05144 16.07026 16.09183 16.11076 16.13056 16.14145 16.15401 16.16201 16.16871 16.19049 16.21678 16.24788 16.27313 16.29923 16.32513 16.35053 16.37258 16.39826 16.42253 16.44553 16.4623 16.47331 16.48248 16.48954 16.48935 16.4885 16.48432 16.47758 16.47363 16.47153 16.47718 16.4871 16.50098 16.5134 16.52616 16.5451 16.55978 16.57903 16.60044 16.62204 16.64525 16.6657 16.68799 16.71651 16.74225 16.7643 16.77829 16.7965 16.81197 16.8297 16.84109 16.85226 16.85506 16.85983 16.8631 16.86989 16.87902 16.88796 16.89397 16.89647 16.90074 16.89442 16.89758 16.90281 16.90991 16.92328 16.94025 16.96009 16.98077 17.00929 17.0352 17.06742 17.10274 17.14077 17.17796 0 0 17.26564 17.3072 17.31381 17.32625 17.34477 17.34937 17.3578 17.38013 17.38721 0 0 17.42559 17.47981 17.47943 17.47738 17.47749 17.48834 17.48898 17.47846
