ncols        109
nrows        82
xllcorner    -1.041666666667
yllcorner    37.041665395101
cellsize     0.083333333333
NODATA_value -9999
0.0 0 0 0 0 0 0 0 0 0 0 0 0 0 0 0 0 0 0 0 0 0 0 0 0 0 0 0 0 0 0 0 0 0 0 0 0 0 0 0 0 0 0 0 0 0 0 0 0 0 0 0 0 0 0 0 0 0 0 0 0 0 0 0 0 0 0 0 0 0 0 0 0 0 0 0 0 0 0 0 0 0 0 0 0 0 0 0 0 0 0 0 0 0 0 0 0 0 0 0 0 0 0 0 0 18.98409 17.55532 15.94034 15.91232
0 0 0 0 0 0 0 0 0 0 0 0 0 0 0 0 0 0 0 0 0 0 0 0 0 0 0 0 0 0 0 0 0 0 0 0 0 0 0 0 0 0 0 0 0 0 0 0 0 0 0 0 0 0 0 0 0 0 0 0 0 0 0 0 0 0 0 0 0 0 0 0 0 0 0 0 0 0 0 0 0 0 0 0 0 0 0 0 0 0 0 0 0 0 0 0 0 0 0 0 0 16.16521 16.1803 15.92619 15.92267 15.91388 15.88942 15.8575 15.81147
0 0 0 0 0 0 0 0 0 0 0 0 0 0 0 0 0 0 0 0 0 0 0 0 0 0 0 0 0 0 0 0 0 0 0 0 0 0 0 0 0 0 0 0 0 0 0 0 0 0 0 0 0 0 0 0 0 0 0 0 0 0 0 0 0 0 0 0 0 0 0 0 0 0 0 0 0 0 0 0 0 0 0 0 0 0 0 0 0 0 0 0 0 0 0 0 0 0 15.95004 15.93907 15.92299 15.89865 15.86699 15.83974 15.81314 15.77671 15.72672 15.67922 15.64315
0 0 0 0 0 0 0 0 0 0 0 0 0 0 0 0 0 0 0 0 0 0 0 0 0 0 0 0 0 0 0 0 0 0 0 0 0 0 0 0 0 0 0 0 0 0 0 0 0 0 0 0 0 0 0 0 0 0 0 0 0 0 0 0 0 0 0 0 0 0 0 0 0 0 0 0 0 0 0 0 0 0 0 0 0 0 0 0 0 0 0 0 0 0 0 0 0 17.91423 15.92024 15.88625 15.83309 15.77951 15.73732 15.71221 15.67799 15.64234 15.60102 15.5684 15.535
0 0 0 0 0 0 0 0 0 0 0 0 0 0 0 0 0 0 0 0 0 0 0 0 0 0 0 0 0 0 0 0 0 0 0 0 0 0 0 0 0 0 0 0 0 0 0 0 0 0 0 0 0 0 0 0 0 0 17.5586 17.18646 16.89349 17.02244 0 0 0 0 0 0 0 0 0 0 0 0 0 0 0 0 0 0 0 0 0 0 0 0 0 0 0 0 0 0 0 0 0 16.49328 15.95251 15.92639 15.85987 15.80508 15.74367 15.68486 15.63529 15.58905 15.54586 15.50549 15.46991 15.4582 15.43739
0 0 0 0 0 0 0 0 0 0 0 0 0 0 0 0 0 0 0 0 0 0 0 0 0 0 0 0 0 0 0 0 0 0 0 0 0 0 0 0 0 0 0 0 0 0 0 0 0 0 0 0 0 0 0 0 17.09884 17.12088 16.80591 16.5494 16.44168 16.43823 16.55227 16.78808 17.00778 17.11531 17.11144 0 0 0 0 17.50143 0 0 0 0 0 0 0 0 0 0 0 0 0 0 0 0 0 0 0 0 0 17.22941 15.92519 15.941 15.89485 15.82656 15.75366 15.6798 15.62518 15.56829 15.52623 15.48318 15.45216 15.42413 15.40235 15.38313 15.37477
0 0 0 0 0 0 0 0 0 0 0 0 0 0 0 0 0 0 0 0 0 0 0 0 0 0 0 0 0 0 0 0 0 0 0 0 0 0 0 0 0 0 0 0 0 0 0 0 0 0 0 0 0 0 0 17.22537 16.79993 16.43317 16.18712 15.88873 15.94288 15.96714 16.16573 16.32515 16.48449 16.61075 16.71842 16.93048 17.15543 17.13067 17.08174 16.82553 16.58108 16.64058 16.82518 16.52238 16.53121 0 0 0 0 0 0 0 0 0 0 0 0 0 0 0 16.36769 15.94995 15.91501 15.86594 15.80542 15.72988 15.65621 15.59514 15.53816 15.47605 15.4384 15.39617 15.37529 15.36013 15.34857 15.34346 15.33928
0 0 0 0 0 0 0 0 0 0 0 0 0 0 0 0 0 0 0 0 0 0 0 0 0 0 0 0 0 0 0 0 0 0 0 0 0 0 0 0 0 0 0 0 0 0 0 0 0 0 0 16.80955 17.02254 17.16651 16.8932 16.44982 16.18207 15.86717 15.7222 15.78246 15.82631 15.84704 15.85606 16.07117 16.07347 16.2754 16.2552 16.25331 16.28924 16.17338 16.03996 16.08768 15.91955 16.1529 16.18442 16.41574 0 0 0 0 0 0 0 0 0 0 0 0 0 0 0 0 15.91525 15.9237 15.84737 15.76606 15.68517 15.6082 15.53804 15.4807 15.43332 15.39661 15.37069 15.35237 15.3412 15.33515 15.33366 15.33183 15.3371
0 0 0 0 0 0 0 0 0 0 0 0 0 0 0 0 0 0 0 0 0 0 0 0 0 0 0 0 0 0 0 0 0 0 0 0 0 0 0 0 0 0 0 0 0 0 0 0 0 0 16.9433 16.83106 16.57505 16.50604 16.40581 16.07743 15.70197 15.76431 15.59295 15.64239 15.67774 15.69984 15.71248 15.92579 15.92161 16.14157 16.14261 16.14892 15.98795 15.83377 15.87156 15.91284 15.7408 15.97221 15.99582 16.24322 16.25564 16.03875 16.06036 16.53056 17.09595 18.04236 0 0 0 0 0 0 0 17.07829 16.39211 15.92096 15.91543 15.86621 15.75955 15.66685 15.58737 15.51874 15.45728 15.40262 15.36466 15.34303 15.32885 15.3272 15.32801 15.33241 15.33207 15.33788 15.34828
0 0 0 0 0 0 0 0 0 0 0 0 0 0 0 0 0 0 0 0 0 0 0 0 0 0 0 0 0 0 0 0 0 0 0 0 0 0 0 0 0 0 0 0 0 0 0 0 0 17.78796 16.63327 16.52091 16.44971 16.1308 15.95883 15.76135 15.80048 15.61647 15.65279 15.69503 15.73319 15.75858 15.77191 15.99225 15.9957 15.99723 16.00306 16.00868 16.02506 15.84847 15.87663 15.70315 15.52086 15.5378 15.55267 15.57261 15.58442 15.61331 15.64194 15.65718 16.11955 16.79049 0 16.63005 17.31617 17.9224 18.26473 17.96648 17.44439 15.8771 15.90486 15.89952 15.85071 15.75618 15.64759 15.57108 15.48585 15.43655 15.38747 15.3545 15.33374 15.33181 15.32822 15.33642 15.33908 15.34794 15.35545 15.3653 15.37628
0 0 0 0 0 0 0 0 0 0 0 0 0 0 0 0 0 0 0 0 0 0 0 0 0 0 0 0 0 0 0 0 0 0 0 0 0 0 0 0 0 0 0 0 0 0 0 0 0 17.46448 16.55645 16.26424 15.93997 15.77765 15.82798 15.63758 15.66838 15.70506 15.74407 15.77348 15.80602 15.81716 15.82366 15.82378 15.83018 15.63766 15.45883 15.6329 15.63645 15.63932 15.64815 15.46008 15.46239 15.47241 15.48509 15.49778 15.51329 15.53635 15.5616 15.59012 15.62267 15.66145 15.70355 15.7418 15.78252 15.80493 17.00119 17.24256 16.81003 15.822 15.80927 15.76278 15.69743 15.61371 15.54577 15.48582 15.43367 15.38995 15.3548 15.33548 15.33806 15.34295 15.35331 15.36147 15.37188 15.38364 15.38798 15.40135 15.4082
0 0 0 0 0 0 0 0 0 0 0 0 0 0 0 0 0 0 0 0 0 0 0 0 0 0 0 0 0 0 0 0 0 0 0 0 0 0 0 0 0 0 0 0 0 0 0 0 0 17.1714 16.46314 16.14499 15.77711 15.84384 15.6601 15.70833 15.74356 15.78183 15.81067 15.84034 15.64279 15.65437 15.65645 15.65324 15.64275 15.43835 15.43288 15.42394 15.40294 15.39502 15.39313 15.38924 15.39217 15.39674 15.41255 15.42093 15.42919 15.43992 15.45556 15.47776 15.50846 15.54743 15.58679 15.62959 15.6651 15.69851 15.72441 15.74131 15.74154 15.71671 15.67837 15.6201 15.55374 15.49374 15.43997 15.39964 15.36624 15.34946 15.34231 15.3443 15.35067 15.36096 15.37523 15.38537 15.39608 15.40937 15.41853 15.42901 15.44189
0 0 0 0 0 0 0 0 0 0 0 0 0 0 0 0 0 0 0 0 0 0 0 0 0 0 0 0 0 0 0 0 0 0 0 0 0 0 0 0 0 0 0 0 0 0 0 0 0 17.06317 16.32596 15.97715 15.82216 15.65993 15.72153 15.78126 15.59708 15.6223 15.42026 15.42929 15.43751 15.44011 15.44035 15.4358 15.42238 15.4056 15.3928 15.37048 15.34425 15.31957 15.31439 15.30711 15.30087 15.29524 15.30098 15.30617 15.31638 15.32994 15.346 15.36682 15.39386 15.42747 15.46377 15.49209 15.51554 15.53253 15.54623 15.55092 15.55142 15.53814 15.51402 15.4755 15.43242 15.39884 15.37246 15.34997 15.33712 15.32913 15.33835 15.34816 15.35611 15.37406 15.39272 15.41234 15.42435 15.4351 15.44446 15.45314 15.46679
0 0 0 0 0 0 0 0 0 0 0 0 0 0 0 0 0 0 0 0 0 0 0 0 0 0 0 0 0 0 0 0 0 0 0 0 0 0 0 0 0 0 0 0 0 0 0 0 0 16.92255 16.36767 15.99981 15.85222 15.69214 15.75126 15.57366 15.39718 15.41078 15.41594 15.41309 15.40749 15.40387 15.39273 15.37814 15.36376 15.34483 15.32883 15.30668 15.28754 15.2692 15.2577 15.24137 15.22616 15.21089 15.20216 15.19901 15.20306 15.20887 15.21899 15.22744 15.24721 15.27635 15.30991 15.34126 15.36825 15.38924 15.40512 15.41613 15.4188 15.40777 15.38738 15.36133 15.33894 15.32066 15.31326 15.31692 15.32618 15.33645 15.35066 15.36522 15.38019 15.39571 15.41206 15.43222 15.44478 15.46233 15.4772 15.48913 15.50282
0 0 0 0 0 0 0 0 0 0 0 0 0 0 0 0 0 0 0 0 0 0 0 0 0 0 0 0 0 0 0 0 0 0 0 0 0 0 0 0 0 0 0 0 0 0 0 0 0 16.97447 16.15641 15.77711 15.8866 15.73212 15.78655 15.58305 15.38248 15.38887 15.39358 15.38589 15.37357 15.36718 15.3556 15.34139 15.32424 15.30664 15.28298 15.26245 15.23683 15.21054 15.18346 15.1573 15.13782 15.12479 15.11764 15.11671 15.122 15.12815 15.13605 15.14333 15.15789 15.17053 15.18465 15.2026 15.22468 15.24399 15.26194 15.27519 15.281 15.28481 15.28853 15.28758 15.28742 15.29105 15.29793 15.30938 15.32547 15.34281 15.366 15.38184 15.39735 15.41306 15.42934 15.44913 15.46716 15.48135 15.49449 15.50656 15.52175
0 0 0 0 0 0 0 0 0 0 0 0 0 0 0 0 0 0 0 0 0 0 0 0 0 0 0 0 0 0 0 0 0 0 0 0 0 0 0 0 0 0 0 0 0 0 0 0 0 16.44936 16.21719 15.80926 15.69009 15.56377 15.59739 15.38413 15.37069 15.36898 15.35864 15.34679 15.33368 15.32179 15.30982 15.29909 15.28665 15.27186 15.25063 15.2288 15.20113 15.17073 15.13695 15.10544 15.08077 15.06498 15.05567 15.05587 15.05611 15.06056 15.06494 15.0722 15.08349 15.09381 15.10972 15.12728 15.14682 15.16491 15.18422 15.19876 15.21036 15.21588 15.22907 15.24114 15.25813 15.27741 15.29292 15.31628 15.34055 15.36131 15.37713 15.39335 15.40956 15.42121 15.44199 15.46317 15.48197 15.49898 15.5113 15.52542 15.54439
0 0 0 0 0 0 0 0 0 0 0 0 0 0 0 0 0 0 0 0 0 0 0 0 0 0 0 0 0 0 0 0 0 0 0 0 0 0 0 0 0 0 0 0 0 0 0 0 0 0 15.9413 15.87608 15.7411 15.38672 15.39841 15.38767 15.35739 15.34769 15.33606 15.32313 15.30966 15.30075 15.28762 15.27038 15.26157 15.24718 15.22723 15.20737 15.1815 15.14996 15.11428 15.08308 15.05845 15.04299 15.0341 15.03205 15.03351 15.03714 15.03815 15.03875 15.04418 15.05337 15.06054 15.07626 15.09265 15.10933 15.13035 15.15053 15.16782 15.18206 15.2018 15.22399 15.24614 15.27288 15.29805 15.32642 15.34764 15.36845 15.38584 15.40428 15.42006 15.4391 15.45978 15.47956 15.49384 15.50818 15.51993 15.53867 15.56132
0 0 0 0 0 0 0 0 0 0 0 0 0 0 0 0 0 0 0 0 0 0 0 0 0 0 0 0 0 0 0 0 0 0 0 0 0 0 0 0 0 0 0 0 0 0 0 0 0 0 16.12538 15.67861 15.35585 15.39373 15.39076 15.374 15.34041 15.3252 15.31274 15.29788 15.28637 15.2752 15.27231 15.26548 15.25827 15.2442 15.22865 15.20977 15.18144 15.1524 15.11793 15.08455 15.05865 15.04053 15.03178 15.02885 15.03018 15.03011 15.02852 15.02595 15.03013 15.03473 15.04486 15.05346 15.06571 15.07961 15.09899 15.12062 15.14414 15.16099 15.1846 15.21672 15.24836 15.27593 15.30558 15.33341 15.35846 15.37604 15.39265 15.41187 15.4319 15.44859 15.46667 15.48678 15.50422 15.51797 15.53433 15.55397 15.57441
0 0 0 0 0 0 0 0 0 0 0 0 0 0 0 0 0 0 0 0 0 0 0 0 0 0 0 0 0 0 0 0 0 0 0 0 0 0 0 0 0 0 0 0 0 0 0 0 0 0 0 0 15.37721 15.38242 15.36639 15.34541 15.32546 15.30911 15.29457 15.28599 15.27538 15.27159 15.27115 15.26966 15.26671 15.25994 15.25068 15.23336 15.21058 15.178 15.1419 15.10849 15.07802 15.05621 15.04381 15.03681 15.03544 15.03076 15.02529 15.0217 15.02561 15.02689 15.03234 15.04323 15.05529 15.06816 15.08715 15.11151 15.13666 15.16069 15.18761 15.22362 15.25904 15.29229 15.32429 15.35224 15.37749 15.39467 15.41666 15.43257 15.44636 15.46262 15.47638 15.49155 15.50693 15.51895 15.53237 15.55216 15.57742
0 0 0 0 0 0 0 0 0 0 0 0 0 0 0 0 0 0 0 0 0 0 0 0 0 0 0 0 0 0 0 0 0 0 0 0 0 0 0 0 0 0 0 0 0 0 0 0 0 0 17.82311 16.1207 15.63507 15.40817 15.37374 15.34172 15.31483 15.29951 15.28747 15.27769 15.27568 15.2758 15.27969 15.27893 15.28177 15.27773 15.27053 15.2571 15.24035 15.21357 15.17885 15.14424 15.11043 15.08535 15.0698 15.05888 15.04869 15.03791 15.02741 15.02216 15.02357 15.02455 15.03041 15.04189 15.05417 15.06988 15.09012 15.11411 15.14044 15.17023 15.20699 15.24563 15.2816 15.3184 15.34603 15.37272 15.39622 15.41427 15.43415 15.4498 15.46261 15.47555 15.48674 15.50119 15.51469 15.52462 15.54075 15.56204 15.58387
0 0 0 0 0 0 0 0 0 0 0 0 0 0 0 0 0 0 0 0 0 0 0 0 0 0 0 0 0 0 0 0 0 0 0 0 0 0 0 0 0 0 0 0 0 0 0 0 0 0 17.15585 16.15942 15.91026 15.43573 15.39353 15.35862 15.32514 15.304 15.29346 15.28779 15.29118 15.29792 15.30209 15.30506 15.31026 15.31114 15.30775 15.29822 15.27842 15.24784 15.21109 15.17305 15.13696 15.1102 15.09211 15.07453 15.06107 15.0496 15.03731 15.03019 15.03333 15.03388 15.03752 15.04956 15.06298 15.07759 15.09945 15.12421 15.1559 15.18729 15.22988 15.26915 15.31101 15.34526 15.37465 15.40478 15.42861 15.44667 15.46328 15.47481 15.48148 15.48969 15.49786 15.50934 15.5235 15.53639 15.54765 15.57161 15.59831
0 0 0 0 0 0 0 0 0 0 0 0 0 0 0 0 0 0 0 0 0 0 0 0 0 0 0 0 0 0 0 0 0 0 0 0 0 0 0 0 0 0 0 0 0 0 0 0 0 0 0 16.21027 15.70605 15.45868 15.4187 15.38563 15.34355 15.32152 15.30927 15.3075 15.31308 15.32269 15.33279 15.33921 15.34958 15.35202 15.34825 15.34314 15.3265 15.29866 15.25821 15.21407 15.17359 15.13862 15.11034 15.08904 15.07086 15.05654 15.04576 15.03591 15.03454 15.04237 15.04829 15.05941 15.0759 15.09712 15.11862 15.14795 15.1842 15.2255 15.26751 15.311 15.34787 15.37797 15.40587 15.43072 15.45629 15.47063 15.48557 15.49524 15.49994 15.50674 15.51369 15.5258 15.54011 15.55363 15.56745 15.58849 15.6214
0 0 0 0 0 0 0 0 0 0 0 0 0 0 0 0 0 0 0 0 0 0 0 0 0 0 0 0 0 0 0 0 0 0 0 0 0 0 0 0 0 0 0 0 0 0 0 0 0 0 0 15.99061 15.51903 15.4822 15.44357 15.41173 15.3674 15.34895 15.33944 15.34094 15.35188 15.36552 15.38001 15.39026 15.39769 15.39634 15.3939 15.38672 15.36615 15.3382 15.29477 15.24927 15.20285 15.16324 15.13109 15.10968 15.08966 15.07808 15.06515 15.05667 15.05841 15.06246 15.06949 15.08188 15.09746 15.1153 15.14451 15.17999 15.22214 15.26688 15.3143 15.35731 15.39513 15.42564 15.45112 15.47104 15.48856 15.50145 15.50663 15.51479 15.51775 15.52262 15.53144 15.54341 15.55902 15.57298 15.58536 15.60801 15.6352
0 0 0 0 0 0 0 0 0 0 0 0 0 0 0 0 0 0 0 0 0 0 0 0 0 0 0 0 0 0 0 0 0 0 0 0 0 0 0 0 0 0 0 0 0 0 0 0 0 0 0 15.59144 15.55078 15.51052 15.47191 15.43364 15.39263 15.37455 15.36629 15.37121 15.38465 15.40491 15.42802 15.4434 15.44784 15.45511 15.45404 15.44136 15.42029 15.38891 15.34387 15.29218 15.24172 15.19393 15.15638 15.12883 15.11003 15.09357 15.0831 15.07698 15.08171 15.08892 15.10464 15.11929 15.13744 15.16244 15.19399 15.23466 15.27785 15.32125 15.36066 15.4024 15.43229 15.45672 15.48214 15.5007 15.51758 15.53089 15.53901 15.54113 15.54389 15.54645 15.55779 15.57059 15.58705 15.59943 15.61047 15.62592 15.6481
0 0 0 0 0 0 0 0 0 0 0 0 0 0 0 0 0 0 0 0 0 0 0 0 0 0 0 0 0 0 0 0 0 0 0 0 0 0 0 0 0 0 0 0 0 0 0 0 0 17.72299 16.69429 15.61982 15.58249 15.54001 15.49623 15.45848 15.42535 15.40673 15.40114 15.40773 15.4244 15.44685 15.47102 15.4855 15.49564 15.50123 15.49902 15.48618 15.46173 15.43323 15.39569 15.34758 15.2973 15.24169 15.20048 15.16714 15.14428 15.125 15.11366 15.10488 15.11307 15.12459 15.13879 15.15994 15.18133 15.20881 15.24391 15.28576 15.332 15.37703 15.41718 15.45226 15.47411 15.50068 15.52463 15.54219 15.55641 15.56707 15.56867 15.56773 15.57011 15.57508 15.58015 15.59264 15.60464 15.61848 15.63095 15.64518 15.6647
0 0 0 0 0 0 0 0 0 0 0 0 0 0 0 0 0 0 0 0 0 0 0 0 0 0 0 0 0 0 0 0 0 0 0 0 0 0 0 0 0 0 0 0 0 0 0 0 16.77191 16.1898 15.91864 15.65188 15.6141 15.5619 15.51392 15.47631 15.44403 15.42982 15.42662 15.4385 15.46058 15.49282 15.51535 15.53255 15.55049 15.55613 15.55199 15.5351 15.51507 15.48381 15.44399 15.39718 15.34814 15.29456 15.24884 15.21115 15.1845 15.1657 15.15104 15.14874 15.16347 15.1813 15.20061 15.22394 15.24956 15.27535 15.30701 15.34411 15.38412 15.4219 15.45799 15.4867 15.51185 15.53885 15.56103 15.57809 15.59186 15.60516 15.60851 15.60796 15.61014 15.61273 15.6137 15.62276 15.63075 15.63884 15.64857 15.66097 15.67838
0 0 0 0 0 0 0 0 0 0 0 0 0 0 0 0 0 0 0 0 0 0 0 0 0 0 0 0 0 0 0 0 0 0 0 0 0 0 0 0 0 0 0 0 0 16.38952 16.26651 16.82574 16.24939 16.26058 15.97395 15.69994 15.65298 15.59533 15.54592 15.49798 15.4736 15.45933 15.46138 15.47384 15.49834 15.52332 15.55181 15.57301 15.5891 15.59703 15.59938 15.59002 15.57055 15.54049 15.50243 15.45938 15.40851 15.35758 15.31173 15.27029 15.23772 15.21285 15.19735 15.1948 15.20858 15.23082 15.25268 15.27766 15.30746 15.34049 15.37472 15.41276 15.44561 15.47225 15.5016 15.5282 15.55526 15.58223 15.59651 15.60778 15.62144 15.63307 15.64265 15.64571 15.64819 15.64698 15.64803 15.65409 15.66171 15.66954 15.67485 15.6841 15.69896
0 0 0 0 0 0 0 0 0 0 0 0 0 0 0 0 0 0 0 0 0 0 0 0 0 0 0 0 0 0 0 0 0 0 0 0 0 0 0 0 0 0 18.56757 18.24395 17.21354 16.31552 15.76253 15.76659 16.32465 16.03164 15.7551 15.73286 15.68585 15.62867 15.57735 15.53575 15.51078 15.50518 15.50766 15.52499 15.5515 15.57696 15.60382 15.62343 15.6387 15.64459 15.64397 15.6304 15.60999 15.57809 15.54187 15.50056 15.45494 15.40806 15.36376 15.3246 15.29028 15.27036 15.26198 15.26319 15.27519 15.2941 15.31718 15.3426 15.36906 15.39944 15.43287 15.45977 15.48846 15.51515 15.54158 15.5633 15.59363 15.62003 15.63559 15.65317 15.66641 15.67545 15.68727 15.69429 15.69518 15.68775 15.67955 15.67987 15.6854 15.68938 15.69867 15.70738 15.71967
0 0 0 0 0 0 0 0 0 0 0 0 0 0 0 0 0 0 0 0 0 0 0 0 0 0 0 0 0 0 0 0 0 0 0 0 0 0 0 0 17.60062 18.04095 18.29225 17.30055 16.37294 15.80948 15.82242 15.83323 15.82988 15.82095 15.79732 15.76566 15.71799 15.66232 15.61197 15.57671 15.55518 15.54923 15.55645 15.57633 15.59917 15.62663 15.65249 15.67623 15.68945 15.69602 15.69563 15.68168 15.65927 15.63197 15.59393 15.5539 15.51046 15.4629 15.41657 15.37306 15.33601 15.31628 15.30911 15.31386 15.3295 15.34809 15.37874 15.40638 15.43671 15.46851 15.49969 15.52013 15.54069 15.56553 15.58597 15.60564 15.62476 15.64727 15.66851 15.68233 15.69548 15.70786 15.71691 15.72265 15.72371 15.71769 15.71347 15.71094 15.71526 15.71979 15.72751 15.73516 15.74478
0 0 0 0 0 0 0 0 0 0 0 0 0 0 0 0 0 0 0 0 0 0 0 0 0 0 0 0 0 0 0 0 0 0 0 0 0 0 0 17.81348 17.56346 16.9846 16.71005 15.82652 15.83914 15.84946 15.86264 15.87396 15.87333 15.85951 15.83589 15.80007 15.75333 15.71041 15.67197 15.64401 15.6292 15.62457 15.63075 15.64681 15.66308 15.6872 15.70911 15.7279 15.73449 15.73824 15.73161 15.71717 15.6985 15.67881 15.64537 15.60686 15.56662 15.52634 15.4838 15.44336 15.40874 15.38472 15.37445 15.37366 15.38872 15.40587 15.42992 15.45681 15.4871 15.51521 15.54289 15.56303 15.58073 15.60064 15.62069 15.64103 15.65751 15.68256 15.70227 15.71743 15.73108 15.7377 15.74379 15.7463 15.74343 15.73808 15.73373 15.73378 15.73694 15.74153 15.7523 15.76088 15.77084
0 0 0 0 0 0 0 0 0 0 0 0 0 0 0 0 0 0 0 0 0 0 0 0 0 0 0 0 0 0 0 0 0 0 0 0 0 0 16.95763 16.64923 16.37157 15.81325 15.84767 15.86908 15.88443 15.89025 15.90509 15.90667 15.90222 15.88898 15.8646 15.8335 15.79321 15.75693 15.72311 15.69893 15.68855 15.68673 15.69659 15.70982 15.7269 15.74315 15.76218 15.77554 15.78053 15.78213 15.77769 15.76207 15.74654 15.72582 15.69606 15.65959 15.61863 15.58065 15.53907 15.50407 15.47293 15.45261 15.44455 15.44622 15.46051 15.48066 15.50149 15.52371 15.54795 15.5702 15.59149 15.61103 15.62571 15.63895 15.65673 15.67331 15.69058 15.70879 15.72812 15.74331 15.7558 15.7605 15.76538 15.7727 15.7716 15.76681 15.76277 15.7674 15.77179 15.78003 15.78945 15.80301 15.80834
0 0 0 0 0 0 0 0 0 0 0 0 0 0 0 0 0 0 0 0 0 0 0 0 0 0 0 0 0 0 0 0 0 0 18.63305 19.26414 18.39 16.6471 15.7635 15.77798 15.80113 15.83027 15.85962 15.88366 15.90716 15.92045 15.92725 15.92867 15.92497 15.9189 15.90359 15.87634 15.84875 15.81701 15.79411 15.77381 15.76019 15.7541 15.75846 15.76451 15.77217 15.78466 15.79932 15.80772 15.8161 15.81872 15.81399 15.80463 15.79273 15.77799 15.75724 15.72496 15.68862 15.65724 15.62278 15.59087 15.56154 15.54089 15.52946 15.52331 15.53229 15.54374 15.55953 15.58161 15.6035 15.62415 15.64297 15.65684 15.67451 15.68664 15.70309 15.72315 15.73683 15.75437 15.76961 15.77835 15.78798 15.79133 15.79362 15.79356 15.79565 15.79294 15.78948 15.79567 15.80247 15.81533 15.83412 15.85136 15.85459
0 0 0 0 0 0 0 0 0 0 0 0 0 0 0 0 0 0 0 0 0 0 0 0 0 0 0 0 0 19.13257 18.7121 18.48195 18.46125 18.22421 17.92673 17.32994 15.7753 15.78228 15.78642 15.8016 15.82108 15.84354 15.86415 15.88574 15.90685 15.92823 15.93552 15.9355 15.93579 15.935 15.92502 15.90977 15.89222 15.87453 15.8603 15.84966 15.84272 15.83327 15.83373 15.83312 15.8321 15.83819 15.84775 15.8585 15.86294 15.85666 15.84961 15.8366 15.82768 15.81751 15.79816 15.77272 15.74702 15.71957 15.69363 15.66845 15.64484 15.62597 15.61752 15.61775 15.62249 15.63046 15.64101 15.65505 15.66806 15.67799 15.68908 15.69783 15.70791 15.72258 15.73891 15.75638 15.77584 15.79146 15.8093 15.81684 15.82275 15.82387 15.82566 15.82761 15.828 15.82704 15.82634 15.8304 15.83967 15.85606 15.87095 15.88302 15.87631
0 0 0 0 0 0 0 0 0 0 0 0 0 0 0 0 0 0 0 0 0 0 0 0 0 18.91553 18.17808 18.16871 17.18674 16.48861 16.14816 15.83366 15.82649 15.81444 15.80412 15.79697 15.79153 15.79116 15.79905 15.81105 15.82688 15.84543 15.86549 15.88599 15.9017 15.93632 15.95028 15.95643 15.96574 15.96992 15.97041 15.95998 15.94631 15.92865 15.91203 15.90283 15.89372 15.88007 15.87617 15.86856 15.86503 15.87003 15.88036 15.88677 15.89543 15.89682 15.88775 15.87778 15.87183 15.86411 15.84932 15.83028 15.81148 15.78824 15.76476 15.73852 15.71393 15.69737 15.69041 15.68987 15.69287 15.69961 15.71077 15.71948 15.72694 15.73458 15.74126 15.7511 15.75958 15.7689 15.78889 15.80593 15.81971 15.83151 15.84276 15.84921 15.84874 15.84743 15.84931 15.85171 15.85381 15.85549 15.85742 15.86706 15.88083 15.89781 15.91304 15.90918 15.87864
0 0 0 0 0 0 0 0 0 0 0 0 0 0 0 0 0 0 0 0 0 0 0 19.10099 18.22523 17.61935 17.27224 16.91473 15.90475 15.88441 15.86823 15.85254 15.83907 15.82612 15.80906 15.79901 15.7922 15.79241 15.79525 15.80212 15.81768 15.83842 15.86779 15.89194 15.91114 15.93566 15.95382 15.97272 15.98745 15.99806 16.00559 16.00198 15.99346 15.97926 15.96548 15.94975 15.93893 15.92535 15.90816 15.89911 15.8915 15.89387 15.90214 15.91126 15.91615 15.91558 15.91193 15.90573 15.89981 15.89613 15.89021 15.87748 15.86885 15.85313 15.83628 15.82001 15.8056 15.79353 15.78297 15.7782 15.78068 15.78304 15.78219 15.77925 15.78084 15.78454 15.78777 15.7939 15.80456 15.81712 15.83167 15.84569 15.86134 15.87077 15.87978 15.87857 15.87724 15.87552 15.87887 15.88303 15.88502 15.88518 15.88871 15.9005 15.91677 15.93069 15.93475 15.91832 15.87376
0 0 0 0 0 0 0 0 0 0 0 0 0 0 0 0 0 0 0 0 0 0 18.5214 17.64984 17.30492 17.29701 16.94597 16.57757 15.90244 15.87899 15.85936 15.84234 15.82646 15.81367 15.79821 15.78657 15.77876 15.77855 15.78055 15.79629 15.81801 15.84456 15.86652 15.8921 15.91799 15.94318 15.96123 15.98186 16.00345 16.0156 16.01704 16.01545 16.00612 15.99906 15.98348 15.96745 15.95726 15.94559 15.93475 15.92276 15.91633 15.92001 15.92751 15.93284 15.93739 15.9424 15.94165 15.93681 15.93642 15.93803 15.93409 15.9236 15.91289 15.89796 15.88792 15.88158 15.8728 15.86655 15.86325 15.86298 15.86544 15.86409 15.85862 15.85295 15.8542 15.8592 15.85951 15.86157 15.86561 15.87028 15.87872 15.88736 15.89408 15.89961 15.90517 15.90447 15.90189 15.90244 15.90607 15.90826 15.91237 15.91616 15.92382 15.9413 15.95926 15.96663 15.95772 15.92129 15.86589
0 0 0 0 0 0 0 0 0 0 0 0 0 0 0 0 0 0 0 0 0 19.75019 18.73169 17.63371 16.9693 16.9476 16.57847 16.55554 15.87817 15.85803 15.83767 15.82249 15.80713 15.79372 15.78259 15.77455 15.76657 15.76281 15.76469 15.78161 15.80402 15.82811 15.8558 15.88319 15.91022 15.93412 15.96058 15.98208 15.99908 16.00438 16.00996 16.00619 16.00186 15.99432 15.98358 15.9716 15.96026 15.95425 15.94562 15.93778 15.93135 15.93221 15.94098 15.94723 15.95362 15.95927 15.96325 15.96816 15.97222 15.97813 15.97899 15.97793 15.97201 15.96696 15.96138 15.95852 15.95137 15.94785 15.9432 15.93889 15.933 15.93029 15.91958 15.91474 15.91465 15.91748 15.92585 15.92993 15.9323 15.93164 15.9328 15.93644 15.93768 15.94001 15.94206 15.94023 15.93861 15.93425 15.93565 15.93604 15.93718 15.94404 15.95246 15.97107 15.98406 15.98665 15.96583 15.91741 15.85178
0 0 0 0 0 0 0 0 0 0 0 0 0 0 0 0 0 0 0 0 0 0 0 18.24019 17.30969 16.94509 16.56616 16.21062 15.85952 15.83545 15.81933 15.80615 15.79225 15.77997 15.77155 15.75992 15.75073 15.75027 15.75448 15.77143 15.79413 15.81941 15.84774 15.87161 15.89912 15.92361 15.94581 15.96588 15.9761 15.98412 15.9946 16.00273 16.00115 15.9941 15.98563 15.97777 15.97241 15.96764 15.96309 15.96034 15.95547 15.95274 15.95783 15.96767 15.97223 15.97559 15.98517 15.99393 16.00112 16.01092 16.01453 16.01785 16.02064 16.024 16.02853 16.0307 16.02907 16.02924 16.02537 16.02126 16.01391 16.00822 15.99908 15.99547 15.99275 15.99138 15.99174 15.99133 15.98683 15.98166 15.98023 15.97574 15.97342 15.97564 15.97685 15.98082 15.97705 15.97455 15.97472 15.9717 15.97697 15.98356 15.9929 16.00963 16.01554 16.00695 15.97277 15.91715 15.83984
0 0 0 0 0 0 0 0 0 0 0 0 0 0 0 0 0 0 0 0 0 20.16008 19.85933 18.84614 17.34042 16.95448 16.57003 16.54018 16.1649 15.82259 15.80379 15.79073 15.78069 15.77093 15.7578 15.74993 15.74564 15.74662 15.75427 15.7699 15.78926 15.81547 15.83803 15.86195 15.88634 15.90269 15.91936 15.94202 15.95832 15.97301 15.98475 15.99277 15.99738 15.99339 15.98696 15.98762 15.98528 15.97967 15.97444 15.97437 15.97085 15.96998 15.97509 15.98491 15.99102 16.00153 16.01158 16.02407 16.03442 16.04519 16.05438 16.06408 16.06907 16.07887 16.08521 16.09292 16.09441 16.09107 16.08716 16.08493 16.08041 16.07292 16.0717 16.06948 16.0679 16.06616 16.0643 16.05845 16.04941 16.04028 16.0316 16.02472 16.01873 16.02082 16.01831 16.01552 16.01277 16.01309 16.01231 16.01124 16.01218 16.01554 16.02807 16.03955 16.0388 16.02161 15.98412 15.92473 15.83861
0 0 0 0 0 0 0 0 0 0 0 0 0 0 0 0 0 0 0 20.18866 20.11787 20.02026 19.16971 18.05194 17.36595 16.97314 16.57579 16.88475 15.84311 15.81266 15.79307 15.77874 15.77072 15.76002 15.75193 15.7442 15.74524 15.74984 15.75681 15.76822 15.78842 15.80898 15.83175 15.85233 15.87316 15.8868 15.90454 15.92434 15.94695 15.96513 15.98291 15.99639 16.00208 16.00853 16.01023 16.00769 16.00875 16.00284 15.99976 15.99404 15.98775 15.98541 15.98832 15.99579 16.00643 16.01793 16.03105 16.04047 16.05142 16.06483 16.08084 16.09857 16.11482 16.12994 16.14718 16.15633 16.16265 16.16508 16.16572 16.16405 16.15656 16.14795 16.1438 16.13621 16.12944 16.12568 16.1173 16.10851 16.0969 16.08482 16.07409 16.06809 16.06511 16.06221 16.06117 16.0623 16.06452 16.06297 16.06272 16.06262 16.06245 16.06177 16.06522 16.06843 16.06111 16.03564 15.99497 15.93287 15.84612
0 0 0 0 0 0 0 0 0 0 0 0 0 0 0 0 0 0 19.65995 19.55142 19.19959 18.73395 18.10834 17.42263 17.04014 16.98255 16.57802 16.19558 15.83984 15.80609 15.78421 15.77062 15.76179 15.75316 15.74704 15.74643 15.74899 15.75592 15.76687 15.77938 15.7976 15.81746 15.83572 15.85406 15.86969 15.88456 15.90012 15.92148 15.94569 15.96918 15.98743 16.00113 16.01618 16.02442 16.03094 16.03196 16.03174 16.03036 16.02508 16.02327 16.01728 16.01337 16.01247 16.01691 16.02837 16.03875 16.0502 16.05631 16.06542 16.07953 16.09942 16.12022 16.14221 16.16242 16.18055 16.19819 16.21088 16.22044 16.22987 16.2364 16.23572 16.23148 16.2279 16.2171 16.20826 16.19539 16.18095 16.16688 16.15066 16.13393 16.12403 16.11249 16.10334 16.09888 16.0968 16.09814 16.10024 16.10054 16.09958 16.09998 16.10331 16.10347 16.10374 16.10416 16.09083 16.06347 16.02135 15.95631 15.87544
0 0 0 0 0 0 0 0 0 0 0 0 0 0 0 0 0 20.08488 19.54304 18.93178 18.42492 17.79533 17.44789 17.42428 17.39886 16.98042 16.58113 15.86627 15.82584 15.79395 15.77289 15.75987 15.75306 15.74789 15.74567 15.74781 15.75493 15.76518 15.77487 15.79071 15.81 15.82778 15.84395 15.86801 15.88078 15.89711 15.9151 15.93653 15.95984 15.98455 16.00845 16.02724 16.03932 16.05259 16.05814 16.05913 16.06914 16.06927 16.06673 16.05832 16.05437 16.0472 16.04915 16.05502 16.06338 16.06896 16.07578 16.08538 16.08525 16.1031 16.12609 16.1527 16.17836 16.20006 16.21898 16.24058 16.25683 16.27144 16.28279 16.29198 16.29391 16.28877 16.28152 16.27037 16.25976 16.2441 16.22553 16.21103 16.1935 16.17756 16.165 16.15619 16.14748 16.14383 16.14014 16.13865 16.13927 16.13684 16.13541 16.13282 16.13139 16.13214 16.12999 16.1278 16.11421 16.08676 16.04416 15.98627 15.91628
0 0 0 0 0 0 0 0 0 0 0 0 0 0 0 0 19.56063 19.54909 18.69502 18.11523 17.79464 17.44924 17.43559 17.41684 17.38284 16.96988 16.56247 15.85416 15.81005 15.78147 15.76163 15.75162 15.74833 15.75113 15.75382 15.76113 15.76937 15.77455 15.78511 15.80187 15.81846 15.83851 15.85826 15.87672 15.89656 15.9171 15.93533 15.95854 15.98243 16.00683 16.03497 16.05512 16.06937 16.08275 16.08965 16.09493 16.11234 16.11495 16.10798 16.10497 16.10005 16.09522 16.09126 16.08984 16.08751 16.08973 16.09532 16.09958 16.0986 16.11853 16.144 16.17374 16.2032 16.22866 16.25388 16.27794 16.3008 16.32026 16.33711 16.3506 16.35259 16.35014 16.34055 16.32569 16.30777 16.28915 16.26772 16.2424 16.22134 16.20418 16.19084 16.18275 16.17847 16.17746 16.17417 16.16995 16.16876 16.16716 16.16788 16.16663 16.16782 16.16792 16.16422 16.15829 16.1457 16.12153 16.07916 16.02274 15.9552
0 0 0 0 0 0 0 0 0 0 0 0 0 0 0 20.10455 19.37911 18.68552 18.08787 17.7687 17.42296 17.41957 17.42534 17.04079 16.99555 16.60279 15.87892 15.83133 15.79288 15.77162 15.75316 15.74796 15.75089 15.7578 15.76378 15.77513 15.78437 15.797 15.80772 15.82334 15.84546 15.86697 15.88723 15.91102 15.93533 15.95617 15.97474 15.99894 16.02228 16.04714 16.06812 16.08577 16.09777 16.10996 16.11862 16.12388 16.13382 16.14135 16.1464 16.152 16.15144 16.14954 16.1427 16.13091 16.1191 16.11022 16.10898 16.11187 16.11546 16.13221 16.15568 16.18641 16.22154 16.2513 16.27901 16.30863 16.3341 16.3528 16.372 16.38457 16.38832 16.39127 16.38576 16.3718 16.35706 16.33629 16.31214 16.28719 16.2636 16.24216 16.22607 16.21859 16.21335 16.20579 16.1992 16.194 16.19021 16.1878 16.18544 16.18359 16.18416 16.1864 16.18392 16.18101 16.17357 16.1534 16.11449 16.06185 15.99842
0 0 0 0 0 0 0 0 0 0 0 0 0 0 19.43192 19.43195 18.71536 18.0843 17.75096 17.4034 17.40291 17.02677 17.01984 16.99817 16.61504 16.2188 15.85222 15.80632 15.78196 15.76349 15.75591 15.75413 15.75785 15.76855 15.77812 15.7869 15.79876 15.81127 15.82667 15.84756 15.87745 15.90436 15.93162 15.96024 15.98188 16.0071 16.03349 16.05983 16.08358 16.1038 16.12031 16.13733 16.14837 16.15541 16.16145 16.16691 16.16766 16.17621 16.19064 16.20293 16.20556 16.20419 16.19961 16.18213 16.16285 16.13798 16.12661 16.12473 16.12801 16.14104 16.16571 16.19819 16.23725 16.27565 16.31339 16.34311 16.37219 16.39181 16.40915 16.42111 16.42281 16.42171 16.41347 16.40423 16.39142 16.37258 16.34969 16.32528 16.29815 16.27622 16.26163 16.25041 16.24316 16.23632 16.23001 16.21943 16.21596 16.21175 16.20878 16.20621 16.20357 16.20622 16.20491 16.19985 16.18908 16.16945 16.13136 16.07928 16.01711
0 0 0 0 0 0 0 0 0 0 0 0 0 19.29472 19.47627 18.71491 18.07094 17.73745 17.38574 17.38471 17.01529 17.00231 16.9912 16.96987 16.57301 15.86213 15.82195 15.78671 15.76886 15.76267 15.76527 15.77133 15.78017 15.79055 15.80279 15.81666 15.82635 15.8431 15.86765 15.89251 15.92297 15.95234 15.98461 16.01006 16.03492 16.0587 16.09011 16.12046 16.1409 16.15968 16.17381 16.18617 16.19448 16.20024 16.20192 16.20184 16.19468 16.21111 0 0 0 16.20312 16.20869 16.24884 16.22605 16.1879 16.15731 16.14054 16.14117 16.14809 16.1695 16.20256 16.24647 16.28992 16.33009 16.36996 16.39854 16.42515 16.44635 16.45817 16.46126 16.46 16.45508 16.44363 16.43035 16.41737 16.39615 16.371 16.34306 16.31681 16.29826 16.28304 16.27132 16.26289 16.25457 16.24409 16.23821 16.23269 16.23057 16.22808 16.22776 16.23523 16.23166 16.22688 16.21471 16.19357 16.15724 16.10201 16.03231
0 0 0 0 0 0 0 0 0 0 0 0 0 19.67551 18.73238 18.08281 17.71486 17.3506 17.35614 16.98374 16.97637 16.97245 16.96471 15.89065 15.86174 15.83202 15.79929 15.77214 15.76614 15.76498 15.77388 15.78542 15.79928 15.81591 15.82452 15.84053 15.85909 15.87897 15.90724 15.94701 15.98784 16.02844 16.05793 16.08688 16.11307 16.14676 16.18145 16.20523 16.21609 16.22387 16.23295 17.0271 16.25258 16.23958 16.22929 16.59248 17.38201 18.18972 0 0 0 0 0 16.66722 16.27119 16.23187 16.19223 16.16556 16.15407 16.15683 16.17806 16.21256 16.25368 16.29955 16.34727 16.38807 16.42302 16.44816 16.4679 16.48034 16.48149 16.48158 16.48003 16.47388 16.46243 16.45191 16.43686 16.41628 16.39398 16.36818 16.35059 16.33345 16.321 16.30736 16.29311 16.28043 16.27137 16.26468 16.25757 16.25318 16.25277 16.25614 16.25275 16.24584 16.23263 16.21379 16.17447 16.11745 16.04559
0 0 0 0 0 0 0 0 0 0 0 0 19.81048 19.01315 18.06139 17.69143 17.30492 16.93898 16.94452 16.94685 16.95308 16.96106 16.58092 15.87217 15.84468 15.8196 15.7907 15.77089 15.76949 15.77651 15.78614 15.80208 15.81773 15.83258 15.84532 15.86055 15.87953 15.90578 15.94373 15.99642 16.04402 16.08459 16.11976 16.15653 16.19346 16.21792 16.2293 0 0 16.2243 0 17.93383 17.09435 16.66028 17.03636 17.01212 17.80312 18.23582 19.22473 16.97921 16.23586 0 0 0 17.92279 16.24775 16.20869 16.18416 16.1637 16.16597 16.18791 16.21906 16.26348 16.31131 16.36008 16.40393 16.44257 16.47252 16.4941 16.50558 16.50799 16.50191 16.50224 16.49072 16.48259 16.47166 16.45916 16.44659 16.42712 16.40844 16.38734 16.37174 16.357 16.34182 16.32732 16.31457 16.30395 16.2977 16.2927 16.28778 16.2866 16.28899 16.2844 16.27455 16.25621 16.23255 16.19585 16.13409 16.05501
0 0 0 0 0 0 0 0 0 0 0 19.04619 19.02179 18.04157 17.667 16.89976 16.91275 16.92401 16.92943 16.94078 16.96025 16.24895 15.89498 15.86584 15.83901 15.81126 15.78946 15.77749 15.78112 15.79072 15.80479 15.82155 15.83625 15.85489 15.86795 15.88875 15.9183 15.95661 16.00221 16.06151 16.1096 16.1513 16.18274 16.21292 17.0331 0 0 0 0 0 18.7323 19.53077 19.2808 18.67395 18.28631 17.83848 17.81493 16.60301 16.22254 16.23304 16.23653 16.23801 16.2331 18.28395 18.65031 16.24117 16.21294 16.19536 16.17801 16.18052 16.20005 16.22889 16.26949 16.31542 16.36587 16.41238 16.45119 16.48299 16.50806 16.52336 16.52559 16.5233 16.51732 16.50976 16.5029 16.49641 16.49099 16.48295 16.47222 16.45385 16.43123 16.4117 16.39399 16.37562 16.3563 16.34252 16.33057 16.32474 16.32043 16.31698 16.31577 16.31548 16.30948 16.29706 16.27664 16.25303 16.21785 16.15814 16.07336
0 0 0 0 0 0 0 0 0 0 19.77254 19.04632 18.02895 17.26427 16.89362 16.53211 16.55947 16.57618 16.58597 16.59744 16.60986 15.92067 15.89708 15.86946 15.84285 15.81794 15.80135 15.79134 15.80123 15.81104 15.82346 15.83537 15.85206 15.87148 15.89045 15.92156 15.95684 16.00446 16.055 16.11137 16.16753 16.21055 16.6153 0 0 0 0 0 0 0 0 0 0 0 18.66502 18.28225 17.43644 16.22822 16.23849 16.24861 16.25061 16.24726 16.24228 16.243 16.24022 16.23489 16.21659 16.20431 16.20257 16.20452 16.21868 16.24531 16.28332 16.32837 16.37738 16.42062 16.45699 16.49011 16.51639 16.53238 16.53691 16.53443 16.52615 16.52163 16.51736 16.51431 16.51042 16.50911 16.50043 16.48503 16.46431 16.44561 16.42603 16.41163 16.39585 16.37862 16.36755 16.36087 16.35768 16.35239 16.35252 16.34403 16.33506 16.31545 16.29288 16.26553 16.22704 16.16785 16.08847
0 0 0 0 0 0 0 0 0 0 19.32469 18.02625 17.26321 16.88128 16.18869 16.20032 15.892 15.90373 15.9222 15.92665 15.92467 15.9231 15.90508 15.88478 15.86129 15.84208 15.82894 15.82445 15.8353 15.84417 15.85507 15.86391 15.88069 15.89796 15.92048 15.95504 15.99511 16.03944 16.08974 16.14086 17.39351 0 0 0 0 0 0 0 0 0 0 0 0 0 19.30929 17.9012 16.25517 16.2569 16.26793 16.27869 16.28495 16.28083 16.27379 16.26615 16.25986 16.24448 16.23326 16.22519 16.22672 16.22812 16.24283 16.26846 16.3045 16.34821 16.39546 16.4331 16.46837 16.5002 16.52551 16.53959 16.54774 16.54744 16.54438 16.54051 16.53732 16.5329 16.53268 16.52856 16.51996 16.50369 16.48671 16.46784 16.45202 16.43716 16.42023 16.40611 16.39538 16.39171 16.38884 16.38849 16.38594 16.37851 16.36127 16.34017 16.31608 16.28167 16.23861 16.17908 16.10122
0 0 0 0 0 0 0 0 0 19.41247 18.77795 17.64674 16.87305 16.16845 15.86392 15.87232 15.88055 15.89152 15.90595 15.91582 15.91875 15.92207 15.912 15.89713 15.8789 15.86069 15.84913 15.85017 15.86005 15.87192 15.88777 15.89763 15.91209 15.93629 15.9604 15.99786 16.03315 16.07356 16.12509 16.9457 17.18409 0 0 0 0 0 0 0 0 0 0 0 0 18.58106 18.33953 17.07733 16.26615 16.27853 16.29979 16.31496 16.32347 16.3208 16.31322 16.30149 16.28956 16.27673 16.26462 16.25787 16.2573 16.26132 16.27601 16.29801 16.32988 16.36694 16.40858 16.44215 16.4788 16.50621 16.52997 16.54528 16.55353 16.55464 16.55739 16.55697 16.55391 16.5527 16.55101 16.54652 16.54148 16.53171 16.51661 16.4984 16.48377 16.46887 16.45032 16.43826 16.42721 16.4192 16.41482 16.41542 16.41088 16.40108 16.37953 16.35593 16.32644 16.28932 16.24045 16.17966 16.10647
0 0 0 0 0 0 0 0 20.22399 19.13674 17.66564 16.85267 16.48346 15.82523 15.83253 15.84215 15.85214 15.86444 15.87904 15.89387 15.90563 15.91419 15.91392 15.90743 15.89245 15.88222 15.87905 15.88274 15.89245 15.90813 15.91486 15.9257 15.94439 15.96509 15.99123 16.02778 16.06004 16.09393 16.50707 16.95079 17.41175 18.26194 0 19.10765 19.70592 0 0 0 0 0 0 0 19.37666 18.35343 17.52637 16.2749 16.28404 16.30894 16.33186 16.3455 16.35048 16.34696 16.33658 16.32749 16.31478 16.30585 16.29551 16.28988 16.29364 16.30259 16.31782 16.33832 16.36813 16.3968 16.43647 16.47289 16.50366 16.53312 16.55268 16.56624 16.57102 16.57356 16.57498 16.57289 16.57087 16.57028 16.56745 16.56747 16.56098 16.54986 16.53631 16.52112 16.50676 16.49637 16.48512 16.4738 16.46294 16.45908 16.45778 16.44899 16.44168 16.42754 16.40052 16.37228 16.33714 16.29593 16.24013 16.17691 16.10658
0 0 0 0 0 0 0 0 20.24372 19.14641 17.65541 16.83305 15.80554 15.80031 15.8062 15.81132 15.82273 15.8412 15.85907 15.8769 15.89394 15.91166 15.91147 15.91081 15.9105 15.91307 15.92043 15.92876 15.94488 15.96014 15.97275 15.98864 16.00149 16.01764 16.03614 16.06064 16.0864 16.1081 16.13112 16.55346 16.97226 17.41222 17.85832 18.30519 19.09311 0 0 0 0 0 0 18.76318 17.94682 17.94256 16.28183 16.30109 16.32419 16.35172 16.37162 16.38232 16.38677 16.38079 16.36938 16.35728 16.34768 16.33689 16.32773 16.32407 16.32636 16.33409 16.34912 16.37013 16.39611 16.4255 16.46036 16.4978 16.52723 16.5597 16.57956 16.5929 16.60295 16.60517 16.60458 16.60319 16.60121 16.59742 16.59454 16.59302 16.58623 16.57432 16.55744 16.54396 16.52862 16.51608 16.50615 16.49538 16.48667 16.48434 16.48149 16.47208 16.46147 16.44576 16.42045 16.38299 16.34281 16.29654 16.23829 16.17346 16.10379
0 0 0 0 0 0 0 0 0 19.16144 17.65552 16.83157 15.78765 15.77597 15.77996 15.78311 15.79452 15.81438 15.83571 15.86099 15.88263 15.90498 15.90992 15.91511 15.92295 15.93897 15.95762 15.97936 16.00424 16.02443 16.04207 16.0549 16.06402 16.07319 16.08524 16.10174 16.11999 16.1305 16.14717 16.16333 16.17816 16.19267 16.20665 16.6019 17.44647 18.28418 19.09978 19.44199 0 0 19.06865 17.92367 17.08061 16.27939 16.29984 16.33102 16.36417 16.38904 16.40465 16.41344 16.41502 16.4122 16.40023 16.39035 16.38371 16.3725 16.36871 16.36457 16.36643 16.37601 16.39138 16.40957 16.43158 16.45997 16.49013 16.52275 16.55139 16.58019 16.60272 16.61718 16.62673 16.62939 16.62735 16.62678 16.626 16.6217 16.62092 16.61811 16.61252 16.60148 16.58902 16.5724 16.55734 16.54735 16.53767 16.52522 16.51327 16.50704 16.5008 16.48763 16.47501 16.45206 16.42091 16.38644 16.34434 16.29349 16.23246 16.16315 16.09757
0 0 0 0 0 0 0 0 0 20.11189 18.46336 17.23937 16.10069 15.76533 15.75581 15.75432 15.76854 15.79399 15.82028 15.84853 15.87129 15.89494 15.90755 15.92389 15.94664 15.97655 16.00856 16.04203 16.06905 16.09253 16.10583 16.11384 16.11237 16.11655 16.12196 16.13285 16.14638 16.14962 16.15395 16.15813 16.17261 16.18383 16.19726 16.20538 16.59816 17.02091 17.45014 17.86563 19.07862 17.89979 16.62994 16.25337 16.27561 16.30577 16.33817 16.3659 16.393 16.41684 16.43149 16.44075 16.4413 16.43388 16.42456 16.41582 16.40788 16.40305 16.39929 16.39689 16.39939 16.41282 16.42559 16.4456 16.46655 16.4975 16.52556 16.55569 16.58309 16.60718 16.62437 16.63951 16.64375 16.64982 16.64795 16.64861 16.64627 16.64591 16.64186 16.63973 16.6317 16.62311 16.61016 16.59508 16.58112 16.57117 16.55996 16.54774 16.53668 16.52787 16.52039 16.50709 16.48906 16.46496 16.4313 16.39211 16.34883 16.28891 16.22353 16.15342 16.08042
0 0 0 0 0 0 0 0 0 20.24611 19.46168 17.6631 16.44846 15.75839 15.74143 15.73217 15.74423 15.7696 15.8023 15.82945 15.85906 15.89044 15.9164 15.93952 15.97758 16.02251 16.07112 16.11389 16.15641 16.16975 16.17576 16.17582 16.1681 16.16589 16.16228 16.16663 16.17195 16.17222 16.16662 16.16578 16.1744 16.18455 16.19331 16.20586 16.21325 16.22824 16.6329 0 17.9079 16.64699 16.267 16.28804 16.31691 16.34862 16.38486 16.41038 16.43141 16.44567 16.45643 16.46064 16.45966 16.45707 16.45111 16.44552 16.43908 16.43741 16.4313 16.42716 16.42944 16.44012 16.45395 16.47122 16.49419 16.52256 16.55176 16.57791 16.60358 16.62821 16.64714 16.65768 16.66345 16.66683 16.66822 16.66861 16.66775 16.66709 16.66473 16.66284 16.65536 16.64159 16.62946 16.61453 16.60004 16.58918 16.57827 16.56498 16.55302 16.54495 16.53313 16.51759 16.49718 16.46817 16.43493 16.39961 16.34928 16.28494 16.21378 16.14205 16.05731
0 0 0 0 0 0 0 0 0 0 19.96225 18.50268 16.85185 16.09146 15.74527 15.72724 15.7327 15.75734 15.78479 15.81475 15.84974 15.89087 15.92553 15.95949 16.00557 16.05774 16.11801 16.16824 0 0 0 16.4177 16.20076 16.19765 16.19422 16.19194 16.19455 16.1937 16.1891 16.18236 16.17944 16.18641 16.1971 16.21119 16.2282 16.2443 16.26415 16.67425 16.28494 16.29292 16.31366 16.34091 16.36729 16.3981 16.4227 16.44056 16.4566 16.46786 16.47385 16.47615 16.48216 16.48893 16.48387 16.48195 16.47856 16.47344 16.47128 16.46732 16.46987 16.47868 16.49206 16.5086 16.53034 16.55583 16.58218 16.60472 16.62479 16.6489 16.66241 16.67472 16.67765 16.67888 16.68323 16.68444 16.68478 16.68266 16.68191 16.67893 16.67292 16.66372 16.65273 16.63731 16.62543 16.61301 16.60028 16.58813 16.57744 16.56547 16.55179 16.53316 16.5106 16.4795 16.44695 16.40325 16.35044 16.28761 16.21382 16.13758 16.04502
0 0 0 0 0 0 0 0 0 0 0 19.85256 18.49299 16.84021 16.08642 15.74973 15.72729 15.74701 15.77449 15.81277 15.85581 15.9058 15.94748 15.98618 16.03283 16.09318 16.51506 16.93256 0 0 0 17.08507 17.36808 16.20723 16.20821 16.20282 16.20818 16.20798 16.20228 16.20164 16.19665 16.19648 16.20858 16.22538 16.24863 16.27031 16.28702 16.306 16.32001 16.3355 16.36263 16.38887 16.41645 16.4431 16.4594 16.47553 16.484 16.49261 16.49824 16.50224 16.50824 16.5118 16.51504 16.50919 16.50947 16.50743 16.50443 16.50541 16.50755 16.51665 16.53266 16.55102 16.57158 16.59313 16.61547 16.63593 16.65817 16.67181 16.68704 16.69642 16.69844 16.70057 16.70204 16.70061 16.70075 16.69887 16.69553 16.69427 16.68873 16.68006 16.66827 16.656 16.64287 16.63183 16.62119 16.6112 16.59895 16.5855 16.56647 16.54604 16.52408 16.49387 16.45787 16.41253 16.3608 16.29664 16.22244 16.14744 16.05343
0 0 0 0 0 0 0 0 0 0 0 0 20.0025 18.83512 16.81349 16.09057 15.72476 15.73846 15.77171 15.81537 15.86597 15.92436 15.96484 16.00621 16.04402 16.10755 16.909 0 0 18.53624 18.63056 17.00849 16.21745 16.20848 16.20407 16.21434 16.21553 16.221 16.22115 16.21734 16.21462 16.21683 16.22529 16.24247 16.2671 16.29516 16.31653 16.33333 16.349 16.37387 16.40117 16.42894 16.45957 16.48166 16.49864 16.51015 16.52479 16.53197 16.53583 16.53322 16.53635 16.54352 16.54507 16.54284 16.54263 16.54129 16.53944 16.54282 16.54433 16.55289 16.56684 16.58421 16.6017 16.62103 16.64337 16.6658 16.68496 16.69653 16.70778 16.71521 16.71777 16.72041 16.72087 16.71988 16.7174 16.71414 16.71171 16.70941 16.70487 16.69773 16.68959 16.6756 16.66227 16.65025 16.64084 16.63073 16.61646 16.59957 16.58097 16.55862 16.53348 16.50103 16.46678 16.42173 16.37117 16.3138 16.24056 16.16597 16.08245
0 0 0 0 0 0 0 0 0 0 0 0 0 0 0 16.78695 16.04778 15.74066 15.7728 15.82231 15.87902 15.94029 15.97894 16.01157 16.04319 16.46361 16.52981 16.94129 17.34247 19.53991 18.63201 16.99257 16.2141 16.20647 16.20612 16.21693 16.22531 16.23049 16.23231 16.23532 16.24116 16.24715 16.25443 16.26639 16.28706 16.31231 16.33539 16.35677 16.37781 16.40357 16.4338 16.46342 16.49134 16.51352 16.53242 16.54408 16.55569 16.5628 16.56835 16.56607 16.56544 16.56465 16.56559 16.56688 16.56889 16.57226 16.57431 16.57894 16.5823 16.59544 16.60766 16.61945 16.63662 16.65868 16.68198 16.69922 16.71412 16.7233 16.72899 16.73344 16.73372 16.7333 16.73492 16.73619 16.73487 16.73214 16.72792 16.72436 16.71749 16.7093 16.70112 16.69131 16.68065 16.66954 16.66045 16.65144 16.63605 16.61676 16.5985 16.57855 16.55227 16.52105 16.48427 16.44266 16.39555 16.3376 16.27154 16.19583 16.1198
0 0 0 0 0 0 0 0 0 0 0 0 0 0 0 17.54514 16.7552 15.74879 15.79673 15.83993 15.89785 15.95653 15.99949 16.02578 16.0581 16.10805 16.91351 16.96143 17.37078 0 18.67639 16.22946 16.21874 16.2104 16.22767 16.2214 16.23351 16.2401 16.24485 16.25174 16.26357 16.27076 16.28024 16.29149 16.30804 16.3329 16.35618 16.37855 16.40902 16.44004 16.47576 16.50139 16.52437 16.54629 16.56444 16.5756 16.58456 16.59274 16.59621 16.59352 16.59096 16.5861 16.58292 16.58422 16.59011 16.59376 16.59885 16.6058 16.61635 16.62812 16.64241 16.65871 16.67519 16.69609 16.71424 16.73409 16.74412 16.75461 16.761 16.76118 16.75989 16.75625 16.75577 16.75344 16.75149 16.75069 16.7497 16.74094 16.73081 16.72102 16.71385 16.70201 16.69472 16.68464 16.67579 16.66623 16.65185 16.6343 16.61511 16.59731 16.57162 16.54573 16.51474 16.47768 16.43475 16.38065 16.31553 16.24762 16.18019
0 0 0 0 0 0 0 0 0 0 0 0 0 18.75888 18.38051 17.54112 16.78582 15.77219 15.81603 15.86496 15.92296 15.98271 16.02423 16.05582 16.08774 16.12193 17.30921 17.75219 18.2021 18.10324 19.08258 16.60052 16.21505 16.21489 16.22538 16.23512 16.24836 16.25408 16.25765 16.26454 16.27329 16.28491 16.29693 16.31137 16.32926 16.35141 16.37447 16.40056 16.43377 16.46584 16.49972 16.52532 16.54616 16.56785 16.58001 16.59591 16.60737 16.61726 16.61767 16.61608 16.61619 16.61291 16.60953 16.61304 16.6161 16.62097 16.62834 16.6373 16.64744 16.65754 16.67363 16.69044 16.70757 16.72667 16.74612 16.76423 16.77506 16.78311 16.78781 16.78584 16.78147 16.77585 16.77264 16.76922 16.77046 16.77068 16.76288 16.75851 16.74568 16.73345 16.72457 16.71732 16.70683 16.69987 16.68979 16.67807 16.6648 16.65654 16.63916 16.6186 16.59386 16.56718 16.53415 16.50065 16.45908 16.41584 16.36051 16.30033 16.23871
0 0 0 0 0 0 0 0 0 0 0 0 17.94537 17.54965 17.57322 17.1887 16.47033 15.80469 15.84686 15.89635 15.94492 16.00662 16.04764 16.07859 16.10424 16.14163 16.9485 16.9801 17.78696 18.61913 16.98477 16.20419 16.21121 16.22802 16.2461 16.26197 16.27386 16.27586 16.27489 16.27765 16.28704 16.29847 16.31275 16.32979 16.35101 16.37283 16.39905 16.42238 16.45055 16.47985 16.50992 16.52877 16.54969 16.57152 16.58957 16.60409 16.61833 16.62858 16.63261 16.63471 16.63604 16.63589 16.63753 16.63815 16.6416 16.6459 16.65352 16.66309 16.67503 16.68792 16.70819 16.72546 16.74797 16.7688 16.78755 16.80004 16.80781 16.81074 16.81139 16.8103 16.80467 16.79859 16.79531 16.79468 16.79656 16.79102 16.78487 16.77204 16.75811 16.74801 16.73799 16.73228 16.72417 16.71681 16.7084 16.69689 16.68523 16.6763 16.66299 16.64524 16.62661 16.60234 16.56892 16.53579 16.49984 16.45846 16.40505 16.35414 16.29849
0 0 0 0 0 0 0 0 19.72058 19.09438 17.93243 17.12966 17.12877 17.13326 16.80404 16.86082 16.53281 15.86137 15.90141 15.94418 15.99547 16.04877 16.08391 16.11633 16.14031 16.17125 16.20009 16.21035 16.21522 16.21476 16.20813 16.21633 16.22823 16.24912 16.26713 16.28352 16.29203 16.29531 16.2921 16.29458 16.30402 16.31774 16.33067 16.35088 16.37061 16.39651 16.42092 16.43974 16.46102 16.48786 16.50967 16.5299 16.54993 16.56993 16.58969 16.61083 16.62593 16.63553 16.64325 16.6473 16.65054 16.65118 16.65261 16.65605 16.66115 16.66671 16.67561 16.68478 16.69701 16.71613 16.73775 16.76527 16.78781 16.81172 16.82704 16.8342 16.83658 16.83811 16.83874 16.83706 16.8312 16.82544 16.82202 16.8201 16.81625 16.80723 16.79673 16.78388 16.77018 16.76012 16.74827 16.74153 16.73537 16.72684 16.71971 16.71174 16.69907 16.69061 16.68156 16.67093 16.65872 16.6398 16.61356 16.58265 16.54725 16.5065 16.46224 16.41358 16.36251
0 0 0 0 0 0 0 18.70296 18.76855 17.12968 16.73581 16.7224 16.74162 16.7758 16.83774 16.54922 15.88714 15.91784 15.95737 16.00093 16.0506 16.09781 16.12875 16.15878 16.18299 16.20714 16.22912 16.24658 16.25513 16.25798 16.25898 16.26225 16.26972 16.28105 16.29378 16.29809 16.30617 16.30517 16.30796 16.31224 16.32133 16.33301 16.3475 16.36161 16.38335 16.40685 16.42874 16.44709 16.46549 16.4821 16.50481 16.52443 16.54515 16.56886 16.5912 16.6144 16.62683 16.6362 16.64573 16.6519 16.65742 16.66221 16.67125 16.67588 16.68268 16.69252 16.7034 16.71641 16.73032 16.74795 16.77047 16.79406 16.82131 16.84292 16.85495 16.86033 16.85888 16.86191 16.86076 16.85739 16.85288 16.84789 16.84357 16.83743 16.83134 16.82286 16.80769 16.79554 16.78228 16.77347 16.76327 16.75568 16.74762 16.74014 16.73357 16.72855 16.71997 16.71167 16.70874 16.70173 16.68746 16.67308 16.64814 16.62048 16.59038 16.55055 16.51118 16.46893 16.41825
0 0 0 0 0 0 19.21048 19.18729 17.13543 16.71281 16.68795 16.70914 16.76574 16.47456 16.19696 15.9118 15.93215 15.96839 16.00906 16.05267 16.0992 16.13561 16.16486 16.18938 16.21082 16.23946 16.25581 16.27577 16.28796 16.29477 16.29831 16.30488 16.30929 16.31172 16.3165 16.31871 16.32248 16.32142 16.32451 16.32669 16.33406 16.34309 16.35483 16.37168 16.38818 16.40086 16.41929 16.43924 16.45746 16.47693 16.49983 16.52097 16.54152 16.56521 16.58618 16.60485 16.6205 16.63317 16.6451 16.6553 16.66703 16.67342 16.68039 16.6915 16.70411 16.71987 16.73315 16.75032 16.76492 16.7868 16.80798 16.83095 16.85399 16.87644 16.88777 16.8893 16.88805 16.88975 16.88667 16.88246 16.87391 16.86635 16.85874 16.85034 16.84277 16.83215 16.81663 16.80547 16.79443 16.78441 16.77391 16.76748 16.76245 16.75709 16.7534 16.74695 16.73841 16.73641 16.73319 16.73095 16.72355 16.70699 16.68975 16.66343 16.63931 16.60969 16.57094 16.52784 16.48267
0 0 0 0 0 0 20.07009 18.37407 17.09414 16.67611 16.34196 16.39663 16.12795 15.86935 15.92217 15.96621 15.99838 16.03686 16.07489 16.11024 16.14473 16.17905 16.2025 16.22469 16.24137 16.25815 16.27851 16.29626 16.30899 16.31638 16.31921 16.32432 16.32525 16.3265 16.32868 16.32929 16.32539 16.32443 16.33192 16.33126 16.33885 16.34889 16.36449 16.37544 16.38536 16.4002 16.41218 16.42857 16.45132 16.47243 16.49297 16.51357 16.53775 16.55838 16.57729 16.59917 16.61804 16.63068 16.64313 16.65543 16.66776 16.6802 16.68952 16.70325 16.72348 16.74032 16.75705 16.77598 16.79442 16.81762 16.83856 16.8606 16.88225 16.90237 16.91323 16.91628 16.91923 16.91772 16.91237 16.90248 16.89471 16.88446 16.87346 16.86192 16.85468 16.84248 16.82746 16.81465 16.80463 16.7971 16.78823 16.78228 16.77517 16.772 16.77043 16.76241 16.75422 16.75289 16.7545 16.75353 16.74944 16.73784 16.72542 16.71152 16.6927 16.66699 16.63694 16.59589 16.55399
0 0 0 0 0 20.15055 19.68642 18.3428 17.07522 16.70767 16.05428 15.79402 15.85871 15.9218 15.9731 16.01649 16.05406 16.08994 16.1273 16.15869 16.18791 16.21849 16.24417 16.26319 16.27988 16.29689 16.31205 16.33315 16.34322 16.3517 16.35383 16.35055 16.34994 16.35093 16.34602 16.34095 16.33772 16.33493 16.33537 16.33779 16.34514 16.35194 16.36436 16.36917 16.37873 16.39115 16.402 16.42219 16.44026 16.4608 16.47972 16.49787 16.51986 16.54675 16.56889 16.59118 16.60944 16.62404 16.63832 16.65201 16.666 16.67969 16.69483 16.71121 16.73142 16.75507 16.77999 16.8008 16.82025 16.84057 16.86299 16.88102 16.90192 16.92082 16.92852 16.93426 16.93656 16.93323 16.92431 16.91182 16.90194 16.89419 16.88489 16.87621 16.86246 16.84905 16.83563 16.82464 16.81678 16.80942 16.80131 16.79609 16.79209 16.78956 16.79237 16.78481 16.78032 16.77623 16.77909 16.77842 16.77933 16.77399 16.76086 16.74809 16.7319 16.70789 16.68059 16.64792 16.60851
0 0 0 0 19.16492 18.77335 17.07105 16.67947 16.33992 15.7313 15.78644 15.84597 15.90836 15.96026 16.0069 16.05226 16.09255 16.12649 16.15781 16.19181 16.22063 16.25349 16.27316 16.29359 16.31251 16.32884 16.34929 16.3637 16.37225 16.38262 16.38092 16.37486 16.37349 16.36649 16.36071 16.35316 16.34673 16.34461 16.34291 16.34003 16.34334 16.3532 16.35619 16.36018 16.3679 16.37772 16.39154 16.40587 16.42319 16.446 16.46562 16.48394 16.50674 16.53305 16.5626 16.58429 16.60339 16.62041 16.63127 16.64378 16.65634 16.67463 16.69413 16.71479 16.74144 16.7695 16.79629 16.82168 16.84319 16.86399 16.88441 16.90116 16.91746 16.9337 16.94182 16.94732 16.94745 16.94211 16.93032 16.92113 16.91435 16.90442 16.89521 16.88576 16.87486 16.86163 16.8465 16.8382 16.83145 16.82417 16.81708 16.81556 16.81362 16.81303 16.81394 16.8087 16.80322 16.80384 16.81118 16.81531 16.81335 16.80722 16.80489 16.79726 16.77925 16.75945 16.73691 16.7059 16.67698
0 0 0 0 20.24709 17.4887 15.70976 15.69997 15.71964 15.77605 15.83286 15.89994 15.95124 16.00028 16.04483 16.09069 16.12417 16.15146 16.18624 16.21894 16.24637 16.27323 16.29388 16.31391 16.33576 16.35182 16.36848 16.38069 16.3892 16.39164 16.39091 16.39242 16.38785 16.38069 16.37289 16.36062 16.34977 16.34984 16.34492 16.34305 16.34904 16.3458 16.34767 16.35492 16.36326 16.37405 16.38938 16.40186 16.41623 16.43286 16.44962 16.46912 16.49088 16.52085 16.54744 16.57225 16.59213 16.60905 16.62457 16.63885 16.65613 16.67577 16.6971 16.71968 16.74486 16.7749 16.80146 16.82926 16.85292 16.87784 16.89741 16.91403 16.92737 16.93829 16.945 16.94562 16.94714 16.94277 16.9374 16.93288 16.92411 16.91713 16.90683 16.89767 16.88643 16.87839 16.8673 16.86196 16.85463 16.84666 16.83865 16.8372 16.83381 16.83369 16.83039 16.82926 16.82491 16.83015 16.83933 16.84609 16.84663 16.84289 16.84052 16.83536 16.82799 16.81361 16.79766 16.77307 16.74426
0 0 0 19.2987 18.84588 17.07541 15.69849 15.70578 15.75277 15.81053 15.87684 15.94242 15.99426 16.03848 16.08139 16.1196 16.15064 16.17763 16.21238 16.24493 16.27134 16.29323 16.30982 16.3286 16.34486 16.3622 16.37361 16.38355 16.38979 16.39443 16.39739 16.39885 16.3955 16.39321 16.38712 16.37896 16.36181 16.35463 16.35197 16.35129 16.35143 16.34768 16.34889 16.35475 16.36134 16.37115 16.38314 16.39692 16.40853 16.42128 16.44117 16.46075 16.48311 16.50917 16.53042 16.5516 16.57662 16.59226 16.61208 16.63019 16.65133 16.67577 16.69996 16.72229 16.7457 16.77385 16.79844 16.82755 16.85527 16.88001 16.89945 16.9145 16.92868 16.93571 16.943 16.94388 16.9438 16.94722 16.9435 16.93988 16.93333 16.92671 16.91482 16.90603 16.89896 16.89473 16.88928 16.88604 16.88257 16.87499 16.87048 16.86802 16.86496 16.86477 16.85968 16.85874 16.85919 16.86181 16.87307 16.8793 16.88132 16.87905 16.87343 16.87521 16.87062 16.8598 16.84504 16.82616 16.79862
0 0 0 19.27057 18.83128 17.06775 16.31645 15.72317 15.77922 15.84541 15.9111 15.97696 16.02387 16.0661 16.10696 16.14276 16.17303 16.19909 16.22961 16.25965 16.28135 16.29851 16.31336 16.32772 16.34781 16.36438 16.37376 16.38652 16.39231 16.38833 16.39738 16.40187 16.40417 16.39929 16.39811 16.38638 16.37285 16.36509 16.35962 16.36038 16.35896 16.35785 16.35352 16.3488 16.35194 16.36187 16.37509 16.39147 16.40448 16.41728 16.43434 16.45477 16.47223 16.49509 16.51909 16.54162 16.5652 16.58901 16.60605 16.62569 16.64628 16.67094 16.69416 16.72043 16.74275 16.76878 16.79415 16.82202 16.84853 16.87686 16.89857 16.91244 16.92562 16.93128 16.93749 16.9402 16.94397 16.94869 16.94896 16.94716 16.93805 16.93045 16.92617 16.91827 16.91331 16.91122 16.90943 16.90772 16.90125 16.89872 16.90231 16.90223 16.90217 16.90323 16.90055 16.89774 16.9014 16.90843 16.91812 16.92411 16.92805 16.92827 16.92918 16.92368 16.92156 16.91442 16.90304 16.8824 16.85423
0 0 0 20.15474 19.09967 17.03933 15.99011 15.73605 15.80606 15.87853 15.94605 15.99893 16.04504 16.08795 16.1273 16.15812 16.18817 16.2157 16.24149 16.26578 16.28174 16.29296 16.30585 16.31833 16.34073 16.352 16.36732 16.38508 16.38352 16.38403 16.39249 16.40137 16.40769 16.40479 16.40091 16.39218 16.38101 16.36684 16.36033 16.35997 16.3561 16.35613 16.35182 16.34721 16.34748 16.35718 16.36821 16.38331 16.39643 16.41119 16.42952 16.451 16.46863 16.48463 16.51077 16.53675 16.56608 16.58802 16.60521 16.62382 16.64684 16.66911 16.69563 16.72124 16.74223 16.76695 16.7922 16.81942 16.8441 16.87214 16.8926 16.90665 16.91473 16.9207 16.92673 16.93256 16.93839 16.93829 16.943 16.94634 16.94236 16.93617 16.93359 16.9316 16.93161 16.93234 16.93061 16.93447 16.93111 16.92638 16.93237 16.9342 16.93741 16.93817 16.93827 16.93715 16.94034 16.94579 16.95987 16.96481 16.9691 16.9726 16.97419 16.97394 16.96887 16.96058 16.94875 16.931 16.91111
0 0 0 20.15535 17.79592 16.27972 15.70224 15.76623 15.84545 15.91042 15.96754 16.01977 16.06072 16.10307 16.13971 16.17197 16.19769 16.21746 16.23908 16.24987 16.265 16.27676 16.28682 16.29773 16.31829 16.33662 16.35087 16.36762 16.37425 16.37947 16.39067 16.39957 16.40991 16.41345 16.40407 16.39254 16.38527 16.36962 16.3603 16.35543 16.35064 16.34448 16.34322 16.34345 16.34151 16.34711 16.35922 16.37347 16.39207 16.41087 16.42938 16.4485 16.46609 16.48634 16.50857 16.53362 16.55742 16.58546 16.60877 16.63093 16.65418 16.67498 16.70088 16.72978 16.75355 16.77474 16.79592 16.81781 16.84291 16.86804 16.89031 16.90229 16.90922 16.91376 16.91501 16.91988 16.92583 16.93102 16.93772 16.94273 16.94024 16.93897 16.93914 16.94208 16.94396 16.94974 16.9531 16.96004 16.95834 16.96271 16.96679 16.97119 16.97439 16.97603 16.97846 16.97899 16.98145 16.99559 17.00779 17.01268 17.01741 17.01732 17.01879 17.01606 17.01208 17.0035 16.98797 16.97532 16.95653
15.67088 15.6714 16.99101 17.77372 15.91855 15.65774 15.7294 15.80982 15.88137 15.94656 15.99409 16.03609 16.07784 16.11265 16.14517 16.17266 16.19591 16.21369 16.2275 16.23697 16.24581 16.2507 16.26612 16.27842 16.2976 16.31426 16.33424 16.34734 16.3653 16.37972 16.3899 16.39631 16.41264 16.4165 16.40617 16.39439 16.38026 16.37339 16.36764 16.35892 16.3478 16.3416 16.33611 16.33606 16.33656 16.34424 16.35438 16.36953 16.3902 16.40399 16.42635 16.44965 16.47346 16.4935 16.51141 16.53811 16.56347 16.59144 16.6158 16.64339 16.66344 16.68696 16.71386 16.74101 16.76267 16.78141 16.80061 16.82222 16.84721 16.86981 16.88919 16.89817 16.90548 16.90813 16.90954 16.91522 16.92219 16.92768 16.93597 16.94414 16.94579 16.94438 16.9484 16.95094 16.95761 16.96618 16.97268 16.97804 16.98366 16.99081 16.99678 17.00596 17.01269 17.01883 17.02289 17.02613 17.03603 17.0442 17.05257 17.06434 17.06794 17.07071 17.07278 17.07109 17.06484 17.05202 17.03881 17.0264 17.01227
15.67569 15.66606 15.67243 15.6875 15.70683 15.7521 15.81774 15.88491 15.94735 15.99654 16.03026 16.06307 16.09372 16.12133 16.14805 16.17022 16.18925 16.20439 16.21542 16.21979 16.22164 16.23044 16.24402 16.25824 16.27413 16.29354 16.31399 16.3419 16.35699 16.37615 16.38724 16.398 16.41527 16.41726 16.40746 16.39496 16.38383 16.3763 16.37164 16.36261 16.35297 16.34361 16.34087 16.33732 16.33857 16.34782 16.3562 16.37152 16.38522 16.40511 16.43021 16.45945 16.48385 16.50769 16.52703 16.55045 16.57617 16.60226 16.62732 16.65449 16.67866 16.69851 16.72385 16.74935 16.77063 16.79163 16.8098 16.83045 16.84945 16.86802 16.88637 16.90211 16.90991 16.91577 16.91438 16.91729 16.92323 16.93151 16.93909 16.94722 16.951 16.95451 16.96038 16.96399 16.97496 16.98523 16.99461 17.00347 17.01525 17.02609 17.03281 17.04121 17.04842 17.05524 17.06025 17.06802 17.07662 17.08236 17.09605 17.10428 17.11135 17.11966 17.12218 17.12319 17.11898 17.11017 17.09873 17.08178 17.06352
15.76467 15.77693 15.79092 15.80692 15.83262 15.87099 15.91675 15.96248 16.00283 16.03595 16.06131 16.08143 16.10337 16.12756 16.14512 16.16461 16.18589 16.19733 16.19956 16.19935 16.20138 16.20503 16.2184 16.23133 16.24867 16.27912 16.30296 16.33149 16.34974 16.3643 16.38376 16.39952 16.41492 16.4272 16.41267 16.39456 16.38657 16.38335 16.37772 16.37395 16.36263 16.35512 16.34669 16.34484 16.34789 16.35716 16.36693 16.3796 16.39486 16.41455 16.44298 16.46981 16.50084 16.52339 16.54886 16.57234 16.59773 16.62305 16.64861 16.67599 16.69767 16.71888 16.74312 16.76344 16.78437 16.80141 16.81978 16.83689 16.85381 16.87211 16.89233 16.90436 16.91395 16.92218 16.92768 16.92707 16.93134 16.93579 16.94331 16.95092 16.95491 16.96327 16.97541 16.98557 16.9943 17.00762 17.02342 17.03857 17.05598 17.07051 17.0847 17.0944 17.09944 17.10425 17.10985 17.1165 17.12458 17.13604 17.14803 17.15801 17.16755 17.17336 17.17572 17.17262 17.16733 17.16002 17.14885 17.13223 17.11775
15.8451 15.86391 15.88275 15.89841 15.91797 15.94106 15.97315 16.00183 16.02826 16.04571 16.06306 16.07922 16.09806 16.11573 16.13388 16.1508 16.1649 16.17747 16.18152 16.18557 16.18483 16.185 16.19236 16.20802 16.23257 16.26479 16.28701 16.31479 16.33332 16.35735 16.37915 16.40087 16.4215 16.43393 16.42371 16.40962 16.40323 16.39885 16.39268 16.38714 16.3782 16.36796 16.36088 16.36152 16.36472 16.37179 16.38349 16.39457 16.41095 16.43515 16.4651 16.4917 16.51965 16.546 16.57392 16.59762 16.62291 16.64897 16.67604 16.69992 16.72274 16.74689 16.7688 16.78429 16.80016 16.8183 16.83561 16.85032 16.8675 16.88844 16.90003 16.91138 16.9212 16.93552 16.93702 16.93844 16.94065 16.94547 16.94646 16.95335 16.96254 16.97294 16.98515 17.00048 17.01654 17.03434 17.05298 17.07784 17.09707 17.11724 17.13626 17.14575 17.15303 17.15495 17.16334 17.17493 17.1883 17.20697 17.2232 17.24135 17.2565 17.25828 17.25365 17.24697 17.23517 17.22693 17.21573 17.20161 17.19148
15.92457 15.93661 15.94393 15.95334 15.96424 15.97636 15.99045 16.00549 16.02432 16.03558 16.05066 16.06301 16.07816 16.09639 16.11336 16.131 16.14621 16.16036 16.1686 16.17155 16.1704 16.17447 16.18279 16.20243 16.23241 16.2632 16.28916 16.31388 16.33722 16.35852 16.38943 16.41297 16.43465 16.45208 16.44575 16.43417 16.4312 16.42744 16.42307 16.41589 16.40618 16.39583 16.3908 16.3911 16.39687 16.40926 16.42203 16.43609 16.45122 16.47619 16.50086 16.52677 16.55231 16.57824 16.60676 16.63248 16.65793 16.6851 16.71458 16.73856 16.75805 16.78155 16.79965 16.81698 16.83281 16.85014 16.86519 16.87682 16.88953 16.90519 16.92112 16.93547 16.9451 16.9546 16.95516 16.95825 16.95876 16.96058 16.96342 16.97123 16.98213 16.9992 17.01947 17.03463 17.05554 17.0805 17.11028 17.13735 17.16681 17.18967 17.20495 17.21485 17.21711 17.21618 17.22037 17.23426 17.24631 17.26297 17.28675 17.31075 17.33899 17.34712 17.33873 17.32392 17.31175 17.30391 17.29344 17.28154 17.27306
15.96385 15.96543 15.96626 15.96769 15.96923 15.96846 15.97608 15.99021 16.00446 16.02172 16.03541 16.04765 16.06073 16.07748 16.09585 16.11085 16.1314 16.14573 16.15337 16.16119 16.16366 16.16848 16.18082 16.20726 16.23341 16.26566 16.28889 16.32347 16.35392 16.37691 16.40404 16.43186 16.4543 16.47283 16.46295 16.45724 16.46202 16.4622 16.45668 16.44954 16.44508 16.43703 16.43477 16.4427 16.45358 16.46676 16.485 16.50137 16.51895 16.54081 16.56384 16.59323 16.61876 16.64854 16.67735 16.70171 16.72677 16.75493 16.78087 16.80215 16.81951 16.8363 16.85397 16.86823 16.8819 16.89575 16.90655 16.91498 16.92317 16.9334 16.94711 16.9578 16.96863 16.97477 16.97426 16.97774 16.98109 16.98583 16.99438 17.00946 17.02553 17.04478 17.06818 17.08938 17.1172 17.15188 17.18332 17.2165 17.24742 17.26918 17.28467 17.29737 17.30555 17.3022 17.30305 17.30499 17.31613 17.32844 17.35346 17.38204 17.40362 17.40718 17.40382 17.39846 17.39105 17.38317 17.3758 17.36355 17.35306
15.97063 15.96863 15.96483 15.95574 15.95201 15.95393 15.96057 15.97244 15.98495 16.00354 16.02006 16.03122 16.04751 16.06456 16.08208 16.1033 16.11995 16.13579 16.14282 16.15205 16.16324 16.17113 16.19464 16.22577 16.25386 16.28412 16.31505 16.34137 16.37257 16.40077 16.4318 16.45869 16.48125 16.49761 16.49846 16.49555 16.49512 16.49457 16.49051 16.48855 16.48686 16.48904 16.49436 16.50531 16.5199 16.53833 16.55874 16.57695 16.59935 16.62115 16.64591 16.67125 16.69847 16.72727 16.75472 16.78055 16.80226 16.8286 16.85358 16.87001 16.88627 16.90484 16.92401 16.93616 16.95086 16.96039 16.96876 16.97635 16.98786 16.9971 17.00514 17.0097 17.01335 17.01578 17.01205 17.01507 17.02148 17.02877 17.04269 17.06025 17.07876 17.09807 17.12231 17.1465 17.17831 17.21029 17.24328 17.27039 0 0 17.33875 17.36675 17.36287 17.36883 17.37106 17.37282 17.37846 17.39372 17.39993 0 0 17.42083 17.46868 17.46637 17.46334 17.46501 17.47154 17.4709 17.45799
