ncols        109
nrows        82
xllcorner    -1.041666666667
yllcorner    37.041665395101
cellsize     0.083333333333
NODATA_value -9999
0.0 0 0 0 0 0 0 0 0 0 0 0 0 0 0 0 0 0 0 0 0 0 0 0 0 0 0 0 0 0 0 0 0 0 0 0 0 0 0 0 0 0 0 0 0 0 0 0 0 0 0 0 0 0 0 0 0 0 0 0 0 0 0 0 0 0 0 0 0 0 0 0 0 0 0 0 0 0 0 0 0 0 0 0 0 0 0 0 0 0 0 0 0 0 0 0 0 0 0 0 0 0 0 0 0 17.41256 16.09691 14.86715 14.86214
0 0 0 0 0 0 0 0 0 0 0 0 0 0 0 0 0 0 0 0 0 0 0 0 0 0 0 0 0 0 0 0 0 0 0 0 0 0 0 0 0 0 0 0 0 0 0 0 0 0 0 0 0 0 0 0 0 0 0 0 0 0 0 0 0 0 0 0 0 0 0 0 0 0 0 0 0 0 0 0 0 0 0 0 0 0 0 0 0 0 0 0 0 0 0 0 0 0 0 0 0 15.01354 15.03262 14.84078 14.85101 14.85187 14.84348 14.84426 14.83267
0 0 0 0 0 0 0 0 0 0 0 0 0 0 0 0 0 0 0 0 0 0 0 0 0 0 0 0 0 0 0 0 0 0 0 0 0 0 0 0 0 0 0 0 0 0 0 0 0 0 0 0 0 0 0 0 0 0 0 0 0 0 0 0 0 0 0 0 0 0 0 0 0 0 0 0 0 0 0 0 0 0 0 0 0 0 0 0 0 0 0 0 0 0 0 0 0 0 14.82819 14.83819 14.83838 14.82795 14.81225 14.80639 14.79161 14.77026 14.75092 14.72808 14.70493
0 0 0 0 0 0 0 0 0 0 0 0 0 0 0 0 0 0 0 0 0 0 0 0 0 0 0 0 0 0 0 0 0 0 0 0 0 0 0 0 0 0 0 0 0 0 0 0 0 0 0 0 0 0 0 0 0 0 0 0 0 0 0 0 0 0 0 0 0 0 0 0 0 0 0 0 0 0 0 0 0 0 0 0 0 0 0 0 0 0 0 0 0 0 0 0 0 16.26319 14.81831 14.81658 14.78947 14.75606 14.73104 14.71358 14.68252 14.65731 14.62504 14.60256 14.57144
0 0 0 0 0 0 0 0 0 0 0 0 0 0 0 0 0 0 0 0 0 0 0 0 0 0 0 0 0 0 0 0 0 0 0 0 0 0 0 0 0 0 0 0 0 0 0 0 0 0 0 0 0 0 0 0 0 0 16.01887 15.65052 15.34001 15.46361 0 0 0 0 0 0 0 0 0 0 0 0 0 0 0 0 0 0 0 0 0 0 0 0 0 0 0 0 0 0 0 0 0 15.18569 14.81076 14.8176 14.78345 14.75381 14.70966 14.66316 14.61339 14.57151 14.53666 14.49939 14.47376 14.44989 14.42231
0 0 0 0 0 0 0 0 0 0 0 0 0 0 0 0 0 0 0 0 0 0 0 0 0 0 0 0 0 0 0 0 0 0 0 0 0 0 0 0 0 0 0 0 0 0 0 0 0 0 0 0 0 0 0 0 15.51187 15.5546 15.31117 15.10055 15.02985 15.00839 15.09096 15.29081 15.50125 15.63634 15.63516 0 0 0 0 15.92523 0 0 0 0 0 0 0 0 0 0 0 0 0 0 0 0 0 0 0 0 0 15.64394 14.74907 14.79039 14.78165 14.75218 14.69985 14.63977 14.58367 14.53151 14.48765 14.44858 14.42403 14.40399 14.39131 14.36615 14.35258
0 0 0 0 0 0 0 0 0 0 0 0 0 0 0 0 0 0 0 0 0 0 0 0 0 0 0 0 0 0 0 0 0 0 0 0 0 0 0 0 0 0 0 0 0 0 0 0 0 0 0 0 0 0 0 15.6821 15.32147 15.01837 14.84672 14.60407 14.67583 14.70663 14.87022 14.98634 15.12397 15.23029 15.32109 15.50442 15.70436 15.65778 15.60395 15.36669 15.19193 15.24666 15.37911 15.14174 15.13964 0 0 0 0 0 0 0 0 0 0 0 0 0 0 0 15.05263 14.76025 14.77092 14.76157 14.73805 14.67072 14.60754 14.53787 14.47533 14.42285 14.37638 14.35966 14.35511 14.3432 14.33648 14.33703 14.33452
0 0 0 0 0 0 0 0 0 0 0 0 0 0 0 0 0 0 0 0 0 0 0 0 0 0 0 0 0 0 0 0 0 0 0 0 0 0 0 0 0 0 0 0 0 0 0 0 0 0 0 15.31844 15.46007 15.65241 15.45543 15.05997 14.85477 14.60814 14.50316 14.58237 14.64805 14.67864 14.66965 14.83739 14.8167 15.00842 15.00677 15.0178 15.04413 14.9453 14.84796 14.88331 14.77176 14.95974 14.98472 15.13693 0 0 0 0 0 0 0 0 0 0 0 0 0 0 0 0 14.7387 14.75369 14.73691 14.71005 14.64237 14.56693 14.48954 14.42631 14.38158 14.33965 14.31788 14.31381 14.31817 14.31774 14.31541 14.31513 14.31018
0 0 0 0 0 0 0 0 0 0 0 0 0 0 0 0 0 0 0 0 0 0 0 0 0 0 0 0 0 0 0 0 0 0 0 0 0 0 0 0 0 0 0 0 0 0 0 0 0 0 15.51602 15.34758 15.14767 15.1305 15.05776 14.79944 14.48605 14.5701 14.43994 14.51113 14.55679 14.57802 14.59275 14.7748 14.77546 14.9664 14.96872 14.98308 14.85318 14.73636 14.77936 14.82388 14.70169 14.88169 14.89435 15.07873 15.0634 14.88795 14.88675 15.19803 15.59325 16.26377 0 0 0 0 0 0 0 15.48137 15.0252 14.71533 14.74092 14.7233 14.68098 14.61612 14.55576 14.47858 14.41721 14.36904 14.32933 14.30306 14.28509 14.28626 14.28883 14.29654 14.30434 14.31256 14.32193
0 0 0 0 0 0 0 0 0 0 0 0 0 0 0 0 0 0 0 0 0 0 0 0 0 0 0 0 0 0 0 0 0 0 0 0 0 0 0 0 0 0 0 0 0 0 0 0 0 16.36123 15.20774 15.14751 15.11662 14.84295 14.69862 14.551 14.60962 14.46959 14.51587 14.56146 14.59596 14.61784 14.63237 14.84278 14.86305 14.88178 14.90744 14.91725 14.91953 14.77274 14.80973 14.6864 14.55506 14.56856 14.58163 14.58719 14.58779 14.59477 14.60766 14.60814 14.93755 15.41839 0 15.2294 15.7256 16.16766 16.46058 16.22607 15.77956 14.65426 14.68783 14.70592 14.70216 14.64675 14.56791 14.49732 14.44044 14.38719 14.33706 14.30723 14.28421 14.28224 14.27975 14.28709 14.29003 14.30615 14.31928 14.32497 14.32921
0 0 0 0 0 0 0 0 0 0 0 0 0 0 0 0 0 0 0 0 0 0 0 0 0 0 0 0 0 0 0 0 0 0 0 0 0 0 0 0 0 0 0 0 0 0 0 0 0 16.0261 15.18246 14.92803 14.65963 14.54542 14.59965 14.46328 14.51391 14.55764 14.59468 14.63616 14.67428 14.69384 14.70224 14.7173 14.73435 14.60011 14.48382 14.63485 14.63139 14.64079 14.65661 14.51543 14.51995 14.52843 14.53079 14.54103 14.54808 14.55386 14.57216 14.58453 14.6 14.6201 14.63076 14.64878 14.67527 14.68527 15.55655 15.72443 15.37352 14.65526 14.64503 14.60744 14.58293 14.52497 14.46054 14.40789 14.36105 14.32051 14.28683 14.27633 14.2837 14.29337 14.306 14.31669 14.33004 14.33999 14.34343 14.34891 14.35184
0 0 0 0 0 0 0 0 0 0 0 0 0 0 0 0 0 0 0 0 0 0 0 0 0 0 0 0 0 0 0 0 0 0 0 0 0 0 0 0 0 0 0 0 0 0 0 0 0 15.76904 15.12825 14.85725 14.54955 14.63125 14.48674 14.54102 14.60296 14.64707 14.68277 14.70922 14.55549 14.57247 14.58744 14.60026 14.6072 14.46787 14.48077 14.48394 14.46417 14.46358 14.47119 14.47234 14.47296 14.47916 14.47022 14.47507 14.48063 14.48933 14.50445 14.51967 14.53597 14.55273 14.57112 14.59419 14.6142 14.63141 14.64383 14.64034 14.6151 14.5769 14.54273 14.50232 14.46515 14.39976 14.35551 14.32154 14.29541 14.26315 14.27142 14.29186 14.30404 14.31571 14.3319 14.34105 14.35834 14.36206 14.36588 14.3761 14.38288
0 0 0 0 0 0 0 0 0 0 0 0 0 0 0 0 0 0 0 0 0 0 0 0 0 0 0 0 0 0 0 0 0 0 0 0 0 0 0 0 0 0 0 0 0 0 0 0 0 15.6952 15.02365 14.73549 14.62979 14.49819 14.56444 14.63767 14.52583 14.56268 14.41843 14.42731 14.43813 14.44169 14.4466 14.44984 14.45016 14.44823 14.45189 14.4492 14.43263 14.41153 14.40392 14.39745 14.38934 14.38593 14.37651 14.37521 14.38435 14.40004 14.41387 14.43089 14.44469 14.45652 14.45976 14.47511 14.49185 14.50849 14.51326 14.5064 14.48166 14.4575 14.42855 14.4031 14.37001 14.33298 14.30723 14.27279 14.24593 14.25762 14.2704 14.29327 14.32498 14.34548 14.36407 14.37511 14.38754 14.39679 14.40169 14.40275 14.41121
0 0 0 0 0 0 0 0 0 0 0 0 0 0 0 0 0 0 0 0 0 0 0 0 0 0 0 0 0 0 0 0 0 0 0 0 0 0 0 0 0 0 0 0 0 0 0 0 0 15.57384 15.07847 14.78671 14.67846 14.55054 14.62042 14.50899 14.39014 14.41781 14.43711 14.44077 14.44242 14.43619 14.42849 14.42276 14.41727 14.41612 14.40971 14.39824 14.38081 14.36251 14.34735 14.33034 14.31869 14.31021 14.29825 14.2878 14.28515 14.29329 14.30828 14.32185 14.32876 14.33156 14.33302 14.34556 14.35954 14.38454 14.39682 14.39749 14.37604 14.34966 14.3251 14.30207 14.27963 14.274 14.25795 14.25527 14.26051 14.26379 14.27778 14.30343 14.33613 14.37269 14.38792 14.40283 14.41486 14.43019 14.44224 14.45026 14.44341
0 0 0 0 0 0 0 0 0 0 0 0 0 0 0 0 0 0 0 0 0 0 0 0 0 0 0 0 0 0 0 0 0 0 0 0 0 0 0 0 0 0 0 0 0 0 0 0 0 15.61579 14.88948 14.60808 14.73181 14.61237 14.68856 14.54292 14.40637 14.42508 14.43161 14.42423 14.41728 14.41148 14.4012 14.39476 14.39066 14.38186 14.36455 14.35215 14.32902 14.30341 14.27842 14.25887 14.2464 14.24172 14.23621 14.23122 14.22765 14.22772 14.22917 14.23156 14.23748 14.24229 14.24952 14.24989 14.25692 14.28073 14.27907 14.26929 14.26483 14.25411 14.25196 14.24933 14.23904 14.24384 14.24928 14.25739 14.27369 14.28901 14.30901 14.32632 14.3574 14.39367 14.41495 14.42972 14.43992 14.44767 14.45712 14.47695 14.48205
0 0 0 0 0 0 0 0 0 0 0 0 0 0 0 0 0 0 0 0 0 0 0 0 0 0 0 0 0 0 0 0 0 0 0 0 0 0 0 0 0 0 0 0 0 0 0 0 0 15.14732 14.93669 14.6342 14.56986 14.4923 14.55675 14.41664 14.41452 14.41845 14.41809 14.40849 14.39488 14.38182 14.37397 14.36597 14.35822 14.34768 14.33384 14.31866 14.29657 14.26684 14.23687 14.21197 14.19938 14.1884 14.18082 14.16992 14.16157 14.15754 14.16133 14.1685 14.16811 14.17629 14.18546 14.194 14.2005 14.20724 14.20979 14.20576 14.19446 14.18259 14.17691 14.2042 14.21611 14.23531 14.24918 14.26561 14.29361 14.31646 14.3356 14.35313 14.37205 14.39787 14.41571 14.44649 14.45351 14.46846 14.4768 14.49434 14.51835
0 0 0 0 0 0 0 0 0 0 0 0 0 0 0 0 0 0 0 0 0 0 0 0 0 0 0 0 0 0 0 0 0 0 0 0 0 0 0 0 0 0 0 0 0 0 0 0 0 0 14.72796 14.69844 14.63756 14.38776 14.42867 14.42295 14.41587 14.41357 14.40388 14.39445 14.37521 14.3603 14.35158 14.33884 14.32559 14.31965 14.31157 14.29521 14.27206 14.24791 14.21258 14.19255 14.179 14.16604 14.14993 14.13565 14.12368 14.11891 14.12133 14.12967 14.13226 14.13674 14.13713 14.14678 14.15716 14.16405 14.16035 14.16024 14.16357 14.16632 14.17048 14.19362 14.21587 14.23821 14.26554 14.29132 14.31303 14.33735 14.36231 14.37525 14.38985 14.41182 14.4259 14.44563 14.46109 14.46683 14.48753 14.51446 14.53241
0 0 0 0 0 0 0 0 0 0 0 0 0 0 0 0 0 0 0 0 0 0 0 0 0 0 0 0 0 0 0 0 0 0 0 0 0 0 0 0 0 0 0 0 0 0 0 0 0 0 14.85194 14.51851 14.311 14.39366 14.42079 14.42257 14.41257 14.4044 14.39154 14.37285 14.35268 14.34202 14.32906 14.32491 14.31594 14.31014 14.30189 14.29054 14.27254 14.24584 14.22083 14.19764 14.18195 14.16211 14.14052 14.12365 14.11105 14.10427 14.10615 14.11033 14.11156 14.1222 14.12994 14.13447 14.13404 14.14056 14.14628 14.15991 14.16872 14.16264 14.1795 14.21097 14.2325 14.25643 14.30284 14.31847 14.34109 14.36462 14.39196 14.4142 14.42967 14.44024 14.44702 14.45929 14.4698 14.478 14.49866 14.52935 14.5656
0 0 0 0 0 0 0 0 0 0 0 0 0 0 0 0 0 0 0 0 0 0 0 0 0 0 0 0 0 0 0 0 0 0 0 0 0 0 0 0 0 0 0 0 0 0 0 0 0 0 0 0 14.3186 14.36972 14.39809 14.40455 14.40653 14.38885 14.37318 14.35392 14.33425 14.32176 14.31991 14.31606 14.31203 14.31129 14.3104 14.30319 14.28616 14.26199 14.23866 14.21125 14.18834 14.16973 14.15137 14.13153 14.1118 14.10975 14.10545 14.10337 14.11005 14.11348 14.11921 14.12348 14.13486 14.14111 14.15217 14.15515 14.16371 14.18342 14.20714 14.22718 14.24495 14.28621 14.31164 14.33973 14.37044 14.38618 14.39904 14.42982 14.44232 14.45176 14.47074 14.4695 14.48304 14.49134 14.51287 14.54666 14.57971
0 0 0 0 0 0 0 0 0 0 0 0 0 0 0 0 0 0 0 0 0 0 0 0 0 0 0 0 0 0 0 0 0 0 0 0 0 0 0 0 0 0 0 0 0 0 0 0 0 0 16.36382 14.90953 14.53827 14.39497 14.41291 14.41054 14.40156 14.37914 14.364 14.34483 14.33025 14.32127 14.32031 14.31919 14.32201 14.32359 14.32761 14.32198 14.31117 14.29143 14.25948 14.23122 14.20485 14.18183 14.1692 14.14619 14.12871 14.11624 14.10904 14.11262 14.11839 14.11802 14.13057 14.1328 14.13852 14.14282 14.15593 14.16379 14.1737 14.18669 14.20806 14.23434 14.27177 14.3061 14.32629 14.36172 14.38149 14.39099 14.41835 14.43232 14.44674 14.46244 14.48185 14.49588 14.50771 14.51794 14.54291 14.58157 14.61181
0 0 0 0 0 0 0 0 0 0 0 0 0 0 0 0 0 0 0 0 0 0 0 0 0 0 0 0 0 0 0 0 0 0 0 0 0 0 0 0 0 0 0 0 0 0 0 0 0 0 15.76815 14.94059 14.77077 14.42512 14.43361 14.42238 14.40518 14.38145 14.36479 14.35188 14.34285 14.33476 14.33451 14.33886 14.34519 14.3593 14.35988 14.3497 14.34471 14.32005 14.28646 14.25811 14.23054 14.20274 14.18296 14.15902 14.15364 14.13616 14.1295 14.12821 14.13181 14.1432 14.14319 14.14988 14.15505 14.16124 14.17166 14.18585 14.19449 14.20583 14.22555 14.26489 14.2903 14.31909 14.3376 14.36257 14.39039 14.40775 14.42396 14.44555 14.46764 14.48989 14.51927 14.53797 14.54577 14.55514 14.5771 14.61325 14.64924
0 0 0 0 0 0 0 0 0 0 0 0 0 0 0 0 0 0 0 0 0 0 0 0 0 0 0 0 0 0 0 0 0 0 0 0 0 0 0 0 0 0 0 0 0 0 0 0 0 0 0 15.00441 14.62418 14.46299 14.45478 14.43669 14.41779 14.39453 14.3792 14.37383 14.36417 14.35742 14.35851 14.36635 14.38072 14.39612 14.40066 14.40409 14.3872 14.35963 14.3289 14.29452 14.26809 14.23941 14.21001 14.18626 14.17036 14.15911 14.15696 14.15923 14.15899 14.16376 14.17149 14.17119 14.17802 14.18 14.19433 14.2088 14.23447 14.26052 14.2916 14.31238 14.33183 14.35819 14.37979 14.40299 14.42361 14.43611 14.4605 14.48173 14.50748 14.53051 14.55551 14.59117 14.59348 14.59996 14.61406 14.64938 14.69117
0 0 0 0 0 0 0 0 0 0 0 0 0 0 0 0 0 0 0 0 0 0 0 0 0 0 0 0 0 0 0 0 0 0 0 0 0 0 0 0 0 0 0 0 0 0 0 0 0 0 0 14.83569 14.48519 14.50123 14.48213 14.45791 14.43185 14.41167 14.40286 14.40083 14.39606 14.39695 14.40585 14.41889 14.43112 14.43981 14.45028 14.45386 14.43917 14.40657 14.37439 14.33864 14.30652 14.27927 14.25339 14.21879 14.2021 14.18897 14.19137 14.19022 14.19331 14.20122 14.20575 14.21385 14.21438 14.21735 14.2317 14.2535 14.27937 14.31176 14.34865 14.37107 14.3965 14.42267 14.44972 14.46986 14.48912 14.50096 14.51967 14.53309 14.54848 14.56628 14.58517 14.61694 14.62913 14.63714 14.65321 14.69388 14.73486
0 0 0 0 0 0 0 0 0 0 0 0 0 0 0 0 0 0 0 0 0 0 0 0 0 0 0 0 0 0 0 0 0 0 0 0 0 0 0 0 0 0 0 0 0 0 0 0 0 0 0 14.52135 14.53258 14.53351 14.50406 14.4725 14.44588 14.42786 14.42301 14.4236 14.42765 14.44087 14.45611 14.46779 14.48135 14.5013 14.50615 14.50808 14.49696 14.47135 14.43638 14.39724 14.36204 14.33235 14.30233 14.27071 14.24333 14.2292 14.22589 14.2299 14.24155 14.253 14.25937 14.26361 14.27047 14.27794 14.29302 14.31749 14.34882 14.3878 14.41135 14.43471 14.45646 14.47961 14.49691 14.52257 14.54737 14.5627 14.57895 14.58784 14.60157 14.60927 14.62469 14.65349 14.66845 14.68321 14.7044 14.74187 14.76728
0 0 0 0 0 0 0 0 0 0 0 0 0 0 0 0 0 0 0 0 0 0 0 0 0 0 0 0 0 0 0 0 0 0 0 0 0 0 0 0 0 0 0 0 0 0 0 0 0 16.36905 15.44517 14.5703 14.56801 14.54424 14.51258 14.48596 14.46447 14.45119 14.45341 14.45807 14.47316 14.49228 14.50544 14.51871 14.53242 14.54214 14.55082 14.55805 14.54619 14.52403 14.49715 14.46721 14.43781 14.40256 14.35658 14.33943 14.3112 14.29399 14.28978 14.29046 14.29586 14.30309 14.30881 14.31387 14.32101 14.33549 14.34914 14.37043 14.40154 14.43105 14.46182 14.49524 14.51578 14.53463 14.55695 14.58114 14.60291 14.61871 14.62213 14.63293 14.64692 14.65854 14.66301 14.68732 14.71249 14.73023 14.75371 14.77748 14.8009
0 0 0 0 0 0 0 0 0 0 0 0 0 0 0 0 0 0 0 0 0 0 0 0 0 0 0 0 0 0 0 0 0 0 0 0 0 0 0 0 0 0 0 0 0 0 0 0 15.54022 15.04939 14.82127 14.62177 14.59874 14.56182 14.52636 14.50245 14.48418 14.47119 14.47862 14.49738 14.51997 14.54655 14.56248 14.57352 14.58257 14.5933 14.60968 14.61511 14.60552 14.581 14.5521 14.51825 14.48459 14.45377 14.41934 14.39967 14.38103 14.36445 14.36584 14.36136 14.3617 14.37019 14.36761 14.37302 14.38278 14.39832 14.40979 14.42258 14.44587 14.47922 14.50977 14.53737 14.56054 14.58532 14.60363 14.62759 14.64774 14.67007 14.69254 14.69795 14.696 14.70793 14.71624 14.72916 14.74523 14.76326 14.78981 14.81017 14.82895
0 0 0 0 0 0 0 0 0 0 0 0 0 0 0 0 0 0 0 0 0 0 0 0 0 0 0 0 0 0 0 0 0 0 0 0 0 0 0 0 0 0 0 0 0 15.28328 15.13057 15.64427 15.14816 15.16483 14.91765 14.6735 14.63397 14.58797 14.55371 14.52867 14.51386 14.50748 14.5128 14.53446 14.56194 14.58492 14.60633 14.61756 14.63303 14.6471 14.66151 14.67271 14.66278 14.64418 14.61297 14.57883 14.54711 14.52039 14.49355 14.46497 14.44239 14.43132 14.42511 14.42109 14.41508 14.41433 14.41603 14.42489 14.43634 14.45889 14.46772 14.4795 14.50812 14.54189 14.5707 14.60307 14.62285 14.64452 14.67195 14.69117 14.71328 14.73283 14.75013 14.75812 14.76311 14.76576 14.77127 14.78112 14.7837 14.80007 14.82549 14.84692 14.8635
0 0 0 0 0 0 0 0 0 0 0 0 0 0 0 0 0 0 0 0 0 0 0 0 0 0 0 0 0 0 0 0 0 0 0 0 0 0 0 0 0 0 17.2773 16.97805 16.01529 15.22801 14.75926 14.7717 15.25625 14.99805 14.76015 14.71017 14.66458 14.6199 14.58853 14.56786 14.55371 14.55041 14.56309 14.58885 14.61778 14.64557 14.66446 14.68098 14.69632 14.70795 14.71825 14.72537 14.71539 14.694 14.66239 14.63218 14.60892 14.57963 14.54998 14.52311 14.507 14.49719 14.49158 14.48964 14.48411 14.48361 14.48905 14.4912 14.50182 14.51729 14.52418 14.5322 14.56049 14.59044 14.61922 14.65712 14.6883 14.7184 14.73472 14.76893 14.80029 14.81937 14.83831 14.84787 14.84152 14.83237 14.83727 14.84084 14.8438 14.85063 14.86113 14.88093 14.89551
0 0 0 0 0 0 0 0 0 0 0 0 0 0 0 0 0 0 0 0 0 0 0 0 0 0 0 0 0 0 0 0 0 0 0 0 0 0 0 0 16.39269 16.76442 17.04071 16.11833 15.30978 14.82964 14.84777 14.85856 14.8505 14.82462 14.79545 14.74281 14.69516 14.65326 14.62639 14.60403 14.59715 14.60091 14.6161 14.64256 14.67364 14.70028 14.72368 14.73863 14.75709 14.77054 14.77659 14.78257 14.77779 14.75877 14.72694 14.69771 14.67422 14.64982 14.61522 14.58724 14.56569 14.55082 14.55216 14.55176 14.55252 14.55349 14.56488 14.56868 14.56923 14.58076 14.59228 14.60372 14.62459 14.65038 14.67997 14.70973 14.73894 14.76594 14.78244 14.81527 14.84313 14.87346 14.89112 14.90521 14.90794 14.90872 14.90174 14.90012 14.90098 14.90147 14.91157 14.92575 14.94379
0 0 0 0 0 0 0 0 0 0 0 0 0 0 0 0 0 0 0 0 0 0 0 0 0 0 0 0 0 0 0 0 0 0 0 0 0 0 0 16.60249 16.3624 15.84145 15.60764 14.849 14.86642 14.88307 14.89407 14.89814 14.88567 14.85756 14.82101 14.77731 14.73832 14.70439 14.6788 14.66436 14.6611 14.67242 14.68629 14.71652 14.74303 14.7677 14.78713 14.79519 14.8084 14.82695 14.83863 14.84432 14.83462 14.81429 14.79464 14.76752 14.74934 14.72593 14.69742 14.66995 14.64701 14.6298 14.6242 14.62215 14.62402 14.62606 14.62526 14.62914 14.63364 14.6422 14.65708 14.67248 14.68222 14.70418 14.73178 14.76676 14.79987 14.82836 14.84399 14.87191 14.90163 14.92248 14.94 14.95024 14.9579 14.95435 14.94357 14.94425 14.94896 14.95012 14.95352 14.97108 14.98297
0 0 0 0 0 0 0 0 0 0 0 0 0 0 0 0 0 0 0 0 0 0 0 0 0 0 0 0 0 0 0 0 0 0 0 0 0 0 15.84593 15.57526 15.34783 14.87247 14.89979 14.91435 14.92301 14.93471 14.93475 14.93314 14.91516 14.89152 14.85722 14.82311 14.79469 14.76066 14.74002 14.72016 14.72243 14.73493 14.75724 14.78872 14.81003 14.8339 14.84731 14.85256 14.87043 14.88844 14.90276 14.91327 14.9049 14.88321 14.86365 14.8341 14.81017 14.78893 14.7576 14.73216 14.71032 14.69491 14.68815 14.68585 14.69086 14.69495 14.70043 14.70625 14.71277 14.7174 14.73367 14.73904 14.75439 14.78014 14.80308 14.82586 14.84945 14.87479 14.8873 14.91489 14.93644 14.96897 14.97152 14.98421 14.98874 14.98989 14.98892 14.98953 14.99208 15.00654 15.0125 15.02346 15.03193
0 0 0 0 0 0 0 0 0 0 0 0 0 0 0 0 0 0 0 0 0 0 0 0 0 0 0 0 0 0 0 0 0 0 17.51514 18.11925 17.25902 15.61538 14.83865 14.86914 14.89483 14.91497 14.93215 14.94404 14.95329 14.95914 14.95752 14.95342 14.9467 14.93156 14.91032 14.89148 14.86893 14.84509 14.82659 14.81234 14.81347 14.8188 14.84035 14.85385 14.87196 14.88451 14.8952 14.90626 14.91923 14.93742 14.95697 14.96844 14.97007 14.96019 14.94203 14.91703 14.89053 14.86327 14.83453 14.81146 14.78948 14.77264 14.76175 14.76106 14.75682 14.75827 14.76239 14.76145 14.77289 14.78697 14.79681 14.80697 14.81877 14.84632 14.86994 14.89128 14.91568 14.93997 14.95308 14.96744 14.9821 15.00515 15.01805 15.01879 15.0196 15.0215 15.02638 15.02973 15.0439 15.0575 15.07442 15.08638 15.09253
0 0 0 0 0 0 0 0 0 0 0 0 0 0 0 0 0 0 0 0 0 0 0 0 0 0 0 0 0 18.00216 17.59885 17.37551 17.37365 17.14602 16.86108 16.28514 14.87741 14.89115 14.90904 14.92427 14.93839 14.94341 14.95689 14.96636 14.97428 14.98184 14.97921 14.97049 14.96722 14.95971 14.95208 14.94369 14.92644 14.91337 14.89957 14.89457 14.8911 14.89861 14.91386 14.93339 14.94218 14.95182 14.95913 14.96743 14.97759 14.99215 15.00776 15.01533 15.01678 15.01105 14.99827 14.97991 14.95766 14.94055 14.91088 14.8879 14.87141 14.85576 14.8518 14.85082 14.84312 14.84251 14.84404 14.84452 14.85323 14.85943 14.8588 14.87144 14.88169 14.90521 14.93017 14.94619 14.96825 14.99196 15.00832 15.02201 15.02956 15.04007 15.05804 15.05899 15.06166 15.06508 15.07491 15.08479 15.09805 15.11191 15.12754 15.1365 15.1281
0 0 0 0 0 0 0 0 0 0 0 0 0 0 0 0 0 0 0 0 0 0 0 0 0 17.80199 17.07848 17.0849 16.16152 15.52432 15.22559 14.95113 14.94451 14.94194 14.93472 14.92525 14.92025 14.92314 14.93331 14.94701 14.95535 14.96727 14.97958 14.99069 14.99242 14.99142 14.99492 14.99799 15.00134 15.0091 15.0126 15.01011 14.99569 14.97791 14.9602 14.95632 14.95382 14.96354 14.97276 14.98873 14.99638 15.00002 15.00653 15.02161 15.03124 15.04613 15.05832 15.06629 15.07234 15.07391 15.06889 15.05144 15.03189 15.01803 14.99572 14.97128 14.94692 14.93418 14.92757 14.93088 14.9258 14.92446 14.92518 14.92542 14.92668 14.93579 14.93894 14.94571 14.95416 14.97093 14.998 15.01167 15.02831 15.05054 15.06788 15.07911 15.07782 15.08367 15.0916 15.10144 15.10762 15.11634 15.13274 15.14492 15.15849 15.16975 15.17766 15.17374 15.14804
0 0 0 0 0 0 0 0 0 0 0 0 0 0 0 0 0 0 0 0 0 0 0 17.97828 17.11084 16.55262 16.24621 15.93701 15.03154 15.02284 15.01054 14.99366 14.98304 14.97388 14.96323 14.94845 14.94032 14.94254 14.94427 14.95375 14.96241 14.97805 14.98774 14.9957 15.00472 15.00842 15.01742 15.02782 15.04159 15.05614 15.06919 15.06489 15.0546 15.04351 15.0286 15.02087 15.01536 15.02583 15.03252 15.04316 15.05137 15.05678 15.06032 15.06519 15.07428 15.09146 15.1007 15.11028 15.1158 15.12605 15.12412 15.11579 15.11036 15.09666 15.08344 15.06619 15.05022 15.03845 15.02746 15.02946 15.02343 15.01438 15.00475 15.00205 15.00059 15.0059 15.00452 15.00425 15.01103 15.02947 15.04271 15.06026 15.0808 15.1083 15.12043 15.12617 15.13086 15.12952 15.13384 15.15489 15.16682 15.18315 15.19401 15.20629 15.20331 15.21336 15.20965 15.19532 15.15611
0 0 0 0 0 0 0 0 0 0 0 0 0 0 0 0 0 0 0 0 0 0 17.40918 16.56833 16.2615 16.27042 15.96053 15.64243 15.04381 15.03028 15.01406 14.99956 14.98242 14.96651 14.95571 14.94902 14.94357 14.94048 14.94371 14.95422 14.96616 14.98053 14.99133 15.00556 15.02216 15.04062 15.05343 15.06835 15.08187 15.09718 15.10364 15.09856 15.0926 15.07993 15.07406 15.068 15.06263 15.06743 15.07704 15.08397 15.09252 15.09852 15.10618 15.11205 15.11754 15.13461 15.15036 15.16323 15.16985 15.17427 15.18077 15.17215 15.16937 15.16314 15.15182 15.1376 15.12529 15.1203 15.11847 15.11786 15.11303 15.10497 15.09329 15.08697 15.08323 15.08806 15.08766 15.08802 15.08678 15.09116 15.09628 15.11616 15.13457 15.15374 15.16352 15.15829 15.16255 15.17177 15.18612 15.20176 15.22123 15.23822 15.25579 15.25499 15.25447 15.25816 15.24457 15.21386 15.16259
0 0 0 0 0 0 0 0 0 0 0 0 0 0 0 0 0 0 0 0 0 18.62087 17.62573 16.56671 15.95958 15.95562 15.64082 15.63646 15.03753 15.02218 15.00869 14.992 14.97538 14.96383 14.95417 14.94498 14.94289 14.94009 14.94821 14.96053 14.97458 14.9915 15.00632 15.02837 15.04785 15.06888 15.0885 15.10526 15.11795 15.12907 15.13428 15.1299 15.12742 15.12109 15.11621 15.11257 15.10433 15.10735 15.11312 15.12198 15.12682 15.1362 15.13975 15.14966 15.15628 15.17664 15.19436 15.21382 15.22184 15.23047 15.23679 15.23688 15.23794 15.23699 15.22561 15.21837 15.21122 15.20322 15.19616 15.19342 15.1823 15.17133 15.1571 15.15294 15.15491 15.15971 15.1605 15.16331 15.16703 15.16774 15.16821 15.18425 15.1948 15.20373 15.2043 15.20789 15.21687 15.22471 15.23567 15.24481 15.26015 15.27799 15.29306 15.30245 15.30246 15.29002 15.27071 15.22348 15.15413
0 0 0 0 0 0 0 0 0 0 0 0 0 0 0 0 0 0 0 0 0 0 0 17.15328 16.28505 15.96802 15.64564 15.33471 15.02499 15.01047 14.99903 14.98778 14.97528 14.96677 14.95621 14.94904 14.945 14.95067 14.95525 14.97051 14.98686 15.0061 15.02728 15.05002 15.07125 15.09116 15.1068 15.12484 15.14091 15.15142 15.15701 15.15979 15.16004 15.15916 15.15709 15.15227 15.14926 15.15266 15.15762 15.16209 15.16733 15.17497 15.18348 15.18951 15.20023 15.21536 15.23278 15.25273 15.26407 15.27513 15.28208 15.28894 15.29244 15.29363 15.29252 15.29466 15.28678 15.28411 15.28352 15.28149 15.26582 15.25711 15.24503 15.23649 15.23728 15.23567 15.23221 15.23027 15.23312 15.22791 15.23354 15.24122 15.23971 15.23973 15.25247 15.26861 15.27547 15.28272 15.29298 15.29884 15.3121 15.32935 15.34804 15.35633 15.34521 15.32926 15.28904 15.22975 15.15197
0 0 0 0 0 0 0 0 0 0 0 0 0 0 0 0 0 0 0 0 0 19.05267 18.77764 17.79518 16.33613 16.0041 15.66618 15.6439 15.3064 15.00712 14.9926 14.98428 14.97891 14.96845 14.96189 14.95458 14.95507 14.96108 14.97223 14.98459 15.00347 15.0264 15.04889 15.06866 15.09071 15.11203 15.12713 15.14588 15.16303 15.17969 15.19297 15.20137 15.20048 15.1971 15.19429 15.19459 15.19675 15.1971 15.19743 15.19971 15.20273 15.21259 15.22269 15.23202 15.2461 15.26005 15.27898 15.2965 15.30986 15.31977 15.32998 15.34104 15.3483 15.35456 15.35691 15.35653 15.3545 15.35387 15.34793 15.3411 15.3323 15.31888 15.31053 15.31065 15.31181 15.3087 15.30598 15.30465 15.30487 15.30361 15.3021 15.30356 15.30553 15.30832 15.31637 15.322 15.32556 15.33242 15.34354 15.35232 15.36064 15.37926 15.39491 15.39368 15.38568 15.35551 15.31 15.24259 15.15489
0 0 0 0 0 0 0 0 0 0 0 0 0 0 0 0 0 0 0 19.05178 19.00497 18.91588 18.11522 17.01666 16.38659 16.04085 15.68709 15.98189 15.03327 15.00459 14.99309 14.98513 14.98307 14.97836 14.97266 14.97068 14.97247 14.97999 14.99506 15.00924 15.02978 15.05127 15.0721 15.0929 15.11198 15.12935 15.14798 15.16698 15.19235 15.21193 15.22941 15.24646 15.25462 15.25625 15.25581 15.255 15.25438 15.25432 15.25175 15.24463 15.24136 15.24583 15.25689 15.26615 15.28112 15.29638 15.31486 15.33195 15.34326 15.35461 15.37138 15.38665 15.40278 15.41443 15.42135 15.42671 15.42541 15.42726 15.42224 15.41957 15.40789 15.39513 15.38637 15.38279 15.37729 15.37147 15.3654 15.36106 15.35948 15.35828 15.35494 15.36057 15.36932 15.38033 15.38579 15.39167 15.39739 15.40494 15.40781 15.4201 15.42284 15.43252 15.44068 15.43391 15.41823 15.38045 15.33172 15.25433 15.16333
0 0 0 0 0 0 0 0 0 0 0 0 0 0 0 0 0 0 18.57142 18.45363 18.11476 17.667 17.06808 16.43325 16.09986 16.06903 15.70651 15.35798 15.0451 15.01019 14.99615 14.99217 14.99102 14.98582 14.98569 14.98824 14.99289 15.00484 15.02188 15.03781 15.05689 15.08161 15.10405 15.12827 15.14623 15.16053 15.17756 15.20182 15.22692 15.25136 15.27255 15.28641 15.29797 15.3047 15.30883 15.31424 15.31533 15.31524 15.31028 15.30848 15.30354 15.30157 15.3038 15.31201 15.32559 15.34255 15.35912 15.36829 15.37662 15.38991 15.41198 15.42845 15.44268 15.45423 15.46516 15.47636 15.47805 15.48002 15.48016 15.48383 15.47958 15.47267 15.46942 15.46083 15.45185 15.43916 15.43104 15.42311 15.41773 15.41471 15.41038 15.41066 15.41643 15.43023 15.43666 15.44655 15.46045 15.46707 15.47265 15.47488 15.47641 15.48256 15.48828 15.47987 15.45579 15.41167 15.35955 15.28682 15.19764
0 0 0 0 0 0 0 0 0 0 0 0 0 0 0 0 0 19.01309 18.48193 17.85666 17.37528 16.77335 16.46047 16.46367 16.4632 16.0819 15.71326 15.07463 15.04528 15.01698 15.0023 15.00299 14.99904 14.99764 14.99962 15.00792 15.01551 15.02789 15.03955 15.05902 15.08467 15.10874 15.13436 15.16146 15.18375 15.20073 15.22181 15.24779 15.27463 15.30315 15.327 15.34317 15.3546 15.36286 15.36433 15.36598 15.35917 15.35643 15.35021 15.35274 15.34918 15.3425 15.34347 15.34664 15.35491 15.37185 15.38535 15.3955 15.40804 15.42347 15.44625 15.46802 15.48603 15.49858 15.50849 15.52146 15.52889 15.53319 15.53776 15.53986 15.53976 15.52939 15.52675 15.51689 15.50501 15.49606 15.48994 15.48319 15.47736 15.4742 15.46903 15.47061 15.47649 15.48648 15.49787 15.51028 15.51765 15.51937 15.52276 15.51517 15.5187 15.52741 15.52522 15.51148 15.48662 15.44783 15.39516 15.32662 15.24445
0 0 0 0 0 0 0 0 0 0 0 0 0 0 0 0 18.53452 18.51164 17.65991 17.10133 16.79896 16.47695 16.47792 16.4806 16.46329 16.08465 15.71031 15.08027 15.04269 15.02073 15.01178 15.01044 15.014 15.02001 15.02464 15.03465 15.04621 15.0586 15.06959 15.08969 15.11661 15.14221 15.17018 15.19507 15.21969 15.24443 15.26709 15.29526 15.3223 15.34856 15.37487 15.39378 15.40751 15.41515 15.41774 15.41975 15.41417 15.41394 15.41396 15.41115 15.40554 15.39327 15.38972 15.38555 15.39019 15.39688 15.40623 15.41454 15.42977 15.44513 15.47016 15.49456 15.51707 15.53645 15.55228 15.56614 15.57814 15.58806 15.60057 15.61159 15.60901 15.60223 15.59234 15.58023 15.56581 15.55343 15.54887 15.537 15.52905 15.51866 15.51508 15.51964 15.52167 15.53364 15.54638 15.55174 15.56103 15.56343 15.56042 15.5568 15.56412 15.56738 15.57296 15.55797 15.52983 15.49824 15.44496 15.37525 15.2916
0 0 0 0 0 0 0 0 0 0 0 0 0 0 0 19.10037 18.36754 17.67998 17.1136 16.81202 16.48821 16.49275 16.49129 16.13231 16.10853 15.75763 15.10558 15.06976 15.04268 15.02287 15.01654 15.02113 15.02809 15.03957 15.04703 15.06414 15.07781 15.09556 15.11262 15.13355 15.16274 15.19288 15.22167 15.24855 15.27599 15.30146 15.32721 15.3539 15.37807 15.40402 15.42674 15.44402 15.45477 15.46032 15.46373 15.46808 15.47269 15.47647 15.48069 15.48136 15.47623 15.47143 15.46302 15.45144 15.43945 15.43601 15.43992 15.44707 15.45531 15.4692 15.49053 15.51569 15.54019 15.56255 15.58198 15.60471 15.61958 15.63586 15.64642 15.65696 15.65984 15.65303 15.64687 15.63648 15.62806 15.61617 15.60845 15.59949 15.58709 15.56929 15.56911 15.56573 15.56887 15.57602 15.58074 15.58716 15.58754 15.59262 15.59269 15.59371 15.59853 15.60836 15.60363 15.59568 15.57563 15.54429 15.49513 15.42857 15.34648
0 0 0 0 0 0 0 0 0 0 0 0 0 0 18.44549 18.44246 17.7294 17.13121 16.81967 16.4903 16.49027 16.14035 16.12028 16.10851 15.76111 15.41386 15.09275 15.06304 15.04474 15.03447 15.03242 15.04077 15.0502 15.06553 15.08056 15.09438 15.11431 15.13256 15.15272 15.18091 15.21051 15.24671 15.28276 15.31742 15.34695 15.37557 15.40269 15.43289 15.45942 15.4798 15.49681 15.50858 15.51802 15.52439 15.5285 15.53096 15.53736 15.54299 15.54709 15.55038 15.5497 15.54409 15.52925 15.5166 15.49298 15.475 15.47475 15.4763 15.47968 15.48786 15.50792 15.53458 15.56417 15.5916 15.62019 15.6467 15.66904 15.68342 15.69687 15.70282 15.70456 15.69846 15.6894 15.67889 15.67501 15.66682 15.6592 15.65079 15.6368 15.62398 15.61645 15.61092 15.61271 15.61315 15.61647 15.61883 15.62129 15.62186 15.6281 15.63187 15.63652 15.63841 15.63703 15.6256 15.60867 15.57446 15.52318 15.4587 15.37623
0 0 0 0 0 0 0 0 0 0 0 0 0 18.32148 18.49663 17.74252 17.12947 16.81735 16.48402 16.47837 16.13048 16.12075 16.10758 16.09794 15.73813 15.10518 15.07812 15.05606 15.04745 15.04719 15.05451 15.06693 15.08394 15.10198 15.12018 15.13637 15.15386 15.17658 15.20266 15.23535 15.27222 15.31111 15.35033 15.38693 15.419 15.44813 15.48279 15.51218 15.53521 15.55066 15.5611 15.57098 15.57864 15.58242 15.58334 15.58377 15.58623 15.59509 0 0 0 15.54102 15.54573 15.59298 15.5695 15.53328 15.51103 15.50264 15.50232 15.50283 15.52027 15.54434 15.57656 15.61159 15.64412 15.67752 15.70311 15.72642 15.74239 15.7499 15.75458 15.75203 15.7476 15.74064 15.73184 15.72484 15.72271 15.71513 15.70427 15.68509 15.67206 15.66161 15.65468 15.65251 15.6527 15.65213 15.64945 15.64879 15.65671 15.66355 15.66847 15.67173 15.66753 15.66135 15.64608 15.61302 15.55996 15.48885 15.40472
0 0 0 0 0 0 0 0 0 0 0 0 0 18.7032 17.76463 17.13997 16.80456 16.45556 16.46483 16.11354 16.10785 16.10198 16.09758 15.12562 15.11209 15.09094 15.07052 15.05476 15.05334 15.05843 15.07244 15.08885 15.11182 15.13197 15.14704 15.16971 15.19469 15.22029 15.25339 15.29215 15.33682 15.38709 15.43372 15.47587 15.51406 15.54612 15.57328 15.59239 15.6039 15.61684 15.62712 16.40124 15.63884 15.62344 15.61533 15.97308 16.74797 17.53086 0 0 0 0 0 16.00234 15.62024 15.58911 15.55146 15.52903 15.51697 15.51813 15.5349 15.56322 15.59487 15.63173 15.66988 15.70578 15.73613 15.75677 15.77386 15.78442 15.78895 15.78601 15.78607 15.78192 15.78126 15.77818 15.77785 15.77273 15.76508 15.7566 15.7448 15.73244 15.72042 15.70931 15.71038 15.70122 15.69418 15.68821 15.69119 15.69765 15.701 15.69963 15.69552 15.68974 15.67463 15.64391 15.58851 15.51485 15.42641
0 0 0 0 0 0 0 0 0 0 0 0 18.85075 18.0388 17.11958 16.78422 16.42838 16.0925 16.09597 16.09976 16.10125 16.10584 15.75416 15.12239 15.10659 15.08796 15.07439 15.06464 15.06744 15.0768 15.09232 15.11273 15.13661 15.15468 15.17321 15.19809 15.2251 15.25953 15.29973 15.34338 15.39955 15.45109 15.50418 15.54728 15.58655 15.61103 15.61922 0 0 15.61595 0 17.28866 16.46813 16.03718 16.41778 16.39061 17.16677 17.58614 18.54604 16.36222 15.63429 0 0 0 17.22662 15.61065 15.57359 15.54972 15.53752 15.53749 15.55115 15.57764 15.61099 15.65286 15.69652 15.73706 15.76856 15.79084 15.81116 15.82294 15.82889 15.8309 15.82895 15.82751 15.8269 15.82498 15.82522 15.82117 15.81464 15.81049 15.80224 15.78955 15.7759 15.76425 15.75745 15.74824 15.74168 15.73707 15.73497 15.73862 15.74081 15.73848 15.73613 15.72578 15.70793 15.67364 15.61825 15.541 15.44693
0 0 0 0 0 0 0 0 0 0 0 18.08563 18.06637 17.11995 16.77756 16.06801 16.08481 16.09609 16.10235 16.11052 16.12188 15.46144 15.14592 15.12854 15.11248 15.09675 15.08692 15.08242 15.09017 15.10357 15.11899 15.13878 15.15712 15.18114 15.20308 15.23464 15.26779 15.31582 15.3696 15.42512 15.48398 15.53329 15.57032 15.60034 16.39166 0 0 0 0 0 18.07864 18.86863 18.62108 18.03221 17.64651 17.21009 17.18613 15.99462 15.63075 15.63662 15.63546 15.63079 15.62189 17.62877 17.98392 15.62192 15.59479 15.57197 15.56196 15.55897 15.57368 15.59832 15.62863 15.67144 15.71657 15.75688 15.79051 15.81601 15.83725 15.85513 15.86607 15.86993 15.87156 15.87133 15.86966 15.87359 15.8771 15.87748 15.87373 15.86796 15.85801 15.85282 15.83761 15.82237 15.80728 15.79578 15.78493 15.78026 15.77756 15.77493 15.77743 15.77257 15.76948 15.75934 15.73813 15.70344 15.65255 15.57325 15.47813
0 0 0 0 0 0 0 0 0 0 18.83614 18.10559 17.13225 16.41647 16.08078 15.75257 15.77403 15.78719 15.79636 15.80179 15.80581 15.17347 15.16318 15.14652 15.13021 15.11545 15.11033 15.11174 15.12441 15.13633 15.14972 15.16586 15.18382 15.20422 15.22904 15.26905 15.31692 15.37382 15.43602 15.49943 15.55829 15.5979 15.9937 0 0 0 0 0 0 0 0 0 0 0 18.04456 17.66244 16.83059 15.64491 15.65592 15.66096 15.65831 15.65235 15.64493 15.64194 15.63977 15.6327 15.61418 15.60227 15.59269 15.59304 15.60296 15.62851 15.65956 15.69695 15.7388 15.77856 15.81047 15.8395 15.8651 15.88221 15.89316 15.89989 15.898 15.89728 15.90275 15.90747 15.91301 15.9197 15.92072 15.92008 15.91096 15.9048 15.89178 15.88291 15.86752 15.85507 15.84511 15.83948 15.83329 15.82602 15.82344 15.81689 15.80865 15.78875 15.76304 15.72784 15.67548 15.59669 15.50489
0 0 0 0 0 0 0 0 0 0 18.39684 17.13521 16.41818 16.08 15.43853 15.44933 15.16165 15.17006 15.18355 15.18719 15.18622 15.18561 15.17861 15.16805 15.15516 15.14334 15.14205 15.14946 15.16206 15.1749 15.1921 15.20425 15.21836 15.2374 15.26959 15.31468 15.36174 15.4179 15.4819 15.54632 16.76509 0 0 0 0 0 0 0 0 0 0 0 0 0 18.69909 17.29288 15.67715 15.68256 15.69144 15.69742 15.69503 15.68931 15.68007 15.67254 15.66524 15.65106 15.63893 15.63185 15.62388 15.62628 15.63678 15.659 15.68661 15.72309 15.76306 15.79977 15.83477 15.86753 15.89183 15.91459 15.92278 15.92615 15.92837 15.93414 15.94365 15.94741 15.95169 15.95758 15.95797 15.95607 15.94579 15.93479 15.92885 15.92186 15.9114 15.90354 15.89198 15.88752 15.88489 15.88161 15.87404 15.86367 15.84944 15.82332 15.79059 15.756 15.69989 15.62573 15.53689
0 0 0 0 0 0 0 0 0 18.48661 17.85471 16.78613 16.07751 15.4323 15.14116 15.1448 15.14909 15.16046 15.17274 15.18603 15.19171 15.19876 15.19799 15.19185 15.18304 15.17412 15.17313 15.17989 15.19729 15.21083 15.22647 15.23831 15.25362 15.27634 15.31732 15.35935 15.40691 15.46487 15.52385 16.33514 16.56913 0 0 0 0 0 0 0 0 0 0 0 0 17.98113 17.73864 16.48804 15.69607 15.70941 15.72381 15.73411 15.73736 15.73261 15.72352 15.70925 15.69941 15.68695 15.67792 15.66999 15.66649 15.66511 15.67522 15.69426 15.71911 15.75311 15.78692 15.8201 15.85749 15.88979 15.9149 15.93171 15.94662 15.95174 15.95488 15.9658 15.97512 15.98344 15.98799 15.99343 15.99813 15.99349 15.98256 15.96691 15.96034 15.95542 15.94994 15.944 15.93748 15.9327 15.92596 15.91869 15.90796 15.89822 15.87587 15.84899 15.81337 15.77095 15.71658 15.64536 15.5628
0 0 0 0 0 0 0 0 19.34445 18.20725 16.78993 16.05876 15.72374 15.12143 15.12088 15.12193 15.12884 15.14133 15.15648 15.17382 15.1893 15.20449 15.21177 15.21268 15.20785 15.20649 15.21166 15.22228 15.23652 15.25014 15.26143 15.27098 15.28623 15.31192 15.34843 15.39518 15.44039 15.48948 15.89793 16.33908 16.79396 17.63519 0 18.49335 19.07957 0 0 0 0 0 0 0 18.77033 17.76237 16.93521 15.70778 15.72369 15.74282 15.76119 15.77156 15.77512 15.76901 15.75716 15.74553 15.73428 15.72527 15.71678 15.71223 15.70997 15.71072 15.7199 15.73712 15.76108 15.78682 15.82036 15.85608 15.88552 15.91836 15.94374 15.96106 15.97441 15.9819 15.98592 15.99485 15.99719 16.00347 16.01356 16.01832 16.02004 16.01643 16.01 15.99909 15.99211 15.99005 15.98812 15.98352 15.98139 15.97369 15.96791 15.95633 15.94405 15.92354 15.8997 15.86874 15.82989 15.7804 15.72087 15.64791 15.5666
0 0 0 0 0 0 0 0 19.36403 18.221 16.79208 16.05426 15.10566 15.10502 15.10537 15.10246 15.11135 15.12687 15.143 15.16684 15.19225 15.21613 15.22621 15.22977 15.23523 15.24646 15.26374 15.27482 15.29522 15.31004 15.32113 15.32844 15.34054 15.36324 15.394 15.43471 15.47485 15.50793 15.54408 15.95383 16.37332 16.81784 17.2625 17.70947 18.49894 0 0 0 0 0 0 18.17296 17.36358 17.36102 15.71882 15.7397 15.76351 15.78833 15.80672 15.81653 15.81628 15.80908 15.79793 15.78365 15.77157 15.76324 15.75517 15.74592 15.74322 15.74801 15.7546 15.77211 15.79545 15.82257 15.85339 15.88724 15.91886 15.95042 15.97653 15.99544 16.01259 16.02106 16.02516 16.03053 16.03374 16.03408 16.0442 16.04969 16.04615 16.04196 16.03319 16.02616 16.02106 16.01698 16.0145 16.01047 16.01092 16.00319 15.99779 15.98572 15.97218 15.95306 15.92423 15.88475 15.8393 15.78261 15.72012 15.64764 15.56726
0 0 0 0 0 0 0 0 0 18.24576 16.80001 16.05547 15.09589 15.08988 15.08897 15.0881 15.09825 15.11938 15.14226 15.17159 15.20046 15.22939 15.24057 15.25267 15.26119 15.28335 15.30774 15.33162 15.35881 15.38237 15.39261 15.40158 15.4094 15.42186 15.44818 15.47992 15.50917 15.5324 15.55976 15.58182 15.59793 15.61557 15.63476 16.02747 16.87059 17.71864 18.53028 18.86367 0 0 18.49975 17.35634 16.51902 15.71942 15.74205 15.77483 15.80685 15.83172 15.84543 15.85093 15.84935 15.84471 15.83328 15.82082 15.81105 15.80368 15.79805 15.79087 15.78899 15.79171 15.79928 15.81407 15.83451 15.86096 15.88894 15.91811 15.95212 15.98044 16.0108 16.02968 16.04334 16.05246 16.05249 16.05978 16.06319 16.06431 16.0701 16.07782 16.07914 16.07079 16.06805 16.06659 16.05897 16.05509 16.05012 16.04568 16.03913 16.03237 16.02598 16.01213 15.9953 15.97026 15.9363 15.89292 15.84616 15.78511 15.71878 15.64346 15.56204
0 0 0 0 0 0 0 0 0 19.25559 17.57109 16.43047 15.38762 15.09147 15.07789 15.07578 15.08784 15.11266 15.14263 15.17255 15.20788 15.24223 15.26085 15.27773 15.29883 15.32641 15.36173 15.3972 15.42934 15.44968 15.4622 15.46585 15.47074 15.47991 15.49724 15.52019 15.54131 15.55884 15.579 15.59267 15.60187 15.61353 15.62891 15.64614 16.04042 16.46167 16.89283 17.31247 18.50752 17.34997 16.07635 15.703 15.7242 15.7521 15.78415 15.81686 15.84075 15.85762 15.87047 15.8748 15.8759 15.87254 15.86177 15.85167 15.84119 15.83876 15.83216 15.82997 15.82846 15.83407 15.83919 15.85494 15.87566 15.90092 15.92696 15.9598 15.98853 16.01897 16.04511 16.05735 16.06926 16.07627 16.07795 16.08509 16.08716 16.089 16.09534 16.10025 16.1027 16.10251 16.10049 16.09836 16.08898 16.08335 16.07929 16.07347 16.06888 16.05769 16.04893 16.03486 16.01239 15.98486 15.95064 15.9024 15.85516 15.79059 15.71995 15.63766 15.55407
0 0 0 0 0 0 0 0 0 19.40308 18.57899 16.83047 15.71321 15.08803 15.07984 15.07402 15.08068 15.10572 15.13767 15.1735 15.21122 15.24985 15.27535 15.30345 15.3366 15.37726 15.42768 15.47698 15.51793 15.53156 15.53952 15.54071 15.53486 15.53454 15.54426 15.56138 15.57494 15.58652 15.5991 15.60105 15.60855 15.62194 15.6363 15.6541 15.66795 15.67862 16.07697 0 17.35715 16.09882 15.72199 15.74588 15.77337 15.80235 15.83406 15.85714 15.88011 15.89205 15.90072 15.90444 15.90405 15.90061 15.89534 15.887 15.88091 15.87743 15.86844 15.86522 15.86432 15.86601 15.87523 15.8878 15.90796 15.93079 15.95864 15.9921 16.02152 16.04926 16.06521 16.07552 16.08625 16.09227 16.09644 16.10321 16.10829 16.11385 16.12271 16.12583 16.12836 16.12795 16.12491 16.12105 16.11596 16.10943 16.10585 16.09697 16.09221 16.08148 16.0638 16.04869 16.02395 15.9932 15.95628 15.91296 15.85838 15.7906 15.71638 15.63591 15.53816
0 0 0 0 0 0 0 0 0 0 19.11106 17.62777 16.07714 15.38969 15.08598 15.08006 15.08953 15.11096 15.13762 15.17247 15.21563 15.25988 15.29496 15.32603 15.36523 15.41851 15.48487 15.53538 0 0 0 15.78358 15.57198 15.57372 15.58033 15.59364 15.60715 15.61473 15.61598 15.61851 15.62047 15.63124 15.6423 15.65803 15.68149 15.70017 15.71994 16.12505 15.74057 15.74763 15.77007 15.7933 15.82198 15.84843 15.86917 15.88944 15.90362 15.91414 15.92147 15.92634 15.93298 15.93408 15.92861 15.92806 15.92205 15.91757 15.91474 15.90786 15.90613 15.90785 15.9157 15.92551 15.94563 15.96431 15.9931 16.02454 16.04953 16.07137 16.08362 16.096 16.10327 16.10545 16.11133 16.12202 16.12565 16.13059 16.14078 16.14737 16.15031 16.15363 16.14954 16.14588 16.14175 16.13706 16.13091 16.12555 16.11817 16.10685 16.08897 16.06612 16.03573 15.99984 15.96427 15.91781 15.85861 15.78819 15.71471 15.62845 15.52601
0 0 0 0 0 0 0 0 0 0 0 19.00139 17.64624 16.08233 15.39585 15.09305 15.09926 15.11729 15.14295 15.17595 15.22549 15.27567 15.31188 15.35045 15.39292 15.45886 15.87201 16.28122 0 0 0 16.44889 16.73083 15.59048 15.59776 15.60971 15.62292 15.63272 15.63655 15.63582 15.63192 15.63962 15.65367 15.67831 15.70677 15.72801 15.74553 15.76546 15.77921 15.79557 15.82094 15.8452 15.87127 15.89399 15.90994 15.92264 15.92836 15.93753 15.94475 15.94981 15.95442 15.95715 15.95747 15.95483 15.95236 15.95039 15.94596 15.94325 15.94361 15.9464 15.9541 15.96892 15.98587 16.00552 16.02996 16.05528 16.07684 16.09537 16.11174 16.11757 16.12235 16.12757 16.13357 16.14113 16.14683 16.15423 16.15986 16.16719 16.17707 16.18005 16.1731 16.16688 16.15973 16.15436 16.14973 16.14745 16.14132 16.12976 16.11196 16.08528 16.0571 16.01808 15.97882 15.92993 15.86701 15.80004 15.71909 15.63367 15.53021
0 0 0 0 0 0 0 0 0 0 0 0 19.2221 18.01085 16.0785 15.40345 15.097 15.11647 15.1475 15.18701 15.2386 15.29023 15.33248 15.37141 15.40937 15.47732 16.25123 0 0 17.8737 17.96326 16.37259 15.60578 15.59884 15.60144 15.61693 15.63177 15.64395 15.64865 15.65074 15.65043 15.65542 15.67085 15.69778 15.72826 15.75202 15.77167 15.7899 15.80984 15.83402 15.86128 15.88824 15.91607 15.93802 15.95319 15.96146 15.96812 15.97592 15.97701 15.9764 15.98138 15.98496 15.98509 15.98408 15.98353 15.97904 15.97684 15.97883 15.97946 15.98089 15.98895 16.00289 16.01868 16.03683 16.06015 16.0825 16.10301 16.12289 16.13499 16.14018 16.14886 16.15478 16.161 16.1671 16.17311 16.18108 16.18923 16.19458 16.20369 16.20402 16.19566 16.18996 16.18244 16.17642 16.17101 16.16709 16.15594 16.14243 16.12553 16.10122 16.07111 16.03386 15.993 15.94173 15.88167 15.81658 15.73624 15.65476 15.55719
0 0 0 0 0 0 0 0 0 0 0 0 0 0 0 16.08122 15.38513 15.11914 15.15597 15.20301 15.25349 15.31206 15.35033 15.38396 15.41605 15.81975 15.88703 16.29075 16.69683 18.85981 17.97492 16.36315 15.6066 15.60419 15.59926 15.61548 15.63536 15.65317 15.66397 15.66979 15.6759 15.68058 15.69472 15.72038 15.75052 15.77229 15.79125 15.81367 15.83377 15.86206 15.89205 15.92233 15.94883 15.96976 15.98587 15.9953 16.00306 16.00804 16.00975 16.00562 16.00552 16.0043 16.00281 16.00311 16.00691 16.00677 16.0065 16.00901 16.01228 16.02131 16.03 16.04179 16.05615 16.07677 16.09661 16.11693 16.13372 16.14804 16.15728 16.1695 16.1753 16.18099 16.18464 16.19378 16.1988 16.2032 16.20984 16.21738 16.21365 16.21391 16.21065 16.21057 16.20429 16.19629 16.19122 16.18487 16.17418 16.15725 16.13577 16.11728 16.09115 16.05609 16.00888 15.96037 15.90755 15.83664 15.76418 15.68303 15.59421
0 0 0 0 0 0 0 0 0 0 0 0 0 0 0 16.7957 16.07071 15.12579 15.17469 15.22516 15.28198 15.34016 15.37302 15.40007 15.42892 15.4744 16.25433 16.30766 16.72361 0 18.02571 15.61758 15.6084 15.60354 15.61712 15.62269 15.64333 15.66107 15.67423 15.68699 15.69773 15.70529 15.72316 15.74383 15.76856 15.79247 15.8135 15.83286 15.86219 15.89638 15.93061 15.95834 15.98354 16.00376 16.01822 16.02722 16.03125 16.03655 16.03432 16.03141 16.02783 16.0231 16.0234 16.02157 16.02341 16.02396 16.02711 16.03201 16.04024 16.0495 16.05986 16.07538 16.09444 16.11412 16.13261 16.15195 16.16496 16.17834 16.19305 16.20206 16.20808 16.21393 16.21982 16.22473 16.22815 16.22837 16.23556 16.23476 16.22937 16.22806 16.22499 16.21974 16.21641 16.20856 16.20325 16.19274 16.18044 16.16474 16.14921 16.13246 16.10836 16.07664 16.03756 15.99255 15.94282 15.87707 15.80874 15.73614 15.65548
0 0 0 0 0 0 0 0 0 0 0 0 0 18.00909 17.63092 16.8169 16.12217 15.15579 15.19944 15.25592 15.31208 15.37007 15.405 15.43129 15.45966 15.49046 16.64254 17.08144 17.53481 17.44986 18.41946 15.97568 15.60536 15.60973 15.62273 15.64264 15.66549 15.68105 15.69461 15.70641 15.71665 15.72744 15.74364 15.76736 15.79062 15.81052 15.83193 15.86149 15.89101 15.92631 15.95794 15.98315 16.00512 16.02459 16.03874 16.04743 16.05392 16.06059 16.05838 16.05562 16.04968 16.04795 16.04473 16.04649 16.04674 16.04923 16.0523 16.05853 16.06521 16.07471 16.08847 16.10489 16.1247 16.14537 16.16476 16.1836 16.19626 16.2085 16.22253 16.23208 16.2391 16.24406 16.24927 16.24756 16.24992 16.25085 16.24807 16.24759 16.24213 16.23671 16.23063 16.22979 16.22378 16.21909 16.2109 16.20181 16.19342 16.18264 16.16589 16.15065 16.12812 16.09948 16.06165 16.01581 15.96389 15.90872 15.85196 15.78644 15.71421
0 0 0 0 0 0 0 0 0 0 0 0 17.23325 16.83445 16.85308 16.50229 15.82573 15.20204 15.23907 15.28847 15.34356 15.39973 15.43756 15.46458 15.49073 15.52008 16.29761 16.33516 17.14046 17.94964 16.35531 15.59405 15.60937 15.63096 15.65527 15.67767 15.69823 15.7092 15.71831 15.72734 15.73824 15.75238 15.76917 15.78978 15.80898 15.8301 15.85543 15.88154 15.9095 15.9349 15.96315 15.98802 16.00839 16.02629 16.04177 16.05479 16.0644 16.07081 16.07105 16.06902 16.06863 16.06899 16.0686 16.06765 16.07068 16.07259 16.07641 16.0835 16.09287 16.10689 16.1243 16.14194 16.16253 16.18628 16.20428 16.22109 16.23168 16.24495 16.25443 16.26144 16.26885 16.27051 16.2731 16.27467 16.27568 16.27352 16.26969 16.26125 16.25623 16.24692 16.24099 16.24042 16.2323 16.23084 16.22503 16.22152 16.21837 16.20351 16.18905 16.17478 16.1525 16.13176 16.09536 16.0557 16.00732 15.95594 15.9 15.84042 15.77306
0 0 0 0 0 0 0 0 19.00825 18.38566 17.23523 16.45081 16.4556 16.46276 16.1427 16.19557 15.89456 15.26411 15.30208 15.35032 15.39893 15.45388 15.48455 15.51168 15.53863 15.56204 15.589 15.60071 15.6099 15.61132 15.60863 15.61926 15.64002 15.6637 15.68515 15.70819 15.71893 15.72987 15.73364 15.73801 15.75115 15.76666 15.78556 15.80553 15.82683 15.84994 15.87126 15.89421 15.91895 15.94095 15.9615 15.98511 16.00574 16.02287 16.03934 16.05584 16.06687 16.07701 16.08253 16.07989 16.08221 16.08207 16.08362 16.08449 16.08806 16.08936 16.09781 16.10683 16.1199 16.13894 16.16168 16.18459 16.20488 16.22516 16.24225 16.25569 16.27059 16.28072 16.29063 16.29357 16.2973 16.3028 16.30496 16.30393 16.30064 16.29377 16.28728 16.27863 16.26747 16.25911 16.24917 16.24693 16.2409 16.23786 16.23713 16.23699 16.23158 16.22213 16.21241 16.19732 16.18128 16.15648 16.12752 16.09184 16.04972 16.00851 15.95608 15.89783 15.84088
0 0 0 0 0 0 0 18.00454 18.06821 16.45771 16.09204 16.09188 16.11193 16.15311 16.20996 15.93434 15.29974 15.33401 15.37094 15.41428 15.46551 15.51056 15.54292 15.56853 15.59072 15.60978 15.62898 15.64396 15.65507 15.66073 15.66753 15.67903 15.69276 15.70324 15.71794 15.7253 15.73508 15.73814 15.74055 15.74766 15.75945 15.77596 15.79292 15.8144 15.83935 15.86187 15.88232 15.90111 15.92138 15.9388 15.95269 15.9731 15.99251 16.01532 16.03516 16.0518 16.06391 16.07414 16.08136 16.08729 16.09187 16.09175 16.09506 16.09945 16.10284 16.11254 16.12388 16.13839 16.15722 16.1767 16.19812 16.22162 16.23909 16.25932 16.27376 16.28749 16.30156 16.31271 16.31629 16.3209 16.32782 16.32684 16.3265 16.32639 16.32433 16.31351 16.30528 16.29772 16.28747 16.2799 16.26949 16.26148 16.25824 16.26083 16.25459 16.25522 16.25616 16.25034 16.24355 16.22768 16.20999 16.18392 16.16005 16.12481 16.09126 16.04787 16.00047 15.94261 15.88608
0 0 0 0 0 0 18.50913 18.47522 16.46646 16.06689 16.05906 16.08732 16.15231 15.87665 15.61158 15.34037 15.35525 15.39676 15.43201 15.47526 15.52307 15.55955 15.58876 15.60936 15.63101 15.64643 15.66314 15.67869 15.69535 15.70604 15.7128 15.72211 15.72817 15.73212 15.73724 15.74109 15.75221 15.75553 15.7585 15.76838 15.77772 15.79459 15.81051 15.82876 15.849 15.86802 15.88059 15.8953 15.90938 15.92529 15.94156 15.96347 15.98219 16.00047 16.01857 16.03569 16.05148 16.06316 16.07433 16.08427 16.09267 16.09936 16.10314 16.11205 16.12545 16.13803 16.15292 16.17181 16.19093 16.21374 16.23544 16.25757 16.27852 16.29548 16.30986 16.32452 16.33533 16.34237 16.34563 16.34893 16.34725 16.34613 16.34228 16.33936 16.33289 16.32104 16.31126 16.29996 16.29326 16.28795 16.28144 16.27335 16.27107 16.27578 16.27443 16.27777 16.28027 16.28392 16.2731 16.25796 16.24248 16.21975 16.19564 16.17053 16.13934 16.09406 16.05168 15.9993 15.94191
0 0 0 0 0 0 19.38417 17.668 16.43397 16.04579 15.72683 15.78703 15.54764 15.30678 15.36043 15.40905 15.43927 15.46802 15.50195 15.54304 15.57733 15.60757 15.62721 15.64529 15.65786 15.6738 15.69086 15.70962 15.7254 15.73703 15.74677 15.75116 15.75362 15.75147 15.74997 15.75567 15.75863 15.76075 15.77148 15.7787 15.79198 15.80509 15.82488 15.83796 15.85236 15.86083 15.87086 15.88204 15.89399 15.90827 15.92611 15.94503 15.96631 15.98481 16.00556 16.02363 16.04019 16.05528 16.06626 16.07768 16.08618 16.0986 16.10626 16.12008 16.13956 16.15502 16.17398 16.1989 16.2211 16.2444 16.26445 16.28492 16.30652 16.32575 16.34382 16.35578 16.36239 16.36508 16.36912 16.36831 16.3628 16.35648 16.3515 16.34389 16.33501 16.32601 16.31722 16.30447 16.30311 16.29732 16.29125 16.28363 16.28241 16.28989 16.2984 16.30202 16.30138 16.30383 16.29341 16.27805 16.26266 16.25008 16.23388 16.2158 16.18418 16.14541 16.10814 16.05992 16.01081
0 0 0 0 0 19.46026 18.98472 17.63331 16.43353 16.07794 15.46943 15.23212 15.29934 15.36245 15.41855 15.4644 15.49897 15.53189 15.56562 15.59819 15.62338 15.64505 15.65834 15.66831 15.68181 15.69921 15.71105 15.73265 15.74683 15.76441 15.76684 15.76487 15.76367 15.76005 15.75781 15.75995 15.76232 15.76532 15.76949 15.7809 15.79446 15.80825 15.81725 15.82719 15.83586 15.8458 15.85406 15.86094 15.87213 15.88726 15.90542 15.92368 15.94421 15.96417 15.98685 16.00639 16.0262 16.04371 16.05716 16.07117 16.08069 16.09294 16.10707 16.12902 16.1502 16.1766 16.19759 16.22106 16.24401 16.26621 16.28453 16.30544 16.32633 16.34022 16.35819 16.3692 16.37806 16.37959 16.37805 16.37355 16.3675 16.36112 16.35492 16.34489 16.33597 16.32127 16.3148 16.31036 16.30004 16.29927 16.29541 16.29173 16.29587 16.30166 16.31036 16.31927 16.32385 16.32178 16.31783 16.30867 16.30059 16.28714 16.26476 16.24914 16.2216 16.19144 16.15394 16.11319 16.06754
0 0 0 0 18.49655 18.08642 16.44733 16.06932 15.74853 15.16853 15.22913 15.29667 15.35677 15.41139 15.46483 15.50959 15.54709 15.57301 15.59958 15.62822 15.6485 15.66842 15.68252 15.69143 15.70329 15.71582 15.72965 15.74145 15.75738 15.76836 15.76324 15.76413 15.76214 15.75933 15.75966 15.76053 15.76018 15.76246 15.76903 15.77964 15.78614 15.79747 15.80811 15.81239 15.8175 15.82526 15.83335 15.84326 15.85335 15.87072 15.88611 15.90371 15.92335 15.94523 15.96898 15.98647 16.00411 16.02376 16.04055 16.05719 16.0702 16.084 16.10279 16.13126 16.16214 16.18892 16.21267 16.23878 16.26479 16.28719 16.30746 16.32549 16.33976 16.3497 16.36221 16.3765 16.38547 16.38568 16.38063 16.37826 16.37336 16.36805 16.35843 16.3455 16.33226 16.31875 16.31677 16.31212 16.30079 16.30289 16.29987 16.30558 16.30625 16.31203 16.31892 16.32935 16.337 16.33842 16.33741 16.33295 16.33249 16.32141 16.30777 16.29688 16.27354 16.24218 16.20861 16.17294 16.13492
0 0 0 0 19.58507 16.85444 15.15759 15.15539 15.18243 15.23715 15.30036 15.36131 15.41954 15.46993 15.513 15.55575 15.58321 15.60728 15.63229 15.65387 15.67181 15.68709 15.69885 15.70718 15.71835 15.73002 15.73772 15.74404 15.75771 15.76129 15.76204 15.76306 15.76285 15.75515 15.75536 15.7595 15.75826 15.76065 15.76446 15.77201 15.78039 15.78915 15.79384 15.79348 15.79746 15.80533 15.81062 15.81814 15.82991 15.84413 15.85999 15.87753 15.89634 15.91957 15.94216 15.96433 15.98502 16.00613 16.02517 16.04461 16.06085 16.07681 16.10291 16.13086 16.16295 16.19252 16.22221 16.24868 16.27518 16.30008 16.31871 16.3371 16.35159 16.36301 16.37169 16.38028 16.3889 16.38656 16.38499 16.3814 16.38006 16.3724 16.36325 16.34875 16.33863 16.32331 16.31979 16.31538 16.31334 16.31562 16.31881 16.32104 16.32243 16.32818 16.33565 16.34093 16.34391 16.34876 16.34815 16.34795 16.34994 16.35285 16.35151 16.34064 16.32576 16.3049 16.27097 16.24257 16.20546
0 0 0 18.59704 18.14076 16.4512 15.14595 15.17208 15.23013 15.30168 15.35963 15.42139 15.47196 15.51772 15.56422 15.59509 15.62185 15.64349 15.66443 15.67661 15.69209 15.70563 15.71192 15.72024 15.72614 15.72955 15.73715 15.73942 15.74677 15.75132 15.75354 15.75433 15.75009 15.7469 15.75076 15.75535 15.75227 15.75366 15.75923 15.76363 15.76901 15.77276 15.77592 15.77479 15.78005 15.78658 15.79128 15.79715 15.8081 15.82293 15.83946 15.85604 15.87447 15.89476 15.91608 15.93914 15.96336 15.9874 16.01079 16.0332 16.05081 16.07318 16.10061 16.12981 16.15898 16.19018 16.22088 16.24973 16.27909 16.3029 16.3251 16.34079 16.35782 16.36778 16.37496 16.38143 16.38363 16.38302 16.38535 16.38594 16.37838 16.37387 16.36153 16.35361 16.34131 16.33783 16.33583 16.33148 16.33153 16.33139 16.33901 16.34871 16.34701 16.34941 16.3489 16.35121 16.35223 16.35891 16.36484 16.36867 16.37115 16.37903 16.3763 16.36934 16.36399 16.35546 16.3195 16.29689 16.2644
0 0 0 18.54594 18.11638 16.43487 15.74166 15.19373 15.28014 15.36002 15.41621 15.47475 15.51384 15.5568 15.5936 15.62293 15.64966 15.66476 15.67906 15.68885 15.69705 15.71305 15.71634 15.72052 15.72113 15.721 15.72069 15.72072 15.72916 15.72955 15.73728 15.73535 15.73359 15.73419 15.7391 15.74028 15.73997 15.7425 15.74917 15.74997 15.75378 15.75296 15.75216 15.75559 15.75999 15.76511 15.77226 15.77954 15.79054 15.80109 15.81821 15.8378 15.85872 15.87654 15.8988 15.92257 15.9497 15.97531 15.99645 16.01838 16.04172 16.06738 16.0939 16.12495 16.1531 16.18114 16.21141 16.24439 16.27772 16.30431 16.32776 16.34744 16.362 16.36884 16.37183 16.37876 16.38084 16.38229 16.38734 16.38439 16.3769 16.37024 16.36851 16.35985 16.35413 16.35219 16.34894 16.34525 16.35231 16.3512 16.35885 16.36464 16.36882 16.37119 16.37494 16.38002 16.3816 16.38782 16.39223 16.39472 16.4053 16.41167 16.40874 16.40498 16.40234 16.39586 16.37943 16.34509 16.32009
0 0 0 19.46348 18.37875 16.42102 15.43497 15.22066 15.30856 15.3899 15.46358 15.51066 15.54769 15.5812 15.61704 15.64625 15.66255 15.67557 15.68039 15.69081 15.69434 15.70196 15.70149 15.70046 15.70613 15.70302 15.70428 15.7093 15.71169 15.71711 15.71694 15.71701 15.71867 15.72241 15.72312 15.72293 15.73395 15.73536 15.73675 15.74052 15.73476 15.73468 15.73496 15.7404 15.74273 15.74692 15.75377 15.76414 15.77107 15.78396 15.80337 15.82383 15.84178 15.86037 15.88657 15.91371 15.94037 15.96506 15.9861 16.00777 16.03558 16.0619 16.09062 16.12102 16.15191 16.17931 16.20905 16.24366 16.27206 16.30121 16.32691 16.34679 16.35945 16.3659 16.37179 16.37494 16.37783 16.38112 16.38533 16.38672 16.37814 16.37456 16.37629 16.37205 16.37072 16.3713 16.3712 16.36719 16.3704 16.37576 16.38139 16.38625 16.39065 16.39798 16.39706 16.40114 16.40684 16.41084 16.41635 16.42656 16.43422 16.4391 16.44001 16.43852 16.43808 16.43004 16.42111 16.40177 16.37991
0 0 0 19.47319 17.12738 15.7031 15.17093 15.2603 15.34815 15.42465 15.48408 15.52555 15.56331 15.5919 15.62467 15.64762 15.66384 15.67115 15.67499 15.67216 15.67423 15.67987 15.67757 15.67926 15.67822 15.68516 15.69016 15.69752 15.70576 15.70512 15.70681 15.71102 15.71613 15.72262 15.72525 15.72214 15.72729 15.72782 15.72865 15.72612 15.72465 15.72354 15.7241 15.72462 15.72942 15.73092 15.73847 15.74787 15.75999 15.77204 15.79099 15.8118 15.8339 15.85861 15.88117 15.90738 15.93423 15.96046 15.98654 16.01155 16.03892 16.06589 16.09621 16.12588 16.15706 16.18306 16.2082 16.23818 16.26695 16.29608 16.32267 16.34212 16.35349 16.35976 16.36588 16.37067 16.37751 16.38083 16.38533 16.38481 16.38331 16.38333 16.38089 16.38499 16.39122 16.39434 16.39936 16.40391 16.40677 16.41246 16.42106 16.43023 16.43483 16.43542 16.43957 16.43931 16.44131 16.44175 16.44805 16.4621 16.47456 16.4804 16.48045 16.47765 16.47554 16.47158 16.45943 16.4488 16.42517
15.13616 15.13937 16.40773 17.11933 15.35245 15.12258 15.2101 15.30658 15.38942 15.4566 15.50646 15.53855 15.56964 15.59872 15.62081 15.64778 15.65741 15.6616 15.66104 15.65266 15.65154 15.65328 15.65465 15.65136 15.65522 15.66145 15.67024 15.67686 15.69206 15.70324 15.70427 15.71109 15.71551 15.7133 15.72094 15.72178 15.72102 15.72308 15.71869 15.71671 15.71401 15.71402 15.71351 15.71249 15.71474 15.72163 15.72967 15.73554 15.74908 15.76175 15.78032 15.804 15.83368 15.85688 15.8842 15.91141 15.93498 15.96309 15.99221 16.02066 16.04747 16.07686 16.11131 16.14072 16.16913 16.1897 16.21325 16.23757 16.26706 16.2929 16.31824 16.33257 16.34764 16.3548 16.36247 16.37047 16.37678 16.38088 16.38283 16.38473 16.38853 16.3898 16.39357 16.40084 16.40981 16.41282 16.42108 16.43237 16.43821 16.44496 16.45763 16.46664 16.47166 16.47281 16.47854 16.47299 16.47286 16.48007 16.4899 16.50196 16.51368 16.52238 16.52758 16.52475 16.51909 16.51515 16.50422 16.48961 16.47019
15.13708 15.13525 15.14577 15.16512 15.17938 15.23568 15.30805 15.38085 15.44355 15.4991 15.53124 15.55597 15.58532 15.60136 15.62238 15.63805 15.64218 15.63726 15.63659 15.63209 15.62685 15.62506 15.62659 15.62725 15.63052 15.6412 15.64775 15.66548 15.67501 15.69123 15.69732 15.70647 15.71799 15.71551 15.7187 15.722 15.7203 15.7205 15.72025 15.72017 15.7174 15.71391 15.71579 15.71104 15.71126 15.71693 15.72708 15.7322 15.74231 15.75768 15.77986 15.80864 15.83601 15.86526 15.89195 15.91731 15.94355 15.97284 16.00298 16.03106 16.06178 16.0923 16.12237 16.15127 16.17347 16.19363 16.21679 16.24363 16.26866 16.29341 16.31617 16.3313 16.3447 16.35817 16.36415 16.37237 16.37826 16.38033 16.38427 16.39052 16.39318 16.4008 16.41419 16.42216 16.42885 16.43821 16.45162 16.46156 16.47373 16.48576 16.494 16.50368 16.50595 16.5047 16.50415 16.50856 16.50884 16.51193 16.51818 16.53362 16.54387 16.55383 16.5639 16.56563 16.55625 16.54448 16.53372 16.52177 16.51348
15.22987 15.25035 15.27101 15.29255 15.31553 15.36204 15.41087 15.4539 15.49644 15.53272 15.55245 15.56421 15.57899 15.59936 15.61068 15.62289 15.62726 15.62253 15.61403 15.60579 15.59358 15.59092 15.59695 15.60313 15.61296 15.62715 15.64183 15.65623 15.66538 15.67547 15.68888 15.7022 15.71119 15.71727 15.71872 15.7213 15.72017 15.71904 15.71991 15.72024 15.72097 15.71845 15.71592 15.71667 15.71512 15.71892 15.72643 15.73113 15.7446 15.76273 15.78849 15.81869 15.85342 15.87963 15.90982 15.93443 15.96115 15.99453 16.02778 16.05448 16.08545 16.11267 16.1406 16.16571 16.18674 16.20736 16.23144 16.25212 16.27511 16.29703 16.31819 16.33312 16.34707 16.3645 16.3743 16.37622 16.37999 16.38487 16.38988 16.39628 16.40458 16.41105 16.42532 16.43638 16.44609 16.46397 16.48023 16.49825 16.52011 16.53048 16.54297 16.55037 16.55288 16.55488 16.55705 16.55651 16.55669 16.56352 16.57095 16.57954 16.5911 16.59505 16.59795 16.59796 16.5881 16.58214 16.57326 16.56411 16.55668
15.31127 15.33547 15.36335 15.38923 15.40952 15.43339 15.46257 15.48895 15.5137 15.54088 15.55237 15.56375 15.5746 15.58389 15.59781 15.60476 15.60644 15.60137 15.59186 15.5842 15.57032 15.5625 15.5697 15.58159 15.59478 15.61415 15.62599 15.64721 15.65794 15.6739 15.68635 15.7055 15.71658 15.73079 15.73828 15.73563 15.73398 15.73155 15.72983 15.72637 15.72581 15.72425 15.72154 15.72026 15.72052 15.7264 15.73132 15.74055 15.75668 15.77891 15.80826 15.83969 15.87199 15.90299 15.92967 15.95954 15.991 16.02616 16.05687 16.08932 16.11367 16.13823 16.16333 16.18678 16.21003 16.22813 16.2492 16.26955 16.2898 16.31096 16.32797 16.34497 16.35973 16.37637 16.38202 16.38733 16.39317 16.39518 16.39843 16.40538 16.41307 16.42084 16.43295 16.44872 16.46657 16.48911 16.51185 16.54034 16.56207 16.58057 16.59476 16.60681 16.61562 16.61979 16.61297 16.6159 16.61891 16.62587 16.63728 16.65094 16.66946 16.67933 16.66979 16.65865 16.65447 16.64727 16.64099 16.63042 16.62195
15.38547 15.40758 15.42247 15.43272 15.444 15.45756 15.47535 15.49238 15.5066 15.52176 15.53476 15.54513 15.55112 15.5609 15.57213 15.5831 15.58619 15.58983 15.58217 15.57215 15.56008 15.5591 15.56783 15.58489 15.60264 15.62351 15.64203 15.65562 15.67006 15.67644 15.69977 15.71694 15.73009 15.74193 15.75123 15.75714 15.75928 15.76306 15.76182 15.75749 15.75534 15.7538 15.75336 15.7519 15.75582 15.76455 15.77489 15.78678 15.80201 15.82342 15.85237 15.88333 15.91674 15.94688 15.97504 16.00371 16.03705 16.0675 16.10108 16.13324 16.15984 16.18314 16.20125 16.22346 16.24829 16.26978 16.28628 16.29951 16.31435 16.33746 16.3569 16.37579 16.38611 16.39324 16.40212 16.4076 16.41143 16.41586 16.41972 16.42828 16.43632 16.4513 16.46628 16.48624 16.51076 16.53668 16.56624 16.59489 16.62487 16.64812 16.66152 16.67156 16.67744 16.67678 16.67655 16.67251 16.67383 16.6849 16.70897 16.73619 16.7552 16.75842 16.75463 16.74389 16.74324 16.73818 16.72694 16.71379 16.70199
15.42083 15.42988 15.43782 15.4448 15.44885 15.45828 15.46945 15.48249 15.49013 15.50513 15.51532 15.52267 15.53113 15.54508 15.55252 15.56175 15.57139 15.57682 15.57441 15.57087 15.56882 15.56763 15.57319 15.59912 15.61892 15.63818 15.64643 15.67659 15.69744 15.70408 15.72096 15.74362 15.75417 15.76385 15.77357 15.78328 15.78538 15.78834 15.79236 15.79317 15.79546 15.79667 15.79779 15.80438 15.81741 15.82912 15.84556 15.86061 15.87669 15.90059 15.92477 15.95857 15.99222 16.02426 16.05466 16.0831 16.11471 16.14395 16.17092 16.19318 16.22145 16.24161 16.25917 16.27681 16.30095 16.31699 16.32983 16.34361 16.35657 16.37041 16.39066 16.40381 16.41538 16.42062 16.42606 16.43374 16.43904 16.4415 16.44925 16.46454 16.47833 16.4984 16.52003 16.54526 16.57403 16.6033 16.63795 16.67784 16.70929 16.72819 16.7464 16.759 16.76387 16.76322 16.76304 16.75874 16.75978 16.7643 16.78195 16.80409 16.82392 16.82935 16.83059 16.82719 16.82189 16.81666 16.80931 16.79575 16.78582
15.42459 15.42948 15.42946 15.42973 15.4312 15.44071 15.45018 15.46029 15.47321 15.48378 15.49941 15.5038 15.51002 15.52515 15.53934 15.5495 15.55951 15.57094 15.57461 15.57345 15.58044 15.58387 15.60054 15.62413 15.646 15.66662 15.68581 15.70388 15.72469 15.74574 15.76376 15.77161 15.78145 15.79542 15.80499 15.81498 15.82289 15.82424 15.83348 15.83609 15.84141 15.84786 15.85608 15.87173 15.88723 15.90218 15.92337 15.94173 15.966 15.98801 16.01299 16.04271 16.07695 16.11232 16.13916 16.16444 16.19354 16.21866 16.2468 16.26556 16.28761 16.30821 16.33321 16.35224 16.37289 16.38487 16.39569 16.40438 16.41912 16.4325 16.45035 16.46321 16.47323 16.47619 16.47881 16.48132 16.48389 16.4905 16.50593 16.524 16.53544 16.55099 16.57814 16.60044 16.62867 16.66359 16.70067 16.73038 0 0 16.7898 16.81935 16.82255 16.82701 16.82268 16.81413 16.81739 16.82472 16.82634 0 0 16.84612 16.90061 16.89665 16.89014 16.88617 16.88632 16.88289 16.87166
