ncols        109
nrows        82
xllcorner    -1.041666666667
yllcorner    37.041665395101
cellsize     0.083333333333
NODATA_value -9999
0.0 0 0 0 0 0 0 0 0 0 0 0 0 0 0 0 0 0 0 0 0 0 0 0 0 0 0 0 0 0 0 0 0 0 0 0 0 0 0 0 0 0 0 0 0 0 0 0 0 0 0 0 0 0 0 0 0 0 0 0 0 0 0 0 0 0 0 0 0 0 0 0 0 0 0 0 0 0 0 0 0 0 0 0 0 0 0 0 0 0 0 0 0 0 0 0 0 0 0 0 0 0 0 0 0 18.14472 16.76099 15.22311 15.20419
0 0 0 0 0 0 0 0 0 0 0 0 0 0 0 0 0 0 0 0 0 0 0 0 0 0 0 0 0 0 0 0 0 0 0 0 0 0 0 0 0 0 0 0 0 0 0 0 0 0 0 0 0 0 0 0 0 0 0 0 0 0 0 0 0 0 0 0 0 0 0 0 0 0 0 0 0 0 0 0 0 0 0 0 0 0 0 0 0 0 0 0 0 0 0 0 0 0 0 0 0 15.39143 15.41255 15.17075 15.17834 15.18067 15.16894 15.14672 15.10647
0 0 0 0 0 0 0 0 0 0 0 0 0 0 0 0 0 0 0 0 0 0 0 0 0 0 0 0 0 0 0 0 0 0 0 0 0 0 0 0 0 0 0 0 0 0 0 0 0 0 0 0 0 0 0 0 0 0 0 0 0 0 0 0 0 0 0 0 0 0 0 0 0 0 0 0 0 0 0 0 0 0 0 0 0 0 0 0 0 0 0 0 0 0 0 0 0 0 15.15745 15.15878 15.14871 15.13177 15.10481 15.07816 15.05277 15.03044 15.00147 14.97702 14.95189
0 0 0 0 0 0 0 0 0 0 0 0 0 0 0 0 0 0 0 0 0 0 0 0 0 0 0 0 0 0 0 0 0 0 0 0 0 0 0 0 0 0 0 0 0 0 0 0 0 0 0 0 0 0 0 0 0 0 0 0 0 0 0 0 0 0 0 0 0 0 0 0 0 0 0 0 0 0 0 0 0 0 0 0 0 0 0 0 0 0 0 0 0 0 0 0 0 16.96121 15.11888 15.08955 15.04701 15.00472 14.96996 14.94645 14.92094 14.89604 14.86978 14.84409 14.82236
0 0 0 0 0 0 0 0 0 0 0 0 0 0 0 0 0 0 0 0 0 0 0 0 0 0 0 0 0 0 0 0 0 0 0 0 0 0 0 0 0 0 0 0 0 0 0 0 0 0 0 0 0 0 0 0 0 0 16.83531 16.45963 16.16888 16.30113 0 0 0 0 0 0 0 0 0 0 0 0 0 0 0 0 0 0 0 0 0 0 0 0 0 0 0 0 0 0 0 0 0 15.61281 15.12125 15.10401 15.04979 14.99725 14.94083 14.88769 14.84123 14.79705 14.76167 14.73599 14.71506 14.70727 14.69949
0 0 0 0 0 0 0 0 0 0 0 0 0 0 0 0 0 0 0 0 0 0 0 0 0 0 0 0 0 0 0 0 0 0 0 0 0 0 0 0 0 0 0 0 0 0 0 0 0 0 0 0 0 0 0 0 16.35353 16.38121 16.08529 15.83571 15.73465 15.74072 15.85343 16.08941 16.3094 16.43303 16.43782 0 0 0 0 16.77156 0 0 0 0 0 0 0 0 0 0 0 0 0 0 0 0 0 0 0 0 0 16.25804 15.07705 15.10105 15.06451 15.00272 14.9285 14.85731 14.79973 14.74442 14.70487 14.67314 14.65681 14.64018 14.62963 14.62209 14.61993
0 0 0 0 0 0 0 0 0 0 0 0 0 0 0 0 0 0 0 0 0 0 0 0 0 0 0 0 0 0 0 0 0 0 0 0 0 0 0 0 0 0 0 0 0 0 0 0 0 0 0 0 0 0 0 16.49155 16.07829 15.71677 15.47305 15.16734 15.22858 15.2599 15.46264 15.62366 15.78876 15.92498 16.03809 16.26193 16.47392 16.43033 16.36646 16.07842 15.83472 15.89291 16.07219 15.76016 15.76503 0 0 0 0 0 0 0 0 0 0 0 0 0 0 0 15.47599 15.10083 15.07853 15.03797 14.97928 14.90141 14.82387 14.75273 14.69216 14.63531 14.59629 14.57626 14.56519 14.56265 14.5601 14.56225 14.56597
0 0 0 0 0 0 0 0 0 0 0 0 0 0 0 0 0 0 0 0 0 0 0 0 0 0 0 0 0 0 0 0 0 0 0 0 0 0 0 0 0 0 0 0 0 0 0 0 0 0 0 16.06389 16.27827 16.4286 16.17573 15.73532 15.47263 15.15197 15.00249 15.06638 15.11944 15.14764 15.16061 15.36453 15.36307 15.57186 15.55469 15.56182 15.59573 15.46066 15.3184 15.35397 15.18625 15.42162 15.45152 15.66819 0 0 0 0 0 0 0 0 0 0 0 0 0 0 0 0 15.05784 15.06909 15.01284 14.94234 14.86419 14.7778 14.69844 14.63564 14.58681 14.55208 14.53276 14.5234 14.5242 14.52742 14.5313 14.5368 14.54735
0 0 0 0 0 0 0 0 0 0 0 0 0 0 0 0 0 0 0 0 0 0 0 0 0 0 0 0 0 0 0 0 0 0 0 0 0 0 0 0 0 0 0 0 0 0 0 0 0 0 16.18209 16.08028 15.83312 15.77934 15.68404 15.36271 14.98781 15.05175 14.88599 14.93464 14.97703 15.00411 15.02299 15.23324 15.23013 15.4442 15.44267 15.44984 15.2809 15.12653 15.1581 15.19391 15.02169 15.24744 15.27153 15.50679 15.51349 15.29767 15.30666 15.74235 16.27314 17.16389 0 0 0 0 0 0 0 16.11526 15.48987 15.05392 15.05207 15.01328 14.92191 14.84217 14.76595 14.68361 14.61741 14.55839 14.52157 14.50056 14.48798 14.49351 14.50086 14.50807 14.5192 14.5306 14.54791
0 0 0 0 0 0 0 0 0 0 0 0 0 0 0 0 0 0 0 0 0 0 0 0 0 0 0 0 0 0 0 0 0 0 0 0 0 0 0 0 0 0 0 0 0 0 0 0 0 17.01525 15.86851 15.76433 15.70694 15.39774 15.2217 15.03373 15.07636 14.89693 14.93694 14.98227 15.02331 15.04936 15.0665 15.2841 15.28648 15.29275 15.29765 15.30168 15.31088 15.13144 15.15595 14.97648 14.79542 14.81393 14.82707 14.84192 14.85113 14.86614 14.885 14.88889 15.33304 15.96769 0 15.7632 16.39392 16.97066 17.29565 17.01577 16.48467 14.99829 15.02889 15.02762 14.992 14.90758 14.80208 14.72865 14.65188 14.58444 14.53341 14.49916 14.48156 14.47818 14.4822 14.48989 14.50194 14.51621 14.52924 14.54679 14.56544
0 0 0 0 0 0 0 0 0 0 0 0 0 0 0 0 0 0 0 0 0 0 0 0 0 0 0 0 0 0 0 0 0 0 0 0 0 0 0 0 0 0 0 0 0 0 0 0 0 16.68889 15.78542 15.49865 15.18003 15.02793 15.0833 14.89929 14.94118 14.97651 15.01823 15.05001 15.08306 15.1004 15.10801 15.104 15.10862 14.92266 14.74287 14.91563 14.91631 14.91668 14.91816 14.73034 14.73223 14.74014 14.74783 14.75503 14.76358 14.78136 14.80097 14.82077 14.84373 14.87411 14.89252 14.91939 14.95313 14.96595 16.09481 16.31627 15.88184 14.94774 14.93596 14.89725 14.8372 14.76047 14.68864 14.62401 14.56946 14.5226 14.48904 14.4738 14.47782 14.48493 14.49759 14.51182 14.53011 14.54607 14.56056 14.57534 14.59178
0 0 0 0 0 0 0 0 0 0 0 0 0 0 0 0 0 0 0 0 0 0 0 0 0 0 0 0 0 0 0 0 0 0 0 0 0 0 0 0 0 0 0 0 0 0 0 0 0 16.39842 15.69393 15.3789 15.01222 15.08563 14.90867 14.95616 15.01248 15.05149 15.07999 15.10934 14.91451 14.92822 14.93024 14.92504 14.91267 14.71486 14.70826 14.69888 14.67602 14.66719 14.66373 14.65815 14.66139 14.66726 14.66525 14.6702 14.67437 14.68247 14.69044 14.70435 14.72699 14.75135 14.7775 14.81165 14.84148 14.86515 14.88379 14.88523 14.87598 14.85074 14.81156 14.75723 14.69269 14.62638 14.57263 14.5256 14.49281 14.47761 14.47171 14.47592 14.48592 14.50021 14.51796 14.53525 14.55432 14.57032 14.58363 14.6009 14.62082
0 0 0 0 0 0 0 0 0 0 0 0 0 0 0 0 0 0 0 0 0 0 0 0 0 0 0 0 0 0 0 0 0 0 0 0 0 0 0 0 0 0 0 0 0 0 0 0 0 16.27819 15.54876 15.20209 15.05588 14.90024 14.97014 15.03214 14.87052 14.89579 14.69918 14.7054 14.71018 14.71235 14.70973 14.70084 14.68527 14.67027 14.65498 14.63563 14.6097 14.5863 14.5804 14.57106 14.56208 14.55766 14.5491 14.54905 14.5551 14.56713 14.58406 14.6021 14.62316 14.64021 14.65733 14.67673 14.69534 14.70877 14.71497 14.71274 14.70186 14.68542 14.65752 14.61846 14.5763 14.53385 14.50135 14.47891 14.46552 14.47036 14.47998 14.49325 14.50535 14.52362 14.54535 14.56367 14.57847 14.59441 14.61137 14.62804 14.64833
0 0 0 0 0 0 0 0 0 0 0 0 0 0 0 0 0 0 0 0 0 0 0 0 0 0 0 0 0 0 0 0 0 0 0 0 0 0 0 0 0 0 0 0 0 0 0 0 0 16.13862 15.58888 15.22405 15.08657 14.93276 15.00514 14.84098 14.67106 14.68287 14.68477 14.67957 14.67298 14.66436 14.65184 14.63809 14.62344 14.60346 14.58516 14.56633 14.54325 14.52344 14.50812 14.48988 14.47749 14.46403 14.45495 14.44415 14.44397 14.44835 14.46004 14.47199 14.48556 14.49766 14.50954 14.52831 14.55411 14.57374 14.58494 14.58503 14.57801 14.5619 14.5358 14.50946 14.48285 14.46162 14.45171 14.45669 14.47005 14.48197 14.49526 14.50916 14.52551 14.54378 14.56121 14.58416 14.60016 14.6174 14.63514 14.65416 14.67495
0 0 0 0 0 0 0 0 0 0 0 0 0 0 0 0 0 0 0 0 0 0 0 0 0 0 0 0 0 0 0 0 0 0 0 0 0 0 0 0 0 0 0 0 0 0 0 0 0 16.18396 15.37658 15.00567 15.11868 14.96909 15.03111 14.84368 14.65302 14.65251 14.64775 14.63732 14.62303 14.60825 14.59281 14.57613 14.56117 14.54149 14.51869 14.4932 14.46734 14.4394 14.41164 14.38815 14.37122 14.36277 14.35565 14.35105 14.35316 14.36064 14.36649 14.37053 14.37512 14.38049 14.38801 14.39523 14.40835 14.42243 14.43533 14.44276 14.44405 14.44219 14.43631 14.42577 14.4228 14.42615 14.43262 14.44502 14.46203 14.483 14.50429 14.52257 14.5402 14.55463 14.57446 14.59576 14.61542 14.62935 14.6478 14.66619 14.68995
0 0 0 0 0 0 0 0 0 0 0 0 0 0 0 0 0 0 0 0 0 0 0 0 0 0 0 0 0 0 0 0 0 0 0 0 0 0 0 0 0 0 0 0 0 0 0 0 0 15.65897 15.41636 15.0243 14.91301 14.79284 14.8353 14.63537 14.62596 14.6167 14.60462 14.58533 14.56365 14.54461 14.5288 14.51576 14.50341 14.48492 14.46016 14.4334 14.4072 14.37639 14.34563 14.31691 14.29352 14.27812 14.2707 14.26767 14.26771 14.26984 14.2753 14.28059 14.28432 14.29094 14.29965 14.31061 14.32318 14.33693 14.34834 14.35832 14.36099 14.36041 14.3654 14.37101 14.38356 14.39775 14.41639 14.43698 14.46226 14.4841 14.50624 14.52623 14.54694 14.56333 14.58263 14.6036 14.62203 14.64314 14.66316 14.6854 14.71181
0 0 0 0 0 0 0 0 0 0 0 0 0 0 0 0 0 0 0 0 0 0 0 0 0 0 0 0 0 0 0 0 0 0 0 0 0 0 0 0 0 0 0 0 0 0 0 0 0 0 15.12648 15.06854 14.94982 14.60876 14.6257 14.60777 14.60147 14.58586 14.56838 14.54313 14.52073 14.49809 14.47852 14.46546 14.44991 14.43738 14.41854 14.39439 14.36613 14.33543 14.30225 14.27282 14.25204 14.23715 14.22699 14.22452 14.22326 14.22455 14.22834 14.22966 14.23241 14.23786 14.24249 14.25032 14.26017 14.27141 14.28188 14.29264 14.30449 14.31421 14.32859 14.34332 14.36349 14.38318 14.40664 14.43506 14.46086 14.48452 14.50693 14.53203 14.55324 14.57202 14.59082 14.61135 14.63092 14.64807 14.66851 14.69591 14.72604
0 0 0 0 0 0 0 0 0 0 0 0 0 0 0 0 0 0 0 0 0 0 0 0 0 0 0 0 0 0 0 0 0 0 0 0 0 0 0 0 0 0 0 0 0 0 0 0 0 0 15.26459 14.85862 14.55127 14.5946 14.59509 14.5791 14.57491 14.55207 14.52358 14.49732 14.47181 14.44967 14.43383 14.42584 14.41731 14.40743 14.39127 14.36943 14.34023 14.31107 14.2823 14.25475 14.23044 14.21347 14.20398 14.19825 14.1972 14.19543 14.19572 14.19723 14.2001 14.20474 14.21171 14.21605 14.22685 14.23558 14.24459 14.25373 14.26853 14.2849 14.3025 14.32754 14.35299 14.37886 14.40801 14.43439 14.4595 14.48233 14.50705 14.53166 14.554 14.57269 14.59304 14.61456 14.63553 14.65489 14.67708 14.70466 14.73708
0 0 0 0 0 0 0 0 0 0 0 0 0 0 0 0 0 0 0 0 0 0 0 0 0 0 0 0 0 0 0 0 0 0 0 0 0 0 0 0 0 0 0 0 0 0 0 0 0 0 0 0 14.54556 14.56909 14.5648 14.5572 14.55086 14.52162 14.49043 14.46246 14.43747 14.41664 14.40167 14.39751 14.3954 14.39045 14.37842 14.35874 14.33902 14.31519 14.28641 14.25694 14.22902 14.20654 14.19332 14.18712 14.18178 14.17994 14.17709 14.17614 14.17852 14.18283 14.18928 14.19662 14.20854 14.21917 14.22931 14.24045 14.25493 14.2717 14.29474 14.32304 14.35422 14.38459 14.41609 14.44407 14.47177 14.49451 14.51758 14.53932 14.55803 14.5766 14.59573 14.61772 14.63933 14.65782 14.67739 14.70343 14.73853
0 0 0 0 0 0 0 0 0 0 0 0 0 0 0 0 0 0 0 0 0 0 0 0 0 0 0 0 0 0 0 0 0 0 0 0 0 0 0 0 0 0 0 0 0 0 0 0 0 0 16.81997 15.1951 14.75648 14.56944 14.5648 14.54907 14.52206 14.49062 14.46069 14.43775 14.41565 14.40052 14.39011 14.3894 14.38729 14.38338 14.37554 14.3627 14.34766 14.3261 14.30135 14.27238 14.24608 14.22432 14.20849 14.19436 14.18623 14.17856 14.17354 14.17177 14.17192 14.17549 14.18167 14.18957 14.19952 14.21116 14.22138 14.23535 14.25391 14.2755 14.30157 14.33275 14.36564 14.40039 14.43046 14.46105 14.48681 14.50752 14.52922 14.54822 14.56569 14.58285 14.59936 14.61982 14.64003 14.66207 14.68602 14.71231 14.74211
0 0 0 0 0 0 0 0 0 0 0 0 0 0 0 0 0 0 0 0 0 0 0 0 0 0 0 0 0 0 0 0 0 0 0 0 0 0 0 0 0 0 0 0 0 0 0 0 0 0 16.108 15.19658 14.98632 14.57146 14.56038 14.53996 14.50229 14.46527 14.44163 14.42315 14.41062 14.40289 14.39937 14.4029 14.40475 14.40645 14.40012 14.38804 14.37109 14.34929 14.31995 14.28998 14.26389 14.24143 14.22331 14.20818 14.19426 14.18645 14.18158 14.17751 14.17812 14.1818 14.18629 14.19535 14.20419 14.21184 14.22311 14.24015 14.26113 14.28665 14.31619 14.35079 14.39075 14.42661 14.45791 14.48735 14.51179 14.53253 14.54997 14.56854 14.58094 14.59502 14.60689 14.62376 14.64345 14.66589 14.6876 14.71794 14.75258
0 0 0 0 0 0 0 0 0 0 0 0 0 0 0 0 0 0 0 0 0 0 0 0 0 0 0 0 0 0 0 0 0 0 0 0 0 0 0 0 0 0 0 0 0 0 0 0 0 0 0 15.20799 14.76666 14.57279 14.55179 14.5228 14.49298 14.45972 14.4388 14.42716 14.4184 14.41533 14.41396 14.41781 14.4276 14.43562 14.43656 14.42736 14.41004 14.38659 14.35501 14.32026 14.2902 14.26148 14.23831 14.22061 14.20756 14.19772 14.19137 14.18603 14.18623 14.19109 14.19519 14.20431 14.21425 14.22557 14.24152 14.26085 14.28417 14.3177 14.35067 14.38436 14.41934 14.45149 14.48179 14.50911 14.53428 14.55009 14.569 14.58397 14.59703 14.6129 14.62303 14.63874 14.66142 14.68089 14.70358 14.73121 14.76826
0 0 0 0 0 0 0 0 0 0 0 0 0 0 0 0 0 0 0 0 0 0 0 0 0 0 0 0 0 0 0 0 0 0 0 0 0 0 0 0 0 0 0 0 0 0 0 0 0 0 0 14.98001 14.57079 14.56755 14.5408 14.50394 14.48962 14.45791 14.44343 14.43965 14.4376 14.43749 14.44573 14.4538 14.46333 14.47061 14.47195 14.46175 14.44286 14.41804 14.38624 14.34737 14.31617 14.2866 14.25767 14.24056 14.22731 14.2171 14.20958 14.20688 14.20765 14.21026 14.21797 14.22561 14.23685 14.25102 14.26795 14.2907 14.31621 14.3512 14.38849 14.42727 14.46406 14.49497 14.51997 14.54314 14.56226 14.57955 14.59142 14.60258 14.61246 14.6252 14.63904 14.65444 14.67564 14.70028 14.72319 14.75348 14.78551
0 0 0 0 0 0 0 0 0 0 0 0 0 0 0 0 0 0 0 0 0 0 0 0 0 0 0 0 0 0 0 0 0 0 0 0 0 0 0 0 0 0 0 0 0 0 0 0 0 0 0 14.59991 14.5888 14.57689 14.54376 14.50716 14.48512 14.45862 14.44578 14.44864 14.45223 14.46512 14.48017 14.49102 14.50023 14.50948 14.50897 14.49929 14.48186 14.45858 14.42579 14.38682 14.35182 14.31231 14.28339 14.26365 14.24643 14.23388 14.22654 14.22652 14.23093 14.24005 14.25082 14.26324 14.27962 14.29674 14.32006 14.34431 14.37182 14.40295 14.43793 14.47348 14.50453 14.53096 14.55304 14.57291 14.59268 14.6107 14.62058 14.62972 14.6385 14.65224 14.66673 14.68651 14.70606 14.7241 14.74582 14.76848 14.79979
0 0 0 0 0 0 0 0 0 0 0 0 0 0 0 0 0 0 0 0 0 0 0 0 0 0 0 0 0 0 0 0 0 0 0 0 0 0 0 0 0 0 0 0 0 0 0 0 0 16.57128 15.60604 14.63628 14.6224 14.59155 14.54924 14.51695 14.48533 14.46517 14.46064 14.46524 14.47792 14.49417 14.50965 14.52261 14.53637 14.5411 14.54224 14.53556 14.51963 14.49743 14.46993 14.43648 14.39862 14.35925 14.3275 14.30106 14.28045 14.26759 14.26006 14.26022 14.26489 14.27457 14.2843 14.3018 14.31939 14.34124 14.36755 14.39768 14.43309 14.46773 14.49931 14.53083 14.55228 14.57544 14.59609 14.61414 14.62826 14.64387 14.65442 14.66259 14.66698 14.67715 14.69036 14.71026 14.72731 14.74701 14.76736 14.79127 14.82104
0 0 0 0 0 0 0 0 0 0 0 0 0 0 0 0 0 0 0 0 0 0 0 0 0 0 0 0 0 0 0 0 0 0 0 0 0 0 0 0 0 0 0 0 0 0 0 0 15.67119 15.1491 14.90621 14.66826 14.6408 14.59583 14.55036 14.51825 14.49067 14.47543 14.47474 14.48761 14.51015 14.52995 14.54762 14.56369 14.5787 14.58659 14.58792 14.58265 14.56644 14.54271 14.51454 14.47782 14.4376 14.40159 14.37003 14.34146 14.31959 14.30545 14.30117 14.30452 14.3128 14.3266 14.33741 14.35514 14.37605 14.39978 14.42548 14.4537 14.48262 14.51017 14.53916 14.56672 14.58962 14.6125 14.63137 14.64819 14.66405 14.68232 14.69869 14.70771 14.71407 14.71788 14.72381 14.73801 14.75099 14.76715 14.78852 14.81182 14.83605
0 0 0 0 0 0 0 0 0 0 0 0 0 0 0 0 0 0 0 0 0 0 0 0 0 0 0 0 0 0 0 0 0 0 0 0 0 0 0 0 0 0 0 0 0 15.31789 15.19777 15.7256 15.2038 15.22529 14.96449 14.70472 14.6643 14.61148 14.56616 14.53144 14.50699 14.49201 14.4963 14.51207 14.53577 14.55729 14.57985 14.59581 14.61083 14.62626 14.63165 14.62984 14.61346 14.59256 14.56203 14.52883 14.49266 14.45425 14.4199 14.38989 14.36879 14.35101 14.34709 14.34739 14.35429 14.36818 14.38113 14.39854 14.42494 14.45429 14.48126 14.50387 14.52955 14.55473 14.58112 14.60652 14.63127 14.6518 14.66799 14.68089 14.69517 14.71054 14.73159 14.74769 14.75352 14.75553 14.75912 14.76892 14.78471 14.80017 14.81357 14.83161 14.85624
0 0 0 0 0 0 0 0 0 0 0 0 0 0 0 0 0 0 0 0 0 0 0 0 0 0 0 0 0 0 0 0 0 0 0 0 0 0 0 0 0 0 17.35719 17.04537 16.0679 15.25315 14.75275 14.7648 15.28165 15.00749 14.74873 14.72447 14.67654 14.6269 14.58644 14.55497 14.53279 14.52598 14.53395 14.55254 14.57954 14.60174 14.62013 14.64131 14.65995 14.6716 14.67278 14.66288 14.64868 14.62706 14.59963 14.56693 14.53288 14.49996 14.46709 14.43867 14.41725 14.40462 14.40409 14.40968 14.41616 14.42587 14.43806 14.45248 14.47257 14.49739 14.51887 14.53599 14.55997 14.58572 14.61057 14.6371 14.66279 14.68721 14.70426 14.72196 14.73721 14.75166 14.77221 14.79112 14.79722 14.79566 14.7942 14.79736 14.80758 14.82034 14.8332 14.85451 14.87477
0 0 0 0 0 0 0 0 0 0 0 0 0 0 0 0 0 0 0 0 0 0 0 0 0 0 0 0 0 0 0 0 0 0 0 0 0 0 0 0 16.45379 16.83708 17.10092 16.16602 15.30904 14.80005 14.81723 14.83281 14.82543 14.80307 14.76993 14.73491 14.68962 14.64423 14.60828 14.57587 14.56222 14.56461 14.57518 14.59242 14.61777 14.64131 14.66192 14.6904 14.7097 14.72022 14.72289 14.71348 14.69651 14.67996 14.64905 14.61755 14.58609 14.55249 14.52068 14.48717 14.45912 14.44276 14.444 14.45246 14.46481 14.47049 14.48905 14.50668 14.52319 14.54586 14.56427 14.57706 14.59726 14.62222 14.64519 14.66694 14.69189 14.71333 14.73381 14.75165 14.76693 14.78436 14.80244 14.81821 14.82857 14.82632 14.82617 14.82672 14.83697 14.84527 14.85952 14.88078 14.89975
0 0 0 0 0 0 0 0 0 0 0 0 0 0 0 0 0 0 0 0 0 0 0 0 0 0 0 0 0 0 0 0 0 0 0 0 0 0 0 16.67454 16.4244 15.87914 15.62309 14.81605 14.83329 14.84903 14.86151 14.86786 14.85569 14.83026 14.79273 14.75286 14.71028 14.6729 14.64551 14.62891 14.62299 14.62783 14.63767 14.65864 14.67488 14.69354 14.70818 14.73093 14.74424 14.75441 14.75158 14.74869 14.73401 14.71789 14.69902 14.66713 14.64239 14.61441 14.58599 14.55592 14.52864 14.51166 14.50296 14.50588 14.51435 14.51992 14.52925 14.54566 14.5627 14.5797 14.59744 14.61221 14.62838 14.64896 14.67346 14.69732 14.71926 14.74297 14.76594 14.78624 14.80389 14.81802 14.8312 14.84309 14.85022 14.8488 14.85232 14.85294 14.86008 14.86818 14.88563 14.90836 14.92815
0 0 0 0 0 0 0 0 0 0 0 0 0 0 0 0 0 0 0 0 0 0 0 0 0 0 0 0 0 0 0 0 0 0 0 0 0 0 15.90274 15.60977 15.35308 14.83371 14.85407 14.87191 14.8874 14.89473 14.90078 14.89562 14.87874 14.85653 14.82471 14.78552 14.74904 14.71675 14.69448 14.68179 14.68072 14.68697 14.70358 14.72156 14.7355 14.75183 14.76851 14.78192 14.79273 14.80398 14.80538 14.80049 14.79113 14.77571 14.75679 14.72731 14.69693 14.66905 14.63546 14.61085 14.58768 14.57203 14.56574 14.56822 14.57531 14.58485 14.59543 14.60973 14.62262 14.63538 14.6473 14.65681 14.67426 14.69147 14.709 14.72854 14.74797 14.76699 14.78617 14.80861 14.82695 14.84477 14.85655 14.86927 14.87805 14.88243 14.88531 14.88731 14.88927 14.89945 14.91965 14.94458 14.96511
0 0 0 0 0 0 0 0 0 0 0 0 0 0 0 0 0 0 0 0 0 0 0 0 0 0 0 0 0 0 0 0 0 0 17.58331 18.2022 17.31676 15.63951 14.81385 14.83492 14.85387 14.86898 14.88292 14.89985 14.91486 14.9198 14.92018 14.9097 14.89447 14.87663 14.85186 14.82973 14.80965 14.78527 14.77057 14.76244 14.75928 14.75987 14.77108 14.77599 14.78756 14.79926 14.81232 14.8218 14.83632 14.84619 14.8538 14.85428 14.85168 14.84239 14.82679 14.79921 14.76992 14.73966 14.70998 14.6865 14.6643 14.6477 14.63834 14.63774 14.63827 14.64284 14.65224 14.66313 14.67304 14.6857 14.69741 14.70525 14.71372 14.73283 14.75158 14.77201 14.79053 14.81176 14.82867 14.84263 14.85796 14.87317 14.88211 14.88757 14.8975 14.9021 14.90607 14.90856 14.91711 14.93391 14.96197 14.99111 15.00834
0 0 0 0 0 0 0 0 0 0 0 0 0 0 0 0 0 0 0 0 0 0 0 0 0 0 0 0 0 18.09402 17.67834 17.45012 17.43664 17.20816 16.91552 16.32465 14.85562 14.85755 14.86409 14.87508 14.88655 14.89712 14.90468 14.91851 14.9284 14.9275 14.92396 14.9166 14.90326 14.89163 14.87759 14.86742 14.85615 14.84409 14.83479 14.82981 14.83181 14.8324 14.84052 14.84329 14.84757 14.8547 14.86481 14.87851 14.89024 14.89621 14.90076 14.90265 14.89872 14.88721 14.87562 14.85403 14.83073 14.80776 14.78295 14.76219 14.74464 14.7278 14.71993 14.71944 14.7174 14.72581 14.73257 14.73403 14.74141 14.74108 14.7414 14.7487 14.74757 14.76476 14.78191 14.80041 14.82306 14.84361 14.86128 14.87696 14.88992 14.90076 14.9087 14.91476 14.92165 14.92703 14.93361 14.93857 14.95026 14.96995 14.99684 15.02139 15.02552
0 0 0 0 0 0 0 0 0 0 0 0 0 0 0 0 0 0 0 0 0 0 0 0 0 17.9006 17.16892 17.16367 16.21021 15.5408 15.22531 14.93481 14.93048 14.92423 14.91605 14.89993 14.88642 14.88237 14.88814 14.89675 14.90298 14.90824 14.9113 14.9177 14.92123 14.92996 14.92969 14.92793 14.929 14.92704 14.92549 14.9254 14.9155 14.90031 14.88677 14.8791 14.87837 14.87951 14.87982 14.88513 14.8898 14.89539 14.90936 14.92051 14.93066 14.93919 14.94433 14.95069 14.95218 14.94762 14.93652 14.91889 14.89831 14.87949 14.85953 14.836 14.81224 14.79943 14.79615 14.79472 14.78533 14.78984 14.79884 14.80007 14.80068 14.80393 14.80217 14.8025 14.80154 14.80764 14.82547 14.84385 14.86371 14.8817 14.89775 14.90888 14.91423 14.92114 14.92898 14.93269 14.93881 14.94543 14.9567 14.96817 14.98343 15.00832 15.03262 15.04318 15.0262
0 0 0 0 0 0 0 0 0 0 0 0 0 0 0 0 0 0 0 0 0 0 0 18.07267 17.20714 16.62123 16.29589 15.96171 15.00957 14.9961 14.98237 14.97217 14.96418 14.9539 14.93601 14.91544 14.9003 14.8973 14.90153 14.90801 14.91025 14.91071 14.91429 14.91779 14.92596 14.93633 14.94367 14.94941 14.95738 14.96891 14.98099 14.98056 14.97221 14.95766 14.94106 14.93235 14.93046 14.92954 14.93101 14.93046 14.9317 14.93657 14.94425 14.95587 14.96488 14.97482 14.98074 14.98985 14.99607 14.99277 14.98345 14.96853 14.96113 14.94474 14.92887 14.91392 14.90068 14.8921 14.88992 14.88721 14.87576 14.86791 14.86689 14.86135 14.86099 14.85566 14.85303 14.84816 14.85095 14.85586 14.86616 14.88211 14.90434 14.91812 14.93079 14.93807 14.94429 14.9485 14.95425 14.96251 14.96683 14.97438 14.98205 14.9982 15.014 15.03682 15.05364 15.04943 15.01905
0 0 0 0 0 0 0 0 0 0 0 0 0 0 0 0 0 0 0 0 0 0 17.48323 16.63135 16.31704 16.31471 15.98607 15.64542 15.02195 15.00411 14.98806 14.9744 14.96176 14.94616 14.92669 14.91315 14.90341 14.89675 14.89613 14.89773 14.90495 14.91404 14.91885 14.92729 14.93639 14.95136 14.96592 14.97628 14.98884 15.00078 15.00896 15.00848 15.00017 14.98842 14.97598 14.96938 14.9672 14.96459 14.96655 14.96523 14.9674 14.96986 14.97741 14.98808 14.99926 15.0148 15.02646 15.03715 15.0407 15.03723 15.03435 15.02066 15.01297 15.00553 14.99068 14.97805 14.9699 14.96885 14.97388 14.96726 14.9575 14.94887 14.9435 14.93442 14.93009 14.92196 14.92048 14.91703 14.91104 14.90796 14.9077 14.91999 14.93581 14.94468 14.95257 14.95516 14.96242 14.97251 14.98389 14.99129 15.00185 15.0097 15.02133 15.03522 15.055 15.07214 15.07465 15.05298 15.01049
0 0 0 0 0 0 0 0 0 0 0 0 0 0 0 0 0 0 0 0 0 18.69425 17.69454 16.61824 15.9908 15.98114 15.64013 15.63165 15.00399 14.9857 14.9674 14.95345 14.93971 14.92389 14.91095 14.89706 14.88709 14.87987 14.88196 14.88825 14.89712 14.90723 14.91945 14.9307 14.9446 14.96331 14.98404 14.99838 15.00914 15.02073 15.02674 15.02771 15.02461 15.01504 15.00755 15.00182 14.99689 14.99474 14.99597 14.99659 14.9973 15.001 15.00574 15.01532 15.02971 15.04552 15.05852 15.07349 15.08197 15.08497 15.08811 15.08367 15.08035 15.07765 15.06816 15.06063 15.05152 15.04695 15.04369 15.03516 15.01533 15.00421 14.99083 14.98187 14.97355 14.9748 14.97587 14.97241 14.97514 14.96971 14.96511 14.97236 14.97673 14.97745 14.98182 14.98488 14.9976 15.00761 15.01777 15.02136 15.02708 15.03801 15.05074 15.07168 15.08843 15.09751 15.09016 15.05168 14.99447
0 0 0 0 0 0 0 0 0 0 0 0 0 0 0 0 0 0 0 0 0 0 0 17.21255 16.31815 15.97941 15.63464 15.31251 14.98757 14.96767 14.95045 14.93524 14.92152 14.90796 14.89494 14.88321 14.87336 14.87181 14.87373 14.88392 14.89598 14.90893 14.92308 14.93355 14.94948 14.96836 14.98681 15.00302 15.0169 15.02924 15.0382 15.04317 15.04239 15.0407 15.03713 15.03419 15.03115 15.03142 15.02906 15.03086 15.0318 15.03708 15.04125 15.04976 15.05909 15.07306 15.0888 15.10294 15.11549 15.12352 15.12832 15.12913 15.13337 15.13642 15.13806 15.13492 15.12744 15.11953 15.11536 15.10649 15.09194 15.07444 15.05865 15.04592 15.04244 15.03934 15.03562 15.03712 15.02931 15.01689 15.01294 15.01181 15.00698 15.00277 15.01498 15.027 15.03624 15.04555 15.05542 15.058 15.0679 15.08273 15.0996 15.1179 15.12554 15.12314 15.10077 15.05237 14.98442
0 0 0 0 0 0 0 0 0 0 0 0 0 0 0 0 0 0 0 0 0 19.11236 18.83013 17.83975 16.35853 16.00252 15.64598 15.62747 15.27304 14.95751 14.93501 14.91975 14.90788 14.89648 14.88435 14.87523 14.86569 14.86756 14.87513 14.88564 14.89706 14.91056 14.92557 14.93832 14.95294 14.97048 14.98912 15.00913 15.02838 15.04411 15.05611 15.06436 15.06838 15.07097 15.06602 15.06875 15.06782 15.06428 15.06057 15.05635 15.05419 15.06223 15.06889 15.08043 15.09255 15.10639 15.12273 15.14072 15.15307 15.16307 15.17314 15.17821 15.18677 15.19468 15.19642 15.1963 15.19187 15.1836 15.17318 15.16507 15.15375 15.13792 15.12535 15.11854 15.11458 15.10935 15.10807 15.10022 15.08812 15.07983 15.06819 15.05461 15.04726 15.05307 15.06132 15.06848 15.07345 15.07835 15.09013 15.09583 15.10508 15.12315 15.141 15.15373 15.15389 15.14201 15.11254 15.05987 14.98045
0 0 0 0 0 0 0 0 0 0 0 0 0 0 0 0 0 0 0 19.12677 19.07587 18.98489 18.15604 17.05305 16.39773 16.03134 15.66288 15.96805 14.97816 14.94691 14.92619 14.91135 14.89931 14.89165 14.88141 14.86956 14.8674 14.87208 14.88145 14.88962 14.90142 14.91615 14.93021 14.94745 14.96266 14.97988 15.0019 15.02342 15.04448 15.06699 15.08096 15.09694 15.10547 15.10792 15.11105 15.11234 15.1146 15.10775 15.1009 15.09214 15.08698 15.08735 15.09405 15.10452 15.11672 15.12795 15.14436 15.1649 15.17752 15.18977 15.20212 15.216 15.23471 15.24848 15.26048 15.26759 15.26493 15.25694 15.25105 15.24179 15.22641 15.21019 15.20047 15.18661 15.17668 15.1684 15.16064 15.14811 15.13275 15.12116 15.10714 15.10036 15.09468 15.10116 15.10923 15.12046 15.13037 15.13726 15.14156 15.14788 15.15356 15.16917 15.18089 15.1856 15.1802 15.16075 15.12506 15.06733 14.98509
0 0 0 0 0 0 0 0 0 0 0 0 0 0 0 0 0 0 18.62623 18.51651 18.17644 17.71451 17.10508 16.44065 16.08969 16.05395 15.67744 15.3172 14.98043 14.9441 14.92149 14.90717 14.89778 14.88989 14.87985 14.87647 14.87632 14.88475 14.89359 14.90479 14.91961 14.93489 14.94856 14.96526 14.97858 14.99676 15.01553 15.03878 15.0641 15.08503 15.11056 15.12388 15.13715 15.14625 15.1507 15.15906 15.15827 15.15469 15.1451 15.14158 15.13549 15.13311 15.13145 15.13481 15.14645 15.16066 15.17665 15.18901 15.19916 15.21466 15.23282 15.25004 15.26837 15.2824 15.29902 15.31345 15.31528 15.3129 15.31354 15.30854 15.29922 15.28763 15.27713 15.26065 15.24456 15.23174 15.21619 15.20257 15.18765 15.17136 15.15415 15.14204 15.13782 15.1408 15.14577 15.15963 15.17393 15.17612 15.18434 15.18592 15.19295 15.20525 15.22226 15.22031 15.20848 15.18571 15.15085 15.09217 15.01439
0 0 0 0 0 0 0 0 0 0 0 0 0 0 0 0 0 19.05739 18.52902 17.90145 17.40883 16.79422 16.46605 16.46157 16.45645 16.06374 15.68052 15.01504 14.97533 14.93921 14.91739 14.90622 14.89644 14.88724 14.88422 14.88363 14.8861 14.89198 14.90191 14.91679 14.93407 14.95533 14.97194 14.98853 14.99975 15.0186 15.04106 15.06461 15.08914 15.11593 15.13959 15.16072 15.17892 15.1879 15.19437 15.19777 15.19877 15.19173 15.18486 15.17917 15.17506 15.16846 15.17113 15.17057 15.17736 15.19091 15.20666 15.21554 15.22283 15.24178 15.26152 15.28052 15.30367 15.3239 15.33839 15.34873 15.36006 15.36338 15.36267 15.36503 15.35775 15.34423 15.32781 15.30911 15.29326 15.27704 15.26381 15.25139 15.23949 15.2213 15.20224 15.19387 15.18831 15.19074 15.19724 15.20415 15.21328 15.21869 15.22293 15.21993 15.2279 15.24151 15.25161 15.24698 15.23458 15.2144 15.17932 15.12686 15.06188
0 0 0 0 0 0 0 0 0 0 0 0 0 0 0 0 18.54527 18.53325 17.67094 17.10642 16.80352 16.47513 16.46781 16.4686 16.44937 16.05404 15.67119 15.01409 14.96748 14.93721 14.91612 14.9028 14.89747 14.89636 14.89731 14.90177 14.90428 14.90871 14.91699 14.93076 14.95187 14.97553 14.99453 15.01321 15.03188 15.05197 15.07327 15.09634 15.12268 15.14854 15.17665 15.19951 15.2196 15.2302 15.23639 15.24215 15.23995 15.24047 15.23734 15.23476 15.23118 15.22279 15.21445 15.20895 15.21152 15.21564 15.23174 15.23882 15.24566 15.26452 15.28295 15.3008 15.32432 15.35078 15.37 15.38915 15.40195 15.40829 15.41478 15.42124 15.41534 15.40317 15.38589 15.36485 15.34781 15.32624 15.30939 15.29048 15.2738 15.25867 15.2378 15.23611 15.22709 15.23231 15.23932 15.24373 15.24815 15.25345 15.25702 15.26165 15.26792 15.27745 15.28738 15.28323 15.27027 15.2558 15.22045 15.17035 15.10648
0 0 0 0 0 0 0 0 0 0 0 0 0 0 0 19.1061 18.36315 17.66648 17.08856 16.78449 16.45489 16.45604 16.46238 16.10084 16.07052 15.70652 15.03525 15.0008 14.96025 14.93439 14.91319 14.90661 14.9064 14.90925 14.91363 14.91939 14.92516 14.93517 14.94481 14.96155 14.98575 15.0104 15.03211 15.05499 15.07753 15.09939 15.12277 15.14714 15.1703 15.19722 15.22042 15.23929 15.2559 15.26776 15.2771 15.2817 15.28227 15.28835 15.29231 15.29656 15.29583 15.29162 15.28366 15.2689 15.2558 15.24806 15.25601 15.26117 15.26587 15.28143 15.30073 15.31945 15.34874 15.37253 15.39598 15.41845 15.43059 15.44385 15.45289 15.4597 15.45159 15.44088 15.42882 15.41685 15.39979 15.38133 15.36389 15.34587 15.32406 15.30512 15.28988 15.27917 15.2743 15.27416 15.27345 15.27382 15.27444 15.28093 15.28708 15.29137 15.29875 15.30961 15.31283 15.31245 15.30964 15.29759 15.26445 15.21634 15.15371
0 0 0 0 0 0 0 0 0 0 0 0 0 0 18.42563 18.42097 17.70096 17.09435 16.77619 16.43411 16.43818 16.08076 16.07283 16.06173 15.70549 15.34705 15.01876 14.98254 14.95368 14.93358 14.92166 14.92021 14.92444 14.92841 14.93554 14.94379 14.95219 14.96434 14.97566 14.99625 15.02216 15.05275 15.08215 15.10888 15.13632 15.16094 15.18793 15.21473 15.24045 15.26256 15.2785 15.29569 15.30924 15.31842 15.32713 15.33484 15.33947 15.34496 15.35188 15.35633 15.35838 15.35721 15.34566 15.32972 15.30661 15.28732 15.27944 15.28009 15.2828 15.2922 15.31215 15.3378 15.36491 15.39387 15.43029 15.45396 15.46744 15.48536 15.495 15.49937 15.49188 15.47972 15.46914 15.4569 15.44358 15.42521 15.40953 15.39248 15.36917 15.35 15.33242 15.31968 15.31349 15.31126 15.3093 15.30978 15.31305 15.31695 15.32297 15.32435 15.33235 15.34061 15.34424 15.34347 15.34056 15.32314 15.28868 15.24389 15.18266
0 0 0 0 0 0 0 0 0 0 0 0 0 18.29665 18.47055 17.7049 17.08051 16.7666 16.42417 16.42603 16.07518 16.06235 16.0521 16.04264 15.67836 15.02188 14.99626 14.97102 14.95224 14.93966 14.93489 14.94149 14.94902 14.95964 14.96781 14.97864 14.99007 15.0019 15.0208 15.04586 15.07867 15.11138 15.14254 15.16772 15.19439 15.21862 15.25032 15.28134 15.30472 15.32498 15.33713 15.34877 15.36171 15.37143 15.37732 15.38297 15.38728 15.39438 0 0 0 15.35375 15.35947 15.4053 15.3791 15.34282 15.31756 15.30734 15.30377 15.30686 15.32199 15.34588 15.3779 15.40934 15.44839 15.47868 15.4969 15.52349 15.53746 15.54706 15.54362 15.53445 15.52306 15.50767 15.49501 15.48015 15.46858 15.44857 15.4265 15.40365 15.38241 15.36506 15.35492 15.34748 15.34579 15.34431 15.3423 15.34299 15.35008 15.35626 15.36318 15.37185 15.37702 15.37975 15.37588 15.35935 15.32286 15.27111 15.20617
0 0 0 0 0 0 0 0 0 0 0 0 0 18.68645 17.73296 17.09248 16.74699 16.39053 16.40274 16.0445 16.04496 16.04275 16.04148 15.03926 15.02216 15.0015 14.98053 14.96668 14.95514 14.94813 14.94835 14.95827 14.9698 14.98221 14.99368 15.00764 15.02387 15.04344 15.07068 15.10371 15.14562 15.18434 15.21598 15.24579 15.27713 15.3108 15.34124 15.3666 15.38237 15.3927 15.40136 16.17196 15.41836 15.41185 15.41054 15.77566 16.55242 17.33122 0 0 0 0 0 15.81068 15.42893 15.39528 15.35694 15.33341 15.32398 15.32707 15.33882 15.36401 15.39273 15.42834 15.47078 15.50633 15.53266 15.55528 15.56885 15.57552 15.57398 15.5644 15.55457 15.54627 15.53967 15.52985 15.5187 15.50528 15.4873 15.46353 15.44575 15.43041 15.42096 15.41225 15.40172 15.38964 15.38756 15.38521 15.38704 15.39059 15.39453 15.39944 15.40417 15.40663 15.40385 15.39025 15.35227 15.29739 15.22867
0 0 0 0 0 0 0 0 0 0 0 0 18.84831 18.03687 17.09196 16.73695 16.36856 16.01615 16.02588 16.03937 16.04081 16.04172 15.68555 15.02626 15.00896 14.99116 14.97549 14.96922 14.9639 14.96469 14.96873 14.97834 14.99257 15.00673 15.02077 15.03684 15.05506 15.08171 15.11352 15.15565 15.19911 15.24158 15.27915 15.31817 15.3542 15.37911 15.39082 0 0 15.39214 0 17.06999 16.24492 15.82146 16.20591 16.18792 16.96659 17.38712 18.34215 16.15777 15.43112 0 0 0 17.02941 15.41854 15.38206 15.35462 15.33979 15.3398 15.35344 15.37728 15.41042 15.45111 15.49506 15.52933 15.55982 15.58267 15.5998 15.61102 15.60884 15.6007 15.58988 15.58122 15.57004 15.56022 15.55427 15.54436 15.53551 15.51581 15.49679 15.47814 15.47033 15.46442 15.45101 15.44218 15.43483 15.4285 15.428 15.43166 15.43298 15.43608 15.43936 15.44203 15.43604 15.42024 15.38174 15.32097 15.24576
0 0 0 0 0 0 0 0 0 0 0 18.09184 18.07075 17.10692 16.74186 16.00024 16.01249 16.03136 16.04175 16.04666 16.05639 15.37588 15.05197 15.02958 15.01173 14.99531 14.98468 14.97941 14.97896 14.98549 14.99 15.00193 15.01701 15.03251 15.04969 15.06957 15.0936 15.13033 15.17207 15.223 15.27397 15.31833 15.35014 15.381 16.17412 0 0 0 0 0 17.85119 18.63238 18.39135 17.81083 17.43744 17.0022 16.98184 15.79792 15.42571 15.43177 15.43146 15.43013 15.4247 17.42589 17.78046 15.42606 15.39742 15.37351 15.35866 15.35665 15.37101 15.39143 15.42375 15.46589 15.51129 15.54628 15.57488 15.60065 15.62042 15.63839 15.63665 15.62822 15.62296 15.60893 15.59827 15.59307 15.59092 15.58692 15.58302 15.57445 15.55663 15.53662 15.52197 15.51093 15.50214 15.49154 15.47914 15.47218 15.46824 15.4658 15.46809 15.46889 15.474 15.47325 15.46775 15.44901 15.41413 15.35362 15.27356
0 0 0 0 0 0 0 0 0 0 18.841 18.10633 17.12108 16.38133 16.02673 15.69064 15.70257 15.71678 15.72277 15.73218 15.73349 15.08007 15.06095 15.03997 15.02324 15.00514 15.0011 15.00211 15.00757 15.01119 15.01612 15.02545 15.04357 15.05709 15.07633 15.09946 15.13529 15.17863 15.2298 15.2924 15.35007 15.38699 15.77978 0 0 0 0 0 0 0 0 0 0 0 17.81604 17.45006 16.62219 15.44062 15.44569 15.4528 15.45219 15.44923 15.44493 15.44404 15.44079 15.43364 15.41221 15.39496 15.38604 15.38303 15.39299 15.4139 15.44726 15.48952 15.53217 15.56843 15.59498 15.61953 15.64184 15.65563 15.65455 15.65154 15.63873 15.63396 15.62828 15.62255 15.62069 15.61791 15.61269 15.6084 15.59735 15.58645 15.57331 15.56713 15.55867 15.54652 15.53138 15.52359 15.51895 15.51386 15.51386 15.51234 15.51063 15.50268 15.49389 15.47307 15.43593 15.37378 15.29788
0 0 0 0 0 0 0 0 0 0 18.39619 17.1171 16.3817 16.02899 15.37024 15.3841 15.08201 15.09026 15.10628 15.10506 15.09751 15.08726 15.07314 15.06023 15.04398 15.02689 15.02729 15.03668 15.04195 15.04824 15.05684 15.06402 15.07564 15.08939 15.10843 15.13638 15.17475 15.22288 15.2766 15.34242 16.56221 0 0 0 0 0 0 0 0 0 0 0 0 0 18.46901 17.08373 15.46881 15.46958 15.47796 15.48761 15.49501 15.49126 15.48167 15.47258 15.46237 15.44586 15.4319 15.42086 15.41128 15.41113 15.41746 15.43817 15.46805 15.5134 15.5535 15.58403 15.61621 15.63794 15.66123 15.67289 15.6751 15.66946 15.66582 15.66745 15.66525 15.65741 15.6535 15.65017 15.64696 15.6415 15.63206 15.61871 15.61071 15.61031 15.60338 15.59459 15.57454 15.56603 15.5644 15.56338 15.56177 15.55761 15.55161 15.54028 15.52339 15.5039 15.45915 15.39974 15.32567
0 0 0 0 0 0 0 0 0 18.47969 17.83393 16.75893 16.02522 15.36082 15.06933 15.0762 15.08034 15.08509 15.09234 15.098 15.09656 15.08929 15.0853 15.07907 15.06635 15.05283 15.05388 15.06239 15.07711 15.0829 15.09261 15.10219 15.11245 15.12611 15.14854 15.18021 15.21987 15.27037 15.32534 16.13714 16.36958 0 0 0 0 0 0 0 0 0 0 0 0 17.74767 17.51206 16.27138 15.48318 15.49452 15.51298 15.52919 15.5369 15.5361 15.52798 15.51397 15.49608 15.47906 15.46961 15.46199 15.4519 15.44663 15.45087 15.46925 15.49778 15.53392 15.56793 15.59832 15.62972 15.656 15.67567 15.68734 15.69366 15.69416 15.69424 15.69222 15.6892 15.68947 15.68985 15.68863 15.68844 15.68343 15.67136 15.6582 15.65219 15.64869 15.63974 15.63329 15.61988 15.60916 15.60634 15.60122 15.59755 15.59424 15.58451 15.5699 15.54708 15.52256 15.47762 15.41788 15.34727
0 0 0 0 0 0 0 0 19.32406 18.19887 16.77092 16.01043 15.66007 15.0474 15.05643 15.0673 15.07528 15.08098 15.08479 15.08868 15.09399 15.09905 15.10211 15.10107 15.09156 15.0886 15.09258 15.10523 15.11236 15.12326 15.1288 15.13554 15.14691 15.16027 15.18232 15.21641 15.25409 15.29472 15.7006 16.14437 16.59801 17.43332 0 18.26403 18.83466 0 0 0 0 0 0 0 18.53355 17.51802 16.70571 15.49325 15.50519 15.52719 15.55118 15.56523 15.57112 15.568 15.55775 15.54541 15.52975 15.5151 15.50587 15.497 15.48853 15.48631 15.48994 15.5071 15.53702 15.56145 15.59264 15.63109 15.65886 15.68605 15.70444 15.71504 15.71921 15.71991 15.7191 15.71559 15.71133 15.71854 15.7184 15.71932 15.7176 15.70963 15.70283 15.69638 15.68987 15.68382 15.67893 15.6735 15.67098 15.65727 15.65218 15.64536 15.64108 15.63436 15.61965 15.59972 15.57205 15.5361 15.48804 15.4272 15.35852
0 0 0 0 0 0 0 0 19.3534 18.22278 16.77113 16.00672 15.02512 15.03901 15.04783 15.06003 15.06928 15.07774 15.08372 15.09006 15.10297 15.10943 15.11636 15.11972 15.12303 15.12953 15.14398 15.15704 15.16867 15.17854 15.18468 15.19317 15.19979 15.20774 15.22733 15.256 15.28919 15.3145 15.34166 15.75138 16.17082 16.60806 17.04583 17.48574 18.25248 0 0 0 0 0 0 17.91574 17.10773 17.11285 15.49296 15.51839 15.54734 15.57677 15.59658 15.60571 15.60647 15.59704 15.58654 15.57356 15.55997 15.54668 15.53696 15.52481 15.51943 15.5196 15.51923 15.53767 15.56167 15.58482 15.62207 15.66035 15.68844 15.71506 15.73124 15.74272 15.75323 15.75453 15.74866 15.7432 15.74355 15.75114 15.75323 15.74654 15.74336 15.73931 15.73449 15.72766 15.72272 15.71632 15.71018 15.70393 15.70237 15.69481 15.68632 15.68129 15.67767 15.66684 15.65118 15.6234 15.5876 15.54757 15.49725 15.43632 15.36646
0 0 0 0 0 0 0 0 0 18.25508 16.78287 16.01512 15.02396 15.03101 15.04034 15.05722 15.06844 15.07901 15.08971 15.09964 15.11399 15.12809 15.13025 15.1381 15.14957 15.1656 15.18669 15.20987 15.23102 15.24827 15.25983 15.26444 15.26399 15.26745 15.2806 15.30202 15.3224 15.34019 15.35842 15.37588 15.3895 15.40368 15.4194 15.80564 16.63384 17.46455 18.26576 18.59117 0 0 18.23368 17.09037 16.26881 15.49068 15.5166 15.55143 15.59003 15.61499 15.62816 15.63175 15.6331 15.62546 15.61512 15.60423 15.59271 15.58289 15.57752 15.56834 15.5611 15.55864 15.56336 15.57646 15.59619 15.62232 15.65441 15.69079 15.71808 15.74167 15.75961 15.77112 15.77211 15.77725 15.7729 15.77209 15.7734 15.77677 15.78548 15.79008 15.78752 15.78402 15.77903 15.77184 15.76322 15.75804 15.75304 15.74282 15.73705 15.7334 15.72665 15.71634 15.70679 15.69349 15.67238 15.6393 15.601 15.5579 15.50112 15.43748 15.36996
0 0 0 0 0 0 0 0 0 19.23488 17.56087 16.41325 15.33403 15.03774 15.04162 15.0586 15.07197 15.08456 15.10268 15.11689 15.12753 15.1386 15.14968 15.16483 15.18643 15.21329 15.24459 15.27882 15.30398 15.32121 15.33025 15.32804 15.32181 15.32126 15.32906 15.34133 15.35403 15.36236 15.3721 15.37956 15.38956 15.39783 15.40718 15.41803 15.80267 16.21317 16.63453 17.04626 18.2402 17.08322 15.82757 15.46332 15.48678 15.51898 15.55615 15.59023 15.62149 15.63998 15.65123 15.65531 15.65246 15.65014 15.64304 15.63014 15.61927 15.61322 15.60676 15.59996 15.59995 15.60204 15.6083 15.61707 15.6372 15.66335 15.69207 15.72472 15.75048 15.77034 15.78677 15.79743 15.79956 15.80114 15.79824 15.79876 15.80156 15.80815 15.81422 15.82232 15.82797 15.82452 15.81767 15.81043 15.80127 15.79504 15.7836 15.77585 15.77149 15.76689 15.75925 15.74841 15.73654 15.71789 15.69334 15.65501 15.61493 15.5649 15.50701 15.44066 15.36677
0 0 0 0 0 0 0 0 0 19.37129 18.56445 16.83209 15.67926 15.04168 15.05211 15.06855 15.07566 15.09096 15.10894 15.12668 15.13731 15.15397 15.1775 15.2009 15.23079 15.27228 15.31881 15.36062 15.39495 15.40216 15.40401 15.39785 15.38537 15.37712 15.37682 15.38114 15.38526 15.38781 15.3852 15.38616 15.39118 15.39707 15.40474 15.41556 15.42522 15.43736 15.83043 0 17.0925 15.85198 15.48014 15.50603 15.53751 15.5704 15.60386 15.63357 15.65623 15.67074 15.67969 15.68162 15.68008 15.67685 15.67286 15.66335 15.65354 15.65045 15.63974 15.6335 15.63121 15.63601 15.64259 15.65147 15.67131 15.69469 15.71837 15.7444 15.77381 15.79374 15.80697 15.81588 15.82114 15.82728 15.82952 15.827 15.83538 15.84266 15.84837 15.85505 15.86436 15.86125 15.8537 15.84531 15.83679 15.82582 15.8184 15.80957 15.80278 15.79705 15.78251 15.77125 15.75609 15.73506 15.70781 15.67342 15.62592 15.57249 15.50898 15.44098 15.35783
0 0 0 0 0 0 0 0 0 0 19.07858 17.62856 16.06635 15.36787 15.07399 15.08262 15.08272 15.08827 15.10572 15.12091 15.14005 15.16985 15.19965 15.22648 15.26426 15.31275 15.36944 15.41705 0 0 0 15.6394 15.42138 15.41477 15.4143 15.41256 15.41422 15.40977 15.40245 15.39536 15.39038 15.39572 15.40329 15.41807 15.4339 15.45168 15.47025 15.87054 15.49339 15.5029 15.5262 15.55542 15.58602 15.61591 15.64402 15.66476 15.67825 15.69009 15.69523 15.69945 15.70725 15.70891 15.705 15.6994 15.69501 15.68917 15.68678 15.67768 15.67425 15.67666 15.67942 15.68837 15.70535 15.72583 15.74623 15.77214 15.79631 15.81262 15.8264 15.83581 15.84108 15.84559 15.84798 15.85391 15.86152 15.86647 15.87225 15.87755 15.879 15.8821 15.87878 15.87422 15.86459 15.85615 15.85077 15.84433 15.83519 15.82637 15.81347 15.79449 15.77348 15.74551 15.72106 15.68214 15.63398 15.57747 15.51123 15.43629 15.34946
0 0 0 0 0 0 0 0 0 0 0 18.99205 17.67304 16.10199 15.38541 15.07383 15.08552 15.09014 15.1026 15.1182 15.14793 15.18433 15.21671 15.2459 15.28627 15.34647 15.75756 16.16666 0 0 0 16.3076 16.58837 15.42827 15.42841 15.42765 15.43072 15.42495 15.41627 15.40733 15.40006 15.39905 15.40947 15.42722 15.44707 15.46946 15.48837 15.51174 15.5263 15.546 15.57335 15.60506 15.63404 15.65974 15.67793 15.68935 15.69662 15.70452 15.71181 15.71729 15.72603 15.72816 15.72878 15.72455 15.7244 15.72319 15.72021 15.71903 15.71239 15.71444 15.71925 15.73104 15.7466 15.76289 15.78265 15.79959 15.81856 15.83277 15.84952 15.85843 15.86431 15.86674 15.86588 15.87488 15.88318 15.88879 15.89243 15.89994 15.90776 15.91076 15.90489 15.89505 15.88429 15.87455 15.87176 15.86601 15.85749 15.84689 15.83646 15.81667 15.79358 15.76248 15.73195 15.69743 15.64505 15.58743 15.51722 15.44133 15.35304
0 0 0 0 0 0 0 0 0 0 0 0 19.22897 18.06223 16.10468 15.39296 15.08238 15.08482 15.10158 15.12588 15.16183 15.20002 15.22841 15.26244 15.30346 15.35911 16.13207 0 0 17.76025 17.85159 16.22881 15.44786 15.43359 15.43459 15.43602 15.43818 15.43809 15.43259 15.42512 15.41971 15.41709 15.42316 15.4404 15.46271 15.48688 15.50935 15.52911 15.55095 15.57494 15.60931 15.64086 15.67236 15.69649 15.71206 15.72373 15.73122 15.7361 15.73775 15.74084 15.74689 15.75307 15.75366 15.75213 15.7532 15.75209 15.75532 15.75357 15.7495 15.75066 15.7587 15.76716 15.78079 15.79646 15.81033 15.82679 15.84114 15.85615 15.86759 15.87948 15.88569 15.88853 15.89368 15.90067 15.90609 15.91262 15.92278 15.92459 15.92973 15.93297 15.92837 15.91952 15.9079 15.90121 15.89477 15.88597 15.8765 15.86527 15.85063 15.83185 15.81112 15.78085 15.74552 15.70611 15.65749 15.60515 15.53643 15.46558 15.3813
0 0 0 0 0 0 0 0 0 0 0 0 0 0 0 16.10448 15.38938 15.07984 15.10184 15.13681 15.17704 15.21209 15.23768 15.26837 15.29913 15.7006 15.75516 16.1655 16.57013 18.76194 17.85736 16.21064 15.44244 15.43728 15.43655 15.43986 15.44533 15.45011 15.45074 15.44901 15.44446 15.44074 15.44537 15.46025 15.47936 15.50359 15.52597 15.54692 15.57309 15.60676 15.64161 15.67223 15.69918 15.72408 15.74093 15.75382 15.76182 15.76524 15.76687 15.76683 15.76788 15.76994 15.76966 15.77139 15.77475 15.77637 15.77936 15.78339 15.7846 15.79119 15.79939 15.80482 15.81253 15.82937 15.84385 15.8606 15.87269 15.88315 15.888 15.89805 15.90677 15.91104 15.91633 15.92303 15.92899 15.93703 15.9453 15.95002 15.94448 15.94406 15.94412 15.93904 15.92995 15.92211 15.92003 15.91365 15.89885 15.88407 15.86793 15.85263 15.83525 15.80435 15.76675 15.72507 15.68132 15.6291 15.56797 15.49734 15.41692
0 0 0 0 0 0 0 0 0 0 0 0 0 0 0 16.87244 16.09883 15.08611 15.11645 15.15704 15.19511 15.22948 15.25427 15.28201 15.30677 15.34418 16.12295 16.17467 16.58887 0 17.90678 15.45017 15.44391 15.43773 15.44996 15.44446 15.45484 15.46204 15.46433 15.4667 15.467 15.46857 15.47227 15.48604 15.50507 15.52787 15.54858 15.57388 15.60689 15.64032 15.67651 15.7071 15.73343 15.75659 15.7716 15.78208 15.78832 15.79272 15.79314 15.79024 15.78805 15.78624 15.78625 15.78724 15.79238 15.79608 15.80238 15.80881 15.81569 15.82229 15.83072 15.83879 15.84653 15.86248 15.87915 15.89582 15.90706 15.91586 15.92218 15.93189 15.93395 15.93557 15.94306 15.94883 15.95358 15.95901 15.96349 15.96372 15.95999 15.95801 15.95505 15.94867 15.94228 15.93472 15.9311 15.9257 15.91149 15.8968 15.88423 15.87473 15.85606 15.83022 15.79727 15.75731 15.71885 15.67358 15.61486 15.55005 15.47745
0 0 0 0 0 0 0 0 0 0 0 0 0 18.05567 17.70056 16.88807 16.14397 15.11143 15.13957 15.17706 15.2142 15.24713 15.2768 15.30168 15.3252 15.35102 16.51395 16.96829 17.41702 17.32076 18.30066 15.81215 15.43758 15.44219 15.4485 15.46035 15.47069 15.47811 15.48226 15.48371 15.48454 15.48913 15.49494 15.50906 15.52632 15.54784 15.57146 15.60199 15.63542 15.67036 15.70314 15.73472 15.75805 15.77823 15.79435 15.80346 15.81101 15.81808 15.81998 15.815 15.81042 15.81233 15.81145 15.81445 15.81681 15.82212 15.8287 15.83675 15.84344 15.84908 15.85858 15.86605 15.8746 15.88941 15.90995 15.93022 15.93883 15.94796 15.95399 15.95869 15.96067 15.96052 15.9671 15.97048 15.97265 15.97417 15.97568 15.97444 15.97254 15.9671 15.96321 15.95967 15.95379 15.94908 15.94293 15.9344 15.92606 15.91722 15.90634 15.89473 15.87688 15.85642 15.825 15.78335 15.74528 15.70703 15.65834 15.60403 15.5389
0 0 0 0 0 0 0 0 0 0 0 0 17.25173 16.85987 16.89112 16.52633 15.81431 15.15092 15.17586 15.20697 15.23595 15.27111 15.30295 15.33027 15.34761 15.37565 16.15597 16.19271 17.00351 17.83256 16.19592 15.42935 15.44211 15.4606 15.47495 15.48818 15.49854 15.50422 15.50657 15.50413 15.50626 15.51241 15.52278 15.53552 15.55023 15.57475 15.60026 15.62621 15.65548 15.68733 15.71755 15.74679 15.77015 15.78803 15.80371 15.81745 15.83157 15.83998 15.84255 15.84183 15.84228 15.84387 15.84173 15.84125 15.84485 15.85059 15.85819 15.86731 15.87594 15.88272 15.89424 15.90568 15.91832 15.9357 15.95683 15.97172 15.97997 15.98486 15.98719 15.98861 15.9866 15.98562 15.98705 15.98904 15.99099 15.98956 15.98596 15.98243 15.97602 15.96959 15.96356 15.96291 15.96001 15.95654 15.95004 15.94562 15.94116 15.93483 15.92314 15.91216 15.89694 15.87934 15.855 15.82189 15.7853 15.74624 15.70833 15.66257 15.60088
0 0 0 0 0 0 0 0 19.01483 18.39414 17.22618 16.42577 16.43579 16.45419 16.12468 16.18144 15.87685 15.20433 15.2292 15.25483 15.28252 15.31287 15.34069 15.36414 15.38773 15.4135 15.43823 15.44508 15.4491 15.44812 15.44379 15.45605 15.47186 15.48698 15.49826 15.50956 15.51831 15.52417 15.5224 15.51995 15.52713 15.53583 15.54621 15.55626 15.5723 15.59473 15.61945 15.64193 15.66546 15.69372 15.72207 15.74831 15.77316 15.79383 15.81299 15.82966 15.84486 15.85742 15.86282 15.86266 15.86468 15.86375 15.86201 15.86381 15.86864 15.87438 15.88259 15.89394 15.90579 15.91857 15.93375 15.95013 15.968 15.98455 15.9996 16.00759 16.01049 16.01426 16.01694 16.01514 16.01206 16.01009 16.00977 16.01229 16.00688 16.00176 15.9975 15.98874 15.97784 15.97246 15.96506 15.96433 15.9648 15.96176 15.95873 15.95711 15.9513 15.94413 15.93514 15.92697 15.91972 15.903 15.88283 15.85773 15.82462 15.79204 15.75711 15.71403 15.66858
0 0 0 0 0 0 0 17.99861 18.06695 16.42352 16.03898 16.03356 16.05449 16.09688 16.15961 15.87519 15.2366 15.25848 15.281 15.30765 15.33287 15.36435 15.3888 15.41417 15.44175 15.46353 15.48228 15.49583 15.49771 15.50213 15.50233 15.51089 15.52137 15.52625 15.53067 15.53369 15.53806 15.54063 15.54059 15.53927 15.5457 15.55278 15.56187 15.57598 15.59069 15.61038 15.63036 15.6496 15.67223 15.69453 15.71995 15.74587 15.76932 15.79422 15.81465 15.83661 15.85329 15.8655 15.87529 15.88002 15.88309 15.88344 15.88679 15.89059 15.89456 15.90566 15.91926 15.93278 15.944 15.96008 15.97524 15.99214 16.00883 16.02362 16.03409 16.03696 16.03595 16.03912 16.03701 16.03481 16.03477 16.0291 16.02445 16.02079 16.02033 16.01221 16.00068 15.99604 15.9853 15.98096 15.97294 15.96959 15.97194 15.97051 15.96846 15.96734 15.96444 15.96228 15.95885 15.95124 15.94457 15.92909 15.91376 15.89005 15.86291 15.82866 15.79556 15.75335 15.70875
0 0 0 0 0 0 18.513 18.47868 16.43397 16.01217 15.99944 16.02479 16.08059 15.79637 15.52243 15.24531 15.27358 15.30269 15.32617 15.35277 15.38236 15.40827 15.43439 15.45493 15.47961 15.50402 15.52186 15.53576 15.54641 15.54954 15.55116 15.55387 15.5585 15.55973 15.56065 15.56056 15.55987 15.55923 15.56072 15.56469 15.5669 15.57601 15.58525 15.59345 15.60635 15.62105 15.63574 15.65365 15.67224 15.69224 15.71941 15.74538 15.77015 15.79229 15.81308 15.83357 15.8524 15.86633 15.87908 15.88777 15.89439 15.90162 15.90821 15.91464 15.92464 15.94076 15.95648 15.97681 15.99036 16.00694 16.02089 16.03469 16.04829 16.06097 16.06819 16.06509 16.06633 16.06457 16.06143 16.05595 16.05039 16.04491 16.03715 16.03071 16.0258 16.01281 16.00331 15.99309 15.98937 15.98703 15.97729 15.97574 15.97328 15.97834 15.98162 15.98216 15.98259 15.98363 15.985 15.97758 15.97209 15.96549 15.95368 15.93394 15.911 15.88036 15.84333 15.80433 15.76065
0 0 0 0 0 0 19.38629 17.67403 16.39642 15.99206 15.65792 15.71218 15.45059 15.1982 15.25759 15.30322 15.33731 15.36457 15.38798 15.41345 15.43837 15.45883 15.47893 15.49864 15.5202 15.53906 15.55315 15.56945 15.57588 15.58138 15.58328 15.58357 15.58364 15.5823 15.57982 15.57631 15.57363 15.5731 15.57403 15.57563 15.58062 15.58946 15.603 15.60829 15.61406 15.62468 15.63603 15.65237 15.67247 15.69416 15.71812 15.73978 15.76208 15.78759 15.8088 15.82901 15.85048 15.86681 15.87896 15.88886 15.89759 15.9097 15.92074 15.93236 15.94871 15.96592 15.98565 16.00574 16.0266 16.04104 16.05391 16.0668 16.07985 16.09013 16.09759 16.09839 16.09508 16.09278 16.08392 16.07454 16.06536 16.05764 16.04849 16.03776 16.02687 16.01686 16.00716 15.99608 15.9923 15.98603 15.98204 15.98187 15.97919 15.98608 15.99202 15.99611 15.99616 15.99809 16.00066 15.99606 15.9952 15.99504 15.98758 15.973 15.95298 15.92956 15.90467 15.87108 15.83379
0 0 0 0 0 19.46912 19.00279 17.64857 16.38736 16.02136 15.38116 15.12905 15.19497 15.25719 15.31091 15.35641 15.38879 15.41659 15.44038 15.46541 15.48778 15.50839 15.52546 15.54308 15.56285 15.57929 15.59122 15.60457 15.60754 15.61073 15.60884 15.6094 15.60594 15.60265 15.59766 15.59044 15.58628 15.58395 15.58287 15.58371 15.59127 15.60042 15.6083 15.60977 15.61469 15.6243 15.63562 15.64938 15.66613 15.68775 15.7084 15.73003 15.75244 15.77615 15.80124 15.82586 15.84639 15.86577 15.88397 15.89573 15.90743 15.92488 15.93734 15.9556 15.97494 15.99432 16.01288 16.03378 16.05437 16.07046 16.08188 16.0935 16.10276 16.11031 16.11967 16.12088 16.11691 16.11284 16.1016 16.08803 16.07763 16.06446 16.05273 16.04176 16.0294 16.01353 16.00307 15.99924 15.99106 15.98708 15.98829 15.9922 15.99481 15.99965 16.00597 16.01296 16.01491 16.01646 16.0196 16.02065 16.02229 16.02362 16.01797 16.00581 15.98991 15.97006 15.94912 15.92491 15.89043
0 0 0 0 18.47532 18.07685 16.37577 15.97989 15.6546 15.06617 15.1212 15.18784 15.24717 15.30352 15.35101 15.39552 15.42298 15.44944 15.47592 15.49742 15.52117 15.54226 15.56062 15.5777 15.59238 15.60649 15.62001 15.62785 15.63071 15.63225 15.63266 15.62973 15.62614 15.62035 15.61619 15.60799 15.60018 15.59829 15.59596 15.59765 15.60029 15.60304 15.60517 15.61027 15.61274 15.61991 15.6328 15.6448 15.65858 15.67756 15.69967 15.72355 15.74799 15.77475 15.8012 15.82454 15.84695 15.86794 15.8841 15.90152 15.91725 15.93497 15.95269 15.97259 15.9989 16.02222 16.04105 16.06203 16.08177 16.09589 16.10626 16.11646 16.1237 16.12748 16.13391 16.13477 16.13197 16.12373 16.10948 16.10045 16.08656 16.07544 16.06204 16.05136 16.03796 16.01962 16.01182 16.00643 16.00142 16.00047 15.9968 16.00246 16.00775 16.01676 16.02176 16.02757 16.03175 16.04187 16.04667 16.05384 16.05932 16.05909 16.05396 16.05228 16.03845 16.02263 16.01025 15.98853 15.96397
0 0 0 0 19.56325 16.79205 15.03419 15.03254 15.06472 15.11973 15.18836 15.2487 15.30636 15.35518 15.39439 15.43372 15.45863 15.48526 15.50977 15.53181 15.54942 15.56699 15.58028 15.59666 15.61012 15.62421 15.63524 15.64115 15.64311 15.64304 15.64256 15.64095 15.63621 15.63163 15.62811 15.61993 15.61129 15.60734 15.60486 15.60393 15.60494 15.60548 15.60872 15.61112 15.61365 15.62091 15.63007 15.64118 15.65552 15.67216 15.69138 15.71635 15.74461 15.77289 15.79807 15.82105 15.84503 15.86393 15.88368 15.90638 15.92549 15.94357 15.96501 15.98732 16.01134 16.03741 16.06033 16.08196 16.09994 16.11484 16.12727 16.13683 16.14086 16.13995 16.14239 16.14304 16.13787 16.12926 16.11941 16.11266 16.10249 16.08888 16.07741 16.06779 16.05134 16.03826 16.03098 16.02372 16.02292 16.02064 16.0174 16.02175 16.02752 16.03722 16.04345 16.04674 16.05457 16.06156 16.07262 16.08158 16.08942 16.09226 16.09469 16.09098 16.0876 16.07741 16.06553 16.04979 16.0271
0 0 0 18.59481 18.14071 16.36177 15.01896 15.04499 15.10285 15.17816 15.24508 15.30182 15.35201 15.38801 15.42327 15.46046 15.48715 15.5127 15.53553 15.55488 15.5686 15.58442 15.59534 15.60872 15.61856 15.6307 15.64054 15.64488 15.64515 15.647 15.6483 15.65 15.65041 15.64638 15.64075 15.63184 15.62078 15.61435 15.61145 15.61136 15.61335 15.61474 15.61293 15.61347 15.61355 15.61967 15.63091 15.64427 15.65491 15.67024 15.68988 15.71475 15.74333 15.77096 15.79677 15.8192 15.84139 15.86143 15.88466 15.90851 15.92769 15.95003 15.97662 15.99922 16.02241 16.0473 16.07268 16.09734 16.11793 16.13184 16.14395 16.14857 16.15255 16.15177 16.14954 16.14461 16.1422 16.1373 16.12923 16.12365 16.11285 16.10668 16.09777 16.08557 16.06878 16.05896 16.05818 16.05348 16.05172 16.04837 16.04942 16.0546 16.0589 16.06626 16.07332 16.07811 16.08451 16.09244 16.10339 16.11264 16.12293 16.12663 16.12912 16.12618 16.12623 16.12354 16.10778 16.09242 16.07054
0 0 0 18.55775 18.11754 16.34726 15.62697 15.06619 15.14679 15.22516 15.28273 15.33899 15.37938 15.41134 15.4494 15.47933 15.50782 15.53008 15.55268 15.57052 15.58177 15.59001 15.59854 15.60504 15.61379 15.62592 15.63447 15.64021 15.64076 15.64196 15.64737 15.65624 15.65864 15.65675 15.653 15.6396 15.63236 15.62586 15.62312 15.62355 15.62389 15.62365 15.62231 15.61902 15.61762 15.6246 15.63485 15.64796 15.65982 15.67393 15.69499 15.71906 15.74633 15.77358 15.79871 15.82327 15.84564 15.86781 15.89189 15.91361 15.93472 15.95953 15.983 16.00881 16.03192 16.05616 16.07881 16.10746 16.12909 16.14723 16.15978 16.16406 16.16585 16.16303 16.15762 16.15353 16.14944 16.14401 16.14128 16.13413 16.12483 16.11411 16.10861 16.09648 16.08723 16.08154 16.08167 16.07928 16.08209 16.08399 16.09005 16.09378 16.09691 16.10451 16.11359 16.12217 16.12687 16.13547 16.14479 16.15646 16.16674 16.17287 16.17663 16.17766 16.17506 16.17016 16.16053 16.1419 16.12223
0 0 0 19.46229 18.39342 16.33145 15.31352 15.08956 15.17665 15.25433 15.31885 15.36526 15.40302 15.44022 15.47417 15.49922 15.52337 15.5437 15.56063 15.57697 15.588 15.59343 15.59613 15.59938 15.6076 15.61821 15.62791 15.63602 15.6376 15.64028 15.64776 15.65901 15.66449 15.66561 15.65835 15.64833 15.64214 15.63677 15.6321 15.62918 15.62642 15.62458 15.62232 15.62197 15.62237 15.62917 15.64147 15.65416 15.66487 15.67593 15.69902 15.72342 15.75015 15.77622 15.80262 15.82719 15.85255 15.87497 15.89886 15.92062 15.944 15.96695 15.99152 16.01541 16.03943 16.06338 16.08516 16.11105 16.13298 16.15345 16.16855 16.17228 16.17267 16.16943 16.16485 16.159 16.15661 16.15364 16.15057 16.14371 16.13379 16.1263 16.1183 16.11357 16.11087 16.11054 16.11166 16.11432 16.1181 16.12169 16.12864 16.13351 16.13806 16.14432 16.15226 16.15885 16.16515 16.17321 16.18813 16.19799 16.20665 16.21489 16.22122 16.22402 16.2236 16.21637 16.20724 16.19227 16.17643
0 0 0 19.47355 17.0921 15.5987 15.04741 15.13285 15.21904 15.29169 15.34546 15.38755 15.42314 15.45872 15.49087 15.51364 15.53322 15.55028 15.56154 15.56846 15.58059 15.58972 15.59307 15.59607 15.60491 15.61459 15.62369 15.63133 15.63658 15.64615 15.65782 15.66715 15.6744 15.67658 15.66791 15.66088 15.65493 15.64711 15.64147 15.63859 15.63462 15.62955 15.62497 15.6231 15.62575 15.63412 15.64349 15.65761 15.66795 15.68313 15.70471 15.73074 15.75902 15.78452 15.81054 15.83628 15.86136 15.88721 15.91103 15.93464 15.95796 15.98216 16.00364 16.02983 16.05531 16.07461 16.09306 16.11163 16.13544 16.15677 16.1686 16.17468 16.17219 16.17085 16.16562 16.16404 16.16297 16.15882 16.15691 16.15179 16.14651 16.13922 16.135 16.13526 16.13961 16.1466 16.1511 16.15552 16.15783 16.16327 16.17235 16.17938 16.18767 16.19501 16.20215 16.20697 16.21322 16.22626 16.23833 16.2484 16.25396 16.26042 16.26355 16.26387 16.26019 16.25312 16.24376 16.23191 16.21642
15.04667 15.04641 16.34386 17.09482 15.24731 15.00541 15.09088 15.18013 15.26111 15.32684 15.37162 15.40756 15.43953 15.47041 15.49823 15.52096 15.53884 15.55158 15.56211 15.56531 15.57226 15.5784 15.58355 15.58793 15.59837 15.60781 15.61845 15.62768 15.63935 15.65207 15.6657 15.6765 15.68389 15.68789 15.68541 15.67692 15.66824 15.66171 15.65637 15.65119 15.64391 15.64033 15.63736 15.63278 15.63188 15.64217 15.65074 15.66105 15.67486 15.69144 15.71346 15.74458 15.7751 15.80151 15.83008 15.8538 15.87669 15.90273 15.93164 15.95678 15.97976 16.00436 16.02615 16.05044 16.0727 16.08822 16.10502 16.12185 16.14 16.15823 16.17186 16.17733 16.1779 16.17887 16.17626 16.173 16.17255 16.17004 16.16698 16.16232 16.15993 16.15959 16.16071 16.16079 16.1664 16.17099 16.18165 16.18856 16.1944 16.20378 16.21403 16.22469 16.23368 16.24285 16.25072 16.25785 16.268 16.27993 16.29136 16.30296 16.30999 16.31027 16.31491 16.31267 16.31054 16.30291 16.28908 16.27502 16.26059
15.05234 15.041 15.04589 15.06404 15.06708 15.1193 15.18538 15.25589 15.32215 15.37162 15.40713 15.43336 15.45979 15.48202 15.50513 15.52588 15.54141 15.55275 15.5595 15.56049 15.5637 15.56907 15.57454 15.57829 15.58861 15.60097 15.61358 15.62998 15.64297 15.65652 15.66973 15.67514 15.68444 15.69617 15.69486 15.69164 15.6843 15.67754 15.67424 15.66846 15.66285 15.65846 15.65387 15.65377 15.65228 15.65621 15.66302 15.67298 15.68382 15.70214 15.73029 15.7636 15.79702 15.82855 15.85446 15.8779 15.89919 15.92435 15.95183 15.98101 16.00458 16.02867 16.04894 16.07004 16.08893 16.10459 16.11839 16.13508 16.15161 16.16725 16.1779 16.1859 16.19032 16.19158 16.1866 16.18605 16.182 16.17793 16.17454 16.17313 16.17837 16.18214 16.18907 16.19509 16.19898 16.20567 16.21805 16.22741 16.23827 16.25144 16.26548 16.27354 16.28228 16.28585 16.29234 16.30047 16.30988 16.3182 16.3329 16.34202 16.34817 16.35248 16.35592 16.35946 16.35803 16.34955 16.33581 16.31919 16.30631
15.15122 15.16002 15.17545 15.19507 15.2062 15.24577 15.29302 15.34179 15.38595 15.41423 15.4356 15.45479 15.47585 15.4919 15.50857 15.52284 15.53849 15.55105 15.55414 15.55217 15.55176 15.55873 15.56257 15.56705 15.5732 15.59087 15.60757 15.62738 15.64456 15.65732 15.67104 15.67792 15.69173 15.70398 15.70538 15.70643 15.70214 15.69757 15.69346 15.69184 15.68655 15.68228 15.6791 15.67836 15.67988 15.68272 15.68814 15.69438 15.70636 15.72524 15.75164 15.78703 15.82357 15.85503 15.88319 15.90831 15.93125 15.95667 15.98376 16.00962 16.03336 16.05588 16.07683 16.09564 16.11115 16.12329 16.13639 16.14918 16.16674 16.18233 16.19163 16.20015 16.2036 16.20734 16.20616 16.20316 16.1965 16.19062 16.1859 16.18632 16.19462 16.20386 16.21375 16.22222 16.23298 16.24404 16.25939 16.27353 16.29366 16.30957 16.32383 16.33405 16.3395 16.3416 16.34562 16.35208 16.36209 16.37369 16.38559 16.39563 16.40278 16.40788 16.40845 16.40567 16.40089 16.39321 16.37944 16.36414 16.35238
15.24055 15.25573 15.27174 15.28948 15.30933 15.3381 15.36449 15.39344 15.42019 15.43358 15.4451 15.4638 15.4797 15.49459 15.50679 15.51719 15.53113 15.54203 15.54806 15.54878 15.54739 15.54791 15.54943 15.55747 15.56484 15.58357 15.60259 15.62177 15.64155 15.65913 15.67481 15.68677 15.70282 15.71567 15.72321 15.72427 15.72345 15.72336 15.72302 15.71999 15.71681 15.71118 15.70764 15.70673 15.7087 15.71405 15.71688 15.72819 15.73898 15.7605 15.78781 15.82137 15.85762 15.89088 15.92009 15.94574 15.97003 15.99621 16.02284 16.04637 16.07064 16.09191 16.11092 16.12579 16.13876 16.14925 16.16131 16.17541 16.18631 16.20017 16.2104 16.22004 16.22781 16.23293 16.2309 16.22564 16.2169 16.20953 16.20374 16.20222 16.20889 16.22225 16.23761 16.24912 16.26583 16.2805 16.30365 16.32821 16.35148 16.37259 16.38923 16.39784 16.40422 16.40677 16.40985 16.41913 16.43114 16.44806 16.46364 16.4818 16.49472 16.49754 16.48997 16.48012 16.47181 16.4611 16.44916 16.43884 16.4287
15.32317 15.33751 15.34768 15.35552 15.36755 15.38077 15.39424 15.40849 15.42342 15.43515 15.44597 15.45864 15.47065 15.48661 15.50106 15.51645 15.52619 15.53781 15.54333 15.5468 15.54525 15.54665 15.54817 15.55587 15.56957 15.58773 15.60483 15.62411 15.64515 15.66706 15.68831 15.70447 15.71994 15.73182 15.74171 15.74773 15.75279 15.75295 15.75392 15.75126 15.74588 15.74062 15.73827 15.7387 15.74571 15.7543 15.76441 15.77681 15.78997 15.8109 15.8393 15.87047 15.90704 15.9375 15.96465 15.98957 16.01307 16.03684 16.06156 16.08453 16.10515 16.12728 16.14551 16.16082 16.17384 16.18197 16.19146 16.19902 16.20894 16.21801 16.22656 16.23612 16.24599 16.25284 16.25468 16.24825 16.24045 16.2343 16.23118 16.23236 16.23996 16.25551 16.26843 16.28519 16.30507 16.33002 16.35968 16.38782 16.41536 16.43829 16.45474 16.46395 16.46622 16.46624 16.47108 16.48151 16.4917 16.50723 16.53159 16.55862 16.58403 16.58963 16.58008 16.56724 16.55871 16.54958 16.54257 16.52976 16.51952
15.36975 15.37327 15.37897 15.3799 15.38037 15.38516 15.39071 15.40135 15.41436 15.42938 15.44272 15.45424 15.46571 15.48257 15.49619 15.51283 15.5252 15.53694 15.54031 15.54483 15.54636 15.54802 15.5526 15.56376 15.58235 15.60163 15.62196 15.64243 15.66579 15.6883 15.71115 15.72753 15.74042 15.75493 15.76291 15.77476 15.78058 15.78406 15.784 15.7806 15.77991 15.78383 15.7871 15.79604 15.80589 15.82062 15.8347 15.85094 15.86827 15.89147 15.91878 15.94948 15.98278 16.01502 16.04218 16.06689 16.08643 16.10934 16.12998 16.1485 16.16852 16.18725 16.20304 16.21563 16.22336 16.2288 16.23394 16.2408 16.24488 16.25003 16.2562 16.26245 16.26888 16.2741 16.2767 16.27221 16.26938 16.26664 16.27005 16.28051 16.29095 16.30862 16.328 16.34822 16.37206 16.39859 16.42874 16.46004 16.489 16.51101 16.52767 16.54078 16.5469 16.54672 16.54517 16.54645 16.55428 16.56743 16.59009 16.61756 16.64109 16.65115 16.64933 16.64557 16.64019 16.63626 16.63009 16.61917 16.60924
15.37995 15.38368 15.3812 15.37791 15.3731 15.37556 15.38274 15.39416 15.4105 15.42702 15.43909 15.4533 15.4671 15.48394 15.50062 15.51563 15.52625 15.53871 15.54454 15.55002 15.55935 15.56583 15.57421 15.59016 15.61588 15.63213 15.64908 15.67389 15.69958 15.72345 15.74318 15.76135 15.77871 15.79118 15.8024 15.81106 15.81786 15.81848 15.81965 15.82235 15.82759 15.83517 15.84776 15.86049 15.87778 15.89687 15.91534 15.93589 15.95928 15.98237 16.00849 16.03718 16.06748 16.09606 16.12231 16.14527 16.1654 16.18718 16.20822 16.22672 16.24406 16.26056 16.27631 16.28875 16.29639 16.29859 16.30353 16.30865 16.31137 16.31341 16.31392 16.31996 16.32208 16.32265 16.32244 16.31953 16.3182 16.32033 16.33146 16.34725 16.36292 16.38148 16.39481 16.40968 16.43101 16.45719 16.48586 16.51367 0 0 16.5705 16.60303 16.60293 16.60909 16.60953 16.60925 16.61734 16.63169 16.63674 0 0 16.66166 16.70505 16.71015 16.71307 16.71942 16.72686 16.72688 16.71585
