ncols        109
nrows        82
xllcorner    -1.041666666667
yllcorner    37.041665395101
cellsize     0.083333333333
NODATA_value -9999
0.0 0 0 0 0 0 0 0 0 0 0 0 0 0 0 0 0 0 0 0 0 0 0 0 0 0 0 0 0 0 0 0 0 0 0 0 0 0 0 0 0 0 0 0 0 0 0 0 0 0 0 0 0 0 0 0 0 0 0 0 0 0 0 0 0 0 0 0 0 0 0 0 0 0 0 0 0 0 0 0 0 0 0 0 0 0 0 0 0 0 0 0 0 0 0 0 0 0 0 0 0 0 0 0 0 17.96051 16.63474 15.33673 15.32863
0 0 0 0 0 0 0 0 0 0 0 0 0 0 0 0 0 0 0 0 0 0 0 0 0 0 0 0 0 0 0 0 0 0 0 0 0 0 0 0 0 0 0 0 0 0 0 0 0 0 0 0 0 0 0 0 0 0 0 0 0 0 0 0 0 0 0 0 0 0 0 0 0 0 0 0 0 0 0 0 0 0 0 0 0 0 0 0 0 0 0 0 0 0 0 0 0 0 0 0 0 15.49523 15.51583 15.31269 15.31964 15.31924 15.30532 15.29678 15.27608
0 0 0 0 0 0 0 0 0 0 0 0 0 0 0 0 0 0 0 0 0 0 0 0 0 0 0 0 0 0 0 0 0 0 0 0 0 0 0 0 0 0 0 0 0 0 0 0 0 0 0 0 0 0 0 0 0 0 0 0 0 0 0 0 0 0 0 0 0 0 0 0 0 0 0 0 0 0 0 0 0 0 0 0 0 0 0 0 0 0 0 0 0 0 0 0 0 0 15.31415 15.31241 15.30701 15.2945 15.27338 15.2622 15.2451 15.21774 15.18867 15.1626 15.13745
0 0 0 0 0 0 0 0 0 0 0 0 0 0 0 0 0 0 0 0 0 0 0 0 0 0 0 0 0 0 0 0 0 0 0 0 0 0 0 0 0 0 0 0 0 0 0 0 0 0 0 0 0 0 0 0 0 0 0 0 0 0 0 0 0 0 0 0 0 0 0 0 0 0 0 0 0 0 0 0 0 0 0 0 0 0 0 0 0 0 0 0 0 0 0 0 0 16.91017 15.30399 15.2852 15.24868 15.21015 15.17552 15.15523 15.12514 15.09834 15.06882 15.04705 15.01543
0 0 0 0 0 0 0 0 0 0 0 0 0 0 0 0 0 0 0 0 0 0 0 0 0 0 0 0 0 0 0 0 0 0 0 0 0 0 0 0 0 0 0 0 0 0 0 0 0 0 0 0 0 0 0 0 0 0 16.86152 16.48904 16.2007 16.31713 0 0 0 0 0 0 0 0 0 0 0 0 0 0 0 0 0 0 0 0 0 0 0 0 0 0 0 0 0 0 0 0 0 15.73729 15.32103 15.31054 15.26684 15.22071 15.16826 15.10939 15.0549 15.0163 14.98044 14.94988 14.93042 14.91356 14.88995
0 0 0 0 0 0 0 0 0 0 0 0 0 0 0 0 0 0 0 0 0 0 0 0 0 0 0 0 0 0 0 0 0 0 0 0 0 0 0 0 0 0 0 0 0 0 0 0 0 0 0 0 0 0 0 0 16.40373 16.43815 16.16123 15.93546 15.84512 15.83277 15.92325 16.13075 16.33521 16.45087 16.44757 0 0 0 0 16.78755 0 0 0 0 0 0 0 0 0 0 0 0 0 0 0 0 0 0 0 0 0 16.29621 15.28137 15.31054 15.28675 15.2318 15.1662 15.10395 15.03767 14.98339 14.93193 14.89721 14.88343 14.87027 14.85732 14.84024 14.82485
0 0 0 0 0 0 0 0 0 0 0 0 0 0 0 0 0 0 0 0 0 0 0 0 0 0 0 0 0 0 0 0 0 0 0 0 0 0 0 0 0 0 0 0 0 0 0 0 0 0 0 0 0 0 0 16.5424 16.15825 15.84107 15.64014 15.35969 15.42274 15.44969 15.63101 15.76891 15.90394 16.02109 16.10641 16.31059 16.52026 16.4864 16.42954 16.17115 15.95926 16.01664 16.1844 15.89835 15.89908 0 0 0 0 0 0 0 0 0 0 0 0 0 0 0 15.62932 15.30105 15.28904 15.26159 15.2072 15.14517 15.07325 15.00227 14.94343 14.88194 14.84337 14.8163 14.8098 14.8061 14.80546 14.80387 14.80095
0 0 0 0 0 0 0 0 0 0 0 0 0 0 0 0 0 0 0 0 0 0 0 0 0 0 0 0 0 0 0 0 0 0 0 0 0 0 0 0 0 0 0 0 0 0 0 0 0 0 0 16.16812 16.34373 16.4972 16.26854 15.8694 15.63645 15.35503 15.22684 15.29815 15.34815 15.3716 15.37762 15.56503 15.55027 15.7443 15.72685 15.7361 15.75884 15.64856 15.53082 15.56447 15.41788 15.62396 15.65404 15.83983 0 0 0 0 0 0 0 0 0 0 0 0 0 0 0 0 15.28961 15.2907 15.24025 15.16905 15.10708 15.02618 14.95413 14.89296 14.84715 14.81288 14.79467 14.78066 14.77933 14.78429 14.78371 14.78809 14.79582
0 0 0 0 0 0 0 0 0 0 0 0 0 0 0 0 0 0 0 0 0 0 0 0 0 0 0 0 0 0 0 0 0 0 0 0 0 0 0 0 0 0 0 0 0 0 0 0 0 0 16.33259 16.1924 15.96824 15.92478 15.83847 15.55018 15.20949 15.27383 15.12545 15.18152 15.2239 15.2486 15.26356 15.46282 15.45303 15.65823 15.64993 15.65513 15.50622 15.36323 15.40259 15.44412 15.29772 15.49517 15.51773 15.72861 15.73091 15.54253 15.56025 15.94917 16.42622 17.22201 0 0 0 0 0 0 0 16.24397 15.68591 15.29773 15.29967 15.25888 15.16725 15.09111 15.0092 14.93795 14.87912 14.82396 14.78728 14.76708 14.7583 14.75893 14.77012 14.77796 14.78511 14.79438 14.80668
0 0 0 0 0 0 0 0 0 0 0 0 0 0 0 0 0 0 0 0 0 0 0 0 0 0 0 0 0 0 0 0 0 0 0 0 0 0 0 0 0 0 0 0 0 0 0 0 0 17.16025 16.03152 15.9462 15.89404 15.60251 15.43998 15.26737 15.30848 15.14206 15.18533 15.23571 15.27414 15.29802 15.31456 15.53062 15.53529 15.54274 15.55216 15.5559 15.5679 15.40011 15.4274 15.27033 15.11495 15.12918 15.14248 15.15797 15.16337 15.18339 15.20516 15.2117 15.61309 16.18656 0 15.98113 16.5446 17.07359 17.37277 17.10609 16.61168 15.2837 15.30626 15.30195 15.26086 15.17981 15.0775 14.99218 14.9092 14.85449 14.8089 14.77971 14.76557 14.76381 14.76477 14.77 14.77293 14.79179 14.80646 14.81944 14.82803
0 0 0 0 0 0 0 0 0 0 0 0 0 0 0 0 0 0 0 0 0 0 0 0 0 0 0 0 0 0 0 0 0 0 0 0 0 0 0 0 0 0 0 0 0 0 0 0 0 16.84833 15.97886 15.7099 15.4249 15.28152 15.32985 15.15276 15.19006 15.23324 15.28063 15.3147 15.3504 15.36899 15.37783 15.37876 15.38552 15.21553 15.06152 15.22907 15.22622 15.22811 15.23393 15.06547 15.06635 15.07606 15.08594 15.09949 15.11542 15.1234 15.14314 15.16233 15.18588 15.21626 15.23144 15.24784 15.2771 15.2903 16.30493 16.49774 16.10024 15.25528 15.24486 15.20318 15.1488 15.06452 14.98672 14.91411 14.85395 14.80467 14.78041 14.76854 14.77382 14.78178 14.79093 14.80189 14.81603 14.83029 14.83893 14.85004 14.85663
0 0 0 0 0 0 0 0 0 0 0 0 0 0 0 0 0 0 0 0 0 0 0 0 0 0 0 0 0 0 0 0 0 0 0 0 0 0 0 0 0 0 0 0 0 0 0 0 0 16.57589 15.90962 15.62228 15.28367 15.35076 15.18225 15.23322 15.27511 15.32122 15.35411 15.38735 15.20669 15.22432 15.23028 15.22945 15.22132 15.04782 15.05002 15.04527 15.02461 15.01683 15.01623 15.01252 15.01243 15.01398 15.03078 15.03672 15.04228 15.04493 15.05564 15.07211 15.09588 15.12278 15.14342 15.16266 15.18425 15.20604 15.22174 15.22189 15.20861 15.17595 15.13957 15.08445 15.02581 14.95835 14.89816 14.85447 14.82021 14.78016 14.77926 14.78777 14.79795 14.80773 14.81984 14.83368 14.84995 14.86124 14.87042 14.88056 14.89138
0 0 0 0 0 0 0 0 0 0 0 0 0 0 0 0 0 0 0 0 0 0 0 0 0 0 0 0 0 0 0 0 0 0 0 0 0 0 0 0 0 0 0 0 0 0 0 0 0 16.48707 15.7828 15.47678 15.3429 15.19496 15.25586 15.31491 15.15852 15.19197 15.01718 15.02811 15.03608 15.03715 15.03708 15.03541 15.0269 15.01635 15.00887 15.00128 14.98228 14.95822 14.95057 14.94397 14.93689 14.92929 14.92827 14.92907 14.93882 14.94625 14.95597 14.97299 14.99304 15.01485 15.02691 15.03661 15.04552 15.05983 15.06887 15.06642 15.05161 15.0312 15.00377 14.96837 14.92888 14.88708 14.85371 14.81986 14.79886 14.78612 14.79403 14.80955 14.82582 14.84246 14.86356 14.87435 14.88359 14.89339 14.90105 14.91029 14.923
0 0 0 0 0 0 0 0 0 0 0 0 0 0 0 0 0 0 0 0 0 0 0 0 0 0 0 0 0 0 0 0 0 0 0 0 0 0 0 0 0 0 0 0 0 0 0 0 0 16.35859 15.82975 15.51035 15.38165 15.23333 15.29811 15.13981 14.98694 15.00776 15.02088 15.02106 15.01826 15.01457 15.00765 14.9999 14.99142 14.97861 14.96833 14.95438 14.93597 14.91603 14.89999 14.88497 14.86919 14.85145 14.83948 14.83084 14.8284 14.8301 14.83712 14.84712 14.86163 14.87702 14.8856 14.89622 14.90759 14.9272 14.94437 14.94952 14.93695 14.91714 14.89058 14.86455 14.84231 14.82567 14.80888 14.79911 14.80167 14.81288 14.82289 14.83978 14.85611 14.87494 14.89463 14.908 14.91359 14.92407 14.9376 14.94598 14.95105
0 0 0 0 0 0 0 0 0 0 0 0 0 0 0 0 0 0 0 0 0 0 0 0 0 0 0 0 0 0 0 0 0 0 0 0 0 0 0 0 0 0 0 0 0 0 0 0 0 16.41177 15.63531 15.30457 15.42471 15.28874 15.34589 15.16307 14.98766 14.99985 15.00805 15.00347 14.9976 14.99177 14.9843 14.97233 14.9573 14.94368 14.92313 14.90758 14.88493 14.8593 14.83596 14.81152 14.79197 14.78032 14.76767 14.76173 14.75885 14.75858 14.76164 14.7643 14.77095 14.77574 14.78186 14.78607 14.79841 14.81658 14.82192 14.82328 14.82388 14.81926 14.81576 14.81219 14.80658 14.80464 14.80375 14.80867 14.82036 14.84187 14.85928 14.87288 14.8858 14.90647 14.92295 14.93562 14.94279 14.94997 14.95735 14.97271 14.97754
0 0 0 0 0 0 0 0 0 0 0 0 0 0 0 0 0 0 0 0 0 0 0 0 0 0 0 0 0 0 0 0 0 0 0 0 0 0 0 0 0 0 0 0 0 0 0 0 0 15.91185 15.68846 15.33948 15.24481 15.13598 15.18155 14.99416 14.97957 14.98331 14.98179 14.97591 14.96619 14.95573 14.94255 14.93 14.91744 14.90654 14.89213 14.87553 14.85898 14.83159 14.79644 14.76266 14.73964 14.72435 14.7156 14.70613 14.69922 14.69684 14.69723 14.70007 14.7047 14.71262 14.72259 14.73334 14.74434 14.7565 14.76515 14.7687 14.76745 14.76706 14.76951 14.78081 14.79072 14.80222 14.81478 14.83401 14.84987 14.86638 14.88524 14.90148 14.91173 14.92743 14.93864 14.95855 14.96711 14.97964 14.98398 14.99257 15.00901
0 0 0 0 0 0 0 0 0 0 0 0 0 0 0 0 0 0 0 0 0 0 0 0 0 0 0 0 0 0 0 0 0 0 0 0 0 0 0 0 0 0 0 0 0 0 0 0 0 0 15.44808 15.40071 15.29834 14.98446 15.00794 14.9998 14.97666 14.97022 14.96804 14.9604 14.94628 14.93489 14.92075 14.90273 14.89108 14.88353 14.87295 14.86551 14.84661 14.82143 14.78552 14.75371 14.72868 14.70631 14.68989 14.68049 14.67356 14.66667 14.66367 14.66624 14.67088 14.67441 14.6805 14.69315 14.70554 14.71565 14.72322 14.73219 14.7426 14.7508 14.7598 14.77372 14.79093 14.8105 14.83511 14.85591 14.8719 14.89139 14.90833 14.92407 14.93421 14.9488 14.96095 14.97515 14.98419 14.9877 14.99468 15.00672 15.02867
0 0 0 0 0 0 0 0 0 0 0 0 0 0 0 0 0 0 0 0 0 0 0 0 0 0 0 0 0 0 0 0 0 0 0 0 0 0 0 0 0 0 0 0 0 0 0 0 0 0 15.60393 15.2078 14.93373 14.99266 15.00146 14.98799 14.96392 14.95789 14.951 14.93844 14.92837 14.91115 14.90654 14.89932 14.89065 14.88006 14.87746 14.86458 14.85025 14.83231 14.80442 14.77137 14.74447 14.71597 14.69676 14.68278 14.67222 14.66438 14.66042 14.6612 14.66215 14.66994 14.67818 14.68466 14.69117 14.69991 14.71221 14.72273 14.73629 14.74241 14.75534 14.77927 14.80008 14.82391 14.85872 14.87781 14.89556 14.91242 14.92944 14.94529 14.95453 14.96479 14.97474 14.99259 15.00288 15.00602 15.01761 15.03019 15.05141
0 0 0 0 0 0 0 0 0 0 0 0 0 0 0 0 0 0 0 0 0 0 0 0 0 0 0 0 0 0 0 0 0 0 0 0 0 0 0 0 0 0 0 0 0 0 0 0 0 0 0 0 14.94345 14.96991 14.97577 14.96197 14.94842 14.93946 14.93052 14.92692 14.91143 14.9002 14.89493 14.89493 14.8974 14.89472 14.90186 14.90157 14.87989 14.86488 14.84189 14.81248 14.78084 14.74831 14.7138 14.70297 14.68753 14.67721 14.67502 14.67444 14.67765 14.67851 14.68368 14.68861 14.69923 14.70759 14.72213 14.7284 14.73866 14.75292 14.77261 14.79473 14.81651 14.84756 14.87546 14.90116 14.92435 14.94052 14.95565 14.96756 14.97399 14.98379 14.99557 15.00615 15.01529 15.01913 15.03188 15.04809 15.07166
0 0 0 0 0 0 0 0 0 0 0 0 0 0 0 0 0 0 0 0 0 0 0 0 0 0 0 0 0 0 0 0 0 0 0 0 0 0 0 0 0 0 0 0 0 0 0 0 0 0 17.20168 15.62007 15.18665 14.99449 14.98467 14.96209 14.938 14.93238 14.92714 14.915 14.89895 14.89301 14.89509 14.89849 14.90705 14.91588 14.92249 14.9146 14.91185 14.90432 14.88164 14.85213 14.82072 14.78543 14.75968 14.7316 14.70733 14.70006 14.69456 14.69375 14.69214 14.69169 14.70169 14.70565 14.71184 14.72247 14.73743 14.74849 14.7549 14.76867 14.79038 14.81637 14.84614 14.87838 14.89983 14.92701 14.94823 14.96239 14.97757 14.98692 14.99479 15.00408 15.01064 15.02187 15.03628 15.04251 15.05627 15.07358 15.09457
0 0 0 0 0 0 0 0 0 0 0 0 0 0 0 0 0 0 0 0 0 0 0 0 0 0 0 0 0 0 0 0 0 0 0 0 0 0 0 0 0 0 0 0 0 0 0 0 0 0 16.54533 15.63622 15.42874 15.01802 15.00921 14.9808 14.95249 14.93552 14.92858 14.91523 14.91125 14.91263 14.91672 14.92571 14.9351 14.94551 14.94624 14.94313 14.94172 14.93284 14.91168 14.88775 14.85072 14.82292 14.78961 14.76146 14.75008 14.73667 14.7265 14.72433 14.72059 14.72843 14.7338 14.74262 14.75056 14.76098 14.77285 14.77833 14.78282 14.79612 14.81976 14.85327 14.88321 14.91056 14.93218 14.95345 14.97592 14.9912 15.00076 15.01374 15.01887 15.02245 15.03201 15.04692 15.05698 15.06961 15.0774 15.09833 15.12055
0 0 0 0 0 0 0 0 0 0 0 0 0 0 0 0 0 0 0 0 0 0 0 0 0 0 0 0 0 0 0 0 0 0 0 0 0 0 0 0 0 0 0 0 0 0 0 0 0 0 0 15.68601 15.24164 15.03755 15.02581 14.99937 14.97145 14.95463 14.94652 14.94145 14.93711 14.94465 14.95858 14.97004 14.97781 14.98965 14.98751 14.99305 14.98854 14.98015 14.95837 14.9327 14.89803 14.86126 14.82895 14.80219 14.77984 14.7684 14.76797 14.76313 14.76152 14.76601 14.77861 14.78043 14.79064 14.80144 14.81148 14.81659 14.83487 14.85626 14.88106 14.90659 14.92958 14.95167 14.97374 14.99242 15.00832 15.01988 15.03505 15.04221 15.04877 15.0559 15.06448 15.07803 15.08918 15.09973 15.10933 15.12748 15.15429
0 0 0 0 0 0 0 0 0 0 0 0 0 0 0 0 0 0 0 0 0 0 0 0 0 0 0 0 0 0 0 0 0 0 0 0 0 0 0 0 0 0 0 0 0 0 0 0 0 0 0 15.46602 15.05773 15.06333 15.04421 15.01753 14.99407 14.97205 14.96626 14.96473 14.98034 15.01345 15.02647 15.03248 15.04301 15.05043 15.05036 15.05059 15.04656 15.02825 15.0024 14.971 14.94134 14.8988 14.87718 14.84858 14.82621 14.81434 14.80174 14.79743 14.8051 14.81569 14.82325 14.83273 14.83477 14.83903 14.85013 14.86589 14.88467 14.91081 14.94091 14.96266 14.98876 15.01101 15.0316 15.04585 15.05674 15.06686 15.07245 15.07649 15.0761 15.08486 15.09507 15.10547 15.11715 15.12858 15.13927 15.16131 15.18546
0 0 0 0 0 0 0 0 0 0 0 0 0 0 0 0 0 0 0 0 0 0 0 0 0 0 0 0 0 0 0 0 0 0 0 0 0 0 0 0 0 0 0 0 0 0 0 0 0 0 0 15.08968 15.08583 15.08031 15.056 15.03658 15.0075 14.99564 15.0025 15.01986 15.03818 15.06008 15.07863 15.08447 15.09678 15.114 15.12175 15.10884 15.09619 15.07985 15.05543 15.01815 14.98593 14.95127 14.91616 14.89024 14.86408 14.8437 14.83651 14.84699 14.85891 14.87263 14.88688 14.89293 14.89608 14.90413 14.91505 14.93149 14.95493 14.98175 15.00094 15.02093 15.04308 15.06145 15.07509 15.09489 15.10633 15.11308 15.1194 15.12085 15.1213 15.12331 15.13037 15.14194 15.1515 15.16274 15.17382 15.19224 15.21288
0 0 0 0 0 0 0 0 0 0 0 0 0 0 0 0 0 0 0 0 0 0 0 0 0 0 0 0 0 0 0 0 0 0 0 0 0 0 0 0 0 0 0 0 0 0 0 0 0 17.06696 16.08029 15.12323 15.10962 15.08374 15.07053 15.04532 15.0383 15.02809 15.054 15.08028 15.10564 15.12175 15.13799 15.14532 15.15535 15.17727 15.176 15.16703 15.14858 15.1325 15.11865 15.09374 15.06779 15.01296 14.96921 14.93904 14.9117 14.89667 14.89774 14.90906 14.92373 14.93911 14.9496 14.95288 14.95225 14.96021 14.97136 14.99337 15.02236 15.04119 15.06376 15.0843 15.09942 15.11594 15.13455 15.15274 15.16307 15.16786 15.16488 15.165 15.16248 15.16389 15.16475 15.17293 15.18129 15.19516 15.20655 15.2217 15.23777
0 0 0 0 0 0 0 0 0 0 0 0 0 0 0 0 0 0 0 0 0 0 0 0 0 0 0 0 0 0 0 0 0 0 0 0 0 0 0 0 0 0 0 0 0 0 0 0 16.16982 15.63943 15.39613 15.16345 15.14016 15.11499 15.08896 15.08354 15.08058 15.07836 15.08416 15.11656 15.14729 15.17184 15.1958 15.2072 15.22487 15.23443 15.24129 15.23074 15.21852 15.18502 15.17174 15.15007 15.11659 15.0717 15.02725 14.9943 14.97654 14.9636 14.9685 14.98626 15.00142 15.01881 15.02403 15.02041 15.02253 15.02501 15.03558 15.04997 15.06966 15.08913 15.10806 15.1211 15.13911 15.15699 15.17421 15.19359 15.20676 15.21295 15.21758 15.21345 15.21178 15.2109 15.20792 15.20887 15.21191 15.21802 15.2291 15.24215 15.25484
0 0 0 0 0 0 0 0 0 0 0 0 0 0 0 0 0 0 0 0 0 0 0 0 0 0 0 0 0 0 0 0 0 0 0 0 0 0 0 0 0 0 0 0 0 15.87813 15.73667 16.25899 15.72464 15.73624 15.47242 15.2152 15.18595 15.16541 15.14825 15.14297 15.13179 15.1262 15.13679 15.15956 15.1813 15.20838 15.24118 15.25325 15.27343 15.27856 15.29263 15.29537 15.27943 15.25287 15.23023 15.19778 15.16443 15.13282 15.09324 15.05865 15.04315 15.03744 15.03973 15.04879 15.05966 15.06637 15.06836 15.0753 15.07863 15.08857 15.09724 15.11041 15.12821 15.1477 15.16088 15.1765 15.19176 15.20869 15.22421 15.23673 15.24657 15.25362 15.25914 15.25874 15.25885 15.25267 15.24854 15.24752 15.24739 15.25125 15.25721 15.26555 15.27799
0 0 0 0 0 0 0 0 0 0 0 0 0 0 0 0 0 0 0 0 0 0 0 0 0 0 0 0 0 0 0 0 0 0 0 0 0 0 0 0 0 0 17.9594 17.64575 16.64823 15.8216 15.30601 15.32102 15.83616 15.55686 15.30078 15.26247 15.24449 15.22777 15.21723 15.21284 15.19808 15.19003 15.1961 15.21884 15.23731 15.25993 15.28239 15.29916 15.3219 15.34206 15.35588 15.34879 15.32729 15.29498 15.27575 15.25522 15.2283 15.19609 15.15797 15.12954 15.11726 15.11134 15.11121 15.12528 15.12944 15.13631 15.13751 15.13556 15.13494 15.14383 15.14995 15.16028 15.17758 15.19001 15.20194 15.22185 15.24103 15.26278 15.27236 15.28862 15.30137 15.30896 15.31351 15.31675 15.31244 15.29904 15.28936 15.28242 15.28062 15.27856 15.28269 15.29332 15.30223
0 0 0 0 0 0 0 0 0 0 0 0 0 0 0 0 0 0 0 0 0 0 0 0 0 0 0 0 0 0 0 0 0 0 0 0 0 0 0 0 17.05655 17.44971 17.70097 16.75325 15.87614 15.36103 15.38489 15.40197 15.39923 15.38126 15.36574 15.3296 15.29908 15.27983 15.26353 15.25752 15.25348 15.24428 15.24285 15.25852 15.2807 15.30694 15.32717 15.35481 15.36736 15.38313 15.38383 15.38586 15.37337 15.3583 15.33154 15.32324 15.30653 15.267 15.22102 15.19608 15.18164 15.1669 15.17364 15.18499 15.19351 15.19417 15.20339 15.19668 15.20032 15.20958 15.21264 15.22416 15.23592 15.24662 15.25904 15.27082 15.28555 15.30051 15.31307 15.32513 15.33791 15.34717 15.35271 15.35614 15.35287 15.34092 15.32958 15.3211 15.31945 15.31705 15.3201 15.32861 15.33647
0 0 0 0 0 0 0 0 0 0 0 0 0 0 0 0 0 0 0 0 0 0 0 0 0 0 0 0 0 0 0 0 0 0 0 0 0 0 0 17.28109 17.02621 16.4692 16.19525 15.37497 15.38906 15.41155 15.43001 15.44219 15.44509 15.43613 15.41984 15.38629 15.34461 15.31948 15.31183 15.31011 15.30803 15.30887 15.31103 15.32081 15.33136 15.35127 15.37478 15.39656 15.42101 15.43647 15.44581 15.44728 15.43436 15.42556 15.41436 15.39567 15.37245 15.3405 15.31161 15.28374 15.26605 15.2552 15.25668 15.26486 15.26312 15.25979 15.25443 15.24882 15.25033 15.25983 15.26909 15.28163 15.28907 15.29758 15.30748 15.31924 15.32996 15.34756 15.36001 15.37111 15.38096 15.38545 15.3912 15.38936 15.38381 15.37197 15.35937 15.35343 15.35131 15.34912 15.35443 15.3613 15.37225
0 0 0 0 0 0 0 0 0 0 0 0 0 0 0 0 0 0 0 0 0 0 0 0 0 0 0 0 0 0 0 0 0 0 0 0 0 0 16.4971 16.19141 15.92932 15.40017 15.42018 15.44176 15.45911 15.47316 15.48246 15.48797 15.48657 15.4731 15.45428 15.43186 15.41211 15.37396 15.35671 15.3525 15.35456 15.3569 15.36022 15.38011 15.39836 15.41004 15.43271 15.45528 15.46899 15.49001 15.50351 15.50722 15.50614 15.49723 15.48914 15.46837 15.43673 15.40922 15.36929 15.34771 15.33238 15.32158 15.32247 15.32251 15.3192 15.32009 15.31854 15.31547 15.3136 15.31931 15.33317 15.33682 15.34062 15.34784 15.3524 15.35871 15.36745 15.38102 15.39303 15.4011 15.41142 15.41786 15.41584 15.41413 15.41147 15.40158 15.39291 15.3923 15.38977 15.38876 15.39159 15.40258 15.4127
0 0 0 0 0 0 0 0 0 0 0 0 0 0 0 0 0 0 0 0 0 0 0 0 0 0 0 0 0 0 0 0 0 0 18.18808 18.80382 17.93302 16.23853 15.39074 15.40746 15.42976 15.44713 15.46264 15.47982 15.49913 15.50719 15.51016 15.51817 15.5218 15.52446 15.51231 15.50234 15.48719 15.45751 15.4327 15.41905 15.4112 15.40255 15.41807 15.42722 15.44211 15.45336 15.46998 15.4884 15.50735 15.53311 15.54816 15.56 15.56766 15.56853 15.55957 15.53796 15.51234 15.49504 15.45905 15.42537 15.41305 15.39698 15.38579 15.38543 15.37477 15.37123 15.36701 15.36127 15.36194 15.37013 15.37996 15.38424 15.3879 15.39539 15.40334 15.41144 15.42076 15.43016 15.43463 15.44028 15.44228 15.44596 15.44106 15.43782 15.43449 15.42713 15.4179 15.41635 15.4199 15.4245 15.43657 15.45273 15.46018
0 0 0 0 0 0 0 0 0 0 0 0 0 0 0 0 0 0 0 0 0 0 0 0 0 0 0 0 0 18.65938 18.25335 18.03528 18.03116 17.80378 17.5149 16.92707 15.42663 15.43581 15.44567 15.45634 15.47435 15.48246 15.4967 15.51029 15.52255 15.52711 15.541 15.54342 15.55181 15.55754 15.55932 15.55336 15.54031 15.51557 15.48443 15.4709 15.46012 15.46446 15.48624 15.48575 15.49924 15.50978 15.52112 15.54127 15.56127 15.5764 15.59099 15.59769 15.60217 15.60268 15.60207 15.58898 15.57547 15.56253 15.53101 15.51223 15.49232 15.47117 15.46404 15.46173 15.45157 15.44644 15.43838 15.42736 15.42314 15.42478 15.42366 15.42928 15.42829 15.43717 15.44307 15.44927 15.46186 15.46858 15.47539 15.4776 15.47288 15.47442 15.47434 15.47227 15.46677 15.4606 15.45329 15.45279 15.45754 15.46426 15.47575 15.49018 15.4822
0 0 0 0 0 0 0 0 0 0 0 0 0 0 0 0 0 0 0 0 0 0 0 0 0 18.42919 17.70441 17.70632 16.75503 16.09324 15.77635 15.48817 15.48456 15.48014 15.47062 15.46359 15.46148 15.46233 15.47419 15.48843 15.49943 15.50944 15.5219 15.53652 15.54587 15.55963 15.57743 15.58892 15.60233 15.61137 15.61898 15.60674 15.59693 15.57197 15.53424 15.51525 15.50333 15.51158 15.51662 15.52688 15.54458 15.55583 15.56743 15.58607 15.60293 15.62677 15.63814 15.64483 15.65318 15.65856 15.65593 15.6426 15.63291 15.6232 15.60338 15.58005 15.56073 15.54317 15.53016 15.5263 15.51675 15.50925 15.50568 15.49462 15.48392 15.48581 15.48387 15.48666 15.48649 15.48781 15.49239 15.50013 15.5065 15.50958 15.51072 15.50576 15.4974 15.49584 15.49762 15.49779 15.49434 15.49106 15.48768 15.4913 15.49916 15.51122 15.51854 15.51468 15.48462
0 0 0 0 0 0 0 0 0 0 0 0 0 0 0 0 0 0 0 0 0 0 0 18.59154 17.73808 17.15969 16.83689 16.50479 15.54423 15.53592 15.52627 15.52021 15.5158 15.50952 15.49483 15.48491 15.48213 15.4905 15.50072 15.51291 15.52237 15.52588 15.53514 15.54559 15.55716 15.57227 15.59761 15.62193 15.63766 15.65237 15.65813 15.65123 15.6404 15.61763 15.58624 15.55921 15.5538 15.55468 15.56125 15.57446 15.58673 15.59108 15.60349 15.61636 15.63768 15.65481 15.66156 15.67417 15.68505 15.69244 15.69888 15.69812 15.69839 15.69674 15.68195 15.66102 15.64654 15.63046 15.62132 15.6119 15.59863 15.58543 15.56972 15.55255 15.54242 15.53626 15.53101 15.52973 15.53129 15.53196 15.53281 15.53949 15.54706 15.54817 15.54594 15.53681 15.52747 15.524 15.52559 15.53064 15.52826 15.52415 15.52163 15.52466 15.53641 15.54449 15.54169 15.52445 15.48043
0 0 0 0 0 0 0 0 0 0 0 0 0 0 0 0 0 0 0 0 0 0 18.00816 17.16258 16.8491 16.85506 16.53258 16.18812 15.55569 15.53733 15.52648 15.51846 15.50968 15.50756 15.50146 15.49737 15.49771 15.49993 15.5098 15.51985 15.52714 15.53591 15.54381 15.56036 15.56502 15.58314 15.6099 15.6393 15.66219 15.67696 15.68009 15.67053 15.65762 15.63861 15.61472 15.59822 15.59025 15.58739 15.59519 15.60657 15.61514 15.62417 15.63817 15.65284 15.66446 15.68718 15.70192 15.71909 15.72946 15.73179 15.74134 15.74375 15.74985 15.7469 15.7307 15.71785 15.70774 15.69537 15.6911 15.67974 15.66893 15.65777 15.64616 15.62676 15.61275 15.60908 15.60341 15.60054 15.59494 15.58797 15.58241 15.58251 15.58127 15.58015 15.57233 15.56098 15.55494 15.55228 15.55444 15.55648 15.55588 15.55692 15.55895 15.56557 15.57806 15.57741 15.56406 15.52915 15.47675
0 0 0 0 0 0 0 0 0 0 0 0 0 0 0 0 0 0 0 0 0 19.21096 18.21562 17.14335 16.52415 16.52026 16.18488 16.17759 15.53932 15.52461 15.51466 15.50654 15.50205 15.49969 15.49125 15.48609 15.48506 15.48987 15.49993 15.51301 15.52125 15.52874 15.53783 15.54603 15.55783 15.58071 15.61244 15.63824 15.65919 15.67291 15.67313 15.6702 15.66371 15.64663 15.62972 15.61832 15.6158 15.61788 15.62563 15.63124 15.63732 15.6466 15.65985 15.67382 15.6919 15.71342 15.73136 15.74993 15.75927 15.77207 15.78197 15.78668 15.79723 15.79554 15.78476 15.78115 15.76693 15.75548 15.74575 15.74144 15.72076 15.70897 15.69187 15.67535 15.66994 15.6655 15.66462 15.66175 15.65466 15.64656 15.63486 15.63165 15.62511 15.61888 15.6099 15.60103 15.59156 15.5895 15.58746 15.58299 15.58029 15.5825 15.58722 15.59578 15.60235 15.59878 15.57222 15.52791 15.46733
0 0 0 0 0 0 0 0 0 0 0 0 0 0 0 0 0 0 0 0 0 0 0 17.73097 16.84283 16.5192 16.17735 15.85028 15.52243 15.5074 15.49901 15.49803 15.49173 15.48749 15.48285 15.47777 15.47359 15.48466 15.48859 15.49942 15.50678 15.51566 15.52587 15.53775 15.5517 15.57137 15.59753 15.61928 15.63802 15.652 15.66331 15.67513 15.67389 15.66568 15.65499 15.6488 15.64544 15.64935 15.65647 15.66783 15.67596 15.68299 15.68764 15.70094 15.71848 15.73251 15.75168 15.76713 15.77802 15.79552 15.80922 15.81757 15.8249 15.82753 15.82947 15.82949 15.82194 15.8117 15.80758 15.80234 15.78871 15.77524 15.7589 15.74608 15.73831 15.73413 15.72571 15.71619 15.70386 15.6894 15.67856 15.66919 15.65744 15.64707 15.64321 15.63898 15.63485 15.63141 15.62874 15.62582 15.62535 15.62508 15.62783 15.63562 15.63694 15.61905 15.58436 15.5336 15.46197
0 0 0 0 0 0 0 0 0 0 0 0 0 0 0 0 0 0 0 0 0 19.60205 19.32874 18.3473 16.87222 16.53265 16.18832 16.17434 15.81717 15.49688 15.48925 15.48342 15.48346 15.48087 15.4745 15.47294 15.47573 15.47949 15.48545 15.49272 15.50393 15.51597 15.52749 15.5377 15.54659 15.56161 15.58088 15.60162 15.62202 15.64027 15.65593 15.67038 15.67739 15.6799 15.6755 15.67275 15.67153 15.67652 15.68105 15.69254 15.698 15.71113 15.71875 15.72875 15.74706 15.76338 15.78137 15.80074 15.80948 15.82162 15.83591 15.84359 15.8556 15.86515 15.8695 15.86711 15.86203 15.85658 15.85249 15.84753 15.83626 15.8221 15.81355 15.8079 15.80389 15.79715 15.78577 15.77277 15.7557 15.7427 15.72502 15.71146 15.69761 15.68986 15.68309 15.67534 15.67158 15.67073 15.6668 15.66323 15.6606 15.65806 15.66373 15.66711 15.66068 15.63856 15.59924 15.5424 15.46157
0 0 0 0 0 0 0 0 0 0 0 0 0 0 0 0 0 0 0 19.58983 19.5463 19.46417 18.63499 17.54292 16.90808 16.56869 16.2032 16.51832 15.51784 15.49018 15.48037 15.47699 15.47904 15.47664 15.47354 15.47562 15.47802 15.48311 15.48985 15.49848 15.5076 15.51758 15.52669 15.53251 15.53784 15.55041 15.56712 15.59177 15.61616 15.63889 15.65741 15.67533 15.68971 15.69867 15.70502 15.70608 15.70924 15.71202 15.72034 15.72329 15.72862 15.73237 15.74432 15.75823 15.77091 15.78436 15.80177 15.81954 15.83295 15.84488 15.85881 15.87303 15.89052 15.90356 15.91334 15.9189 15.92023 15.92073 15.91618 15.91348 15.89945 15.8876 15.87479 15.86817 15.85757 15.84197 15.82868 15.81229 15.7948 15.77264 15.75883 15.7521 15.742 15.73328 15.72803 15.72539 15.72556 15.7242 15.72078 15.71557 15.70981 15.70454 15.70307 15.69821 15.68342 15.65316 15.61186 15.5526 15.46859
0 0 0 0 0 0 0 0 0 0 0 0 0 0 0 0 0 0 19.08872 18.97856 18.6356 18.19212 17.57812 16.92894 16.61 16.59035 16.21644 15.85903 15.52137 15.48636 15.47778 15.47416 15.47695 15.47192 15.47134 15.47718 15.48331 15.49216 15.5013 15.50845 15.51409 15.52159 15.53131 15.5324 15.53813 15.55314 15.57229 15.5987 15.62454 15.64911 15.67173 15.6934 15.71052 15.72103 15.73327 15.74234 15.74661 15.75485 15.75546 15.76192 15.76533 15.76782 15.77275 15.78287 15.7993 15.81567 15.82822 15.8397 15.85111 15.8624 15.88131 15.89747 15.91426 15.92834 15.94315 15.95615 15.96337 15.96912 15.96988 15.97042 15.96283 15.94858 15.94398 15.93344 15.91964 15.89815 15.87651 15.8578 15.83586 15.81568 15.80145 15.78752 15.77946 15.77056 15.76277 15.76327 15.7658 15.76455 15.76049 15.75726 15.75548 15.74857 15.74211 15.73294 15.71259 15.68031 15.64036 15.57885 15.4988
0 0 0 0 0 0 0 0 0 0 0 0 0 0 0 0 0 19.51813 18.98514 18.37194 17.88939 17.28045 16.95535 16.9641 16.96762 16.58298 16.21384 15.5452 15.50785 15.47764 15.47013 15.46572 15.46654 15.46383 15.46841 15.47261 15.47976 15.49173 15.49989 15.50827 15.51566 15.52345 15.53199 15.54424 15.55725 15.57379 15.59918 15.62419 15.64942 15.67465 15.70174 15.72476 15.74311 15.75841 15.76647 15.7745 15.78383 15.78884 15.79215 15.80193 15.80628 15.80535 15.80619 15.81225 15.82407 15.84498 15.8557 15.86665 15.86901 15.88286 15.90276 15.92282 15.94512 15.96186 15.97539 15.98908 16.00158 16.0089 16.01786 16.0174 16.01154 15.99717 15.99045 15.97854 15.95991 15.93746 15.91611 15.89696 15.87774 15.85956 15.84518 15.83297 15.82612 15.81809 15.81037 15.8081 15.80821 15.80466 15.8012 15.79388 15.78863 15.78429 15.77586 15.76176 15.74111 15.70896 15.66808 15.60911 15.53848
0 0 0 0 0 0 0 0 0 0 0 0 0 0 0 0 19.00294 18.99182 18.14756 17.5855 17.28826 16.96044 16.95051 16.959 16.94962 16.56793 16.19349 15.53619 15.49513 15.47195 15.46293 15.45918 15.45836 15.46428 15.4702 15.47822 15.48331 15.48902 15.49919 15.50932 15.52254 15.53709 15.55171 15.56942 15.58774 15.60857 15.62966 15.65508 15.67832 15.70475 15.73329 15.75832 15.77831 15.7934 15.80488 15.8146 15.82773 15.8336 15.83832 15.84295 15.84348 15.84471 15.84496 15.84305 15.85137 15.85754 15.8695 15.87854 15.88243 15.89484 15.91614 15.94011 15.96438 15.9829 16.00225 16.01863 16.03678 16.05186 16.064 16.07089 16.06555 16.05767 16.04445 16.02693 16.00535 15.98341 15.95818 15.93017 15.90742 15.8869 15.87107 15.86051 15.85607 15.85196 15.84806 15.84464 15.84104 15.83705 15.83386 15.82677 15.82312 15.81905 15.81316 15.80031 15.78209 15.75056 15.70587 15.64972 15.57897
0 0 0 0 0 0 0 0 0 0 0 0 0 0 0 19.55051 18.82025 18.134 17.56126 17.26553 16.93312 16.93751 16.94565 16.59316 16.57126 16.21279 15.54611 15.51453 15.48181 15.46439 15.45394 15.45441 15.45892 15.46465 15.46974 15.47732 15.48644 15.49917 15.51152 15.5245 15.54729 15.56573 15.58556 15.60902 15.63148 15.65384 15.67438 15.69906 15.72105 15.74431 15.76641 15.79441 15.8149 15.82853 15.83876 15.84909 15.86302 15.86946 15.87825 15.88796 15.89321 15.89641 15.89584 15.888 15.87896 15.87887 15.88131 15.88677 15.89605 15.90604 15.92805 15.95017 15.97479 15.99745 16.01897 16.04554 16.06331 16.0743 16.08493 16.09237 16.09261 16.08701 16.08185 16.06425 16.04979 16.02927 16.00196 15.97377 15.95109 15.92347 15.90754 15.89455 15.88944 15.88352 15.87568 15.87149 15.86377 15.85919 15.85389 15.84792 15.84202 15.83846 15.83515 15.82585 15.81136 15.78624 15.74603 15.6916 15.62577
0 0 0 0 0 0 0 0 0 0 0 0 0 0 18.88534 18.87934 18.1687 17.55746 17.24177 16.90763 16.9132 16.55703 16.55465 16.54675 16.19993 15.84739 15.51745 15.49345 15.47037 15.45829 15.45418 15.45798 15.46205 15.47195 15.47894 15.48757 15.49968 15.51131 15.52323 15.5451 15.57566 15.59792 15.62913 15.65937 15.68445 15.70783 15.73557 15.7611 15.7871 15.80788 15.82807 15.8461 15.85869 15.87003 15.88165 15.89143 15.89491 15.90616 15.92053 15.93642 15.9401 15.94439 15.94954 15.9389 15.92394 15.90786 15.89961 15.90014 15.91235 15.91768 15.93473 15.95938 15.98678 16.01233 16.04375 16.07078 16.09212 16.10331 16.11322 16.11747 16.11708 16.11273 16.10558 16.09285 16.08179 16.06553 16.03973 16.01182 15.98207 15.95897 15.94244 15.92811 15.92063 15.9131 15.90748 15.89728 15.88865 15.88194 15.87627 15.87218 15.86604 15.8627 15.85829 15.84804 15.83081 15.80575 15.7673 15.71652 15.65292
0 0 0 0 0 0 0 0 0 0 0 0 0 18.75362 18.93561 18.17588 17.54986 17.23347 16.89169 16.89157 16.53927 16.52216 16.52195 16.51727 16.16038 15.51132 15.49107 15.47756 15.46209 15.45587 15.45938 15.46835 15.47887 15.49173 15.50099 15.51286 15.5222 15.53394 15.55626 15.58255 15.6153 15.6508 15.68622 15.71309 15.74202 15.7691 15.79966 15.82706 15.84936 15.86759 15.87839 15.89299 15.90559 15.91278 15.92052 15.92664 15.92495 15.93772 0 0 0 15.94468 15.9596 16.00559 15.98818 15.95505 15.93121 15.91999 15.92198 15.92309 15.93731 15.95738 15.99006 16.02234 16.05411 16.0849 16.10651 16.12866 16.14278 16.14856 16.15052 16.14925 16.14161 16.13221 16.12248 16.10891 16.08387 16.05947 16.03057 16.00432 15.9827 15.96512 15.95249 15.94213 15.93713 15.92694 15.91407 15.90591 15.90074 15.89687 15.89258 15.89143 15.88735 15.87823 15.86015 15.83537 15.79731 15.74424 15.67385
0 0 0 0 0 0 0 0 0 0 0 0 0 19.13042 18.19482 17.56425 17.2148 16.86038 16.86946 16.51018 16.49934 16.49252 16.49677 15.51084 15.50211 15.48926 15.47567 15.46545 15.45853 15.45667 15.46419 15.47804 15.49384 15.50668 15.51832 15.53529 15.55157 15.57081 15.59676 15.63757 15.68044 15.72623 15.76336 15.79058 15.81829 15.85022 15.88165 15.906 15.91902 15.92981 15.9393 16.7081 15.95759 15.95228 15.95307 16.3124 17.09253 17.88718 0 0 0 0 0 16.41517 16.02751 15.9977 15.9664 15.94611 15.92929 15.92657 15.93772 15.95939 15.99207 16.02449 16.06396 16.09556 16.12534 16.14577 16.16245 16.16823 16.17155 16.16715 16.16488 16.15968 16.15342 16.14336 16.1269 16.10974 16.0867 16.05987 16.03873 16.02135 16.00868 15.99273 15.98139 15.96784 15.95439 15.94375 15.93233 15.92543 15.91838 15.9151 15.91184 15.90309 15.88461 15.86035 15.82179 15.76807 15.6927
0 0 0 0 0 0 0 0 0 0 0 0 19.25564 18.45987 17.53397 17.19284 16.82545 16.47804 16.48394 16.48668 16.48047 16.47992 16.13571 15.49479 15.48242 15.47053 15.46361 15.4644 15.46129 15.46563 15.47885 15.49573 15.51245 15.52532 15.53748 15.55682 15.57702 15.60461 15.64133 15.69081 15.73578 15.78173 15.82008 15.85521 15.8922 15.91619 15.9273 0 0 15.92938 0 17.59756 16.78147 16.3609 16.74613 16.72657 17.51428 17.93336 18.89224 16.70165 15.97596 0 0 0 17.63942 16.00782 15.97548 15.95448 15.93321 15.92862 15.93641 15.95732 15.99055 16.02865 16.06698 16.10699 16.14297 16.16993 16.18916 16.19677 16.19711 16.19287 16.19042 16.18509 16.17962 16.17347 16.15916 16.14551 16.12627 16.10491 16.08514 16.06465 16.04968 16.03878 16.02365 16.00847 15.99106 15.98184 15.97215 15.96255 15.95571 15.95049 15.94362 15.93192 15.91234 15.88665 15.84875 15.78896 15.71177
0 0 0 0 0 0 0 0 0 0 0 18.48158 18.46642 17.51675 17.16637 16.44625 16.46855 16.47603 16.47571 16.48142 16.48554 15.81485 15.49757 15.48447 15.474 15.46478 15.46474 15.46563 15.46814 15.48028 15.49416 15.51054 15.52885 15.54789 15.5617 15.58598 15.61302 15.65484 15.6989 15.75646 15.80717 15.85002 15.88256 15.9091 16.70392 0 0 0 0 0 18.38696 19.17636 18.93004 18.34732 17.9735 17.53798 17.5243 16.3356 15.96683 15.97272 15.97482 15.98034 15.98234 18.01348 18.37786 15.99396 15.96623 15.94931 15.93744 15.92774 15.9369 15.95696 15.98678 16.02465 16.06873 16.1103 16.14761 16.17661 16.1992 16.21305 16.21803 16.21842 16.21711 16.21166 16.20746 16.20367 16.19851 16.18806 16.17346 16.15464 16.13205 16.11165 16.09377 16.07813 16.06045 16.04384 16.02813 16.01367 16.00259 15.99468 15.98757 15.98059 15.9667 15.95425 15.93649 15.91159 15.87397 15.81587 15.73877
0 0 0 0 0 0 0 0 0 0 19.23182 18.49673 17.51222 16.78785 16.44417 16.1164 16.14161 16.14869 16.15015 16.1506 16.1478 15.50567 15.49388 15.48517 15.47542 15.46648 15.46984 15.47959 15.48625 15.49487 15.50879 15.52601 15.54347 15.55929 15.57934 15.61159 15.65317 15.70217 15.75533 15.81447 15.87101 15.91223 16.30052 0 0 0 0 0 0 0 0 0 0 0 18.3434 17.97181 17.14821 15.97126 15.98429 15.99148 15.99475 15.98724 15.98346 15.98766 15.98647 15.98069 15.9602 15.94415 15.94824 15.9424 15.94744 15.96496 15.99269 16.03374 16.07637 16.11937 16.15453 16.18268 16.20731 16.2245 16.23246 16.23205 16.22824 16.22805 16.22439 16.2237 16.22221 16.21647 16.20517 16.19165 16.17347 16.15715 16.13915 16.12562 16.10504 16.08683 16.07033 16.05771 16.04548 16.03615 16.03041 16.01503 15.99631 15.97563 15.95267 15.92691 15.88968 15.83476 15.76331
0 0 0 0 0 0 0 0 0 0 18.8049 17.52089 16.78905 16.43909 15.79691 15.80429 15.51615 15.51763 15.52352 15.52228 15.51017 15.49682 15.49281 15.49177 15.48533 15.48035 15.48979 15.50203 15.51233 15.52576 15.53935 15.54953 15.56466 15.58222 15.60686 15.64582 15.69106 15.73898 15.79426 15.84903 17.05938 0 0 0 0 0 0 0 0 0 0 0 0 0 18.98739 17.60256 15.9954 15.99859 16.00845 16.0209 16.03255 16.02952 16.02222 16.00915 15.99794 15.98412 15.9694 15.95744 15.96334 15.95752 15.9649 15.98264 16.00596 16.04581 16.08709 16.12667 16.16293 16.19424 16.22098 16.23571 16.2447 16.2477 16.24791 16.24789 16.24558 16.24377 16.24295 16.2391 16.23026 16.2197 16.20579 16.18996 16.17526 16.15851 16.13854 16.11942 16.10306 16.09295 16.08245 16.07719 16.07077 16.05326 16.0267 16.00096 15.98026 15.95229 15.91133 15.85883 15.78557
0 0 0 0 0 0 0 0 0 18.90452 18.2572 17.1692 16.43825 15.78298 15.49322 15.49656 15.49487 15.4918 15.49899 15.50317 15.49969 15.49135 15.49262 15.49734 15.49295 15.49686 15.50488 15.52087 15.53689 15.55194 15.56496 15.57751 15.59145 15.61175 15.64254 15.6834 15.72537 15.77722 15.83171 16.62755 16.85699 0 0 0 0 0 0 0 0 0 0 0 0 18.26384 18.03155 16.79835 16.00653 16.01927 16.03923 16.05664 16.07015 16.07391 16.06738 16.05478 16.03481 16.01382 16.0027 15.99224 15.98713 15.98274 15.98794 16.00354 16.02419 16.05917 16.09773 16.13489 16.17111 16.20244 16.22688 16.24416 16.25653 16.25925 16.26424 16.26464 16.26558 16.26617 16.26443 16.26257 16.26234 16.25404 16.24282 16.22841 16.20823 16.19167 16.17381 16.15666 16.13951 16.12423 16.1121 16.10799 16.09731 16.07885 16.04702 16.02234 15.99919 15.96616 15.92356 15.86688 15.79736
0 0 0 0 0 0 0 0 19.72154 18.60688 17.1773 16.42823 16.08394 15.47225 15.46581 15.45741 15.45731 15.46385 15.47153 15.47416 15.47971 15.48295 15.49489 15.50505 15.50596 15.51618 15.53291 15.55205 15.56558 15.58039 15.59123 15.60037 15.61726 15.63865 15.67057 15.71018 15.75084 15.79629 16.19628 16.62933 17.07538 17.90129 0 18.73589 19.32518 0 0 0 0 0 0 0 19.03905 18.03775 17.22347 16.01423 16.02296 16.04506 16.06996 16.0871 16.09199 16.09045 16.08405 16.07065 16.05464 16.04123 16.03013 16.0218 16.0139 16.01575 16.02226 16.03353 16.05587 16.07992 16.11481 16.15522 16.18804 16.21922 16.24493 16.26646 16.27509 16.27957 16.28088 16.28125 16.28302 16.28524 16.28649 16.28829 16.28501 16.27751 16.26679 16.25276 16.23868 16.22604 16.21102 16.19532 16.18199 16.16663 16.15824 16.14568 16.13158 16.10765 16.07247 16.04309 16.01175 15.97565 15.9266 15.8718 15.80114
0 0 0 0 0 0 0 0 19.72287 18.59912 17.16847 16.41334 15.4542 15.44688 15.43797 15.42681 15.43234 15.44049 15.44718 15.45835 15.47079 15.48103 15.49756 15.51081 15.52475 15.54722 15.5716 15.59447 15.61397 15.62738 15.64254 15.65266 15.66428 15.68262 15.711 15.74774 15.78006 15.81094 15.83793 16.23911 16.64876 17.07799 17.51596 17.94975 18.7395 0 0 0 0 0 0 18.43619 17.63646 17.63306 16.00988 16.02836 16.05685 16.08495 16.1047 16.11388 16.11902 16.11036 16.10016 16.0876 16.07269 16.05782 16.0491 16.04218 16.04033 16.04115 16.04387 16.06218 16.08165 16.10305 16.13447 16.17234 16.20728 16.23822 16.26657 16.2901 16.30121 16.30494 16.3061 16.31064 16.31574 16.31615 16.31792 16.31713 16.31388 16.30337 16.29083 16.27775 16.2617 16.24844 16.23593 16.22049 16.20699 16.1942 16.18369 16.17098 16.15455 16.12768 16.09592 16.06146 16.02299 15.9801 15.93123 15.87599 15.80816
0 0 0 0 0 0 0 0 0 18.59925 17.1659 16.40511 15.43575 15.42404 15.41432 15.40567 15.41019 15.42009 15.43239 15.44753 15.46734 15.48091 15.49685 15.5215 15.54328 15.57198 15.60537 15.64242 15.67246 15.69232 15.70978 15.71891 15.72496 15.73474 15.75673 15.78561 15.80917 15.82849 15.85039 15.86235 15.87827 15.89219 15.90998 16.29473 17.12675 17.94908 18.75794 19.09883 0 0 18.7303 17.61377 16.78934 16.00481 16.0254 16.05516 16.09197 16.11413 16.13103 16.13793 16.13661 16.13183 16.12411 16.11242 16.09894 16.08549 16.07688 16.0706 16.06921 16.06905 16.0786 16.08907 16.10871 16.1311 16.15865 16.1898 16.22425 16.25471 16.28659 16.30675 16.32027 16.32686 16.32675 16.33286 16.33779 16.3422 16.34478 16.34551 16.34096 16.33137 16.31898 16.30709 16.29115 16.28003 16.26727 16.25174 16.23617 16.22247 16.20876 16.18979 16.1713 16.14135 16.10476 16.07005 16.03136 15.98405 15.93184 15.87269 15.80544
0 0 0 0 0 0 0 0 0 19.58698 17.93105 16.77381 15.72124 15.41808 15.39808 15.3909 15.39274 15.40391 15.42307 15.44054 15.46352 15.4835 15.50555 15.53562 15.56876 15.60809 15.6583 15.70563 15.73642 15.75994 15.77339 15.77591 15.77846 15.78503 15.79511 15.81581 15.83502 15.84884 15.86102 15.86809 15.87924 15.88847 15.90267 15.91671 16.30033 16.7177 17.14165 17.55236 18.73902 17.591 16.34982 15.98379 16.00307 16.02396 16.05425 16.08757 16.11864 16.13906 16.15006 16.15235 16.14632 16.14068 16.13448 16.12508 16.11362 16.10688 16.0983 16.09385 16.09291 16.09687 16.10646 16.12082 16.1383 16.1632 16.18878 16.21722 16.24753 16.27754 16.30571 16.3231 16.33265 16.34387 16.34362 16.35074 16.35666 16.36538 16.36726 16.36557 16.362 16.35423 16.34319 16.33134 16.31662 16.30424 16.29223 16.27724 16.26281 16.24786 16.23171 16.21341 16.19095 16.15995 16.11895 16.08146 16.04149 15.98773 15.93003 15.86641 15.79504
0 0 0 0 0 0 0 0 0 19.73555 18.9202 17.16214 16.03555 15.41077 15.39339 15.38478 15.38103 15.39391 15.41418 15.43553 15.45539 15.48207 15.51224 15.54692 15.59242 15.65285 15.71687 15.77594 15.81659 15.83174 15.83767 15.83886 15.83691 15.8364 15.8362 15.84846 15.8607 15.86855 15.87612 15.87711 15.8832 15.89163 15.90694 15.92259 15.93687 15.94995 16.33825 0 17.60049 16.36697 16.00387 16.02222 16.04608 16.06927 16.09703 16.12386 16.14985 16.16404 16.16912 16.16772 16.16348 16.156 16.15263 16.14489 16.13778 16.132 16.12334 16.11665 16.11613 16.1207 16.13025 16.14124 16.15877 16.18315 16.2105 16.23589 16.26332 16.29117 16.31404 16.33211 16.34377 16.35315 16.35829 16.36663 16.37486 16.38534 16.38821 16.38912 16.38695 16.37838 16.37156 16.36068 16.34579 16.32977 16.31515 16.29715 16.28229 16.2694 16.25097 16.22974 16.20414 16.16879 16.12972 16.09612 16.0512 15.99236 15.92827 15.86063 15.77904
0 0 0 0 0 0 0 0 0 0 19.44927 17.95067 16.37683 15.68637 15.39347 15.3867 15.37567 15.38268 15.40085 15.41705 15.44454 15.47914 15.5143 15.55577 15.60946 15.67983 15.75613 15.81411 0 0 0 16.07579 15.86567 15.86903 15.86914 15.87519 15.88221 15.89046 15.89411 15.89298 15.89219 15.90029 15.91332 15.92903 15.94776 15.96675 15.98963 16.39019 16.01111 16.02232 16.04331 16.06633 16.09005 16.1164 16.13561 16.15745 16.1716 16.18132 16.18378 16.18515 16.1842 16.18385 16.17482 16.17386 16.16844 16.15854 16.15555 16.15059 16.14951 16.15151 16.1582 16.16887 16.18472 16.20325 16.23022 16.25752 16.28149 16.30659 16.32544 16.3459 16.35432 16.3608 16.37306 16.38354 16.38999 16.40296 16.40927 16.41006 16.4074 16.40474 16.40124 16.39232 16.37787 16.36215 16.34475 16.32975 16.31284 16.2942 16.27381 16.24951 16.22063 16.1864 16.14879 16.10925 16.05864 15.99764 15.93027 15.85762 15.76908
0 0 0 0 0 0 0 0 0 0 0 19.29421 17.90301 16.35155 15.67446 15.37883 15.36583 15.37735 15.38474 15.40407 15.43598 15.47398 15.51673 15.55998 15.61805 15.69567 16.11902 16.53514 0 0 0 16.70888 16.99986 15.87776 15.88167 15.8831 15.89449 15.90183 15.90622 15.90508 15.90097 15.90711 15.92076 15.94206 15.96818 15.98932 16.00772 16.02668 16.03959 16.05754 16.08175 16.10995 16.13489 16.1559 16.17182 16.18483 16.19298 16.19792 16.20194 16.20205 16.20277 16.2006 16.19741 16.18975 16.18901 16.18449 16.18237 16.18146 16.17929 16.18112 16.18605 16.20138 16.21526 16.23126 16.25308 16.27756 16.30269 16.32589 16.34751 16.3607 16.37197 16.38123 16.39132 16.40437 16.4136 16.42456 16.42937 16.43308 16.43167 16.42967 16.42412 16.416 16.40226 16.38863 16.37503 16.35995 16.34389 16.32549 16.29753 16.27249 16.24316 16.20547 16.16681 16.1236 16.07148 16.01223 15.94182 15.86649 15.77867
0 0 0 0 0 0 0 0 0 0 0 0 19.44762 18.20809 16.30643 15.6493 15.35001 15.35883 15.37661 15.39907 15.42801 15.46854 15.51614 15.56444 15.61915 15.69621 16.47116 0 0 18.07355 18.18694 16.61819 15.87374 15.8755 15.87374 15.8909 15.9002 15.91085 15.91734 15.91869 15.91482 15.91797 15.93132 15.95451 15.97998 16.00596 16.02796 16.04395 16.05874 16.08015 16.1099 16.1349 16.16098 16.18225 16.20079 16.21245 16.22491 16.22946 16.22666 16.22443 16.22535 16.22632 16.2245 16.21622 16.21333 16.21078 16.21094 16.207 16.20065 16.20691 16.21214 16.22601 16.23952 16.25497 16.27378 16.29874 16.3231 16.34975 16.36675 16.38128 16.39301 16.40488 16.41748 16.42944 16.43902 16.448 16.45347 16.45623 16.45707 16.4528 16.44974 16.44168 16.42877 16.41484 16.3996 16.38577 16.36732 16.34609 16.32085 16.2926 16.26102 16.22243 16.18162 16.13573 16.08666 16.03188 15.96149 15.8895 15.81067
0 0 0 0 0 0 0 0 0 0 0 0 0 0 0 16.26485 15.61548 15.34389 15.36784 15.3927 15.43028 15.46644 15.51062 15.55932 15.60662 16.01293 16.08955 16.50357 16.90439 19.02147 18.1814 16.59655 15.86679 15.86723 15.86947 15.88692 15.90377 15.91954 15.92781 15.93202 15.93314 15.93625 15.94782 15.9659 15.99248 16.01664 16.03755 16.05422 16.07845 16.10367 16.13272 16.15937 16.18475 16.2064 16.2291 16.24195 16.25209 16.25589 16.25482 16.25069 16.24971 16.24664 16.24114 16.23854 16.23757 16.23495 16.22796 16.22607 16.22751 16.23798 16.24161 16.2494 16.26057 16.28072 16.30259 16.32609 16.35231 16.37215 16.38795 16.40226 16.41586 16.43072 16.43962 16.45263 16.46442 16.47028 16.47415 16.47675 16.47538 16.47161 16.46912 16.46242 16.45004 16.43703 16.42562 16.41046 16.39296 16.3701 16.34375 16.31738 16.28606 16.24594 16.20311 16.16037 16.11414 16.05782 15.99376 15.92215 15.8499
0 0 0 0 0 0 0 0 0 0 0 0 0 0 0 16.9433 16.25459 15.33733 15.37068 15.40002 15.43985 15.47481 15.51883 15.56492 15.60304 15.65677 16.43191 16.50054 16.91867 0 18.22055 15.8554 15.85897 15.86112 15.883 15.88762 15.9075 15.92556 15.93623 15.94219 15.9482 15.9543 15.96634 15.98258 16.00305 16.02718 16.04428 16.06478 16.09426 16.12448 16.16021 16.18764 16.2088 16.23091 16.25356 16.26739 16.27415 16.27627 16.27576 16.27325 16.26785 16.26345 16.25765 16.25278 16.25066 16.24797 16.24414 16.24428 16.24768 16.25581 16.26253 16.27168 16.28966 16.31465 16.33785 16.36135 16.37978 16.39987 16.41878 16.4334 16.44726 16.46124 16.47322 16.48219 16.4889 16.49338 16.49579 16.49485 16.49224 16.48632 16.48301 16.47595 16.46598 16.45709 16.44219 16.42926 16.41269 16.39089 16.36835 16.34379 16.30867 16.27452 16.23623 16.19765 16.15575 16.10147 16.04174 15.97458 15.91202
0 0 0 0 0 0 0 0 0 0 0 0 0 18.09099 17.74245 16.96555 16.28124 15.3528 15.38623 15.42131 15.45769 15.49298 15.5352 15.57632 15.61281 15.65347 16.79246 17.2392 17.69975 17.62927 18.6059 16.19535 15.84695 15.85957 15.87812 15.8983 15.92098 15.93645 15.94647 15.95118 15.95531 15.96675 15.98116 15.99983 16.01935 16.0381 16.05675 16.08242 16.11433 16.14546 16.17802 16.20366 16.23002 16.24869 16.26318 16.28044 16.28799 16.29338 16.29284 16.28995 16.28403 16.28369 16.27827 16.27216 16.26163 16.26167 16.2625 16.26467 16.27113 16.27634 16.28276 16.299 16.31838 16.3387 16.36804 16.39071 16.4069 16.42949 16.44832 16.46427 16.47401 16.48612 16.49575 16.50363 16.50946 16.51386 16.51599 16.51695 16.51164 16.50452 16.4985 16.49345 16.48344 16.47467 16.46208 16.44898 16.43413 16.41598 16.39735 16.3696 16.33769 16.30191 16.26299 16.22575 16.18281 16.13919 16.08807 16.03289 15.97631
0 0 0 0 0 0 0 0 0 0 0 0 17.30713 16.94449 16.98421 16.65128 15.98471 15.38324 15.4163 15.44987 15.486 15.52264 15.56433 15.60088 15.63526 15.67715 16.43808 16.48967 17.29733 18.11403 16.54868 15.81714 15.84289 15.87421 15.89991 15.9215 15.93812 15.95082 15.95957 15.96592 15.97328 15.98563 15.99869 16.01786 16.03813 16.05887 16.08224 16.10755 16.13544 16.16388 16.19046 16.21588 16.23563 16.25428 16.2719 16.28636 16.29682 16.30483 16.30598 16.30331 16.30008 16.30185 16.29598 16.28657 16.28418 16.28547 16.29247 16.29978 16.30702 16.31167 16.325 16.34216 16.36388 16.38713 16.41145 16.43382 16.45111 16.46845 16.48177 16.4935 16.50594 16.51454 16.5226 16.53205 16.53815 16.54216 16.54154 16.53758 16.5332 16.5272 16.5204 16.51418 16.50686 16.49691 16.48497 16.47184 16.46084 16.44498 16.4268 16.40328 16.37841 16.3492 16.31076 16.27731 16.24109 16.19651 16.14964 16.09928 16.04616
0 0 0 0 0 0 0 0 18.9593 18.33225 17.22677 16.4978 16.53481 16.55491 16.26962 16.34104 16.05186 15.43683 15.46719 15.50194 15.53596 15.57657 15.61402 15.6446 15.67619 15.7107 15.74831 15.7692 15.7905 15.80559 15.81727 15.83573 15.86268 15.89493 15.91637 15.93674 15.95372 15.96611 15.9735 15.97752 15.98801 16.00054 16.01749 16.03709 16.06062 16.08603 16.10975 16.12879 16.15182 16.18016 16.19912 16.22253 16.24196 16.26146 16.27974 16.28962 16.30442 16.31308 16.31637 16.31784 16.31763 16.31247 16.31108 16.30582 16.30301 16.31228 16.32082 16.32932 16.33931 16.35478 16.36962 16.39034 16.41061 16.43588 16.45424 16.47294 16.49296 16.50743 16.52105 16.53131 16.54005 16.54836 16.55304 16.56013 16.5681 16.56988 16.5635 16.55811 16.54914 16.54201 16.53743 16.53109 16.52335 16.51373 16.50319 16.49688 16.48111 16.46897 16.45455 16.43708 16.41614 16.39116 16.35894 16.32975 16.29825 16.26247 16.2213 16.17262 16.12366
0 0 0 0 0 0 0 17.93995 17.98671 16.44859 16.1159 16.12846 16.16859 16.23158 16.30476 16.04841 15.45675 15.4809 15.51244 15.55129 15.59315 15.62334 15.65739 15.69007 15.71867 15.74919 15.77919 15.8033 15.82744 15.84571 15.8619 15.88339 15.90779 15.92701 15.94143 15.95383 15.96802 15.97781 15.987 15.99054 15.99956 16.01155 16.03141 16.04899 16.07466 16.10089 16.12229 16.13872 16.15713 16.1745 16.1899 16.21198 16.23296 16.2549 16.27645 16.29247 16.30539 16.31514 16.32514 16.32988 16.33279 16.33582 16.33366 16.33431 16.33679 16.34289 16.35484 16.36802 16.37794 16.39515 16.41172 16.43479 16.45364 16.46952 16.49008 16.51092 16.52634 16.54187 16.55227 16.55963 16.57025 16.57613 16.57852 16.58586 16.59219 16.59379 16.58791 16.57709 16.56726 16.56227 16.55724 16.55268 16.54149 16.53518 16.52587 16.5207 16.50809 16.49644 16.48807 16.47469 16.45543 16.43372 16.40598 16.37847 16.35065 16.31736 16.28041 16.23574 16.1847
0 0 0 0 0 0 18.41195 18.3682 16.4456 16.07997 16.08507 16.12724 16.19566 15.95309 15.71803 15.4604 15.49374 15.52729 15.55986 15.60397 15.63908 15.66472 15.70101 15.72591 15.75342 15.77721 15.80468 15.8388 15.86341 15.88287 15.89695 15.92087 15.93959 15.95327 15.9601 15.96705 15.98073 15.99158 16.0042 16.01254 16.01762 16.02985 16.04464 16.06223 16.0858 16.10264 16.11704 16.13476 16.15051 16.16462 16.18499 16.20459 16.22743 16.24816 16.26588 16.2811 16.29667 16.30976 16.32343 16.33576 16.34481 16.34847 16.34949 16.35529 16.36355 16.3763 16.38711 16.40447 16.41821 16.43846 16.45587 16.47563 16.49427 16.51224 16.53219 16.54891 16.56143 16.57338 16.58283 16.58901 16.59545 16.59859 16.60443 16.60637 16.61109 16.61162 16.60278 16.59482 16.58521 16.57799 16.57539 16.57059 16.56164 16.55846 16.55154 16.54662 16.53589 16.52638 16.51714 16.51023 16.49922 16.48174 16.4593 16.43538 16.40758 16.37926 16.34548 16.30312 16.25551
0 0 0 0 0 0 19.30053 17.56713 16.41758 16.06959 15.79488 15.85684 15.63656 15.41068 15.46097 15.50301 15.54626 15.5749 15.61101 15.647 15.68116 15.71558 15.73986 15.76023 15.78847 15.8057 15.82947 15.86295 15.88832 15.90316 15.91784 15.93701 15.94953 15.96294 15.96796 15.97594 15.98584 15.99231 16.00479 16.01382 16.02499 16.03681 16.05546 16.07535 16.08956 16.10139 16.11112 16.12389 16.14265 16.16024 16.17621 16.19445 16.21529 16.23302 16.25195 16.26797 16.28409 16.30074 16.3182 16.3295 16.33914 16.34952 16.35934 16.37164 16.38563 16.40129 16.41629 16.43586 16.45412 16.4761 16.49122 16.51076 16.53112 16.54996 16.57054 16.58406 16.59531 16.60786 16.61216 16.6165 16.62074 16.62162 16.62818 16.62524 16.6275 16.62607 16.61951 16.61043 16.60442 16.5991 16.59499 16.59148 16.58332 16.57987 16.57764 16.57161 16.56027 16.55243 16.54649 16.54355 16.5353 16.52408 16.50682 16.4896 16.47055 16.44671 16.41577 16.37815 16.3348
0 0 0 0 0 19.321 18.8275 17.52392 16.41718 16.11602 15.55506 15.33731 15.39566 15.45039 15.50436 15.54623 15.58379 15.62109 15.65565 15.69061 15.72338 15.74895 15.78009 15.80358 15.82629 15.84287 15.86436 15.89583 15.91092 15.9292 15.94032 15.94941 15.96098 15.96835 15.97535 15.98314 15.99325 15.99946 16.01093 16.02029 16.03057 16.04579 16.06307 16.07468 16.09085 16.10184 16.11087 16.12652 16.14054 16.15931 16.17592 16.19387 16.20858 16.22826 16.24477 16.26323 16.28139 16.30127 16.31838 16.33112 16.34608 16.36275 16.38063 16.40188 16.42267 16.44197 16.45895 16.47804 16.49845 16.52278 16.53576 16.5533 16.57337 16.58502 16.60496 16.62231 16.63363 16.64593 16.64969 16.64582 16.64502 16.64871 16.64902 16.6497 16.65102 16.64569 16.64057 16.63359 16.62859 16.62084 16.61851 16.61592 16.6111 16.60634 16.6057 16.60147 16.59122 16.58135 16.57777 16.57561 16.57237 16.56559 16.55088 16.53435 16.51867 16.49482 16.46942 16.44049 16.4042
0 0 0 0 18.29635 17.81589 16.32982 16.02514 15.77028 15.26587 15.32722 15.38919 15.44129 15.4914 15.54134 15.58427 15.62078 15.65705 15.69133 15.72275 15.74529 15.7792 15.80874 15.83029 15.85492 15.87757 15.90184 15.92144 15.93213 15.9463 15.95401 15.96434 15.96963 15.97415 15.9815 15.98925 15.99536 16.0072 16.01401 16.02321 16.03571 16.04969 16.06407 16.07305 16.08656 16.10143 16.11296 16.12552 16.14022 16.1589 16.17848 16.19756 16.21536 16.23309 16.25229 16.2715 16.28509 16.30209 16.32263 16.34384 16.36312 16.38352 16.40306 16.43143 16.45334 16.47669 16.49579 16.52135 16.54535 16.56963 16.5862 16.60115 16.61524 16.62876 16.64987 16.66591 16.67692 16.68003 16.67928 16.68146 16.68046 16.68014 16.68108 16.68274 16.67978 16.67339 16.66349 16.65764 16.65288 16.64774 16.64478 16.64057 16.63435 16.63227 16.62968 16.62671 16.62305 16.62181 16.62286 16.62087 16.61916 16.61384 16.6033 16.59168 16.57821 16.56 16.54031 16.51238 16.482
0 0 0 0 19.39456 16.65394 15.16822 15.18958 15.251 15.31279 15.38638 15.44372 15.49574 15.54297 15.58982 15.63133 15.66917 15.69753 15.72934 15.75458 15.78173 15.81071 15.83509 15.85633 15.87394 15.89311 15.91737 15.93723 15.94744 15.95679 15.96305 15.96856 15.97679 15.97859 15.98577 15.9923 16.0043 16.01567 16.01951 16.0327 16.04575 16.052 16.05993 16.0748 16.09317 16.10502 16.11745 16.12964 16.14244 16.15786 16.1775 16.1964 16.21737 16.23693 16.25488 16.27566 16.2947 16.31323 16.33822 16.3584 16.37826 16.40243 16.43018 16.45758 16.48639 16.51148 16.53688 16.56478 16.58926 16.61286 16.63151 16.64707 16.65967 16.67009 16.68605 16.69855 16.70688 16.70985 16.71253 16.71748 16.71669 16.71618 16.71733 16.71701 16.71174 16.70697 16.69782 16.69169 16.68615 16.68165 16.67518 16.67107 16.66481 16.66091 16.65871 16.65519 16.65187 16.65376 16.65781 16.65915 16.65826 16.64931 16.64299 16.64048 16.6331 16.62282 16.60876 16.5874 16.56237
0 0 0 18.28171 17.79157 16.28345 15.15508 15.20971 15.28068 15.36134 15.4316 15.48682 15.54073 15.58152 15.62968 15.66877 15.7008 15.72883 15.7556 15.78232 15.80903 15.83762 15.85499 15.87431 15.88907 15.90549 15.92609 15.94237 15.95148 15.95622 15.96754 15.97634 15.98533 15.98952 15.99316 16.00323 16.01186 16.02373 16.02981 16.04554 16.05242 16.05514 16.06765 16.08751 16.10555 16.11386 16.12423 16.14067 16.15237 16.1664 16.18632 16.20253 16.22175 16.24092 16.25985 16.27833 16.30046 16.32088 16.34727 16.37175 16.39698 16.4245 16.45269 16.48022 16.50854 16.53571 16.56616 16.59401 16.622 16.64673 16.66902 16.68368 16.69814 16.70499 16.7159 16.73139 16.73782 16.74218 16.74489 16.74736 16.7472 16.75076 16.74667 16.74297 16.74258 16.74209 16.73358 16.72457 16.72189 16.71667 16.71278 16.71391 16.70536 16.70182 16.69748 16.69506 16.69423 16.69445 16.69861 16.70044 16.70129 16.69753 16.68945 16.68777 16.68379 16.67421 16.66064 16.64232 16.6204
0 0 0 18.18188 17.75883 16.2644 15.67742 15.22899 15.32775 15.40839 15.47063 15.52323 15.56843 15.61234 15.6592 15.68963 15.72399 15.74845 15.7688 15.79484 15.82307 15.84735 15.86929 15.88475 15.89839 15.91358 15.92676 15.93972 15.9475 15.95416 15.96766 15.97778 15.98859 15.99841 16.00504 16.00941 16.0143 16.02855 16.04035 16.04974 16.05661 16.06506 16.07324 16.08767 16.11226 16.12441 16.13582 16.15015 16.16376 16.17847 16.1929 16.21136 16.23156 16.24888 16.26788 16.28463 16.30484 16.33417 16.35945 16.38653 16.41721 16.4463 16.4727 16.50361 16.53085 16.56014 16.58797 16.61894 16.65091 16.68043 16.70302 16.72062 16.73388 16.74138 16.74661 16.75384 16.76482 16.76999 16.77288 16.77526 16.77407 16.77342 16.77378 16.77118 16.77139 16.7686 16.76484 16.76199 16.76009 16.76001 16.75738 16.75349 16.75106 16.74815 16.74847 16.74719 16.74762 16.74818 16.7536 16.7564 16.75919 16.7568 16.75364 16.7515 16.74927 16.74128 16.73116 16.716 16.68776
0 0 0 19.19785 17.98814 16.24353 15.42257 15.25478 15.34941 15.43521 15.50607 15.54885 15.59129 15.63639 15.67683 15.70597 15.73384 15.75924 15.78225 15.80813 15.83494 15.85237 15.86285 15.87448 15.88557 15.89796 15.91343 15.93027 15.93896 15.94982 15.95636 15.96983 15.98761 15.99957 16.00261 16.00554 16.01608 16.0291 16.04071 16.05442 16.06331 16.06824 16.0818 16.09377 16.1158 16.13332 16.1396 16.15156 16.16798 16.18346 16.19682 16.21812 16.2367 16.25691 16.28009 16.29991 16.32002 16.35261 16.37642 16.40902 16.4387 16.46778 16.49801 16.5265 16.55553 16.58475 16.61462 16.64729 16.6751 16.70555 16.73005 16.74734 16.75612 16.76217 16.76883 16.77423 16.77819 16.78497 16.78963 16.7945 16.79244 16.79328 16.79349 16.79485 16.79714 16.80197 16.80058 16.79647 16.78995 16.79095 16.7961 16.79275 16.79147 16.7909 16.79042 16.791 16.79112 16.79223 16.80205 16.80867 16.81023 16.80851 16.80825 16.80831 16.80597 16.79651 16.7878 16.77235 16.75374
0 0 0 19.21115 16.83648 15.63508 15.20387 15.30658 15.3967 15.47243 15.52963 15.5749 15.61464 15.64694 15.68428 15.71109 15.73508 15.7571 15.77848 15.79664 15.81757 15.83731 15.84409 15.85407 15.864 15.8737 15.88774 15.90998 15.92387 15.93256 15.94423 15.95508 15.97859 15.99804 16.00346 16.00771 16.01511 16.02666 16.04325 16.0599 16.06912 16.07847 16.08864 16.10077 16.11827 16.13032 16.14412 16.15878 16.17151 16.18904 16.21106 16.23489 16.25578 16.27487 16.29316 16.31801 16.3426 16.37256 16.4017 16.4271 16.45919 16.48857 16.51953 16.55093 16.57933 16.60097 16.62754 16.65311 16.68187 16.70785 16.7338 16.74907 16.76121 16.76481 16.7706 16.77566 16.78313 16.78473 16.78958 16.79473 16.79696 16.79863 16.7987 16.80693 16.81227 16.81829 16.82128 16.82122 16.8194 16.82023 16.82764 16.83239 16.83174 16.83353 16.83568 16.83651 16.83513 16.83926 16.84661 16.85252 16.85396 16.85248 16.85092 16.84755 16.84374 16.83807 16.82714 16.81298 16.79347
15.18859 15.1915 16.32951 16.83994 15.32174 15.15435 15.25457 15.36301 15.44518 15.50901 15.55957 15.59452 15.62609 15.65735 15.68182 15.71411 15.73491 15.75944 15.77556 15.78615 15.80036 15.813 15.82351 15.83039 15.83861 15.85091 15.8693 15.8887 15.90814 15.92842 15.94552 15.96255 15.9742 15.9875 15.99947 16.0123 16.01784 16.03591 16.05688 16.0717 16.08342 16.09385 16.10021 16.11112 16.12084 16.13423 16.1481 16.16694 16.18856 16.20609 16.23086 16.25563 16.28118 16.30476 16.32586 16.34768 16.36838 16.3976 16.42875 16.45899 16.48851 16.52016 16.55114 16.5804 16.60423 16.62462 16.64796 16.67006 16.69536 16.71581 16.73688 16.7507 16.75889 16.76467 16.77354 16.78091 16.78468 16.79006 16.79332 16.79882 16.8003 16.80446 16.81119 16.81934 16.8247 16.8324 16.83816 16.84126 16.8448 16.85037 16.85819 16.86529 16.87096 16.87374 16.88011 16.88054 16.88162 16.88628 16.89373 16.89819 16.89978 16.89983 16.89697 16.89487 16.89203 16.8846 16.87062 16.85456 16.83845
15.19221 15.18496 15.19732 15.21418 15.23038 15.29793 15.37381 15.44642 15.50866 15.56015 15.59441 15.6243 15.64712 15.65985 15.68249 15.70886 15.7251 15.73369 15.75327 15.76718 15.77107 15.78867 15.79875 15.80344 15.80813 15.82497 15.83999 15.86452 15.8883 15.91338 15.93401 15.95629 15.97285 15.99097 16.00824 16.02094 16.03617 16.05205 16.07225 16.08973 16.1054 16.11611 16.12341 16.12916 16.14613 16.15193 16.16502 16.18044 16.20388 16.23007 16.25368 16.27934 16.3033 16.32756 16.35279 16.37738 16.40178 16.43194 16.46023 16.48511 16.52035 16.5515 16.57733 16.59939 16.62395 16.6453 16.66741 16.68731 16.70594 16.72625 16.74281 16.75662 16.76209 16.77149 16.77832 16.7859 16.7924 16.79293 16.79696 16.80346 16.81098 16.81742 16.82914 16.83794 16.84443 16.85254 16.86272 16.86871 16.8745 16.88354 16.89386 16.8997 16.90504 16.90656 16.90879 16.91015 16.91475 16.91957 16.92598 16.92995 16.93444 16.93309 16.93493 16.93692 16.93833 16.93092 16.91833 16.90266 16.88787
15.31154 15.32515 15.34247 15.3654 15.38645 15.43089 15.47649 15.52246 15.56031 15.59981 15.62162 15.63665 15.64836 15.66621 15.68396 15.70947 15.73189 15.73848 15.73764 15.74058 15.74306 15.75959 15.76679 15.77687 15.78408 15.79912 15.81824 15.8449 15.86906 15.89364 15.92227 15.94891 15.97525 16.00007 16.01677 16.03378 16.05299 16.07746 16.09258 16.11859 16.13223 16.14689 16.155 16.16566 16.18402 16.19084 16.19479 16.2094 16.22892 16.25197 16.27817 16.30846 16.33348 16.3593 16.38615 16.41434 16.4376 16.46525 16.49429 16.5254 16.55314 16.58187 16.60537 16.62842 16.6477 16.66455 16.68368 16.70146 16.71809 16.73692 16.75096 16.76379 16.76953 16.77941 16.78579 16.79029 16.79445 16.79777 16.80329 16.81218 16.82009 16.82723 16.8396 16.85352 16.86295 16.87598 16.88873 16.90091 16.91492 16.93105 16.94481 16.95216 16.95179 16.95067 16.95161 16.95131 16.95471 16.9628 16.97248 16.98003 16.98214 16.98519 16.98239 16.98231 16.97954 16.97083 16.95908 16.94704 16.93703
15.39513 15.41424 15.43737 15.45658 15.47912 15.50384 15.53212 15.55485 15.58161 15.60532 15.61861 15.63119 15.63875 15.65091 15.67304 15.69798 15.71297 15.71451 15.71593 15.72313 15.72993 15.73095 15.73238 15.74582 15.76495 15.78995 15.79814 15.8267 15.85294 15.88756 15.92277 15.95831 15.98832 16.02034 16.04641 16.06659 16.08306 16.10787 16.13476 16.14764 16.16036 16.17506 16.18341 16.19581 16.21512 16.22294 16.22779 16.24272 16.26289 16.2889 16.31185 16.33993 16.37194 16.39861 16.42295 16.44574 16.47124 16.50604 16.53427 16.56651 16.59652 16.61923 16.64065 16.65753 16.67562 16.69381 16.70964 16.72195 16.73692 16.75326 16.76317 16.77626 16.78672 16.79619 16.80096 16.80282 16.8042 16.80626 16.81011 16.81692 16.82775 16.83794 16.85005 16.8661 16.88259 16.90139 16.92159 16.94356 16.96339 16.98335 17.00041 17.00526 17.00787 17.007 17.00722 17.00817 17.01429 17.02891 17.04094 17.05495 17.06445 17.06604 17.05623 17.04967 17.04603 17.03727 17.02732 17.01816 17.01002
15.45955 15.47908 15.49059 15.50077 15.5131 15.52638 15.54664 15.56393 15.57843 15.58912 15.60386 15.61309 15.61871 15.6335 15.65531 15.67703 15.68932 15.69882 15.70823 15.71279 15.71547 15.72169 15.727 15.74861 15.76812 15.80444 15.8096 15.82638 15.85812 15.89314 15.93238 15.97187 15.99853 16.03045 16.05739 16.08417 16.10117 16.12474 16.15715 16.17485 16.18296 16.1925 16.20399 16.22511 16.24028 16.24828 16.2607 16.27898 16.30259 16.32163 16.34883 16.37865 16.40315 16.4339 16.4589 16.48484 16.50567 16.52768 16.5569 16.59129 16.62372 16.65139 16.6737 16.68533 16.69764 16.71668 16.73376 16.74671 16.75883 16.76803 16.77903 16.79138 16.80226 16.8103 16.81411 16.81566 16.81587 16.81621 16.82077 16.82885 16.84593 16.86065 16.87814 16.89697 16.91942 16.94631 16.97655 17.00434 17.03228 17.05399 17.06439 17.07189 17.07496 17.07382 17.06734 17.06849 17.07648 17.09145 17.11408 17.13932 17.16122 17.1584 17.14637 17.1368 17.13261 17.13129 17.12588 17.11026 17.09944
15.49266 15.49777 15.50383 15.51239 15.52589 15.53323 15.54008 15.55642 15.56218 15.57245 15.58548 15.59303 15.59504 15.61647 15.63589 15.65613 15.67645 15.69044 15.68704 15.70511 15.70366 15.72927 15.7331 15.768 15.78374 15.8182 15.83253 15.84683 15.87954 15.91693 15.95731 15.99375 16.01683 16.0443 16.07685 16.10424 16.12473 16.14519 16.17501 16.19214 16.21065 16.22245 16.23984 16.25366 16.28028 16.29459 16.31347 16.33999 16.36072 16.38382 16.41259 16.44013 16.46978 16.49711 16.52587 16.55275 16.57086 16.59559 16.61892 16.64655 16.68138 16.70235 16.71858 16.73037 16.74207 16.75526 16.76816 16.77867 16.78705 16.79621 16.80833 16.81561 16.8231 16.82776 16.82615 16.83082 16.8325 16.83504 16.84073 16.85507 16.88298 16.9021 16.92625 16.95085 16.97818 17.01085 17.04437 17.07848 17.10851 17.13126 17.14534 17.15567 17.15676 17.15302 17.14904 17.14323 17.1454 17.15583 17.17951 17.20963 17.23098 17.23369 17.22726 17.22292 17.22089 17.22017 17.21648 17.20519 17.19669
15.4998 15.50607 15.50955 15.50873 15.51247 15.5222 15.53115 15.54299 15.55405 15.56179 15.57985 15.57712 15.5811 15.6007 15.6158 15.63974 15.65958 15.66792 15.67371 15.68636 15.70181 15.72811 15.76127 15.78758 15.81658 15.84385 15.86611 15.88906 15.92172 15.96261 15.99249 16.01507 16.03911 16.07374 16.10335 16.1324 16.15749 16.17837 16.20154 16.21817 16.24228 16.26785 16.2861 16.30929 16.33224 16.35489 16.38033 16.40711 16.43032 16.45022 16.48049 16.50983 16.53858 16.57058 16.60007 16.62388 16.6396 16.66531 16.69408 16.71633 16.7471 16.76675 16.78876 16.801 16.81198 16.82232 16.83119 16.83907 16.84788 16.85449 16.86341 16.86903 16.87338 16.87225 16.86733 16.86926 16.86836 16.87427 16.88558 16.90185 16.92795 16.94982 16.97684 17.00259 17.03446 17.06694 17.10497 17.13566 0 0 17.19636 17.22374 17.22169 17.22116 17.21827 17.21449 17.21912 17.23039 17.23564 0 0 17.24951 17.3061 17.30519 17.30701 17.3127 17.32345 17.32586 17.31505
