ncols        109
nrows        82
xllcorner    -1.041666666667
yllcorner    37.041665395101
cellsize     0.083333333333
NODATA_value -9999
0.0 0 0 0 0 0 0 0 0 0 0 0 0 0 0 0 0 0 0 0 0 0 0 0 0 0 0 0 0 0 0 0 0 0 0 0 0 0 0 0 0 0 0 0 0 0 0 0 0 0 0 0 0 0 0 0 0 0 0 0 0 0 0 0 0 0 0 0 0 0 0 0 0 0 0 0 0 0 0 0 0 0 0 0 0 0 0 0 0 0 0 0 0 0 0 0 0 0 0 0 0 0 0 0 0 18.66118 17.33046 15.91586 15.90755
0 0 0 0 0 0 0 0 0 0 0 0 0 0 0 0 0 0 0 0 0 0 0 0 0 0 0 0 0 0 0 0 0 0 0 0 0 0 0 0 0 0 0 0 0 0 0 0 0 0 0 0 0 0 0 0 0 0 0 0 0 0 0 0 0 0 0 0 0 0 0 0 0 0 0 0 0 0 0 0 0 0 0 0 0 0 0 0 0 0 0 0 0 0 0 0 0 0 0 0 0 16.10023 16.12218 15.90659 15.90933 15.90551 15.89493 15.88026 15.84723
0 0 0 0 0 0 0 0 0 0 0 0 0 0 0 0 0 0 0 0 0 0 0 0 0 0 0 0 0 0 0 0 0 0 0 0 0 0 0 0 0 0 0 0 0 0 0 0 0 0 0 0 0 0 0 0 0 0 0 0 0 0 0 0 0 0 0 0 0 0 0 0 0 0 0 0 0 0 0 0 0 0 0 0 0 0 0 0 0 0 0 0 0 0 0 0 0 0 15.89211 15.89647 15.89798 15.89346 15.87638 15.85819 15.83439 15.8029 15.76834 15.73659 15.70365
0 0 0 0 0 0 0 0 0 0 0 0 0 0 0 0 0 0 0 0 0 0 0 0 0 0 0 0 0 0 0 0 0 0 0 0 0 0 0 0 0 0 0 0 0 0 0 0 0 0 0 0 0 0 0 0 0 0 0 0 0 0 0 0 0 0 0 0 0 0 0 0 0 0 0 0 0 0 0 0 0 0 0 0 0 0 0 0 0 0 0 0 0 0 0 0 0 17.58566 15.87461 15.86025 15.83194 15.79712 15.76599 15.73803 15.70276 15.67443 15.64119 15.61624 15.58352
0 0 0 0 0 0 0 0 0 0 0 0 0 0 0 0 0 0 0 0 0 0 0 0 0 0 0 0 0 0 0 0 0 0 0 0 0 0 0 0 0 0 0 0 0 0 0 0 0 0 0 0 0 0 0 0 0 0 17.0275 16.66969 16.37545 16.49856 0 0 0 0 0 0 0 0 0 0 0 0 0 0 0 0 0 0 0 0 0 0 0 0 0 0 0 0 0 0 0 0 0 16.3167 15.8784 15.87083 15.82927 15.78722 15.73906 15.68478 15.6352 15.59002 15.54925 15.51555 15.49126 15.47741 15.45683
0 0 0 0 0 0 0 0 0 0 0 0 0 0 0 0 0 0 0 0 0 0 0 0 0 0 0 0 0 0 0 0 0 0 0 0 0 0 0 0 0 0 0 0 0 0 0 0 0 0 0 0 0 0 0 0 16.5623 16.60694 16.33665 16.12302 16.04729 16.03274 16.11037 16.30866 16.5204 16.6385 16.62692 0 0 0 0 16.98798 0 0 0 0 0 0 0 0 0 0 0 0 0 0 0 0 0 0 0 0 0 16.88486 15.83046 15.86018 15.83647 15.78294 15.72748 15.66425 15.60256 15.54673 15.49876 15.46548 15.44213 15.41995 15.40435 15.38787 15.37638
0 0 0 0 0 0 0 0 0 0 0 0 0 0 0 0 0 0 0 0 0 0 0 0 0 0 0 0 0 0 0 0 0 0 0 0 0 0 0 0 0 0 0 0 0 0 0 0 0 0 0 0 0 0 0 16.70576 16.33503 16.02722 15.84756 15.62112 15.69844 15.73116 15.89096 16.00641 16.14345 16.24385 16.32365 16.50719 16.70951 16.6841 16.64489 16.44057 16.2561 16.31975 16.47296 16.22689 16.22148 0 0 0 0 0 0 0 0 0 0 0 0 0 0 0 16.18509 15.8445 15.83635 15.81111 15.76207 15.69906 15.63194 15.55813 15.49336 15.43155 15.38649 15.35857 15.34713 15.34046 15.33575 15.33581 15.3355
0 0 0 0 0 0 0 0 0 0 0 0 0 0 0 0 0 0 0 0 0 0 0 0 0 0 0 0 0 0 0 0 0 0 0 0 0 0 0 0 0 0 0 0 0 0 0 0 0 0 0 16.3217 16.48697 16.65823 16.44981 16.05886 15.84836 15.59399 15.49348 15.57712 15.64651 15.67666 15.66901 15.84912 15.83906 16.01682 16.01484 16.01443 16.03596 15.94635 15.84863 15.88917 15.77726 15.97351 16.00598 16.18815 0 0 0 0 0 0 0 0 0 0 0 0 0 0 0 0 15.81753 15.82591 15.78788 15.72925 15.66631 15.58927 15.50803 15.44192 15.38849 15.3468 15.31979 15.31134 15.30968 15.31039 15.31105 15.31459 15.32529
0 0 0 0 0 0 0 0 0 0 0 0 0 0 0 0 0 0 0 0 0 0 0 0 0 0 0 0 0 0 0 0 0 0 0 0 0 0 0 0 0 0 0 0 0 0 0 0 0 0 16.49483 16.34615 16.13198 16.11297 16.04427 15.78334 15.46478 15.54486 15.41182 15.47914 15.53183 15.56184 15.5776 15.7677 15.76288 15.95726 15.95567 15.96625 15.83022 15.70416 15.74873 15.80172 15.66963 15.86444 15.88099 16.08941 16.08847 15.90493 15.92551 16.29303 16.74844 17.50464 0 0 0 0 0 0 0 16.71626 16.18106 15.80847 15.8182 15.79056 15.71283 15.64429 15.57261 15.49754 15.42734 15.36892 15.32966 15.30263 15.2911 15.28926 15.29456 15.30303 15.31156 15.31857 15.33067
0 0 0 0 0 0 0 0 0 0 0 0 0 0 0 0 0 0 0 0 0 0 0 0 0 0 0 0 0 0 0 0 0 0 0 0 0 0 0 0 0 0 0 0 0 0 0 0 0 17.32579 16.19026 16.11713 16.0952 15.81635 15.68364 15.52616 15.57397 15.4259 15.4779 15.52851 15.57421 15.60829 15.62641 15.83193 15.85131 15.85982 15.88236 15.88734 15.89813 15.74446 15.78288 15.6542 15.51031 15.52996 15.5384 15.5536 15.56178 15.58711 15.61034 15.61955 16 16.53785 0 16.36442 16.91902 17.42746 17.73224 17.48471 17.01945 15.74578 15.77956 15.79018 15.7735 15.6986 15.61107 15.53137 15.46017 15.40396 15.35154 15.32031 15.3022 15.29543 15.29128 15.29722 15.30263 15.31682 15.33234 15.34386 15.35338
0 0 0 0 0 0 0 0 0 0 0 0 0 0 0 0 0 0 0 0 0 0 0 0 0 0 0 0 0 0 0 0 0 0 0 0 0 0 0 0 0 0 0 0 0 0 0 0 0 17.00491 16.15203 15.90547 15.64061 15.52459 15.57809 15.42766 15.47156 15.52077 15.56491 15.61083 15.64893 15.67295 15.68545 15.69559 15.71184 15.55785 15.42822 15.58717 15.58767 15.59692 15.61841 15.46837 15.4771 15.48845 15.49336 15.50649 15.52306 15.54482 15.57107 15.59266 15.61368 15.64001 15.65742 15.68578 15.71702 15.73358 16.70859 16.89752 16.5245 15.72353 15.71612 15.68257 15.64093 15.5738 15.50637 15.44296 15.39053 15.35041 15.32152 15.30783 15.30845 15.31173 15.31965 15.32666 15.34158 15.35496 15.36549 15.37884 15.38806
0 0 0 0 0 0 0 0 0 0 0 0 0 0 0 0 0 0 0 0 0 0 0 0 0 0 0 0 0 0 0 0 0 0 0 0 0 0 0 0 0 0 0 0 0 0 0 0 0 16.74595 16.09677 15.83025 15.52575 15.59789 15.44653 15.50337 15.55417 15.60357 15.64311 15.67692 15.51855 15.5402 15.5602 15.56626 15.56697 15.40784 15.41553 15.4167 15.40084 15.40177 15.40797 15.4142 15.42285 15.43633 15.438 15.44966 15.46395 15.47602 15.49261 15.51234 15.53558 15.55788 15.58238 15.61197 15.63562 15.65709 15.67229 15.67327 15.66278 15.63938 15.60627 15.56385 15.51092 15.45018 15.4037 15.36236 15.33254 15.31669 15.31288 15.31975 15.32809 15.33639 15.34722 15.35897 15.37539 15.38962 15.4004 15.4114 15.42513
0 0 0 0 0 0 0 0 0 0 0 0 0 0 0 0 0 0 0 0 0 0 0 0 0 0 0 0 0 0 0 0 0 0 0 0 0 0 0 0 0 0 0 0 0 0 0 0 0 16.66637 15.98813 15.70462 15.58641 15.44479 15.51129 15.58531 15.46317 15.49843 15.34695 15.35704 15.37183 15.38102 15.3885 15.38992 15.38557 15.38146 15.37993 15.37203 15.35774 15.34401 15.34573 15.34797 15.34664 15.34958 15.34421 15.34798 15.36197 15.37352 15.38886 15.40803 15.43081 15.4524 15.4685 15.48357 15.50145 15.51877 15.52687 15.52629 15.5141 15.49736 15.47547 15.44364 15.40361 15.36852 15.34439 15.32101 15.3049 15.30742 15.31785 15.33473 15.35166 15.36771 15.38602 15.39795 15.40989 15.42195 15.43172 15.44119 15.45191
0 0 0 0 0 0 0 0 0 0 0 0 0 0 0 0 0 0 0 0 0 0 0 0 0 0 0 0 0 0 0 0 0 0 0 0 0 0 0 0 0 0 0 0 0 0 0 0 0 16.54026 16.04056 15.74489 15.62767 15.48724 15.55636 15.43141 15.30173 15.33463 15.35593 15.36092 15.3647 15.36424 15.35704 15.34994 15.34435 15.33727 15.33135 15.31951 15.30769 15.29543 15.29085 15.28456 15.27893 15.27026 15.25942 15.25149 15.25559 15.26644 15.28413 15.29956 15.30948 15.32005 15.33078 15.34898 15.37002 15.39533 15.40859 15.40984 15.4002 15.38499 15.36392 15.3408 15.31905 15.3085 15.30115 15.3063 15.31449 15.32274 15.33616 15.35735 15.3764 15.39748 15.41614 15.43067 15.43993 15.45043 15.46091 15.47296 15.48687
0 0 0 0 0 0 0 0 0 0 0 0 0 0 0 0 0 0 0 0 0 0 0 0 0 0 0 0 0 0 0 0 0 0 0 0 0 0 0 0 0 0 0 0 0 0 0 0 0 16.58555 15.85683 15.56292 15.68198 15.55491 15.62199 15.46298 15.31305 15.3368 15.35138 15.34984 15.34527 15.34201 15.33443 15.32491 15.31683 15.30567 15.28877 15.27803 15.25822 15.24206 15.22269 15.20699 15.196 15.19325 15.18653 15.18501 15.19032 15.19831 15.20313 15.21233 15.22163 15.22803 15.23583 15.24313 15.25328 15.27197 15.28153 15.28464 15.28465 15.28083 15.28149 15.27935 15.27606 15.2821 15.29035 15.30264 15.32062 15.33909 15.35854 15.37816 15.40024 15.42111 15.44137 15.45667 15.46591 15.47386 15.48154 15.49258 15.50727
0 0 0 0 0 0 0 0 0 0 0 0 0 0 0 0 0 0 0 0 0 0 0 0 0 0 0 0 0 0 0 0 0 0 0 0 0 0 0 0 0 0 0 0 0 0 0 0 0 16.1183 15.91251 15.59586 15.51942 15.42561 15.48535 15.32855 15.3251 15.33482 15.33722 15.32932 15.32076 15.31192 15.30744 15.29723 15.28572 15.27297 15.25654 15.24046 15.22001 15.19698 15.17344 15.15047 15.14031 15.13128 15.12389 15.12011 15.11756 15.11666 15.12305 15.13652 15.14253 15.15214 15.16429 15.17664 15.18817 15.19971 15.20891 15.21355 15.21457 15.2098 15.21239 15.23195 15.24786 15.26645 15.28417 15.30541 15.3323 15.35365 15.37398 15.39518 15.4128 15.43475 15.45369 15.47447 15.48851 15.49985 15.50729 15.51924 15.53664
0 0 0 0 0 0 0 0 0 0 0 0 0 0 0 0 0 0 0 0 0 0 0 0 0 0 0 0 0 0 0 0 0 0 0 0 0 0 0 0 0 0 0 0 0 0 0 0 0 0 15.69399 15.65861 15.58633 15.31211 15.35028 15.34224 15.32717 15.32876 15.32389 15.31711 15.3045 15.29899 15.29097 15.27466 15.25567 15.24167 15.23172 15.21685 15.19551 15.17314 15.14162 15.12184 15.11102 15.10229 15.08791 15.07854 15.07364 15.07308 15.07962 15.09445 15.10184 15.10734 15.10848 15.12799 15.14029 15.14969 15.15621 15.16518 15.1733 15.18005 15.18903 15.21095 15.23356 15.25734 15.28561 15.31433 15.34027 15.36578 15.38861 15.41124 15.43166 15.45157 15.47296 15.49287 15.51057 15.51997 15.52884 15.53944 15.55892
0 0 0 0 0 0 0 0 0 0 0 0 0 0 0 0 0 0 0 0 0 0 0 0 0 0 0 0 0 0 0 0 0 0 0 0 0 0 0 0 0 0 0 0 0 0 0 0 0 0 15.82458 15.47836 15.24599 15.31649 15.34202 15.34135 15.31846 15.3146 15.30838 15.29824 15.28803 15.28387 15.276 15.26558 15.25197 15.23933 15.22378 15.2129 15.19162 15.16863 15.14055 15.1156 15.10311 15.08533 15.06961 15.05874 15.0507 15.05061 15.05773 15.0663 15.07416 15.08591 15.09605 15.10171 15.10911 15.11865 15.12888 15.14342 15.15644 15.16099 15.17829 15.20815 15.23336 15.2603 15.29916 15.32737 15.35284 15.37691 15.40254 15.42799 15.44807 15.4668 15.49029 15.5089 15.52363 15.53479 15.54764 15.5618 15.58291
0 0 0 0 0 0 0 0 0 0 0 0 0 0 0 0 0 0 0 0 0 0 0 0 0 0 0 0 0 0 0 0 0 0 0 0 0 0 0 0 0 0 0 0 0 0 0 0 0 0 0 0 15.26014 15.29931 15.31964 15.31788 15.31626 15.30284 15.29389 15.28898 15.27466 15.26989 15.27256 15.26428 15.25446 15.24482 15.2401 15.22389 15.20203 15.17664 15.15006 15.12087 15.09496 15.07844 15.06036 15.05132 15.04376 15.04391 15.04654 15.05299 15.06268 15.07046 15.08023 15.08614 15.09878 15.10883 15.11864 15.13004 15.14381 15.16198 15.1848 15.21019 15.23648 15.27645 15.30805 15.33998 15.37062 15.39589 15.41868 15.44312 15.46224 15.4837 15.50563 15.52186 15.53869 15.54886 15.55976 15.57649 15.59939
0 0 0 0 0 0 0 0 0 0 0 0 0 0 0 0 0 0 0 0 0 0 0 0 0 0 0 0 0 0 0 0 0 0 0 0 0 0 0 0 0 0 0 0 0 0 0 0 0 0 17.3425 15.86211 15.4803 15.32259 15.33335 15.32246 15.31181 15.29455 15.28732 15.27603 15.27257 15.27108 15.2727 15.2652 15.25958 15.25464 15.24654 15.23075 15.21608 15.19671 15.16513 15.13181 15.10037 15.07665 15.06787 15.05367 15.0486 15.04421 15.04414 15.05401 15.06164 15.06491 15.07958 15.08481 15.09353 15.10085 15.11611 15.12893 15.14461 15.16173 15.18872 15.21841 15.25656 15.2967 15.33026 15.36755 15.39399 15.41757 15.4442 15.46299 15.48294 15.50243 15.52313 15.54022 15.55675 15.56831 15.58314 15.60168 15.62202
0 0 0 0 0 0 0 0 0 0 0 0 0 0 0 0 0 0 0 0 0 0 0 0 0 0 0 0 0 0 0 0 0 0 0 0 0 0 0 0 0 0 0 0 0 0 0 0 0 0 16.7335 15.89357 15.71988 15.35592 15.35577 15.34003 15.32433 15.30472 15.29515 15.28871 15.28636 15.28496 15.28564 15.28082 15.28003 15.28142 15.27491 15.25404 15.2443 15.21741 15.18005 15.1462 15.11484 15.08881 15.07314 15.0581 15.06341 15.06 15.05722 15.06047 15.066 15.0765 15.08121 15.09072 15.10079 15.11202 15.12987 15.14692 15.15923 15.17713 15.20676 15.24751 15.28378 15.32504 15.36298 15.40377 15.43633 15.46176 15.482 15.504 15.51908 15.53145 15.54956 15.56215 15.5762 15.59171 15.60789 15.62764 15.65338
0 0 0 0 0 0 0 0 0 0 0 0 0 0 0 0 0 0 0 0 0 0 0 0 0 0 0 0 0 0 0 0 0 0 0 0 0 0 0 0 0 0 0 0 0 0 0 0 0 0 0 15.93918 15.5602 15.393 15.37939 15.35863 15.34136 15.32355 15.31244 15.31576 15.31164 15.30908 15.31021 15.31169 15.31066 15.31508 15.31083 15.30315 15.28011 15.2529 15.21897 15.18148 15.15045 15.11755 15.0944 15.08151 15.07737 15.07559 15.07901 15.08292 15.08592 15.09297 15.10015 15.10167 15.11729 15.12869 15.14354 15.16297 15.19109 15.22123 15.2612 15.29641 15.33083 15.37034 15.41314 15.44952 15.48064 15.50312 15.52226 15.53788 15.54802 15.56298 15.57907 15.59291 15.60626 15.62132 15.6386 15.6607 15.68994
0 0 0 0 0 0 0 0 0 0 0 0 0 0 0 0 0 0 0 0 0 0 0 0 0 0 0 0 0 0 0 0 0 0 0 0 0 0 0 0 0 0 0 0 0 0 0 0 0 0 0 15.75766 15.40684 15.42226 15.39979 15.37795 15.359 15.34485 15.33756 15.33833 15.34194 15.35195 15.35862 15.36146 15.36019 15.3571 15.36041 15.35389 15.32902 15.29184 15.25854 15.22269 15.18725 15.16069 15.14024 15.11607 15.10491 15.09846 15.10437 15.1082 15.11485 15.12499 15.13532 15.14665 15.15429 15.16251 15.17911 15.20235 15.23193 15.26839 15.3091 15.34859 15.39216 15.43209 15.4743 15.50565 15.53334 15.55291 15.56602 15.57442 15.58187 15.59282 15.60393 15.61899 15.63659 15.65231 15.66663 15.69291 15.71913
0 0 0 0 0 0 0 0 0 0 0 0 0 0 0 0 0 0 0 0 0 0 0 0 0 0 0 0 0 0 0 0 0 0 0 0 0 0 0 0 0 0 0 0 0 0 0 0 0 0 0 15.43336 15.44653 15.44584 15.42331 15.40103 15.37545 15.36345 15.36293 15.36903 15.37414 15.3891 15.40802 15.40851 15.41247 15.41763 15.41955 15.41096 15.38863 15.35919 15.31981 15.28223 15.24543 15.21187 15.18761 15.16305 15.14608 15.13812 15.13602 15.14259 15.15543 15.17073 15.18328 15.19395 15.20771 15.22312 15.24109 15.26583 15.29792 15.33905 15.37291 15.4082 15.4456 15.49059 15.52259 15.55188 15.57833 15.59767 15.60875 15.61774 15.62143 15.62929 15.63874 15.65286 15.66975 15.68525 15.70228 15.72208 15.74457
0 0 0 0 0 0 0 0 0 0 0 0 0 0 0 0 0 0 0 0 0 0 0 0 0 0 0 0 0 0 0 0 0 0 0 0 0 0 0 0 0 0 0 0 0 0 0 0 0 17.30705 16.37062 15.48751 15.48849 15.46471 15.43918 15.41715 15.40101 15.38886 15.39704 15.40636 15.42215 15.44091 15.45367 15.46134 15.46475 15.46788 15.46419 15.45525 15.43427 15.40968 15.3823 15.34813 15.31537 15.27715 15.2349 15.22113 15.20129 15.19264 15.19541 15.19628 15.20612 15.21922 15.22992 15.24225 15.25451 15.27352 15.29341 15.32102 15.35622 15.39628 15.43498 15.47212 15.51146 15.55123 15.57933 15.60421 15.62499 15.6412 15.6479 15.65567 15.65886 15.66448 15.66994 15.68076 15.69469 15.71334 15.73185 15.74896 15.77062
0 0 0 0 0 0 0 0 0 0 0 0 0 0 0 0 0 0 0 0 0 0 0 0 0 0 0 0 0 0 0 0 0 0 0 0 0 0 0 0 0 0 0 0 0 0 0 0 16.45075 15.95661 15.73499 15.53001 15.50993 15.47631 15.4473 15.42695 15.41323 15.40677 15.41405 15.43334 15.45291 15.47942 15.49906 15.50411 15.51111 15.51084 15.5105 15.49888 15.47975 15.45554 15.42741 15.39195 15.35102 15.31863 15.28851 15.26987 15.25633 15.24878 15.25051 15.25669 15.26598 15.28151 15.29055 15.30422 15.32333 15.33961 15.35788 15.38137 15.41165 15.44986 15.48681 15.52152 15.56161 15.59533 15.61736 15.63702 15.65667 15.67662 15.69365 15.69988 15.70562 15.70903 15.71118 15.71627 15.72458 15.73738 15.75129 15.76886 15.78844
0 0 0 0 0 0 0 0 0 0 0 0 0 0 0 0 0 0 0 0 0 0 0 0 0 0 0 0 0 0 0 0 0 0 0 0 0 0 0 0 0 0 0 0 0 16.15476 16.0117 16.52976 16.03691 16.0582 15.81488 15.57231 15.53556 15.4918 15.46371 15.44619 15.43922 15.43405 15.44157 15.45911 15.47786 15.50232 15.52667 15.53537 15.54332 15.55097 15.55011 15.54252 15.52623 15.50474 15.47269 15.44144 15.40766 15.37519 15.35 15.32784 15.30935 15.30104 15.30011 15.30654 15.3137 15.32461 15.33594 15.35738 15.37856 15.40435 15.42003 15.44064 15.47316 15.51067 15.54749 15.5797 15.61095 15.63863 15.65865 15.67379 15.69437 15.71008 15.72934 15.73915 15.74528 15.74714 15.75077 15.75349 15.76015 15.76779 15.77853 15.79497 15.81048
0 0 0 0 0 0 0 0 0 0 0 0 0 0 0 0 0 0 0 0 0 0 0 0 0 0 0 0 0 0 0 0 0 0 0 0 0 0 0 0 0 0 18.14523 17.84866 16.88305 16.09717 15.62711 15.64451 16.13388 15.87367 15.63265 15.59546 15.55357 15.51386 15.49061 15.47391 15.46345 15.46548 15.47735 15.49528 15.52342 15.54762 15.56852 15.58057 15.59512 15.59647 15.59251 15.5789 15.56695 15.54612 15.51822 15.48613 15.45828 15.42672 15.40185 15.38243 15.36947 15.36135 15.36024 15.3685 15.37455 15.38617 15.40294 15.4195 15.4343 15.45695 15.47785 15.4938 15.52413 15.56026 15.59278 15.62671 15.65476 15.6786 15.69697 15.71922 15.74189 15.75776 15.7753 15.78748 15.79287 15.79224 15.7903 15.79016 15.7927 15.79499 15.80654 15.8207 15.83538
0 0 0 0 0 0 0 0 0 0 0 0 0 0 0 0 0 0 0 0 0 0 0 0 0 0 0 0 0 0 0 0 0 0 0 0 0 0 0 0 17.25828 17.6341 17.91048 16.9843 16.17115 15.68974 15.71159 15.72432 15.71873 15.69429 15.66388 15.62005 15.57572 15.54179 15.51959 15.50395 15.49754 15.49768 15.50989 15.5309 15.56189 15.58721 15.61158 15.62907 15.64207 15.6506 15.64085 15.63498 15.62229 15.60808 15.57994 15.55068 15.52211 15.48944 15.45912 15.43845 15.42039 15.41152 15.41179 15.41661 15.42826 15.44226 15.46768 15.48438 15.49715 15.51938 15.54264 15.56168 15.58685 15.61851 15.64408 15.66934 15.69266 15.71179 15.73561 15.75516 15.77612 15.79539 15.81131 15.82374 15.8301 15.83268 15.83383 15.82997 15.83174 15.83348 15.83995 15.8507 15.86473
0 0 0 0 0 0 0 0 0 0 0 0 0 0 0 0 0 0 0 0 0 0 0 0 0 0 0 0 0 0 0 0 0 0 0 0 0 0 0 17.46985 17.22656 16.70262 16.46925 15.70576 15.72537 15.74391 15.7545 15.76246 15.75351 15.72799 15.69172 15.64859 15.60984 15.57909 15.56266 15.5522 15.55002 15.55812 15.56789 15.59351 15.61303 15.63889 15.65513 15.66913 15.684 15.68753 15.68506 15.68009 15.66883 15.65599 15.63843 15.61745 15.59058 15.55839 15.53257 15.50627 15.48964 15.47823 15.47313 15.4782 15.48838 15.50391 15.52067 15.53931 15.55344 15.57105 15.59486 15.61757 15.64157 15.66631 15.69264 15.7186 15.74142 15.76031 15.78053 15.79909 15.81781 15.83418 15.84963 15.85777 15.86228 15.86009 15.86164 15.86034 15.86273 15.86291 15.87174 15.88596 15.89648
0 0 0 0 0 0 0 0 0 0 0 0 0 0 0 0 0 0 0 0 0 0 0 0 0 0 0 0 0 0 0 0 0 0 0 0 0 0 16.71718 16.43564 16.19969 15.71867 15.74509 15.76688 15.78021 15.78871 15.79367 15.79272 15.77694 15.75609 15.72278 15.69084 15.6573 15.62787 15.6083 15.59704 15.60086 15.60981 15.62576 15.65106 15.67348 15.69332 15.70783 15.71911 15.73115 15.74296 15.74679 15.74402 15.73178 15.72026 15.70397 15.67819 15.64571 15.6148 15.58352 15.56141 15.54338 15.53151 15.52843 15.53563 15.54971 15.56873 15.58642 15.60503 15.61992 15.63415 15.65609 15.67645 15.69413 15.71605 15.7381 15.75618 15.7738 15.79352 15.81519 15.83633 15.85042 15.86843 15.87817 15.89243 15.89261 15.89235 15.8935 15.89778 15.89897 15.90315 15.91037 15.92708 15.93592
0 0 0 0 0 0 0 0 0 0 0 0 0 0 0 0 0 0 0 0 0 0 0 0 0 0 0 0 0 0 0 0 0 0 18.39075 18.99481 18.12653 16.47475 15.68307 15.71445 15.74021 15.76213 15.77975 15.79315 15.80484 15.81088 15.80667 15.80142 15.7931 15.77918 15.75921 15.74079 15.72077 15.69712 15.683 15.67362 15.67424 15.67545 15.69068 15.70539 15.72123 15.73175 15.74584 15.75752 15.76928 15.78707 15.79594 15.80133 15.79401 15.78686 15.77263 15.74765 15.72075 15.6882 15.66043 15.63564 15.61473 15.60027 15.59533 15.59899 15.60896 15.62373 15.64155 15.65203 15.66918 15.68778 15.70858 15.72697 15.74688 15.76601 15.78633 15.80351 15.82012 15.84143 15.86345 15.87859 15.89215 15.90459 15.91304 15.91681 15.91785 15.92012 15.92244 15.92626 15.93249 15.94136 15.95774 15.97794 15.98475
0 0 0 0 0 0 0 0 0 0 0 0 0 0 0 0 0 0 0 0 0 0 0 0 0 0 0 0 0 18.87592 18.47064 18.24981 18.246 18.01785 17.73017 17.15165 15.72606 15.73557 15.75326 15.76579 15.77961 15.78953 15.80052 15.81036 15.81947 15.82352 15.81934 15.81182 15.80487 15.79584 15.78902 15.78008 15.76566 15.75329 15.74009 15.73244 15.73568 15.7394 15.75484 15.7682 15.78086 15.78909 15.79391 15.80699 15.82303 15.83704 15.84743 15.85122 15.84771 15.83818 15.82646 15.80338 15.77643 15.75401 15.72821 15.70674 15.6908 15.68178 15.67845 15.6821 15.68879 15.69705 15.70907 15.71928 15.73127 15.74613 15.7618 15.777 15.78522 15.80519 15.82212 15.83867 15.85992 15.88254 15.90404 15.92202 15.93268 15.94035 15.94877 15.953 15.95581 15.95418 15.95998 15.96411 15.97258 15.98433 15.99897 16.01473 16.0105
0 0 0 0 0 0 0 0 0 0 0 0 0 0 0 0 0 0 0 0 0 0 0 0 0 18.67039 17.95096 17.95458 17.02037 16.37976 16.07827 15.80131 15.79769 15.79398 15.78432 15.77279 15.76844 15.77011 15.77636 15.79037 15.79425 15.80209 15.81171 15.81767 15.81941 15.82463 15.82547 15.82791 15.8303 15.83528 15.83782 15.83269 15.82025 15.80303 15.78647 15.77969 15.77764 15.78542 15.79493 15.81094 15.82186 15.83094 15.84129 15.85654 15.87528 15.88933 15.89985 15.91031 15.9115 15.90515 15.89209 15.87041 15.84451 15.8217 15.79936 15.77794 15.76217 15.75097 15.75079 15.7542 15.75612 15.75952 15.77121 15.78083 15.79097 15.80373 15.81865 15.83336 15.84063 15.85504 15.87159 15.8881 15.90652 15.92772 15.9482 15.96126 15.96742 15.96852 15.97365 15.98307 15.98552 15.98875 15.9956 16.00848 16.01845 16.03321 16.04537 16.04344 16.01684
0 0 0 0 0 0 0 0 0 0 0 0 0 0 0 0 0 0 0 0 0 0 0 18.82424 17.97292 17.41085 17.10726 16.79506 15.88343 15.8713 15.85829 15.84401 15.83409 15.82651 15.81198 15.79655 15.78813 15.78684 15.78676 15.79533 15.79949 15.80658 15.81426 15.81986 15.82758 15.83556 15.84535 15.85124 15.86145 15.87229 15.88422 15.88138 15.86701 15.85081 15.83336 15.82766 15.82832 15.83799 15.85103 15.86413 15.86763 15.87287 15.88843 15.90045 15.91351 15.92847 15.93767 15.95097 15.95105 15.9481 15.93972 15.92408 15.91044 15.89388 15.87994 15.86998 15.85474 15.84718 15.84209 15.84113 15.83805 15.83904 15.83715 15.83986 15.84445 15.86073 15.87184 15.87831 15.89169 15.90283 15.91563 15.93346 15.95255 15.97337 15.98941 15.99729 16.00181 16.00544 16.01126 16.02271 16.02557 16.02884 16.03702 16.04753 16.05801 16.07033 16.072 16.05674 16.01641
0 0 0 0 0 0 0 0 0 0 0 0 0 0 0 0 0 0 0 0 0 0 18.23935 17.4049 17.10652 17.12595 16.8219 16.50007 15.89627 15.88199 15.86635 15.85057 15.83523 15.82064 15.8048 15.79766 15.78975 15.7855 15.78401 15.79253 15.80234 15.81097 15.81969 15.82977 15.84269 15.8597 15.87165 15.88233 15.89281 15.90191 15.90663 15.90295 15.89307 15.87435 15.86211 15.86389 15.86566 15.87542 15.88966 15.89639 15.90651 15.92002 15.93247 15.94317 15.9572 15.9681 15.97905 15.98935 15.99158 15.98947 15.98166 15.97161 15.96207 15.9497 15.9395 15.93106 15.92697 15.92019 15.91849 15.91717 15.91704 15.91642 15.91417 15.91458 15.91826 15.92839 15.9407 15.94949 15.95255 15.95683 15.96312 15.97918 15.99311 16.00994 16.02281 16.02577 16.03144 16.04103 16.04994 16.05578 16.0629 16.07057 16.08062 16.09211 16.10613 16.10764 16.09494 16.06353 16.01501
0 0 0 0 0 0 0 0 0 0 0 0 0 0 0 0 0 0 0 0 0 19.44635 18.44444 17.38737 16.79372 16.80298 16.49309 16.49462 15.88917 15.87463 15.8583 15.84232 15.82555 15.81212 15.80272 15.79152 15.78406 15.77843 15.78198 15.79092 15.80149 15.81175 15.82297 15.8397 15.85451 15.87029 15.89194 15.90564 15.91441 15.92112 15.9255 15.92368 15.9188 15.90664 15.8984 15.89487 15.89611 15.90447 15.91656 15.92328 15.93371 15.94688 15.95856 15.9696 15.98023 15.99359 16.00724 16.021 16.02627 16.02684 16.02859 16.02648 16.02587 16.01842 16.01042 16.00542 15.99851 15.995 15.99038 15.98481 15.97958 15.9752 15.97022 15.97394 15.98273 15.99316 16.00143 16.00909 16.01317 16.01768 16.0223 16.03578 16.04663 16.05911 16.06287 16.0688 16.07887 16.08445 16.08937 16.09116 16.09274 16.10402 16.11668 16.1294 16.13751 16.13178 16.10885 16.06726 16.00982
0 0 0 0 0 0 0 0 0 0 0 0 0 0 0 0 0 0 0 0 0 0 0 17.96952 17.10634 16.80168 16.48375 16.1856 15.87466 15.85957 15.84786 15.8361 15.82083 15.81133 15.79993 15.79108 15.7806 15.78292 15.78262 15.79261 15.80329 15.81656 15.83194 15.8505 15.86381 15.87691 15.89389 15.91177 15.92361 15.93324 15.9372 15.94133 15.94182 15.93895 15.93363 15.92984 15.92402 15.93272 15.94362 15.95148 15.95995 15.97336 15.98345 15.99559 16.00415 16.01419 16.03104 16.04289 16.05077 16.05473 16.06167 16.06634 16.0686 16.06845 16.06568 16.06694 16.06614 16.06383 16.05991 16.05888 16.05272 16.04886 16.04971 16.04994 16.05504 16.06215 16.06309 16.06955 16.06926 16.06721 16.07327 16.08138 16.0888 16.09471 16.10124 16.11556 16.12673 16.13228 16.13678 16.13806 16.14216 16.15277 16.16751 16.17818 16.17652 16.15873 16.12561 16.07612 16.00567
0 0 0 0 0 0 0 0 0 0 0 0 0 0 0 0 0 0 0 0 0 19.85646 19.58327 18.62144 17.15185 16.82777 16.49952 16.49168 16.15219 15.85221 15.83945 15.82763 15.8207 15.8137 15.80244 15.79322 15.78683 15.7852 15.79332 15.79903 15.81132 15.82551 15.84051 15.85463 15.86617 15.88282 15.8959 15.91491 15.92934 15.94213 15.9534 15.96413 15.96629 15.96856 15.96227 15.95943 15.9588 15.96423 15.96619 15.97469 15.97991 15.99201 16.00234 16.01038 16.02302 16.03929 16.0551 16.06835 16.07905 16.08417 16.09761 16.10517 16.10982 16.11268 16.11607 16.11655 16.11828 16.11416 16.10962 16.10342 16.104 16.10315 16.1073 16.11645 16.12119 16.12731 16.13201 16.13209 16.13337 16.13377 16.13456 16.13762 16.13868 16.14516 16.15351 16.16237 16.1704 16.17738 16.18045 16.18464 16.18753 16.1962 16.21321 16.21641 16.20819 16.18458 16.14658 16.09011 16.00838
0 0 0 0 0 0 0 0 0 0 0 0 0 0 0 0 0 0 0 19.85317 19.81287 19.72913 18.92419 17.83499 17.20434 16.87041 16.52012 16.82987 15.87262 15.8469 15.83188 15.82374 15.82225 15.81903 15.80827 15.79902 15.79636 15.79928 15.80501 15.81318 15.82562 15.8383 15.84904 15.86409 15.87566 15.88956 15.90677 15.92391 15.94468 15.96125 15.97658 15.99148 16.00061 16.00515 16.00774 16.0078 16.00694 16.00792 16.00815 16.00506 16.00744 16.01146 16.01729 16.02619 16.03973 16.05717 16.07364 16.08715 16.09856 16.10998 16.12504 16.13741 16.14834 16.15656 16.16893 16.17652 16.17834 16.17562 16.1715 16.16756 16.16842 16.16877 16.17318 16.17756 16.18349 16.18432 16.18408 16.18341 16.18015 16.18151 16.18341 16.18661 16.19143 16.20099 16.21118 16.22058 16.22685 16.2325 16.23684 16.24168 16.24361 16.24988 16.25897 16.25688 16.23969 16.20755 16.16393 16.10324 16.01875
0 0 0 0 0 0 0 0 0 0 0 0 0 0 0 0 0 0 19.3607 19.25306 18.92625 18.48352 17.88496 17.2446 16.91998 16.89746 16.53868 16.19713 15.87769 15.8466 15.83306 15.8276 15.82902 15.82458 15.81479 15.81038 15.8131 15.8148 15.82269 15.83165 15.84221 15.85641 15.86914 15.88243 15.8942 15.90503 15.9208 15.94123 15.96606 15.98693 16.00441 16.01799 16.02876 16.03492 16.04297 16.04732 16.0466 16.04904 16.04673 16.04528 16.04344 16.04556 16.04651 16.05274 16.06805 16.08626 16.09916 16.10932 16.11794 16.13068 16.15157 16.16586 16.1824 16.1908 16.20284 16.21818 16.2216 16.22558 16.22556 16.22938 16.23547 16.23783 16.24464 16.24999 16.25285 16.25236 16.24509 16.24024 16.23476 16.23395 16.23207 16.23282 16.2381 16.24749 16.25335 16.26248 16.27249 16.28137 16.28668 16.28914 16.29129 16.29748 16.30507 16.29897 16.27443 16.23977 16.19587 16.13555 16.05702
0 0 0 0 0 0 0 0 0 0 0 0 0 0 0 0 0 19.77436 19.25844 18.66449 18.18686 17.58947 17.27401 17.27525 17.27161 16.89416 16.53726 15.8971 15.86475 15.84097 15.83038 15.82681 15.83002 15.82595 15.82293 15.82078 15.82339 15.82664 15.83123 15.83952 15.85447 15.87162 15.88328 15.90206 15.91313 15.92833 15.95107 15.97463 15.99965 16.02339 16.04116 16.05923 16.07138 16.07795 16.08254 16.08363 16.08334 16.0831 16.08125 16.0808 16.08114 16.07975 16.08031 16.08629 16.09637 16.11153 16.12504 16.13743 16.14411 16.15918 16.17756 16.20111 16.21903 16.23195 16.24322 16.25758 16.26861 16.27185 16.27706 16.28126 16.28822 16.29402 16.29699 16.30097 16.30382 16.30108 16.29607 16.29193 16.2883 16.28532 16.28414 16.28631 16.29332 16.29947 16.30624 16.31543 16.32038 16.32656 16.32962 16.32515 16.32738 16.33289 16.33801 16.32777 16.30548 16.27237 16.22892 16.17308 16.10403
0 0 0 0 0 0 0 0 0 0 0 0 0 0 0 0 19.27252 19.25758 18.42348 17.88337 17.59323 17.27794 17.27386 17.2723 17.25164 16.88174 16.52329 15.88898 15.85342 15.83335 15.82732 15.82823 15.833 15.83782 15.83324 15.83784 15.84284 15.84444 15.84811 15.85495 15.86957 15.88609 15.90674 15.92418 15.94118 15.96203 15.9843 16.00788 16.03073 16.05402 16.07621 16.09847 16.11395 16.11889 16.1231 16.12479 16.13225 16.13228 16.12944 16.13067 16.12744 16.1236 16.12221 16.1203 16.12259 16.13005 16.14315 16.1563 16.16421 16.17919 16.20188 16.22747 16.25031 16.26733 16.28333 16.29827 16.31548 16.32667 16.33577 16.34182 16.35046 16.35572 16.35946 16.36239 16.36165 16.35608 16.35051 16.33946 16.33087 16.32543 16.32486 16.33022 16.33274 16.34119 16.35153 16.35648 16.36369 16.3656 16.36603 16.36682 16.36637 16.37066 16.37603 16.36592 16.34861 16.31652 16.2742 16.2178 16.14909
0 0 0 0 0 0 0 0 0 0 0 0 0 0 0 19.82176 19.09314 18.41575 17.85924 17.5689 17.25271 17.25912 17.27102 16.91429 16.88966 16.54257 15.90358 15.87032 15.84092 15.82961 15.82489 15.83069 15.84323 15.85297 15.85466 15.86221 15.86524 15.87167 15.87873 15.89034 15.90901 15.92886 15.94999 15.97133 15.99503 16.01408 16.03335 16.0524 16.07489 16.09742 16.11659 16.13526 16.14645 16.15354 16.15921 16.16445 16.17074 16.17529 16.18077 16.18454 16.18394 16.18298 16.17834 16.16818 16.16065 16.15967 16.16587 16.1784 16.18937 16.20128 16.22258 16.24924 16.27414 16.29424 16.31453 16.3381 16.35302 16.36592 16.37681 16.38529 16.39651 16.40303 16.41182 16.41602 16.42137 16.41714 16.40985 16.39999 16.39186 16.37807 16.37543 16.3741 16.37863 16.38092 16.38304 16.38831 16.39052 16.39271 16.39612 16.39629 16.39691 16.40208 16.40316 16.39823 16.3837 16.35604 16.31476 16.26333 16.19953
0 0 0 0 0 0 0 0 0 0 0 0 0 0 19.16002 19.15535 18.4523 17.86279 17.55404 17.23109 17.23779 16.89258 16.88971 16.87718 16.53447 16.19354 15.87912 15.84894 15.83444 15.83121 15.8327 15.84406 15.85972 15.87408 15.87877 15.88413 15.8896 15.89859 15.90687 15.92526 15.94725 15.9737 16.0002 16.0247 16.04946 16.07412 16.09711 16.12233 16.14523 16.16153 16.17505 16.18769 16.20026 16.20662 16.21225 16.21989 16.22722 16.23267 16.23805 16.24421 16.24581 16.24447 16.2398 16.22921 16.21315 16.19845 16.1987 16.20319 16.21166 16.22086 16.24031 16.26857 16.29868 16.32176 16.35394 16.38045 16.39944 16.41262 16.42547 16.43159 16.44148 16.44508 16.45028 16.45824 16.46627 16.46623 16.45979 16.45285 16.43864 16.42675 16.41934 16.41771 16.41995 16.42304 16.42491 16.42426 16.42596 16.42767 16.42959 16.43104 16.43005 16.43493 16.43606 16.42468 16.40869 16.38368 16.34382 16.28969 16.22782
0 0 0 0 0 0 0 0 0 0 0 0 0 19.03385 19.20603 18.45693 17.8565 17.54654 17.21728 17.22033 16.88324 16.87615 16.86752 16.85535 16.50699 15.87804 15.85324 15.8332 15.82686 15.83464 15.84487 15.86625 15.88765 15.90565 15.91135 15.91833 15.92575 15.93618 15.95343 15.97639 16.00182 16.03135 16.0598 16.08704 16.11273 16.13445 16.16237 16.18741 16.20946 16.22204 16.2294 16.24156 16.25293 16.25892 16.26316 16.26598 16.26947 16.27816 0 0 0 16.24336 16.25469 16.30527 16.28794 16.25816 16.23847 16.22916 16.22983 16.23624 16.25335 16.27693 16.31234 16.34341 16.37808 16.41453 16.43231 16.45363 16.46856 16.47419 16.4912 16.49848 16.50626 16.51399 16.52038 16.52087 16.52064 16.51327 16.5019 16.48597 16.47384 16.46543 16.4598 16.45817 16.45933 16.46022 16.4577 16.45585 16.45701 16.45833 16.46135 16.46513 16.46968 16.46353 16.44498 16.4217 16.37833 16.32199 16.25236
0 0 0 0 0 0 0 0 0 0 0 0 0 19.41534 18.48019 17.86815 17.53599 17.19128 17.19759 16.853 16.85537 16.85378 16.84918 15.8889 15.87474 15.8568 15.84015 15.82538 15.82773 15.84021 15.85879 15.88002 15.90561 15.92425 15.93548 15.94707 15.96181 15.97882 15.99945 16.03366 16.07299 16.10802 16.13611 16.16195 16.18999 16.22393 16.25391 16.27177 16.27909 16.28426 16.29151 17.03718 16.30612 16.29971 16.29474 16.64746 17.40313 18.17515 0 0 0 0 0 16.70834 16.33557 16.30733 16.27609 16.25818 16.24722 16.25265 16.26797 16.29388 16.32544 16.36057 16.39969 16.43564 16.46285 16.4831 16.50063 16.51204 16.52609 16.53254 16.54254 16.54846 16.56187 16.56646 16.56847 16.56463 16.56121 16.54991 16.54034 16.53059 16.52148 16.5135 16.5104 16.50636 16.50416 16.49774 16.49245 16.49306 16.49489 16.49376 16.50036 16.49264 16.47673 16.45279 16.4062 16.34988 16.27398
0 0 0 0 0 0 0 0 0 0 0 0 19.5575 18.75385 17.84834 17.51681 17.16534 16.82396 16.8364 16.84098 16.84025 16.84354 16.50293 15.87869 15.86304 15.84518 15.83047 15.82974 15.8372 15.84785 15.86931 15.89312 15.92326 15.94596 15.96176 15.97419 15.99053 16.01228 16.04154 16.08332 16.12492 16.16645 16.19994 16.23554 16.27049 16.29094 16.29918 0 0 16.28495 0 17.91333 17.10395 16.694 17.06804 17.04882 17.81937 18.23232 19.17037 17.04483 16.33887 0 0 0 17.90458 16.32608 16.29841 16.27787 16.26692 16.26681 16.28173 16.3066 16.34011 16.37875 16.41812 16.45229 16.48313 16.51117 16.53437 16.55159 16.5649 16.57089 16.57469 16.58691 16.59176 16.5958 16.60012 16.59904 16.60068 16.59487 16.58772 16.57876 16.5691 16.56463 16.55594 16.55344 16.54971 16.54549 16.5415 16.53907 16.53661 16.53905 16.53898 16.52827 16.50843 16.48092 16.43798 16.37357 16.29315
0 0 0 0 0 0 0 0 0 0 0 18.78389 18.77247 17.83951 17.50337 16.8017 16.82105 16.8346 16.841 16.84315 16.84937 16.19724 15.89553 15.87883 15.86182 15.84692 15.83874 15.83828 15.85163 15.86825 15.88827 15.91269 15.94096 15.96467 15.98089 16.00174 16.0281 16.05992 16.10203 16.1506 16.19906 16.24396 16.27417 16.30041 17.06615 0 0 0 0 0 18.69156 19.46978 19.23173 18.65211 18.28104 17.85516 17.84163 16.6869 16.33081 16.33802 16.34013 16.33846 16.33341 18.30474 18.6544 16.33455 16.3113 16.29409 16.28597 16.28325 16.2998 16.32263 16.35337 16.38808 16.43042 16.46766 16.50054 16.53159 16.56181 16.58324 16.59597 16.59979 16.60979 16.61443 16.61774 16.62591 16.63371 16.63753 16.64121 16.64203 16.6392 16.63295 16.61892 16.61122 16.60119 16.59745 16.5932 16.58621 16.58364 16.57706 16.57636 16.57537 16.57444 16.55963 16.53826 16.5112 16.46792 16.40321 16.32253
0 0 0 0 0 0 0 0 0 0 19.54201 18.81028 17.84611 17.14083 16.80885 16.49071 16.5153 16.52448 16.52332 16.52409 16.52594 15.9099 15.9011 15.88402 15.87004 15.86015 15.85311 15.8584 15.8704 15.88902 15.91217 15.9342 15.95802 15.98006 15.99841 16.02552 16.06087 16.10552 16.16131 16.21997 16.27674 16.3107 16.69141 0 0 0 0 0 0 0 0 0 0 0 18.66296 18.30065 17.49779 16.34222 16.35292 16.36135 16.36265 16.35814 16.35429 16.3518 16.34951 16.34471 16.32514 16.31515 16.31166 16.31068 16.32037 16.34211 16.37052 16.40877 16.44926 16.49032 16.52633 16.55555 16.58276 16.60416 16.61679 16.62321 16.62451 16.63035 16.63653 16.64374 16.65287 16.66616 16.67401 16.68112 16.67805 16.67459 16.66528 16.66186 16.65585 16.64982 16.64576 16.64415 16.6364 16.62584 16.62298 16.62019 16.61178 16.58771 16.56395 16.53223 16.48922 16.42594 16.34517
0 0 0 0 0 0 0 0 0 0 19.11657 17.85701 17.14506 16.80723 16.18635 16.19772 15.91284 15.91298 15.92172 15.92016 15.91307 15.90545 15.89926 15.89508 15.88584 15.87679 15.87925 15.89046 15.90597 15.92385 15.94526 15.96286 15.98397 16.00204 16.02302 16.05742 16.09805 16.14975 16.20871 16.26976 17.45897 0 0 0 0 0 0 0 0 0 0 0 0 0 19.33251 17.9505 16.37508 16.37794 16.3864 16.39439 16.40264 16.40101 16.39244 16.38341 16.37316 16.36261 16.35073 16.33829 16.33695 16.33552 16.34602 16.36503 16.39259 16.43008 16.46973 16.50995 16.54806 16.57625 16.60662 16.62709 16.63992 16.64248 16.64737 16.65496 16.6645 16.66942 16.68192 16.69141 16.70201 16.70929 16.70904 16.70471 16.69983 16.70113 16.69748 16.69623 16.68825 16.68874 16.68421 16.67936 16.67522 16.66798 16.65013 16.62665 16.59653 16.56259 16.51401 16.45167 16.37176
0 0 0 0 0 0 0 0 0 19.20712 18.57684 17.51712 16.8095 16.17852 15.89714 15.89854 15.89662 15.89639 15.90178 15.91081 15.91179 15.90664 15.90594 15.90537 15.90369 15.90023 15.90334 15.91659 15.93613 15.95623 15.97541 15.99229 16.01127 16.02995 16.05471 16.09491 16.14301 16.19933 16.25288 17.04795 17.27096 0 0 0 0 0 0 0 0 0 0 0 0 18.61711 18.38237 17.1603 16.39388 16.40488 16.42192 16.43435 16.44493 16.4455 16.43872 16.42466 16.40931 16.39671 16.38551 16.37194 16.36925 16.36975 16.3779 16.39482 16.42027 16.45492 16.49111 16.52816 16.56466 16.59522 16.62501 16.64152 16.65577 16.66445 16.66835 16.67404 16.68414 16.69523 16.70823 16.71956 16.7347 16.73874 16.74356 16.74032 16.73335 16.73381 16.73485 16.73391 16.73364 16.73047 16.72505 16.71954 16.71196 16.7029 16.68195 16.65277 16.62168 16.58107 16.53242 16.46596 16.39126
0 0 0 0 0 0 0 0 20.06371 18.91675 17.52456 16.79763 16.47157 15.87778 15.8757 15.86897 15.86658 15.86894 15.8745 15.88271 15.89651 15.90374 15.91437 15.91929 15.92175 15.92564 15.93652 15.95318 15.96954 15.98977 16.00469 16.02017 16.03835 16.05674 16.08399 16.12596 16.171 16.21891 16.61584 17.04941 17.49253 18.30712 0 19.12621 19.68897 0 0 0 0 0 0 0 19.38607 18.39398 17.59065 16.40029 16.41731 16.43836 16.45624 16.47116 16.47592 16.47467 16.46602 16.4525 16.43808 16.42444 16.41459 16.4098 16.40516 16.40787 16.41507 16.43105 16.4528 16.48063 16.51484 16.55631 16.58853 16.62037 16.64628 16.66239 16.677 16.68498 16.69152 16.69646 16.70548 16.72256 16.73152 16.74595 16.7527 16.75584 16.76228 16.76703 16.76514 16.76568 16.76803 16.77195 16.77785 16.77516 16.77257 16.76117 16.75097 16.73868 16.71548 16.68032 16.64017 16.59467 16.53838 16.47105 16.39723
0 0 0 0 0 0 0 0 20.07987 18.92679 17.52228 16.7938 15.86373 15.85812 15.85213 15.84211 15.8458 15.84894 15.85698 15.8724 15.89001 15.90673 15.92299 15.9357 15.94735 15.96275 15.98756 16.00954 16.02966 16.04775 16.06545 16.07467 16.08874 16.10656 16.13038 16.16326 16.19934 16.23249 16.26133 16.65928 17.07157 17.49709 17.92637 18.36168 19.12156 0 0 0 0 0 0 18.79446 17.99354 17.9974 16.4018 16.42211 16.45283 16.47718 16.49721 16.50601 16.51129 16.50292 16.49145 16.47906 16.46278 16.44841 16.43917 16.43491 16.43591 16.43832 16.44348 16.46141 16.48074 16.50779 16.53726 16.57794 16.6096 16.64094 16.66445 16.68353 16.70416 16.71596 16.72131 16.72507 16.73739 16.75048 16.76499 16.76492 16.77186 16.77824 16.78239 16.78768 16.78884 16.7917 16.79428 16.8022 16.81094 16.80977 16.80333 16.79814 16.78465 16.7669 16.74268 16.7018 16.65359 16.60119 16.54319 16.4764 16.40353
0 0 0 0 0 0 0 0 0 18.94739 17.5258 16.78845 15.85069 15.84245 15.83331 15.82545 15.82847 15.83956 15.85206 15.87204 15.8933 15.91446 15.93443 15.95388 15.97231 16.00114 16.032 16.06358 16.08719 16.11098 16.1298 16.14197 16.15041 16.1612 16.18036 16.20446 16.23069 16.25263 16.272 16.28375 16.30274 16.32044 16.34031 16.71801 17.52842 18.34944 19.139 19.46378 0 0 19.11602 17.98316 17.16762 16.4009 16.42346 16.45722 16.49465 16.51712 16.53092 16.53466 16.5319 16.52436 16.51675 16.50663 16.49307 16.48067 16.47323 16.47216 16.47188 16.47371 16.4826 16.49573 16.51748 16.54266 16.56995 16.59977 16.6301 16.65731 16.68621 16.70514 16.71928 16.73449 16.74219 16.74869 16.75958 16.76878 16.78522 16.79447 16.80227 16.80823 16.81282 16.82146 16.82567 16.82974 16.83092 16.83488 16.83941 16.84284 16.83663 16.82765 16.81529 16.79152 16.754 16.71152 16.66214 16.60722 16.54855 16.47864 16.40685
0 0 0 0 0 0 0 0 0 19.95778 18.28103 17.15297 16.13014 15.8345 15.82284 15.81843 15.82133 15.83476 15.85171 15.8731 15.89533 15.92179 15.94986 15.97563 16.00779 16.04581 16.09051 16.13016 16.15816 16.18272 16.19753 16.20369 16.20665 16.21303 16.22396 16.2404 16.26027 16.27322 16.28348 16.28929 16.29983 16.31082 16.32474 16.33671 16.7144 17.11835 17.53616 17.94717 19.11809 17.9796 16.73375 16.37891 16.39798 16.42905 16.46433 16.49479 16.52707 16.54413 16.55123 16.55097 16.54306 16.53485 16.52895 16.52132 16.51086 16.50695 16.49838 16.4964 16.49607 16.50229 16.51684 16.53326 16.55121 16.57498 16.60304 16.63255 16.65713 16.6842 16.71068 16.72694 16.73868 16.75125 16.75915 16.7699 16.77602 16.78687 16.80119 16.81647 16.83316 16.83886 16.84347 16.85032 16.85463 16.85729 16.86003 16.86389 16.86994 16.86839 16.86428 16.85137 16.83688 16.81081 16.77274 16.7265 16.67713 16.61776 16.55168 16.47765 16.39936
0 0 0 0 0 0 0 0 0 20.11399 19.27797 17.54115 16.43873 15.83108 15.82269 15.81765 15.82236 15.8344 15.85547 15.8763 15.89985 15.92576 15.96041 15.99381 16.04018 16.09699 16.15298 16.21003 16.25154 16.26612 16.27175 16.27358 16.26446 16.26539 16.26868 16.27694 16.28783 16.29337 16.29529 16.2951 16.30092 16.30924 16.32103 16.33792 16.34841 16.35988 16.74316 0 17.98686 16.75792 16.39761 16.42072 16.44821 16.47652 16.50969 16.53555 16.55975 16.56818 16.57119 16.57227 16.568 16.55568 16.55218 16.54608 16.53692 16.53489 16.52849 16.52329 16.52141 16.53079 16.5401 16.55372 16.5748 16.59884 16.62572 16.65274 16.67923 16.70372 16.72395 16.73779 16.75412 16.76753 16.77795 16.78424 16.79615 16.80895 16.82663 16.84056 16.85745 16.86714 16.87142 16.87727 16.88022 16.88082 16.88478 16.89007 16.8953 16.89412 16.88188 16.87182 16.85248 16.82365 16.78736 16.7456 16.6844 16.62114 16.5528 16.47675 16.388
0 0 0 0 0 0 0 0 0 0 19.82032 18.32195 16.78209 16.11581 15.82747 15.82416 15.82398 15.83635 15.85385 15.8724 15.89909 15.93588 15.9701 16.01012 16.06738 16.13352 16.20308 16.26302 0 0 0 16.50913 16.29771 16.29903 16.30255 16.30714 16.31177 16.3087 16.30598 16.29989 16.30125 16.30955 16.31917 16.33756 16.35557 16.37302 16.39072 16.7835 16.4109 16.41859 16.44214 16.46716 16.49831 16.52274 16.54537 16.56622 16.57824 16.58747 16.58978 16.58962 16.59166 16.59181 16.58349 16.58406 16.5723 16.56689 16.56774 16.564 16.56212 16.56528 16.57253 16.58323 16.5996 16.62028 16.64751 16.67631 16.70259 16.72315 16.73927 16.75608 16.76977 16.7828 16.795 16.80521 16.81618 16.82757 16.84451 16.8604 16.87107 16.88361 16.89375 16.89965 16.90613 16.91108 16.91259 16.91751 16.92051 16.91737 16.90631 16.88977 16.86711 16.83807 16.80754 16.75857 16.69399 16.62597 16.5541 16.47421 16.37797
0 0 0 0 0 0 0 0 0 0 0 19.67872 18.31277 16.77856 16.11259 15.82463 15.82155 15.83271 15.85001 15.87455 15.90802 15.94937 15.98486 16.03026 16.09006 16.16215 16.57599 16.98594 0 0 0 17.15744 17.43817 16.30946 16.31421 16.3195 16.32326 16.32115 16.31457 16.306 16.30069 16.30537 16.31999 16.34304 16.36871 16.39008 16.40616 16.42518 16.4387 16.45828 16.48503 16.51316 16.54066 16.56475 16.5832 16.5979 16.60364 16.60551 16.60866 16.6115 16.61496 16.61432 16.6107 16.60522 16.6022 16.60317 16.60242 16.60101 16.59734 16.59955 16.60532 16.61894 16.63663 16.65494 16.679 16.69942 16.72181 16.74199 16.76448 16.77705 16.79191 16.80507 16.81733 16.82905 16.84065 16.85265 16.86647 16.88509 16.90307 16.91332 16.91855 16.9248 16.92903 16.9292 16.93414 16.93574 16.93816 16.93207 16.92318 16.90567 16.88358 16.85466 16.81938 16.76967 16.70659 16.64003 16.56303 16.47952 16.38893
0 0 0 0 0 0 0 0 0 0 0 0 19.86935 18.65627 16.76243 16.10675 15.8099 15.8261 15.84951 15.88623 15.92557 15.96488 16.004 16.04793 16.10201 16.1755 16.94579 0 0 18.5639 18.66031 17.07158 16.31946 16.3108 16.31625 16.32175 16.32413 16.32542 16.32372 16.31949 16.31705 16.31766 16.32805 16.35148 16.37791 16.40412 16.42371 16.4416 16.46095 16.48677 16.51642 16.54578 16.57723 16.59998 16.61654 16.62914 16.63614 16.63916 16.63818 16.63911 16.64125 16.64328 16.64223 16.63901 16.63739 16.63598 16.63532 16.63166 16.62753 16.63443 16.63827 16.6501 16.66633 16.68553 16.70278 16.72508 16.74609 16.76965 16.78537 16.80192 16.81574 16.82982 16.84338 16.85812 16.86935 16.88567 16.90542 16.91066 16.92843 16.93912 16.9467 16.94962 16.94675 16.94847 16.95173 16.95417 16.95301 16.94414 16.93292 16.91641 16.89627 16.86237 16.82931 16.78197 16.72072 16.65796 16.58251 16.50294 16.41644
0 0 0 0 0 0 0 0 0 0 0 0 0 0 0 16.75226 16.09205 15.82495 15.85926 15.90475 15.94871 15.99176 16.01906 16.05782 16.10365 16.50792 16.58125 16.98709 17.38759 19.54116 18.66653 17.05207 16.31404 16.31202 16.31237 16.31774 16.32828 16.3359 16.33613 16.33664 16.3381 16.33839 16.34794 16.36538 16.3897 16.41486 16.43555 16.45557 16.47918 16.51019 16.53983 16.57336 16.60096 16.62346 16.64563 16.65897 16.66475 16.66702 16.66839 16.66873 16.67081 16.6684 16.66663 16.66707 16.66636 16.66234 16.66045 16.65916 16.6628 16.67165 16.67291 16.68159 16.69651 16.71865 16.73499 16.75801 16.77861 16.79851 16.80948 16.8245 16.84564 16.86163 16.87385 16.88519 16.8966 16.91199 16.92999 16.94203 16.94536 16.95333 16.95755 16.96354 16.96236 16.9649 16.96951 16.97303 16.97194 16.95881 16.94542 16.9326 16.90936 16.8799 16.84769 16.80163 16.74893 16.68448 16.61207 16.53577 16.45581
0 0 0 0 0 0 0 0 0 0 0 0 0 0 0 17.44529 16.74577 15.83619 15.88498 15.93267 15.97794 16.02221 16.05027 16.0818 16.11636 16.16909 16.94394 17.00215 17.40866 0 18.71739 16.31197 16.31245 16.31142 16.32145 16.31974 16.33487 16.34297 16.3488 16.35216 16.35548 16.36094 16.37068 16.38613 16.40447 16.42544 16.44768 16.47072 16.50095 16.5349 16.57461 16.60642 16.63052 16.65538 16.67229 16.68507 16.692 16.69199 16.69064 16.6916 16.69408 16.69293 16.69028 16.68707 16.68664 16.68644 16.68502 16.68778 16.69147 16.69948 16.70585 16.71453 16.72966 16.75357 16.77728 16.79841 16.81454 16.83071 16.84799 16.86949 16.88476 16.89619 16.90846 16.91978 16.93002 16.93731 16.94892 16.95397 16.95829 16.96527 16.96752 16.96866 16.97352 16.97463 16.97797 16.98323 16.98183 16.97358 16.96148 16.9494 16.92983 16.90497 16.87826 16.83899 16.79002 16.72809 16.66303 16.59305 16.51879
0 0 0 0 0 0 0 0 0 0 0 0 0 18.61547 18.25278 17.46484 16.78968 15.86382 15.90959 15.95616 16.00598 16.05424 16.08127 16.11185 16.14241 16.18088 17.32567 17.77251 18.22668 18.13548 19.11239 16.66215 16.30425 16.31119 16.31949 16.3347 16.35017 16.36154 16.36618 16.36978 16.3722 16.38054 16.39207 16.40665 16.42363 16.44376 16.46569 16.49368 16.52512 16.56424 16.59896 16.62703 16.6524 16.6753 16.69029 16.70456 16.71068 16.71453 16.713 16.7166 16.71413 16.718 16.71571 16.71278 16.70572 16.70719 16.70976 16.71506 16.72005 16.72685 16.73799 16.74928 16.76416 16.78424 16.81196 16.8322 16.84542 16.86493 16.8839 16.90335 16.91491 16.92518 16.93762 16.94969 16.95296 16.95819 16.96394 16.96639 16.96877 16.97143 16.97181 16.97704 16.98201 16.98775 16.98838 16.99402 16.99564 16.99306 16.9821 16.96956 16.9527 16.93058 16.90352 16.86272 16.81406 16.76203 16.70342 16.64252 16.57955
0 0 0 0 0 0 0 0 0 0 0 0 17.84504 17.46897 17.50242 17.15502 16.50076 15.90147 15.94211 15.98222 16.02909 16.07565 16.10739 16.13593 16.16621 16.19926 16.96686 17.01333 17.81857 18.6379 17.02676 16.28395 16.30078 16.32235 16.34395 16.36346 16.3772 16.38598 16.38671 16.38523 16.39119 16.40015 16.41303 16.42743 16.44566 16.4699 16.49371 16.51737 16.54652 16.58039 16.61446 16.63961 16.66249 16.68393 16.69898 16.71259 16.72379 16.73053 16.73408 16.7319 16.73432 16.7388 16.73524 16.72732 16.72697 16.73194 16.73901 16.74613 16.75567 16.7627 16.7775 16.79319 16.81593 16.8371 16.85793 16.87589 16.89319 16.9078 16.9203 16.93286 16.94229 16.95372 16.96208 16.9692 16.97579 16.97758 16.97786 16.97823 16.97803 16.97806 16.98067 16.98741 16.992 16.99801 17.00086 17.00415 17.00655 17.00389 16.99517 16.98736 16.97007 16.95136 16.92701 16.88972 16.84232 16.79479 16.73875 16.67978 16.62029
0 0 0 0 0 0 0 0 19.58767 18.94523 17.80766 17.05955 17.07993 17.10223 16.79486 16.86243 16.57057 15.95807 15.99068 16.02989 16.07048 16.11586 16.1461 16.17546 16.20814 16.23692 16.26936 16.28449 16.29521 16.29718 16.29699 16.30629 16.32297 16.34637 16.36661 16.38448 16.39612 16.40295 16.40225 16.40002 16.40703 16.41745 16.42669 16.44111 16.46435 16.49331 16.51923 16.54548 16.56811 16.59327 16.61541 16.64151 16.66462 16.68831 16.70966 16.7246 16.73929 16.74804 16.75074 16.75233 16.75587 16.75283 16.75098 16.74834 16.74737 16.75705 16.7655 16.77791 16.79069 16.80856 16.82274 16.84444 16.86499 16.88739 16.90385 16.91582 16.93329 16.94968 16.95899 16.96654 16.97841 16.98567 16.99224 16.99517 16.99248 16.99201 16.99041 16.98788 16.98088 16.98226 16.98567 16.99613 17.00244 17.00543 17.01195 17.01515 17.0134 17.01083 17.00748 16.99948 16.98634 16.96827 16.94881 16.91538 16.87631 16.83288 16.7834 16.72924 16.67445
0 0 0 0 0 0 0 18.56469 18.60949 17.04094 16.68987 16.69828 16.72808 16.77696 16.84231 16.58135 15.97855 16.0086 16.03996 16.08207 16.12536 16.16866 16.20088 16.22986 16.25907 16.28755 16.31138 16.32821 16.33878 16.3465 16.35218 16.36265 16.37441 16.38478 16.39454 16.40241 16.41041 16.41552 16.41652 16.41728 16.42136 16.43094 16.44394 16.4625 16.48499 16.51001 16.53611 16.55595 16.57906 16.59452 16.61435 16.63686 16.66114 16.68777 16.71236 16.73051 16.74561 16.75667 16.76524 16.76827 16.77339 16.7747 16.77294 16.77319 16.77928 16.79046 16.80359 16.8182 16.83304 16.85163 16.86932 16.89322 16.91124 16.92692 16.94538 16.95919 16.97494 16.98705 16.99044 16.99758 17.00826 17.01258 17.01577 17.0141 17.01596 17.00945 16.99958 16.99517 16.98654 16.99173 16.99225 17.00001 17.0092 17.01434 17.01904 17.02214 17.026 17.02755 17.0254 17.01588 17.00576 16.98767 16.96909 16.94185 16.90616 16.86343 16.81573 16.76772 16.71537
0 0 0 0 0 0 19.05546 19.01537 17.04624 16.66319 16.66021 16.6912 16.75663 16.50557 16.26054 15.99999 16.02435 16.05544 16.08903 16.13539 16.18231 16.21936 16.24905 16.2733 16.29864 16.32389 16.34649 16.36239 16.37705 16.38849 16.39661 16.40447 16.41275 16.41947 16.42291 16.42513 16.42734 16.42871 16.42936 16.43555 16.44219 16.4535 16.46653 16.48322 16.5017 16.51378 16.53014 16.5516 16.57268 16.59132 16.61888 16.63878 16.66028 16.68058 16.70087 16.72047 16.73904 16.7522 16.76589 16.77622 16.78418 16.79146 16.79318 16.80018 16.80857 16.82722 16.84532 16.86411 16.87675 16.89855 16.91803 16.93998 16.95724 16.97577 16.99051 17.00255 17.01469 17.0181 17.02309 17.02792 17.02921 17.03142 17.03297 17.02875 17.0267 17.02206 17.00642 16.99888 16.99916 16.99866 16.99537 17.00691 17.0126 17.0232 17.02967 17.0352 17.03749 17.0443 17.04157 17.02955 17.02011 17.01078 16.99686 16.97166 16.9419 16.90386 16.85767 16.81344 16.7638
0 0 0 0 0 0 19.93575 18.21527 17.01227 16.64564 16.34286 16.40643 16.18029 15.95544 16.01351 16.05746 16.08791 16.12434 16.16293 16.20237 16.24018 16.27302 16.29532 16.31521 16.33482 16.35493 16.37454 16.38878 16.40142 16.41513 16.42441 16.43199 16.43705 16.43857 16.43932 16.43905 16.4391 16.43926 16.43934 16.44569 16.45533 16.46807 16.48257 16.49062 16.49929 16.51008 16.52338 16.54091 16.56257 16.58482 16.6058 16.62721 16.64829 16.66749 16.6877 16.7053 16.72481 16.74548 16.76248 16.77758 16.78678 16.80041 16.81363 16.82644 16.84005 16.85866 16.88038 16.90251 16.91796 16.93887 16.9547 16.97867 16.99673 17.01402 17.02976 17.04142 17.04305 17.04651 17.04941 17.05092 17.0506 17.04597 17.04623 17.0423 17.03187 17.02572 17.01644 17.00534 17.00531 17.00385 17.00493 17.00952 17.01564 17.02998 17.04265 17.04819 17.04931 17.05234 17.04941 17.03935 17.03503 17.03358 17.02606 17.00561 16.97567 16.9424 16.90841 16.8698 16.82584
0 0 0 0 0 19.97851 19.53001 18.1784 17.00456 16.67476 16.09885 15.87473 15.94249 16.00777 16.05804 16.10794 16.1443 16.18329 16.21795 16.25202 16.28212 16.31369 16.33904 16.35923 16.37945 16.39654 16.41157 16.42538 16.43584 16.44586 16.45286 16.45696 16.458 16.45611 16.45281 16.44853 16.44661 16.44591 16.44663 16.4514 16.46302 16.47387 16.48135 16.48669 16.49235 16.50375 16.51436 16.53016 16.54792 16.56982 16.5915 16.61146 16.63246 16.65782 16.67599 16.69289 16.71593 16.73874 16.76084 16.77773 16.7925 16.81529 16.83428 16.85664 16.87474 16.89193 16.90869 16.92751 16.94888 16.96749 16.98278 16.99762 17.01869 17.03048 17.04502 17.05324 17.05925 17.06293 17.06516 17.06252 17.05754 17.05511 17.04874 17.04507 17.03733 17.02501 17.01689 17.01215 17.00378 17.00383 17.006 17.00926 17.01649 17.03448 17.04787 17.05498 17.05521 17.05733 17.05479 17.05336 17.04877 17.04699 17.03819 17.02023 16.9948 16.96494 16.9314 16.90188 16.86767
0 0 0 0 18.96877 18.52678 16.95213 16.61287 16.32937 15.80339 15.86276 15.92939 15.99535 16.04975 16.09879 16.14065 16.18032 16.21563 16.25102 16.28624 16.31772 16.34693 16.37457 16.39745 16.41326 16.43095 16.44589 16.45771 16.46579 16.47092 16.47648 16.47764 16.47729 16.47122 16.46513 16.4607 16.45575 16.45509 16.45484 16.45685 16.46227 16.46897 16.47346 16.47425 16.48045 16.48912 16.50388 16.51781 16.53529 16.55595 16.5765 16.59775 16.62263 16.64831 16.67015 16.69051 16.71092 16.73154 16.75644 16.77927 16.80369 16.82428 16.84681 16.87382 16.89562 16.91216 16.92873 16.95224 16.97528 16.99609 17.00847 17.01951 17.0338 17.04354 17.05641 17.06832 17.07519 17.07494 17.06714 17.06433 17.06135 17.05406 17.0484 17.04221 17.03326 17.02054 17.01453 17.0131 17.00628 17.00763 17.00752 17.01665 17.02386 17.03743 17.04563 17.0526 17.05927 17.06689 17.06367 17.06294 17.06622 17.06246 17.05917 17.04495 17.02557 17.00155 16.97386 16.94878 16.91706
0 0 0 0 20.06501 17.3048 15.7059 15.72667 15.78628 15.85485 15.91931 15.98864 16.04589 16.0926 16.13748 16.18319 16.21887 16.25113 16.28093 16.31564 16.34738 16.37433 16.39643 16.4181 16.43817 16.45236 16.46538 16.47519 16.47937 16.48404 16.48813 16.48988 16.48521 16.48163 16.47347 16.46667 16.46158 16.45726 16.45287 16.45577 16.4587 16.46301 16.4625 16.46349 16.46742 16.47766 16.48771 16.50268 16.5192 16.53961 16.56226 16.58543 16.61222 16.63703 16.65916 16.68313 16.70807 16.73294 16.75603 16.78023 16.80407 16.82714 16.85527 16.88207 16.90566 16.92578 16.95067 16.97451 16.9958 17.01372 17.02947 17.04176 17.05155 17.06047 17.0709 17.07724 17.0835 17.0817 17.0727 17.06441 17.06477 17.06148 17.05045 17.04077 17.03204 17.02318 17.0164 17.01718 17.01573 17.02053 17.02012 17.02646 17.03571 17.04459 17.04834 17.05189 17.06021 17.06754 17.07054 17.07452 17.07207 17.07844 17.08229 17.072 17.06094 17.04291 17.01821 16.99617 16.96714
0 0 0 19.02782 18.55079 16.91668 15.69602 15.74376 15.82509 15.90261 15.97249 16.03539 16.08477 16.128 16.17065 16.21132 16.24558 16.27882 16.3104 16.34473 16.37462 16.3977 16.41631 16.43238 16.44676 16.45904 16.47249 16.47818 16.48128 16.4867 16.49192 16.49437 16.494 16.48889 16.48198 16.47378 16.46366 16.45668 16.45431 16.45308 16.45358 16.45182 16.45186 16.45415 16.45743 16.46794 16.48079 16.49405 16.50765 16.53086 16.55532 16.57764 16.60253 16.6256 16.65276 16.67789 16.70737 16.73353 16.7573 16.78349 16.80586 16.83043 16.85945 16.88628 16.91107 16.93662 16.96115 16.98205 17.00833 17.02903 17.04627 17.05602 17.06585 17.07103 17.0804 17.0848 17.08105 17.07826 17.07266 17.06806 17.06098 17.05674 17.04619 17.03903 17.03214 17.03178 17.03054 17.03373 17.03264 17.03575 17.04246 17.05201 17.05609 17.05913 17.06309 17.0688 17.07021 17.07489 17.0813 17.08624 17.09063 17.0992 17.09566 17.09022 17.08433 17.07431 17.04819 17.02561 17.0008
0 0 0 18.96509 18.53038 16.90708 16.26012 15.77115 15.86315 15.94514 16.00688 16.06523 16.11062 16.15245 16.1933 16.23482 16.26983 16.3041 16.33725 16.36498 16.39181 16.40987 16.42246 16.43435 16.44565 16.45731 16.46649 16.47384 16.477 16.48049 16.48741 16.49379 16.49786 16.49602 16.48923 16.47511 16.4652 16.45921 16.45412 16.45197 16.44979 16.4467 16.44527 16.44756 16.45294 16.46461 16.47845 16.49112 16.50796 16.52745 16.54913 16.57647 16.60294 16.62653 16.65259 16.67841 16.70788 16.73538 16.75908 16.78351 16.80953 16.83602 16.86167 16.8936 16.91929 16.945 16.96357 16.99311 17.02027 17.04279 17.06409 17.07756 17.08253 17.08389 17.08906 17.08969 17.0806 17.07568 17.07468 17.0677 17.0637 17.05802 17.05325 17.04708 17.0431 17.04581 17.04649 17.04708 17.05541 17.06127 17.06869 17.07528 17.08056 17.08225 17.08565 17.09093 17.09338 17.09909 17.10735 17.11238 17.11906 17.123 17.12099 17.11699 17.10781 17.10291 17.08755 17.06555 17.04451
0 0 0 19.93725 18.79912 16.8934 15.98345 15.79723 15.89109 15.97347 16.03964 16.09023 16.13462 16.17507 16.21626 16.25432 16.29002 16.32163 16.34756 16.37379 16.3917 16.40483 16.4128 16.42679 16.43785 16.44677 16.45674 16.46407 16.46758 16.47451 16.48319 16.49163 16.49738 16.4956 16.48722 16.47476 16.46227 16.45413 16.44936 16.44572 16.44048 16.4379 16.43699 16.44288 16.45011 16.46004 16.47361 16.48629 16.50081 16.52246 16.54492 16.57282 16.59951 16.62759 16.65306 16.68218 16.71196 16.73684 16.7597 16.78533 16.8127 16.84018 16.86919 16.89659 16.92422 16.94671 16.97153 16.99945 17.02323 17.04798 17.06865 17.08379 17.09063 17.09213 17.09042 17.08516 17.07372 17.07152 17.07046 17.06706 17.06526 17.06511 17.06165 17.06023 17.06118 17.06686 17.07028 17.07085 17.07819 17.08539 17.09273 17.09728 17.10269 17.10645 17.10732 17.11182 17.11759 17.12001 17.12829 17.13712 17.14385 17.14889 17.14741 17.14449 17.13864 17.12858 17.12043 17.10625 17.08775
0 0 0 19.9359 17.55852 16.21849 15.74359 15.84474 15.92993 16.00271 16.05901 16.1055 16.14842 16.18915 16.22723 16.26029 16.29171 16.31814 16.33899 16.35743 16.37452 16.38605 16.39835 16.40732 16.41718 16.42752 16.4365 16.44557 16.45598 16.46987 16.48055 16.48945 16.49372 16.4943 16.48364 16.47209 16.45996 16.45128 16.44402 16.43946 16.43474 16.43264 16.43501 16.44077 16.44417 16.45042 16.46316 16.48201 16.49464 16.51583 16.54155 16.56969 16.59493 16.62207 16.65154 16.68084 16.70916 16.73582 16.75954 16.78223 16.80963 16.83852 16.86666 16.89376 16.92382 16.94526 16.96616 16.99132 17.01573 17.03728 17.05751 17.07243 17.0808 17.08397 17.08065 17.07366 17.0679 17.0625 17.06185 17.06018 17.05837 17.06386 17.06346 17.068 17.07471 17.07974 17.08567 17.09908 17.10651 17.11511 17.12367 17.13662 17.13989 17.14174 17.1471 17.15181 17.15829 17.15828 17.1637 17.17358 17.18426 17.18446 17.18371 17.1803 17.17429 17.16578 17.15353 17.14149 17.12129
15.69742 15.70057 16.92384 17.55154 15.88764 15.69525 15.79596 15.89348 15.97269 16.0351 16.08205 16.12503 16.16272 16.20046 16.2298 16.25843 16.28473 16.30669 16.31973 16.33043 16.34436 16.35765 16.37207 16.38235 16.39743 16.40921 16.42227 16.43653 16.44743 16.46159 16.47611 16.48728 16.49153 16.49239 16.48309 16.47116 16.46113 16.45278 16.44569 16.44177 16.43552 16.43354 16.43465 16.43759 16.4427 16.44952 16.46163 16.4767 16.49277 16.51472 16.54277 16.5707 16.60046 16.62701 16.65349 16.68386 16.71317 16.74117 16.76514 16.79283 16.81465 16.84202 16.87359 16.90068 16.92604 16.9466 16.96274 16.98639 17.01158 17.03013 17.04724 17.05998 17.07109 17.07426 17.07438 17.06915 17.06567 17.06283 17.05895 17.05626 17.05809 17.06313 17.07113 17.07862 17.08931 17.09348 17.10173 17.11888 17.13037 17.13853 17.15607 17.17016 17.17669 17.18159 17.18714 17.18906 17.19626 17.20391 17.21252 17.22332 17.22849 17.23075 17.2315 17.22551 17.21964 17.21248 17.19728 17.17877 17.16206
15.70021 15.69464 15.70686 15.73028 15.75545 15.82187 15.89984 15.97186 16.03476 16.08482 16.12207 16.1491 16.17806 16.20309 16.22769 16.25116 16.2702 16.28739 16.29794 16.30655 16.31504 16.32569 16.33946 16.35234 16.36866 16.38642 16.40523 16.42497 16.43635 16.45077 16.46615 16.47426 16.48322 16.48697 16.48246 16.47587 16.46664 16.45679 16.4541 16.44926 16.44607 16.44339 16.444 16.44727 16.45195 16.45757 16.46538 16.47838 16.49489 16.51874 16.54694 16.57717 16.60863 16.63828 16.66766 16.69573 16.72477 16.75112 16.77822 16.80585 16.82989 16.85674 16.8862 16.90859 16.9273 16.94726 16.96581 16.98929 17.00597 17.02586 17.04177 17.05328 17.06112 17.06998 17.07087 17.07192 17.06697 17.06672 17.06333 17.05988 17.06331 17.06925 17.08067 17.09228 17.10025 17.11057 17.12757 17.14902 17.16461 17.17852 17.19223 17.20538 17.20755 17.21092 17.21369 17.22591 17.23262 17.23661 17.24536 17.25597 17.26308 17.26844 17.27183 17.27016 17.26014 17.2491 17.23792 17.22154 17.20684
15.80595 15.82617 15.85073 15.87813 15.90806 15.95634 16.00959 16.05797 16.09831 16.13128 16.1549 16.16983 16.18791 16.20648 16.22067 16.2353 16.2503 16.26245 16.2719 16.27906 16.28329 16.29067 16.30522 16.31952 16.33742 16.36132 16.38657 16.41152 16.42634 16.43893 16.4521 16.46362 16.47543 16.48235 16.47986 16.47843 16.47125 16.4622 16.46007 16.45867 16.45652 16.45613 16.45685 16.46191 16.46437 16.46837 16.47775 16.4893 16.50694 16.52946 16.5611 16.59385 16.62754 16.65822 16.68824 16.7163 16.74488 16.77341 16.80327 16.83098 16.85613 16.88006 16.9033 16.92292 16.93773 16.95531 16.97283 16.98972 17.00933 17.02407 17.03704 17.04883 17.05862 17.06966 17.07408 17.07189 17.06781 17.06813 17.06562 17.06571 17.07001 17.07649 17.09021 17.10757 17.12477 17.14336 17.16294 17.18284 17.20554 17.2218 17.24089 17.25195 17.25337 17.25838 17.26316 17.2709 17.27954 17.29135 17.29702 17.30489 17.31147 17.31669 17.31718 17.3143 17.30065 17.29035 17.27974 17.26524 17.25411
15.89805 15.92426 15.95197 15.98015 16.00673 16.04015 16.07445 16.1029 16.12923 16.14779 16.15977 16.16934 16.18472 16.19754 16.20896 16.21973 16.23617 16.24098 16.24855 16.2506 16.254 16.25926 16.26967 16.28855 16.30845 16.33468 16.36283 16.39296 16.41167 16.42903 16.44515 16.45865 16.47531 16.48682 16.4884 16.487 16.48257 16.47712 16.47452 16.47047 16.4694 16.47001 16.47081 16.47438 16.47884 16.48431 16.49456 16.50885 16.52726 16.5538 16.58492 16.61853 16.65191 16.68719 16.71439 16.74639 16.77873 16.80725 16.83389 16.86039 16.88281 16.90497 16.92826 16.94255 16.96243 16.97536 16.98914 17.00312 17.01813 17.03456 17.04797 17.05963 17.07112 17.08202 17.08251 17.07931 17.07774 17.07407 17.07243 17.07452 17.07888 17.08937 17.10633 17.12174 17.14135 17.16635 17.19125 17.21987 17.24663 17.26939 17.28811 17.30046 17.31162 17.31909 17.3218 17.3334 17.34328 17.35768 17.37082 17.38554 17.40325 17.40847 17.39707 17.38406 17.3756 17.36553 17.3543 17.34014 17.32971
15.98085 16.002 16.01824 16.03219 16.04507 16.06496 16.08547 16.10493 16.1205 16.13313 16.14303 16.15326 16.16276 16.17532 16.18789 16.19971 16.21365 16.22344 16.22774 16.2297 16.23406 16.24059 16.25332 16.27119 16.29085 16.32228 16.35303 16.38094 16.39971 16.42036 16.4441 16.46417 16.48011 16.49181 16.49944 16.5008 16.50219 16.5013 16.49784 16.49403 16.49061 16.49283 16.49447 16.49647 16.50442 16.51571 16.52967 16.547 16.56463 16.58992 16.62294 16.65402 16.68785 16.72101 16.75227 16.78144 16.81652 16.84055 16.86638 16.89091 16.91728 16.94429 16.96173 16.98335 16.99946 17.01322 17.02356 17.03153 17.04399 17.05912 17.07058 17.08535 17.09408 17.10025 17.09935 17.09841 17.09537 17.09412 17.09595 17.10085 17.10939 17.125 17.14289 17.16574 17.18917 17.21549 17.24844 17.27817 17.31304 17.34087 17.3561 17.36561 17.37188 17.37547 17.3857 17.39483 17.40464 17.41612 17.44053 17.46756 17.49007 17.49508 17.48899 17.47603 17.46691 17.45855 17.44507 17.43178 17.42118
16.01818 16.02755 16.03367 16.03767 16.04674 16.05653 16.0699 16.08177 16.09608 16.11194 16.1251 16.13302 16.14139 16.15193 16.16207 16.17828 16.19211 16.205 16.21087 16.21715 16.22159 16.22762 16.2414 16.26506 16.29255 16.32039 16.35015 16.38099 16.40615 16.43012 16.45333 16.47769 16.49366 16.50866 16.51617 16.52208 16.52613 16.52659 16.52663 16.52414 16.52376 16.52614 16.5326 16.54351 16.55594 16.57223 16.58921 16.60866 16.63089 16.65795 16.68349 16.7154 16.74992 16.78572 16.81772 16.84732 16.8799 16.90493 16.92723 16.94734 16.97313 16.99618 17.01667 17.03093 17.0479 17.05752 17.0621 17.07207 17.08216 17.08851 17.1028 17.1096 17.1172 17.12196 17.11697 17.12008 17.12158 17.124 17.13077 17.146 17.1604 17.17997 17.19934 17.22187 17.24887 17.27693 17.31037 17.34709 17.38507 17.40971 17.43065 17.44559 17.45685 17.46128 17.46813 17.47171 17.47688 17.48566 17.50378 17.52468 17.54455 17.55492 17.55633 17.55273 17.54525 17.53849 17.53089 17.51649 17.50785
16.02304 16.0256 16.02398 16.02237 16.02509 16.03447 16.04463 16.05802 16.07135 16.09111 16.10694 16.11581 16.12711 16.13741 16.14859 16.15884 16.17231 16.19147 16.20026 16.21044 16.21892 16.22821 16.24713 16.27401 16.30704 16.33282 16.36278 16.39474 16.42783 16.4534 16.47822 16.50215 16.52404 16.53819 16.54568 16.5542 16.5598 16.5609 16.56308 16.56621 16.56707 16.57441 16.58691 16.60078 16.61717 16.63898 16.6585 16.67932 16.70615 16.73121 16.75749 16.78763 16.82156 16.85704 16.88732 16.91343 16.93979 16.96467 16.99198 17.01049 17.03612 17.05374 17.07888 17.09534 17.11111 17.11804 17.12499 17.12947 17.14049 17.14445 17.15469 17.16272 17.16567 17.16824 17.16239 17.16304 17.16773 17.17383 17.18811 17.20803 17.22447 17.24107 17.26142 17.27935 17.30584 17.33422 17.36738 17.39759 0 0 17.46376 17.49981 17.50938 17.51923 17.5212 17.51989 17.52566 17.53423 17.53669 0 0 17.56573 17.60712 17.60722 17.60511 17.60488 17.60802 17.60746 17.59743
