ncols        109
nrows        82
xllcorner    -1.041666666667
yllcorner    37.041665395101
cellsize     0.083333333333
NODATA_value -9999
0.0 0 0 0 0 0 0 0 0 0 0 0 0 0 0 0 0 0 0 0 0 0 0 0 0 0 0 0 0 0 0 0 0 0 0 0 0 0 0 0 0 0 0 0 0 0 0 0 0 0 0 0 0 0 0 0 0 0 0 0 0 0 0 0 0 0 0 0 0 0 0 0 0 0 0 0 0 0 0 0 0 0 0 0 0 0 0 0 0 0 0 0 0 0 0 0 0 0 0 0 0 0 0 0 0 18.63709 17.37345 16.00301 16.00045
0 0 0 0 0 0 0 0 0 0 0 0 0 0 0 0 0 0 0 0 0 0 0 0 0 0 0 0 0 0 0 0 0 0 0 0 0 0 0 0 0 0 0 0 0 0 0 0 0 0 0 0 0 0 0 0 0 0 0 0 0 0 0 0 0 0 0 0 0 0 0 0 0 0 0 0 0 0 0 0 0 0 0 0 0 0 0 0 0 0 0 0 0 0 0 0 0 0 0 0 0 16.13676 16.16176 15.95502 15.96848 15.9757 15.97164 15.96193 15.93409
0 0 0 0 0 0 0 0 0 0 0 0 0 0 0 0 0 0 0 0 0 0 0 0 0 0 0 0 0 0 0 0 0 0 0 0 0 0 0 0 0 0 0 0 0 0 0 0 0 0 0 0 0 0 0 0 0 0 0 0 0 0 0 0 0 0 0 0 0 0 0 0 0 0 0 0 0 0 0 0 0 0 0 0 0 0 0 0 0 0 0 0 0 0 0 0 0 0 15.91979 15.93142 15.93293 15.92715 15.91378 15.90091 15.8817 15.86017 15.83433 15.80511 15.77774
0 0 0 0 0 0 0 0 0 0 0 0 0 0 0 0 0 0 0 0 0 0 0 0 0 0 0 0 0 0 0 0 0 0 0 0 0 0 0 0 0 0 0 0 0 0 0 0 0 0 0 0 0 0 0 0 0 0 0 0 0 0 0 0 0 0 0 0 0 0 0 0 0 0 0 0 0 0 0 0 0 0 0 0 0 0 0 0 0 0 0 0 0 0 0 0 0 17.54952 15.90306 15.89434 15.86576 15.83055 15.79906 15.77465 15.74964 15.72349 15.69703 15.67038 15.64794
0 0 0 0 0 0 0 0 0 0 0 0 0 0 0 0 0 0 0 0 0 0 0 0 0 0 0 0 0 0 0 0 0 0 0 0 0 0 0 0 0 0 0 0 0 0 0 0 0 0 0 0 0 0 0 0 0 0 17.22827 16.85154 16.54028 16.66964 0 0 0 0 0 0 0 0 0 0 0 0 0 0 0 0 0 0 0 0 0 0 0 0 0 0 0 0 0 0 0 0 0 16.30871 15.89118 15.89279 15.85667 15.81563 15.77002 15.7158 15.66655 15.6238 15.58758 15.56014 15.54117 15.52859 15.51738
0 0 0 0 0 0 0 0 0 0 0 0 0 0 0 0 0 0 0 0 0 0 0 0 0 0 0 0 0 0 0 0 0 0 0 0 0 0 0 0 0 0 0 0 0 0 0 0 0 0 0 0 0 0 0 0 16.7122 16.74902 16.48267 16.26709 16.18535 16.1655 16.2526 16.46078 16.66595 16.77635 16.77349 0 0 0 0 17.03935 0 0 0 0 0 0 0 0 0 0 0 0 0 0 0 0 0 0 0 0 0 16.84116 15.8377 15.87047 15.85348 15.81187 15.74908 15.68431 15.62431 15.56313 15.52288 15.48838 15.46985 15.45615 15.44428 15.43891 15.4347
0 0 0 0 0 0 0 0 0 0 0 0 0 0 0 0 0 0 0 0 0 0 0 0 0 0 0 0 0 0 0 0 0 0 0 0 0 0 0 0 0 0 0 0 0 0 0 0 0 0 0 0 0 0 0 16.89478 16.49398 16.18753 15.98533 15.73224 15.79144 15.81803 15.98981 16.12115 16.26039 16.35626 16.43247 16.62132 16.81884 16.77715 16.71454 16.46191 16.2579 16.30753 16.4545 16.20102 16.20453 0 0 0 0 0 0 0 0 0 0 0 0 0 0 0 16.17729 15.85157 15.84835 15.82776 15.7858 15.71889 15.64809 15.57613 15.50969 15.44699 15.4049 15.382 15.37116 15.37146 15.37588 15.38233 15.3926
0 0 0 0 0 0 0 0 0 0 0 0 0 0 0 0 0 0 0 0 0 0 0 0 0 0 0 0 0 0 0 0 0 0 0 0 0 0 0 0 0 0 0 0 0 0 0 0 0 0 0 16.49617 16.6518 16.85992 16.64113 16.22843 16.00372 15.74208 15.62425 15.68517 15.74632 15.77139 15.76404 15.93437 15.91865 16.10294 16.09167 16.08627 16.10641 16.00783 15.90201 15.93794 15.80882 15.99533 16.01799 16.18728 0 0 0 0 0 0 0 0 0 0 0 0 0 0 0 0 15.8259 15.83913 15.80732 15.75323 15.68355 15.60258 15.52528 15.45848 15.40585 15.36479 15.34057 15.32977 15.33182 15.33967 15.35083 15.36327 15.37915
0 0 0 0 0 0 0 0 0 0 0 0 0 0 0 0 0 0 0 0 0 0 0 0 0 0 0 0 0 0 0 0 0 0 0 0 0 0 0 0 0 0 0 0 0 0 0 0 0 0 16.67743 16.52192 16.31478 16.29256 16.20321 15.93421 15.60346 15.68326 15.54715 15.60271 15.64344 15.6623 15.66897 15.84671 15.84212 16.03704 16.04171 16.05043 15.90328 15.77125 15.80796 15.84569 15.71063 15.90157 15.92138 16.11682 16.1181 15.94166 15.94268 16.27318 16.69906 17.41293 0 0 0 0 0 0 0 16.66959 16.16404 15.81049 15.82557 15.80274 15.73587 15.66354 15.59207 15.5135 15.44587 15.38719 15.34748 15.32151 15.30746 15.31275 15.32386 15.33758 15.35215 15.36915 15.38551
0 0 0 0 0 0 0 0 0 0 0 0 0 0 0 0 0 0 0 0 0 0 0 0 0 0 0 0 0 0 0 0 0 0 0 0 0 0 0 0 0 0 0 0 0 0 0 0 0 17.52593 16.37238 16.28951 16.24446 15.96507 15.81187 15.65246 15.70851 15.56327 15.60725 15.65045 15.68635 15.70604 15.71408 15.91639 15.931 15.9447 15.96406 15.97219 15.97235 15.81078 15.84057 15.70314 15.57074 15.57912 15.59812 15.61097 15.61875 15.63014 15.65159 15.65876 16.00473 16.4918 0 16.32906 16.86249 17.36221 17.65513 17.43208 16.98011 15.76102 15.79241 15.8014 15.78087 15.71791 15.62988 15.55958 15.48394 15.42363 15.37467 15.3406 15.3216 15.31382 15.31364 15.32315 15.33646 15.35483 15.37323 15.39327 15.40989
0 0 0 0 0 0 0 0 0 0 0 0 0 0 0 0 0 0 0 0 0 0 0 0 0 0 0 0 0 0 0 0 0 0 0 0 0 0 0 0 0 0 0 0 0 0 0 0 0 17.18637 16.32531 16.05774 15.77266 15.64044 15.69602 15.54686 15.59959 15.64938 15.68906 15.72082 15.7542 15.77406 15.78243 15.79026 15.80071 15.65909 15.52559 15.67329 15.66994 15.67088 15.67547 15.53348 15.53496 15.53703 15.54929 15.56225 15.57591 15.59755 15.62261 15.63905 15.65532 15.6776 15.69099 15.71272 15.74355 15.75614 16.68737 16.87582 16.51429 15.74043 15.73175 15.70248 15.6571 15.59368 15.52818 15.47009 15.4191 15.37102 15.3391 15.32314 15.3245 15.33274 15.34403 15.35852 15.37701 15.39379 15.40863 15.42172 15.4371
0 0 0 0 0 0 0 0 0 0 0 0 0 0 0 0 0 0 0 0 0 0 0 0 0 0 0 0 0 0 0 0 0 0 0 0 0 0 0 0 0 0 0 0 0 0 0 0 0 16.91744 16.25297 15.96806 15.64204 15.7217 15.56692 15.61311 15.683 15.7335 15.769 15.79343 15.63316 15.65054 15.66289 15.67061 15.677 15.5238 15.52879 15.52361 15.50507 15.49911 15.49779 15.4946 15.48939 15.4908 15.49895 15.50248 15.51102 15.52386 15.54489 15.56872 15.58797 15.61005 15.63122 15.64976 15.67177 15.69127 15.70541 15.70678 15.69175 15.66314 15.63072 15.5858 15.53267 15.4738 15.42886 15.39049 15.36108 15.33468 15.33226 15.34158 15.352 15.36567 15.38 15.39553 15.41225 15.42979 15.44197 15.45807 15.47202
0 0 0 0 0 0 0 0 0 0 0 0 0 0 0 0 0 0 0 0 0 0 0 0 0 0 0 0 0 0 0 0 0 0 0 0 0 0 0 0 0 0 0 0 0 0 0 0 0 16.83663 16.14172 15.8346 15.71022 15.57115 15.63667 15.71247 15.59785 15.63097 15.4778 15.48559 15.49717 15.50401 15.51318 15.51255 15.51026 15.50547 15.50612 15.49486 15.47498 15.44819 15.4376 15.4285 15.40719 15.40192 15.40611 15.40639 15.4193 15.43296 15.44855 15.4725 15.49232 15.5063 15.51631 15.53174 15.54762 15.56442 15.57102 15.56864 15.55146 15.52826 15.49644 15.46534 15.42792 15.39715 15.37172 15.35093 15.33574 15.33886 15.34928 15.36355 15.383 15.40006 15.4184 15.43401 15.45003 15.46373 15.47668 15.48803 15.50458
0 0 0 0 0 0 0 0 0 0 0 0 0 0 0 0 0 0 0 0 0 0 0 0 0 0 0 0 0 0 0 0 0 0 0 0 0 0 0 0 0 0 0 0 0 0 0 0 0 16.70637 16.18967 15.87697 15.75903 15.62141 15.6878 15.57109 15.44521 15.47346 15.49301 15.50201 15.50199 15.49589 15.4913 15.48472 15.47584 15.47081 15.46286 15.45373 15.43654 15.4126 15.39319 15.37099 15.3499 15.33797 15.32278 15.30871 15.30842 15.32236 15.34548 15.36301 15.37396 15.38188 15.38416 15.39686 15.41299 15.43826 15.45116 15.45329 15.43869 15.41264 15.38712 15.3643 15.34732 15.34098 15.33645 15.34155 15.35193 15.35952 15.37343 15.39309 15.41285 15.43365 15.4509 15.46827 15.48113 15.4956 15.51053 15.52492 15.54059
0 0 0 0 0 0 0 0 0 0 0 0 0 0 0 0 0 0 0 0 0 0 0 0 0 0 0 0 0 0 0 0 0 0 0 0 0 0 0 0 0 0 0 0 0 0 0 0 0 16.74394 15.99413 15.6913 15.81331 15.68249 15.7604 15.60002 15.46041 15.47631 15.48408 15.47623 15.46707 15.46484 15.45812 15.44817 15.44472 15.43578 15.41735 15.40523 15.38093 15.35573 15.33051 15.30283 15.28211 15.27069 15.2537 15.2504 15.2507 15.25722 15.27072 15.27895 15.2834 15.29159 15.29478 15.29906 15.30999 15.32698 15.33158 15.33161 15.32855 15.32129 15.31691 15.31465 15.31229 15.31961 15.33089 15.34379 15.36083 15.37721 15.39646 15.41392 15.43713 15.45822 15.47765 15.49466 15.50552 15.51612 15.5268 15.54479 15.56196
0 0 0 0 0 0 0 0 0 0 0 0 0 0 0 0 0 0 0 0 0 0 0 0 0 0 0 0 0 0 0 0 0 0 0 0 0 0 0 0 0 0 0 0 0 0 0 0 0 16.26367 16.05293 15.72875 15.65088 15.55987 15.62738 15.47194 15.46142 15.46414 15.46494 15.45601 15.44172 15.42862 15.42075 15.41394 15.40621 15.39612 15.38162 15.36753 15.3484 15.31869 15.28542 15.25299 15.23066 15.20754 15.19589 15.18736 15.18099 15.18117 15.19581 15.21217 15.21816 15.22932 15.23958 15.24893 15.25639 15.26477 15.27207 15.27181 15.26972 15.26534 15.26652 15.27842 15.29386 15.31358 15.33129 15.34969 15.37295 15.39447 15.41438 15.4337 15.45319 15.47177 15.48689 15.50865 15.52281 15.53558 15.54698 15.56401 15.58618
0 0 0 0 0 0 0 0 0 0 0 0 0 0 0 0 0 0 0 0 0 0 0 0 0 0 0 0 0 0 0 0 0 0 0 0 0 0 0 0 0 0 0 0 0 0 0 0 0 0 15.83317 15.79191 15.71981 15.44826 15.48788 15.47909 15.4596 15.4604 15.45101 15.44217 15.42019 15.40561 15.39881 15.39147 15.37722 15.36988 15.3613 15.34626 15.32371 15.29798 15.26441 15.23682 15.21799 15.20126 15.18098 15.1667 15.15871 15.15829 15.16557 15.17749 15.18452 15.18974 15.19335 15.20537 15.21276 15.22101 15.22347 15.22842 15.23284 15.23728 15.24559 15.26184 15.28378 15.3071 15.33243 15.35813 15.37944 15.40172 15.42557 15.44503 15.46559 15.48757 15.50396 15.52241 15.5367 15.54638 15.56103 15.58069 15.60094
0 0 0 0 0 0 0 0 0 0 0 0 0 0 0 0 0 0 0 0 0 0 0 0 0 0 0 0 0 0 0 0 0 0 0 0 0 0 0 0 0 0 0 0 0 0 0 0 0 0 15.97447 15.61776 15.39093 15.45971 15.47881 15.48041 15.45978 15.45185 15.43785 15.41575 15.39639 15.38692 15.37884 15.37693 15.36868 15.36183 15.35339 15.34148 15.32259 15.29876 15.27092 15.24399 15.22775 15.20756 15.18865 15.17224 15.1588 15.15488 15.16 15.16418 15.16909 15.17883 15.18719 15.19325 15.19624 15.20266 15.20677 15.21161 15.21772 15.22244 15.23578 15.25936 15.28239 15.30786 15.34121 15.36286 15.38614 15.40837 15.43555 15.4595 15.47973 15.49874 15.51624 15.53635 15.55204 15.56414 15.58084 15.60024 15.62438
0 0 0 0 0 0 0 0 0 0 0 0 0 0 0 0 0 0 0 0 0 0 0 0 0 0 0 0 0 0 0 0 0 0 0 0 0 0 0 0 0 0 0 0 0 0 0 0 0 0 0 0 15.40544 15.44614 15.45982 15.46116 15.46322 15.44332 15.42034 15.3996 15.37786 15.36772 15.36533 15.36435 15.36045 15.36121 15.36241 15.35516 15.33633 15.31512 15.28939 15.26241 15.23738 15.22019 15.20053 15.18548 15.16988 15.16402 15.16012 15.16459 15.1723 15.17838 15.18399 15.19025 15.19961 15.20595 15.21102 15.21258 15.21557 15.22777 15.24335 15.26358 15.28816 15.32147 15.35293 15.37968 15.40873 15.42999 15.44987 15.47298 15.49205 15.50982 15.52991 15.54425 15.56321 15.57816 15.59288 15.61373 15.63743
0 0 0 0 0 0 0 0 0 0 0 0 0 0 0 0 0 0 0 0 0 0 0 0 0 0 0 0 0 0 0 0 0 0 0 0 0 0 0 0 0 0 0 0 0 0 0 0 0 0 17.51847 16.02645 15.63419 15.4749 15.4782 15.46567 15.46199 15.43583 15.4135 15.39114 15.37817 15.36903 15.37212 15.37025 15.3763 15.37956 15.38012 15.37121 15.35859 15.34277 15.31811 15.28832 15.26213 15.23841 15.22227 15.20327 15.19049 15.18255 15.177 15.17923 15.18408 15.1869 15.19381 15.20068 15.20897 15.21384 15.21744 15.22307 15.22857 15.24183 15.26032 15.28263 15.31087 15.34836 15.37802 15.40772 15.43352 15.45116 15.47133 15.48666 15.50579 15.52183 15.54054 15.55733 15.57647 15.59405 15.61025 15.63419 15.65972
0 0 0 0 0 0 0 0 0 0 0 0 0 0 0 0 0 0 0 0 0 0 0 0 0 0 0 0 0 0 0 0 0 0 0 0 0 0 0 0 0 0 0 0 0 0 0 0 0 0 16.92706 16.0638 15.875 15.50373 15.50234 15.48423 15.46748 15.43781 15.41738 15.40316 15.39484 15.38893 15.3914 15.39266 15.39856 15.41134 15.40992 15.39401 15.38738 15.36747 15.33625 15.30888 15.28381 15.26036 15.24122 15.2214 15.21214 15.20367 15.1973 15.19438 15.20018 15.20953 15.21516 15.22416 15.23009 15.23523 15.23854 15.24619 15.25522 15.26653 15.28598 15.31341 15.34548 15.3806 15.41322 15.44054 15.46587 15.48542 15.50023 15.51425 15.53035 15.54398 15.55816 15.57715 15.59227 15.60948 15.6293 15.65267 15.68169
0 0 0 0 0 0 0 0 0 0 0 0 0 0 0 0 0 0 0 0 0 0 0 0 0 0 0 0 0 0 0 0 0 0 0 0 0 0 0 0 0 0 0 0 0 0 0 0 0 0 0 16.12038 15.71774 15.5356 15.5249 15.50501 15.47992 15.45408 15.43671 15.4267 15.41765 15.41169 15.41356 15.42236 15.43349 15.44341 15.44083 15.43831 15.42557 15.40279 15.37381 15.34399 15.31744 15.29107 15.26443 15.24539 15.23184 15.22392 15.22067 15.2212 15.22753 15.23604 15.24619 15.25276 15.26306 15.27043 15.27567 15.28416 15.299 15.32002 15.34622 15.37149 15.40002 15.42778 15.45674 15.4835 15.50053 15.51733 15.53333 15.54304 15.55621 15.57084 15.58553 15.6045 15.61936 15.63504 15.6552 15.6796 15.70654
0 0 0 0 0 0 0 0 0 0 0 0 0 0 0 0 0 0 0 0 0 0 0 0 0 0 0 0 0 0 0 0 0 0 0 0 0 0 0 0 0 0 0 0 0 0 0 0 0 0 0 15.94374 15.56712 15.57176 15.55309 15.52775 15.49451 15.47505 15.46434 15.45849 15.45199 15.44873 15.45475 15.46732 15.47458 15.47873 15.48395 15.48214 15.46865 15.43645 15.40882 15.37919 15.35172 15.32458 15.30518 15.27863 15.2637 15.25415 15.25356 15.25358 15.26232 15.27205 15.2834 15.29587 15.30461 15.31237 15.31767 15.33561 15.35226 15.37626 15.40969 15.43803 15.46609 15.48982 15.51575 15.53132 15.54991 15.56199 15.5741 15.58129 15.58702 15.59947 15.61024 15.62704 15.64105 15.65831 15.6812 15.70981 15.73786
0 0 0 0 0 0 0 0 0 0 0 0 0 0 0 0 0 0 0 0 0 0 0 0 0 0 0 0 0 0 0 0 0 0 0 0 0 0 0 0 0 0 0 0 0 0 0 0 0 0 0 15.62818 15.61712 15.60996 15.58072 15.5451 15.50864 15.49294 15.48633 15.48024 15.48389 15.49148 15.50359 15.51597 15.52086 15.54067 15.54097 15.53383 15.51954 15.49554 15.46193 15.42611 15.39584 15.36666 15.34364 15.31773 15.29538 15.28566 15.28482 15.29269 15.30554 15.32546 15.33763 15.3478 15.36265 15.37624 15.38837 15.40441 15.42391 15.45023 15.47442 15.50284 15.52559 15.54382 15.56086 15.58272 15.59887 15.60871 15.61671 15.62233 15.62533 15.63449 15.64216 15.65656 15.66906 15.68473 15.70823 15.7333 15.75824
0 0 0 0 0 0 0 0 0 0 0 0 0 0 0 0 0 0 0 0 0 0 0 0 0 0 0 0 0 0 0 0 0 0 0 0 0 0 0 0 0 0 0 0 0 0 0 0 0 17.52349 16.6015 15.67666 15.65671 15.63384 15.59772 15.56446 15.53976 15.51639 15.51246 15.51484 15.52545 15.54157 15.55464 15.56224 15.57153 15.58298 15.58135 15.58 15.56304 15.54448 15.52188 15.48835 15.45926 15.42907 15.38606 15.3738 15.35309 15.34294 15.34087 15.34635 15.35862 15.37139 15.38546 15.40158 15.41609 15.43516 15.45184 15.47183 15.49484 15.52104 15.54551 15.57199 15.58844 15.60387 15.61996 15.63882 15.64665 15.65475 15.65549 15.66009 15.66365 15.66767 15.66962 15.67951 15.69232 15.71189 15.73175 15.75285 15.77517
0 0 0 0 0 0 0 0 0 0 0 0 0 0 0 0 0 0 0 0 0 0 0 0 0 0 0 0 0 0 0 0 0 0 0 0 0 0 0 0 0 0 0 0 0 0 0 0 16.67984 16.17538 15.9306 15.71747 15.69132 15.65171 15.61043 15.58116 15.56277 15.54015 15.53995 15.5542 15.57397 15.59989 15.61289 15.61964 15.63275 15.64169 15.64692 15.64856 15.63786 15.61035 15.58327 15.54765 15.50619 15.475 15.44276 15.42508 15.41025 15.39949 15.39982 15.40348 15.41489 15.43181 15.44261 15.45862 15.48052 15.50002 15.51501 15.5324 15.5485 15.57025 15.59193 15.61467 15.62821 15.64308 15.65881 15.67531 15.68549 15.69398 15.70489 15.70717 15.70519 15.70908 15.70493 15.70712 15.71639 15.72898 15.74804 15.76796 15.79131
0 0 0 0 0 0 0 0 0 0 0 0 0 0 0 0 0 0 0 0 0 0 0 0 0 0 0 0 0 0 0 0 0 0 0 0 0 0 0 0 0 0 0 0 0 16.39018 16.24227 16.76879 16.26154 16.27429 16.01796 15.77086 15.72257 15.67023 15.63277 15.60657 15.589 15.57707 15.57327 15.59037 15.62081 15.63915 15.66129 15.67331 15.68755 15.69863 15.70551 15.70892 15.69498 15.67899 15.64619 15.61182 15.57355 15.53911 15.51315 15.48697 15.4694 15.45743 15.45238 15.45797 15.46883 15.48265 15.49671 15.51294 15.53599 15.56246 15.57548 15.5905 15.60948 15.63171 15.64717 15.66579 15.68239 15.69355 15.70615 15.71746 15.72503 15.73469 15.74257 15.74595 15.74397 15.74199 15.73611 15.73804 15.74247 15.75565 15.77205 15.79214 15.81422
0 0 0 0 0 0 0 0 0 0 0 0 0 0 0 0 0 0 0 0 0 0 0 0 0 0 0 0 0 0 0 0 0 0 0 0 0 0 0 0 0 0 18.4305 18.12496 17.14353 16.32992 15.84498 15.8587 16.35243 16.09413 15.85108 15.80685 15.75397 15.7037 15.67089 15.64323 15.62087 15.6148 15.62418 15.64624 15.67978 15.7059 15.72707 15.74353 15.75626 15.76256 15.76643 15.76234 15.74628 15.72192 15.69095 15.65753 15.62674 15.59641 15.56715 15.54244 15.5284 15.51713 15.51519 15.52206 15.53177 15.54539 15.56155 15.57763 15.597 15.6164 15.62815 15.64197 15.65576 15.67371 15.69162 15.71564 15.73274 15.74691 15.75108 15.76219 15.77501 15.78361 15.79062 15.7921 15.78637 15.77877 15.77284 15.76887 15.77099 15.77693 15.79181 15.80916 15.83043
0 0 0 0 0 0 0 0 0 0 0 0 0 0 0 0 0 0 0 0 0 0 0 0 0 0 0 0 0 0 0 0 0 0 0 0 0 0 0 0 17.53883 17.92229 18.18849 17.24057 16.40335 15.90883 15.92817 15.94282 15.93436 15.91109 15.88372 15.83914 15.78522 15.74068 15.70763 15.68384 15.67125 15.66816 15.6803 15.70894 15.74334 15.76965 15.79809 15.80994 15.81816 15.82162 15.82331 15.81837 15.80736 15.78653 15.75342 15.71991 15.68906 15.66094 15.62527 15.6003 15.57645 15.56811 15.56929 15.57338 15.58728 15.6056 15.62714 15.64689 15.66218 15.6793 15.68925 15.69828 15.71266 15.72621 15.74724 15.76409 15.77272 15.78157 15.7848 15.79961 15.8103 15.82026 15.82623 15.82375 15.82318 15.82051 15.80844 15.80274 15.80561 15.80838 15.82181 15.83855 15.85676
0 0 0 0 0 0 0 0 0 0 0 0 0 0 0 0 0 0 0 0 0 0 0 0 0 0 0 0 0 0 0 0 0 0 0 0 0 0 0 17.76026 17.51286 16.9599 16.71295 15.92364 15.94423 15.9607 15.9698 15.97632 15.96635 15.94522 15.91343 15.86909 15.82564 15.78959 15.76716 15.74957 15.74194 15.74958 15.7645 15.79311 15.82178 15.8511 15.8742 15.87018 15.87209 15.88028 15.88208 15.87804 15.86396 15.84682 15.82257 15.78855 15.75834 15.73443 15.70623 15.67222 15.64953 15.63753 15.63512 15.64024 15.65187 15.66745 15.67991 15.69774 15.70979 15.73079 15.73787 15.74959 15.75705 15.77231 15.79039 15.80641 15.81559 15.82337 15.83098 15.8427 15.85051 15.85877 15.86162 15.86012 15.85736 15.84676 15.83019 15.8281 15.83294 15.83696 15.84494 15.86532 15.88528
0 0 0 0 0 0 0 0 0 0 0 0 0 0 0 0 0 0 0 0 0 0 0 0 0 0 0 0 0 0 0 0 0 0 0 0 0 0 16.97608 16.68367 16.44322 15.93896 15.96647 15.98947 15.99841 16.0071 16.0093 16.00843 15.99687 15.97805 15.95304 15.91648 15.88005 15.85296 15.82466 15.8055 15.8054 15.81838 15.84034 15.86875 15.89221 15.91547 15.92739 15.93231 15.93462 15.94061 15.94577 15.94364 15.92949 15.90683 15.8847 15.85088 15.81711 15.79008 15.76137 15.73379 15.71607 15.7048 15.70309 15.71033 15.72465 15.73859 15.75208 15.76679 15.77927 15.79348 15.80127 15.80633 15.81356 15.82735 15.83744 15.8485 15.8559 15.85847 15.8633 15.87789 15.87964 15.89265 15.88956 15.8924 15.88457 15.86976 15.85861 15.86086 15.86656 15.87551 15.88806 15.91027 15.93227
0 0 0 0 0 0 0 0 0 0 0 0 0 0 0 0 0 0 0 0 0 0 0 0 0 0 0 0 0 0 0 0 0 0 18.651 19.2564 18.39706 16.72325 15.91427 15.93983 15.96123 15.9815 16.00051 16.0129 16.02343 16.02605 16.02697 16.02349 16.01769 16.00812 15.9942 15.9798 15.95545 15.9331 15.91423 15.89398 15.88849 15.89371 15.90968 15.92748 15.94933 15.96025 15.97092 15.97906 15.98779 15.99655 16.00451 16.00566 15.99734 15.98381 15.96436 15.93253 15.90066 15.87285 15.84535 15.82316 15.80369 15.78963 15.78637 15.79182 15.79716 15.80671 15.81423 15.82562 15.83852 15.84942 15.85956 15.86481 15.86698 15.87712 15.8907 15.89999 15.90428 15.91088 15.91709 15.91854 15.9161 15.91971 15.91806 15.91406 15.90524 15.89207 15.88328 15.88687 15.89905 15.91331 15.93964 15.96529 15.98449
0 0 0 0 0 0 0 0 0 0 0 0 0 0 0 0 0 0 0 0 0 0 0 0 0 0 0 0 0 19.146 18.74111 18.51469 18.50399 18.27656 17.98675 17.40101 15.94415 15.95593 15.97085 15.98828 16.00347 16.01247 16.02614 16.03308 16.0409 16.04709 16.04441 16.03872 16.03898 16.03766 16.03307 16.02464 16.01247 16.00139 15.9862 15.97637 15.97337 15.97451 15.99009 16.00978 16.02153 16.02721 16.03265 16.03627 16.04656 16.05446 16.0605 16.0576 16.04969 16.0431 16.02701 16.00333 15.97596 15.96126 15.93001 15.90992 15.90117 15.88765 15.88319 15.88856 15.8892 15.89428 15.90353 15.90379 15.91089 15.91555 15.9137 15.91832 15.9186 15.9252 15.93041 15.93509 15.93935 15.94637 15.9516 15.94912 15.94565 15.94537 15.94545 15.93812 15.93209 15.92251 15.91614 15.92256 15.93735 15.95769 15.98501 16.01014 16.0156
0 0 0 0 0 0 0 0 0 0 0 0 0 0 0 0 0 0 0 0 0 0 0 0 0 18.93237 18.20885 18.21474 17.27434 16.61849 16.30303 16.01156 16.00491 15.99925 15.99209 15.98405 15.9815 15.98438 15.99428 16.00495 16.01507 16.03067 16.04151 16.05053 16.05652 16.05894 16.05989 16.06904 16.07459 16.08265 16.08682 16.08248 16.0724 16.06236 16.04814 16.04094 16.03944 16.03727 16.05208 16.0658 16.06689 16.07189 16.07787 16.08507 16.09821 16.10664 16.11126 16.11335 16.10845 16.10717 16.10219 16.08399 16.06061 16.04383 16.02246 15.99993 15.98042 15.97178 15.96831 15.96786 15.96876 15.97426 15.97938 15.97858 15.98188 15.98815 15.98786 15.98432 15.98525 15.98441 15.9841 15.9868 15.98815 15.99128 15.98987 15.98135 15.97117 15.96755 15.96651 15.96497 15.95999 15.95289 15.94907 15.96586 15.98682 16.01052 16.03534 16.04855 16.03214
0 0 0 0 0 0 0 0 0 0 0 0 0 0 0 0 0 0 0 0 0 0 0 19.10811 18.24495 17.67114 17.35565 17.03831 16.09007 16.07795 16.06161 16.04715 16.03671 16.02599 16.01559 16.00215 15.99675 15.99458 15.99777 16.00632 16.01886 16.03512 16.04699 16.05905 16.06795 16.07467 16.08398 16.09307 16.10678 16.12037 16.13166 16.12985 16.12616 16.11954 16.11397 16.10347 16.09669 16.09619 16.09806 16.11059 16.11502 16.12167 16.12331 16.13022 16.13425 16.14739 16.15364 16.15532 16.1518 16.15783 16.15947 16.15244 16.14114 16.12311 16.10926 16.09724 16.08498 16.07736 16.07305 16.07231 16.06654 16.06026 16.05881 16.05361 16.04873 16.05235 16.04265 16.03205 16.03467 16.03191 16.02879 16.02863 16.03051 16.03414 16.02673 16.01905 16.0049 15.99465 15.99324 16.00069 15.99849 15.99644 15.99541 16.01049 16.02745 16.05065 16.06733 16.0673 16.0425
0 0 0 0 0 0 0 0 0 0 0 0 0 0 0 0 0 0 0 0 0 0 18.54079 17.6865 17.3702 17.37867 17.06075 16.72682 16.09681 16.07946 16.06183 16.04743 16.03811 16.02511 16.00961 15.99698 15.99051 15.98908 15.99314 16.00666 16.02064 16.0368 16.05087 16.06821 16.08476 16.10288 16.11363 16.12261 16.13324 16.15071 16.15845 16.15811 16.15412 16.14939 16.14755 16.14253 16.13768 16.13512 16.13688 16.14327 16.15041 16.16003 16.16811 16.17167 16.17654 16.18602 16.19312 16.19447 16.20041 16.20752 16.21222 16.20369 16.19574 16.18274 16.18007 16.17345 16.16521 16.16038 16.16425 16.16083 16.15785 16.15195 16.14365 16.13569 16.13042 16.128 16.12001 16.1101 16.09677 16.0887 16.075 16.07291 16.07359 16.06716 16.05883 16.03949 16.0296 16.02527 16.03011 16.03375 16.03771 16.03614 16.04175 16.05714 16.0745 16.09504 16.09717 16.08344 16.04647
0 0 0 0 0 0 0 0 0 0 0 0 0 0 0 0 0 0 0 0 0 19.76918 18.75134 17.68252 17.05548 17.05455 16.72508 16.71893 16.08736 16.06843 16.05465 16.04536 16.03165 16.01715 16.00685 15.99339 15.98678 15.98648 15.99378 16.00892 16.02791 16.04384 16.06124 16.08206 16.09841 16.1178 16.13334 16.14433 16.15653 16.16949 16.17463 16.17794 16.17714 16.17126 16.17225 16.17162 16.16583 16.16242 16.16285 16.16713 16.17184 16.18322 16.18802 16.1946 16.20127 16.21704 16.2253 16.23413 16.24447 16.25501 16.26163 16.25954 16.25844 16.25694 16.26078 16.25447 16.24925 16.24644 16.24248 16.23829 16.22932 16.21902 16.20289 16.19691 16.19197 16.19375 16.18471 16.17261 16.16435 16.1488 16.13351 16.13097 16.12557 16.11344 16.0984 16.08347 16.0735 16.06963 16.07075 16.06808 16.06835 16.07135 16.07561 16.09338 16.11339 16.12354 16.12238 16.09343 16.04471
0 0 0 0 0 0 0 0 0 0 0 0 0 0 0 0 0 0 0 0 0 0 0 18.27696 17.38755 17.05917 16.72542 16.40161 16.07389 16.0552 16.04799 16.04166 16.02827 16.01946 16.00484 15.99952 15.9951 15.99826 16.00085 16.01475 16.03198 16.05379 16.07612 16.0958 16.11509 16.12914 16.1432 16.15364 16.16592 16.17417 16.1821 16.19427 16.19973 16.19754 16.19554 16.1926 16.19235 16.19474 16.19456 16.19625 16.20223 16.21008 16.21941 16.22484 16.23173 16.24447 16.25892 16.26769 16.27742 16.2961 16.30676 16.30856 16.31326 16.32359 16.32834 16.32709 16.32732 16.32979 16.32497 16.32278 16.31006 16.29782 16.28456 16.27404 16.27092 16.26485 16.25123 16.24166 16.22314 16.20114 16.18269 16.17188 16.16013 16.14311 16.13259 16.13005 16.12185 16.11774 16.11706 16.11418 16.11481 16.11943 16.12682 16.14308 16.15478 16.16089 16.14396 16.10595 16.04246
0 0 0 0 0 0 0 0 0 0 0 0 0 0 0 0 0 0 0 0 0 20.17648 19.89697 18.90388 17.43128 17.08678 16.73997 16.71661 16.36403 16.05277 16.04453 16.03901 16.03051 16.02278 16.0149 16.00785 16.00584 16.00849 16.01409 16.02402 16.04498 16.06681 16.08492 16.10362 16.12195 16.1378 16.14652 16.16234 16.17743 16.18875 16.20147 16.21097 16.21848 16.22204 16.21922 16.22279 16.21996 16.21647 16.21604 16.22556 16.229 16.23595 16.24482 16.25402 16.26637 16.28227 16.29773 16.30691 16.32093 16.33925 16.35133 16.36471 16.37505 16.37965 16.38968 16.39909 16.39869 16.39278 16.38529 16.38328 16.37508 16.3622 16.35489 16.35316 16.34896 16.34324 16.32645 16.3086 16.2874 16.26622 16.24015 16.21928 16.20257 16.19188 16.18019 16.17178 16.16113 16.1565 16.15544 16.15481 16.15601 16.16429 16.17147 16.18184 16.18876 16.18356 16.16149 16.12053 16.05013
0 0 0 0 0 0 0 0 0 0 0 0 0 0 0 0 0 0 0 20.1851 20.12956 20.03871 19.22241 18.12269 17.4731 17.11783 16.75299 17.05745 16.07373 16.04962 16.0415 16.03831 16.03776 16.03672 16.02844 16.02175 16.01786 16.02131 16.03161 16.04338 16.05945 16.07551 16.09603 16.11579 16.13063 16.14487 16.15914 16.17509 16.19295 16.20945 16.22539 16.24154 16.25018 16.25612 16.25989 16.26302 16.2646 16.26014 16.25831 16.25456 16.257 16.2587 16.2658 16.27353 16.28805 16.3086 16.32304 16.33526 16.34926 16.36754 16.38665 16.40159 16.41868 16.43369 16.44885 16.4559 16.46263 16.46395 16.46376 16.46325 16.45072 16.43925 16.42989 16.42286 16.41497 16.40311 16.38196 16.3608 16.33281 16.30756 16.27952 16.26215 16.25107 16.24395 16.2328 16.22769 16.22114 16.21565 16.21117 16.21081 16.20988 16.21284 16.21087 16.2162 16.21729 16.20577 16.18258 16.13714 16.0654
0 0 0 0 0 0 0 0 0 0 0 0 0 0 0 0 0 0 19.69228 19.56745 19.23193 18.7821 18.17688 17.52238 17.17989 17.1391 16.76778 16.40979 16.08198 16.05178 16.04327 16.03987 16.04393 16.04768 16.04124 16.03906 16.04025 16.04387 16.05187 16.06304 16.082 16.09781 16.11673 16.13476 16.15208 16.16785 16.18117 16.19858 16.22073 16.2394 16.25649 16.27234 16.28315 16.29158 16.29809 16.30242 16.30493 16.30685 16.30571 16.30466 16.29876 16.29526 16.29573 16.30439 16.31939 16.33824 16.35138 16.36012 16.37241 16.38643 16.4094 16.42956 16.44995 16.46632 16.48341 16.49777 16.50572 16.51865 16.52608 16.52896 16.52722 16.51687 16.50691 16.49789 16.49024 16.47295 16.44372 16.41694 16.38537 16.35645 16.32944 16.30315 16.29279 16.28604 16.27257 16.26981 16.26737 16.26206 16.25975 16.25447 16.25522 16.25742 16.25533 16.25906 16.25286 16.23724 16.21474 16.16894 16.10167
0 0 0 0 0 0 0 0 0 0 0 0 0 0 0 0 0 20.13885 19.59045 18.97955 18.48561 17.87806 17.55191 17.54478 17.53383 17.14667 16.77142 16.11046 16.07961 16.05241 16.04336 16.04368 16.04928 16.04785 16.04479 16.04739 16.05182 16.06047 16.06842 16.08154 16.09935 16.11612 16.13367 16.15523 16.17382 16.19133 16.20867 16.22831 16.2518 16.27436 16.29275 16.31375 16.32726 16.33571 16.34136 16.34097 16.34514 16.34324 16.3428 16.34117 16.33703 16.33465 16.33679 16.34302 16.35154 16.36497 16.37897 16.38718 16.39167 16.4105 16.43531 16.46071 16.48378 16.50358 16.51993 16.53849 16.55753 16.56995 16.57297 16.5831 16.5827 16.57167 16.55867 16.54708 16.53572 16.51999 16.49198 16.46425 16.4336 16.40787 16.37883 16.35858 16.34534 16.33547 16.32721 16.32005 16.31235 16.30679 16.3017 16.29434 16.29232 16.29311 16.29055 16.28763 16.28204 16.27143 16.24716 16.20361 16.14448
0 0 0 0 0 0 0 0 0 0 0 0 0 0 0 0 19.65618 19.62829 18.7777 18.20331 17.89901 17.57049 17.56027 17.55008 17.53085 17.15034 16.76877 16.11198 16.07359 16.05269 16.047 16.0489 16.05612 16.06147 16.06002 16.06525 16.07141 16.07794 16.08623 16.0991 16.11722 16.13671 16.15685 16.17636 16.1986 16.21962 16.23777 16.25632 16.28017 16.30655 16.32802 16.34946 16.36643 16.37675 16.38206 16.38843 16.39501 16.39562 16.39149 16.3949 16.39067 16.38621 16.38315 16.37923 16.37921 16.38284 16.39745 16.40807 16.41091 16.43169 16.45432 16.47981 16.50567 16.5292 16.55438 16.58111 16.603 16.61804 16.6305 16.64508 16.64603 16.63556 16.61794 16.60446 16.58806 16.56816 16.53871 16.50555 16.4744 16.44626 16.41717 16.40145 16.38502 16.37656 16.36844 16.35945 16.35059 16.34503 16.33915 16.33516 16.33197 16.32874 16.32637 16.32626 16.32304 16.31114 16.28491 16.24295 16.18565
0 0 0 0 0 0 0 0 0 0 0 0 0 0 0 20.22439 19.48859 18.80077 18.21655 17.90375 17.57004 17.57357 17.56145 17.20137 17.1726 16.81352 16.13912 16.09981 16.06835 16.05477 16.05023 16.05649 16.067 16.07467 16.07758 16.08774 16.09786 16.10935 16.12104 16.13567 16.15718 16.17597 16.1973 16.22235 16.2449 16.26597 16.28481 16.30479 16.32892 16.35211 16.37012 16.38684 16.40099 16.40887 16.41853 16.42697 16.43199 16.43665 16.44175 16.45137 16.45015 16.44811 16.44221 16.42908 16.42014 16.41177 16.41539 16.41786 16.42641 16.44438 16.46828 16.49387 16.52257 16.55009 16.58156 16.61099 16.63356 16.65503 16.67147 16.68657 16.68584 16.67976 16.67045 16.65447 16.64024 16.6211 16.59098 16.56133 16.52775 16.49226 16.46735 16.44503 16.42961 16.41744 16.40462 16.38926 16.37634 16.37065 16.36771 16.36291 16.35992 16.35804 16.35139 16.35653 16.35962 16.34923 16.3239 16.28509 16.23465
0 0 0 0 0 0 0 0 0 0 0 0 0 0 19.57449 19.5669 18.86532 18.23516 17.90845 17.56904 17.56359 17.20738 17.18714 17.17172 16.81778 16.4559 16.12056 16.08381 16.06681 16.06213 16.06259 16.07094 16.08192 16.09588 16.10517 16.1132 16.1234 16.13534 16.1514 16.17246 16.19481 16.22052 16.24738 16.27174 16.29985 16.32789 16.35155 16.37831 16.40049 16.4168 16.42467 16.43907 16.45376 16.46265 16.4682 16.4774 16.48097 16.48773 16.49673 16.50449 16.50701 16.50764 16.50313 16.48802 16.47015 16.44846 16.43674 16.43333 16.43949 16.44976 16.47579 16.50656 16.53967 16.57432 16.61465 16.64677 16.67348 16.69454 16.71296 16.72388 16.72081 16.71675 16.70872 16.69188 16.68097 16.66742 16.63707 16.60749 16.57324 16.539 16.51136 16.48931 16.47087 16.45699 16.44152 16.42282 16.4094 16.40052 16.39875 16.39461 16.38984 16.38753 16.38468 16.38677 16.38719 16.3767 16.34861 16.31089 16.25948
0 0 0 0 0 0 0 0 0 0 0 0 0 19.455 19.62359 18.8831 18.24131 17.92131 17.56894 17.55838 17.20183 17.18582 17.16775 17.15734 16.79403 16.13098 16.10002 16.07527 16.06817 16.0701 16.07952 16.09073 16.1126 16.13095 16.14043 16.14828 16.15846 16.17043 16.19009 16.21508 16.24675 16.27922 16.30804 16.33531 16.36419 16.38829 16.41552 16.44006 16.46024 16.47467 16.48312 16.49386 16.50709 16.51347 16.51928 16.52099 16.51992 16.53122 0 0 0 16.50593 16.51511 16.56165 16.53842 16.5036 16.47697 16.46213 16.45355 16.45646 16.47729 16.5121 16.55115 16.59127 16.63529 16.67469 16.70221 16.72912 16.74759 16.76049 16.76166 16.75919 16.75195 16.74315 16.73314 16.71785 16.69375 16.66512 16.63099 16.59603 16.56657 16.53544 16.51357 16.49498 16.47746 16.45434 16.43555 16.42517 16.42452 16.41998 16.41771 16.41821 16.41583 16.42123 16.41926 16.41087 16.38062 16.33936 16.28462
0 0 0 0 0 0 0 0 0 0 0 0 0 19.83416 18.90726 18.25682 17.90257 17.54653 17.54814 17.18733 17.1776 17.16793 17.1584 16.1537 16.13596 16.11355 16.09193 16.07139 16.07143 16.079 16.09354 16.11378 16.13779 16.15588 16.16766 16.17957 16.19326 16.21172 16.23933 16.27634 16.31761 16.3553 16.38733 16.41744 16.44632 16.4778 16.50672 16.52503 16.53408 16.53669 16.54429 17.31812 16.56053 16.55329 16.54868 16.90978 17.6804 18.47013 0 0 0 0 0 16.96915 16.58071 16.54872 16.51228 16.48902 16.47166 16.4709 16.49166 16.52685 16.56527 16.60831 16.65647 16.69725 16.72904 16.75402 16.77559 16.78848 16.79256 16.78733 16.78683 16.7825 16.77004 16.76121 16.74248 16.71772 16.68869 16.65992 16.63137 16.60282 16.57775 16.553 16.52978 16.50282 16.48265 16.46673 16.45893 16.45488 16.44917 16.4442 16.44555 16.44762 16.44723 16.43864 16.40598 16.36113 16.30342
0 0 0 0 0 0 0 0 0 0 0 0 19.9871 19.19356 18.24414 17.88502 17.51517 17.16026 17.17104 17.17496 17.17097 17.17055 16.81106 16.14967 16.12888 16.10917 16.08972 16.07978 16.08452 16.0931 16.1117 16.13775 16.16113 16.18122 16.19023 16.20686 16.22572 16.24963 16.28258 16.32902 16.37973 16.41996 16.4548 16.4888 16.52064 16.54371 16.55407 0 0 16.53835 0 18.2069 17.38155 16.96213 17.3392 17.31531 18.09169 18.51355 19.46877 17.28238 16.55582 0 0 0 18.19581 16.56308 16.52985 16.50446 16.48349 16.48218 16.50437 16.53952 16.58183 16.62689 16.67585 16.71915 16.75236 16.78089 16.80361 16.81892 16.82396 16.81893 16.81438 16.80957 16.8021 16.79366 16.77573 16.75299 16.7312 16.70496 16.67926 16.65267 16.62747 16.60267 16.58029 16.55663 16.53131 16.51635 16.50791 16.50054 16.49243 16.48858 16.48508 16.48266 16.47807 16.46412 16.43464 16.38157 16.31883
0 0 0 0 0 0 0 0 0 0 0 19.24394 19.22122 18.2475 17.87336 17.13546 17.15323 17.17111 17.17698 17.18296 17.19228 16.50121 16.17498 16.15542 16.1348 16.11622 16.10375 16.09512 16.10742 16.12062 16.13962 16.15925 16.18405 16.20466 16.21838 16.23999 16.26435 16.30144 16.34658 16.40346 16.45598 16.49404 16.52285 16.54894 17.34236 0 0 0 0 0 18.99147 19.77604 19.53649 18.94082 18.56241 18.12636 18.10589 16.91742 16.55014 16.55496 16.55564 16.55686 16.55514 18.56879 18.92253 16.56084 16.53413 16.51407 16.49526 16.49708 16.52252 16.555 16.59429 16.63848 16.68814 16.73271 16.76864 16.7971 16.81887 16.84007 16.84477 16.8414 16.84029 16.83307 16.82885 16.82187 16.81295 16.79792 16.77913 16.76082 16.73304 16.7063 16.68047 16.655 16.62764 16.60139 16.57669 16.55611 16.5483 16.53969 16.53117 16.52582 16.52049 16.51466 16.51115 16.49214 16.46467 16.41303 16.34266
0 0 0 0 0 0 0 0 0 0 19.9911 19.26487 18.25865 17.50113 17.14823 16.81405 16.83261 16.84672 16.85631 16.86662 16.86656 16.20726 16.18718 16.17092 16.15395 16.13641 16.12551 16.12293 16.13668 16.14827 16.16443 16.18422 16.2046 16.22216 16.24223 16.27047 16.3077 16.35366 16.4106 16.47081 16.52677 16.55947 16.9526 0 0 0 0 0 0 0 0 0 0 0 18.93215 18.55641 17.73424 16.55347 16.56269 16.57146 16.57046 16.56363 16.56291 16.56598 16.56519 16.55892 16.5404 16.52522 16.5167 16.52457 16.54346 16.57609 16.61325 16.65481 16.70345 16.74589 16.78214 16.80911 16.83309 16.85149 16.85794 16.85669 16.85368 16.85277 16.84926 16.84477 16.83663 16.8255 16.81182 16.79846 16.77686 16.75266 16.72632 16.70418 16.67774 16.65409 16.63072 16.613 16.60309 16.58858 16.58149 16.57255 16.55869 16.54857 16.53529 16.5148 16.48467 16.43406 16.36331
0 0 0 0 0 0 0 0 0 0 19.56764 18.26597 17.51515 17.14756 16.48823 16.49743 16.19801 16.20941 16.22632 16.23035 16.22487 16.22132 16.20882 16.19507 16.18436 16.16676 16.15936 16.16329 16.17511 16.18853 16.20742 16.22433 16.24035 16.25603 16.27842 16.31141 16.34844 16.39831 16.45508 16.51179 17.73303 0 0 0 0 0 0 0 0 0 0 0 0 0 19.58303 18.18854 16.57819 16.58039 16.59042 16.59909 16.60669 16.60247 16.59341 16.58676 16.58182 16.56997 16.55353 16.54193 16.54181 16.54815 16.56461 16.59375 16.63133 16.67449 16.71939 16.76033 16.79774 16.82691 16.85104 16.86897 16.87597 16.87485 16.87336 16.87453 16.87469 16.871 16.86506 16.85309 16.84237 16.82508 16.80489 16.78319 16.76383 16.74385 16.72109 16.69782 16.67322 16.66213 16.65136 16.63975 16.63263 16.62085 16.60456 16.58797 16.56873 16.5444 16.50727 16.45446 16.38842
0 0 0 0 0 0 0 0 0 19.66715 19.01484 17.90321 17.15377 16.47905 16.18028 16.18174 16.18881 16.20103 16.21746 16.2299 16.23035 16.23698 16.23201 16.22664 16.21449 16.20202 16.20039 16.20346 16.21678 16.22996 16.2505 16.26603 16.27994 16.29977 16.32397 16.35635 16.39627 16.44523 16.49413 17.30533 17.53401 0 0 0 0 0 0 0 0 0 0 0 0 18.86214 18.62391 17.38366 16.59329 16.60175 16.6224 16.63963 16.64639 16.64331 16.63328 16.61983 16.61238 16.60364 16.58706 16.57462 16.57403 16.58269 16.59734 16.62158 16.65532 16.69538 16.73597 16.77198 16.80995 16.83748 16.86408 16.88039 16.88899 16.8894 16.89174 16.89351 16.89515 16.89609 16.89239 16.88658 16.87838 16.8624 16.83974 16.82107 16.80494 16.78596 16.76236 16.73943 16.71971 16.70368 16.69087 16.68354 16.67282 16.65728 16.63358 16.61517 16.59224 16.56329 16.5261 16.47131 16.41004
0 0 0 0 0 0 0 0 20.48066 19.37034 17.91999 17.1408 16.78816 16.15539 16.15295 16.15215 16.16024 16.17676 16.19293 16.20661 16.2184 16.23484 16.23878 16.24244 16.23689 16.2331 16.2362 16.24563 16.25659 16.27318 16.28873 16.30022 16.31714 16.3342 16.35856 16.38807 16.42708 16.46475 16.86798 17.30858 17.75713 18.5882 0 19.42273 19.9989 0 0 0 0 0 0 0 19.64193 18.63693 17.82489 16.59645 16.60962 16.6341 16.65718 16.67281 16.67616 16.67178 16.66049 16.64902 16.63887 16.62603 16.61281 16.60776 16.61222 16.62349 16.63924 16.66585 16.69819 16.73172 16.7663 16.80565 16.83729 16.86776 16.89186 16.90977 16.91933 16.91974 16.91848 16.92034 16.92199 16.92613 16.92244 16.91678 16.90867 16.8947 16.8752 16.85681 16.84065 16.82799 16.8086 16.78939 16.76848 16.75201 16.74205 16.72896 16.71486 16.69149 16.66389 16.63553 16.60954 16.57712 16.53497 16.47844 16.41704
0 0 0 0 0 0 0 0 20.49798 19.38434 17.91899 17.13342 16.13384 16.13269 16.13105 16.12621 16.13833 16.15765 16.1735 16.19358 16.218 16.24004 16.25346 16.25771 16.26333 16.27228 16.28711 16.30545 16.32334 16.33722 16.35159 16.35986 16.36928 16.38477 16.40157 16.42549 16.45349 16.47904 16.50067 16.90847 17.32487 17.75438 18.18633 18.62369 19.39557 0 0 0 0 0 0 19.03075 18.22823 18.2321 16.59739 16.62155 16.6491 16.67911 16.69888 16.70899 16.71244 16.70633 16.6954 16.68233 16.67144 16.65866 16.64822 16.64195 16.64618 16.65697 16.6746 16.69888 16.72827 16.76065 16.79718 16.83419 16.86604 16.89965 16.92676 16.94754 16.95697 16.95841 16.95832 16.95859 16.96292 16.96532 16.95922 16.95188 16.94304 16.92832 16.91255 16.89389 16.8765 16.86314 16.84534 16.82638 16.8072 16.7922 16.77684 16.7636 16.74673 16.72061 16.68978 16.65664 16.62437 16.58609 16.53983 16.48334 16.42211
0 0 0 0 0 0 0 0 0 19.41663 17.9327 17.13323 16.12072 16.1142 16.10992 16.10612 16.12114 16.1408 16.16125 16.18847 16.22047 16.24869 16.26212 16.27869 16.28918 16.30694 16.33429 16.35742 16.38297 16.4067 16.41883 16.42571 16.43006 16.4379 16.45018 16.4694 16.48764 16.49944 16.51271 16.51716 16.53018 16.5402 16.55337 16.93441 17.76067 18.59248 19.3904 19.72135 0 0 19.33918 18.20783 17.37853 16.59521 16.6188 16.65486 16.69093 16.71596 16.73285 16.73877 16.73941 16.73334 16.72591 16.71323 16.70733 16.69573 16.6916 16.6863 16.69079 16.70038 16.71625 16.73796 16.76353 16.79349 16.82423 16.8586 16.89356 16.92844 16.95978 16.97991 16.98784 16.98927 16.99204 16.99488 16.99611 16.99782 16.99615 16.99003 16.98163 16.97006 16.95541 16.93775 16.91986 16.90604 16.88917 16.86567 16.8477 16.83184 16.81417 16.79486 16.77295 16.74278 16.70572 16.6688 16.63161 16.58947 16.54185 16.4826 16.42096
0 0 0 0 0 0 0 0 0 20.40395 18.73769 17.53199 16.42379 16.10594 16.09356 16.09268 16.10546 16.12907 16.15442 16.18683 16.22037 16.25372 16.2764 16.29845 16.32393 16.35178 16.386 16.42047 16.44807 16.46683 16.47891 16.48127 16.47926 16.48531 16.49092 16.50339 16.51427 16.52094 16.52702 16.52514 16.52889 16.53191 16.53146 16.54087 16.92265 17.33696 17.76229 18.17504 19.35599 18.19579 16.92913 16.56624 16.58954 16.62079 16.65903 16.69183 16.72373 16.74473 16.75847 16.76277 16.76056 16.75531 16.74596 16.73849 16.72932 16.72888 16.72396 16.72292 16.72517 16.74086 16.75612 16.77582 16.79993 16.8293 16.86167 16.89413 16.92998 16.96512 16.99279 17.01322 17.01968 17.02297 17.02129 17.02578 17.02971 17.03157 17.02656 17.02549 17.02036 17.01293 16.99237 16.97227 16.95574 16.94135 16.92572 16.90533 16.88925 16.868 16.84703 16.82318 16.79727 16.76402 16.72382 16.68729 16.64854 16.59798 16.54107 16.48112 16.41305
0 0 0 0 0 0 0 0 0 20.54828 19.75908 17.95415 16.76344 16.09838 16.08329 16.07958 16.09339 16.1151 16.14623 16.17797 16.21444 16.25454 16.28587 16.31627 16.35432 16.39792 16.45077 16.49942 16.53501 16.54456 16.54883 16.54682 16.53395 16.53094 16.53026 16.53355 16.53985 16.54095 16.53902 16.53439 16.53596 16.53024 16.53128 16.53638 16.54821 16.55696 16.94721 0 18.20387 16.95492 16.58115 16.60411 16.63522 16.67102 16.70839 16.73651 16.76084 16.77446 16.78343 16.78566 16.78527 16.77999 16.77807 16.77209 16.76421 16.76207 16.75648 16.75443 16.75961 16.77088 16.78228 16.80363 16.82921 16.85816 16.89206 16.92275 16.95946 16.9947 17.01956 17.03562 17.04331 17.04949 17.05105 17.05184 17.05646 17.06074 17.06044 17.06137 17.05341 17.04237 17.02748 17.01203 16.9908 16.97188 16.95599 16.93594 16.92099 16.90042 16.87579 16.84808 16.81806 16.78013 16.73832 16.7025 16.65695 16.60296 16.5413 16.47707 16.40107
0 0 0 0 0 0 0 0 0 0 20.27638 18.78579 17.14279 16.40859 16.08267 16.07281 16.08279 16.10692 16.13294 16.16909 16.21126 16.25856 16.29556 16.33415 16.37824 16.43724 16.49899 16.55059 0 0 0 16.78348 16.56431 16.56012 16.55827 16.5583 16.55932 16.55356 16.54528 16.53958 16.52761 16.52598 16.52786 16.53864 16.55258 16.56425 16.58241 16.98168 16.60097 16.60308 16.62204 16.6521 16.68388 16.71489 16.74147 16.76487 16.7792 16.79131 16.79954 16.80301 16.80934 16.81369 16.81029 16.81163 16.80462 16.80357 16.80163 16.80141 16.80379 16.81383 16.82723 16.84441 16.8702 16.89978 16.93049 16.96109 16.99314 17.02174 17.0394 17.05667 17.0637 17.06818 17.07447 17.07772 17.08058 17.08595 17.08748 17.08651 17.08148 17.07714 17.06353 17.04861 17.03132 17.00947 16.99064 16.97186 16.95501 16.93318 16.90675 16.87832 16.84196 16.79995 16.75668 16.71395 16.66683 16.60741 16.54403 16.47273 16.39194
0 0 0 0 0 0 0 0 0 0 0 20.14598 18.76383 17.12436 16.40111 16.0813 16.07765 16.10381 16.12923 16.16376 16.2163 16.26833 16.31132 16.35443 16.40141 16.46718 16.88335 17.30192 0 0 0 17.4389 17.72351 16.5625 16.56036 16.56312 16.56533 16.5588 16.54899 16.53599 16.52269 16.51771 16.52617 16.54266 16.56343 16.58065 16.59779 16.61404 16.6253 16.63894 16.66458 16.697 16.7276 16.75444 16.77509 16.79159 16.801 16.8097 16.81641 16.8241 16.83196 16.83817 16.84193 16.8412 16.84311 16.84207 16.84288 16.84526 16.84886 16.86034 16.87408 16.89323 16.91836 16.94495 16.97485 17.00266 17.02713 17.05038 17.07191 17.08801 17.09338 17.09747 17.10096 17.1089 17.11237 17.11666 17.11638 17.1166 17.11385 17.10596 17.0927 17.07756 17.05921 17.04193 17.02165 17.00155 16.9818 16.96353 16.93683 16.90342 16.86683 16.82345 16.77441 16.73216 16.68408 16.62434 16.55482 16.47862 16.39622
0 0 0 0 0 0 0 0 0 0 0 0 20.30659 19.12164 17.10141 16.40123 16.06666 16.09334 16.12457 16.16758 16.22499 16.28148 16.32389 16.36735 16.4134 16.48031 17.26477 0 0 18.88043 18.96698 17.35977 16.57994 16.56165 16.55346 16.55412 16.55645 16.55527 16.54686 16.53726 16.52643 16.52214 16.52971 16.54884 16.57144 16.59392 16.61157 16.62909 16.64629 16.66802 16.69644 16.72849 16.7596 16.78527 16.80617 16.81945 16.83328 16.84087 16.84496 16.85335 16.86298 16.87161 16.87576 16.87556 16.87631 16.87974 16.88392 16.88492 16.89036 16.9022 16.91785 16.93554 16.95862 16.985 17.01502 17.04177 17.06492 17.08782 17.10311 17.1183 17.12411 17.12884 17.13243 17.13784 17.14404 17.14703 17.14757 17.14687 17.1433 17.13489 17.12105 17.10699 17.0898 17.07195 17.05333 17.0324 17.01094 16.98528 16.95781 16.92549 16.88825 16.84084 16.7934 16.75033 16.70098 16.64324 16.57158 16.49907 16.42261
0 0 0 0 0 0 0 0 0 0 0 0 0 0 0 17.07693 16.36619 16.08603 16.12735 16.17724 16.23714 16.29615 16.33843 16.37663 16.41508 16.82172 16.88891 17.30115 17.69929 19.88735 18.96811 17.33779 16.57023 16.5568 16.54284 16.54151 16.54906 16.55208 16.54787 16.54385 16.54157 16.53885 16.54322 16.5613 16.57947 16.60088 16.62045 16.64025 16.664 16.6928 16.72288 16.75506 16.78624 16.81306 16.83345 16.84928 16.86474 16.87249 16.87784 16.88429 16.89405 16.90026 16.90331 16.90609 16.91128 16.91695 16.92518 16.92903 16.93868 16.95259 16.9659 16.98299 17.00767 17.03403 17.06014 17.08585 17.10295 17.11724 17.13235 17.14782 17.15413 17.15953 17.16392 17.17112 17.17463 17.17698 17.17621 17.17347 17.16617 17.15642 17.14277 17.13284 17.1177 17.10002 17.08294 17.06355 17.0401 17.01265 16.98239 16.95067 16.91105 16.86913 16.8199 16.77736 16.73028 16.66805 16.60025 16.53075 16.45764
0 0 0 0 0 0 0 0 0 0 0 0 0 0 0 17.83391 17.06507 16.09435 16.14276 16.19741 16.25741 16.31897 16.36091 16.39299 16.42616 16.47082 17.25803 17.31313 17.72008 0 19.01679 16.58253 16.56302 16.54526 16.54668 16.53653 16.5472 16.5498 16.55015 16.55267 16.55459 16.55543 16.56097 16.57585 16.59119 16.60758 16.63124 16.65129 16.68402 16.71598 16.75411 16.78772 16.81588 16.84004 16.86132 16.87948 16.89011 16.8985 16.90271 16.91182 16.92036 16.92411 16.92947 16.93275 16.93906 16.94675 16.9563 16.96536 16.97417 16.98842 17.00497 17.02935 17.05734 17.08275 17.10628 17.12743 17.14244 17.15603 17.17029 17.18464 17.19533 17.2011 17.20695 17.20769 17.20987 17.2117 17.212 17.2017 17.19272 17.18147 17.17088 17.15609 17.13933 17.12227 17.10567 17.0863 17.06119 17.03725 17.00892 16.97884 16.94285 16.90139 16.85565 16.81547 16.76954 16.71578 16.65073 16.58254 16.51749
0 0 0 0 0 0 0 0 0 0 0 0 0 19.0761 18.6868 17.8476 17.10968 16.11601 16.16214 16.22244 16.28625 16.34808 16.38829 16.41864 16.44671 16.47967 17.64783 18.09819 18.54025 18.43403 19.41129 16.93135 16.54693 16.5371 16.53664 16.54651 16.55972 16.56557 16.56584 16.56566 16.56701 16.57446 16.57805 16.58907 16.6033 16.62058 16.64573 16.67441 16.70484 16.74371 16.77984 16.81308 16.83899 16.86067 16.88262 16.89957 16.91088 16.92211 16.93141 16.93859 16.94427 16.95174 16.95776 16.96467 16.96736 16.97395 16.98309 16.99443 17.00427 17.02418 17.0506 17.0732 17.0976 17.12103 17.14668 17.16452 17.18221 17.19264 17.20679 17.22533 17.23688 17.24133 17.24439 17.24559 17.24872 17.25174 17.2403 17.23056 17.21674 17.20462 17.19284 17.17949 17.16039 17.14449 17.12798 17.10818 17.08754 17.06774 17.04217 17.01001 16.97202 16.93169 16.88816 16.84631 16.80095 16.74973 16.69704 16.63775 16.57689
0 0 0 0 0 0 0 0 0 0 0 0 18.26757 17.86437 17.88185 17.49603 16.79043 16.15142 16.19611 16.25271 16.30911 16.36931 16.40654 16.43677 16.46327 16.49122 17.28089 17.3172 18.118 18.92161 17.3102 16.53286 16.53846 16.54716 16.56128 16.57756 16.58839 16.59015 16.59033 16.58384 16.58553 16.58955 16.59715 16.60777 16.62546 16.64691 16.67271 16.69953 16.73043 16.76468 16.79879 16.82901 16.85603 16.87861 16.89877 16.91624 16.93116 16.94767 16.95408 16.96194 16.97204 16.98259 16.98771 16.99234 16.99849 17.00575 17.01635 17.02817 17.04714 17.0685 17.09669 17.12457 17.15235 17.18113 17.20062 17.21722 17.22906 17.24149 17.25307 17.27 17.27989 17.27814 17.28233 17.28503 17.28837 17.29019 17.27684 17.25659 17.24472 17.23003 17.21436 17.20115 17.18604 17.17033 17.15245 17.13748 17.12168 17.10387 17.07988 17.04744 17.01193 16.97681 16.93402 16.89669 16.85157 16.80398 16.75253 16.69718 16.6418
0 0 0 0 0 0 0 0 20.06384 19.44999 18.26435 17.45447 17.45338 17.46044 17.11993 17.17764 16.86063 16.21812 16.25668 16.30525 16.35412 16.40743 16.44116 16.46815 16.49537 16.51756 16.5449 16.55362 16.55725 16.55475 16.54537 16.54624 16.55628 16.57214 16.58871 16.60428 16.60674 16.60532 16.59839 16.59588 16.59427 16.60074 16.6079 16.6235 16.64583 16.67255 16.70177 16.72906 16.75406 16.7806 16.80178 16.83391 16.8643 16.89072 16.91558 16.93728 16.95483 16.96989 16.97952 16.99109 17.00051 17.00758 17.01363 17.02025 17.02497 17.03286 17.04742 17.06675 17.08859 17.11721 17.14808 17.17876 17.20812 17.23556 17.25368 17.26631 17.27741 17.28908 17.30292 17.3152 17.31879 17.32402 17.32907 17.3276 17.32391 17.31783 17.30243 17.28814 17.27066 17.25644 17.23684 17.2236 17.20756 17.18953 17.17454 17.16274 17.14698 17.13131 17.11211 17.0849 17.05668 17.02025 16.98149 16.94452 16.9066 16.86768 16.8188 16.76605 16.71284
0 0 0 0 0 0 0 19.04923 19.12486 17.45866 17.07072 17.06308 17.07616 17.10551 17.15764 16.87973 16.24614 16.27876 16.31645 16.36256 16.40987 16.45857 16.48968 16.51047 16.52976 16.55257 16.56902 16.57914 16.58561 16.58822 16.58666 16.59131 16.59847 16.60134 16.60447 16.61229 16.61643 16.6113 16.60399 16.60013 16.59984 16.60724 16.62131 16.64229 16.66508 16.69165 16.71785 16.7424 16.76567 16.78554 16.80327 16.82967 16.85967 16.89135 16.92121 16.94678 16.97009 16.99089 17.00494 17.01438 17.02734 17.03685 17.0428 17.04979 17.05862 17.07369 17.09169 17.11416 17.13752 17.16876 17.20009 17.23287 17.25761 17.27908 17.29586 17.30994 17.31906 17.33091 17.33858 17.34943 17.35703 17.359 17.36039 17.36345 17.35856 17.35001 17.33213 17.3168 17.30129 17.28924 17.2698 17.25037 17.23224 17.21958 17.20532 17.19248 17.17823 17.16374 17.14793 17.12526 17.09651 17.06469 17.03001 16.99219 16.95443 16.91604 16.87439 16.82403 16.77067
0 0 0 0 0 0 19.56291 19.54018 17.46803 17.04754 17.03412 17.05263 17.10171 16.80964 16.54806 16.27437 16.29665 16.33073 16.37101 16.41211 16.45775 16.49611 16.52374 16.53998 16.55779 16.57391 16.5858 16.598 16.61116 16.62056 16.61955 16.62046 16.62194 16.62036 16.61794 16.61896 16.62017 16.61531 16.61234 16.61267 16.61755 16.63012 16.64281 16.66061 16.67863 16.69891 16.71781 16.74079 16.76369 16.78448 16.80743 16.83264 16.8612 16.888 16.92026 16.95019 16.97493 16.99664 17.01215 17.03212 17.04557 17.05801 17.06987 17.08116 17.09814 17.11799 17.14342 17.17091 17.19396 17.2249 17.25393 17.28206 17.30112 17.31985 17.33875 17.35255 17.36379 17.37191 17.38052 17.38686 17.39077 17.38874 17.38892 17.38877 17.38432 17.37507 17.3567 17.34015 17.32237 17.30719 17.29097 17.27246 17.25562 17.24611 17.23438 17.2294 17.21462 17.20017 17.17976 17.15947 17.13802 17.11239 17.08087 17.0501 17.0111 16.97576 16.93566 16.88861 16.83858
0 0 0 0 0 0 20.41991 18.72863 17.42892 17.02926 16.68848 16.74443 16.48627 16.23912 16.29872 16.34503 16.36797 16.39624 16.43095 16.4655 16.49924 16.53234 16.55306 16.5677 16.57961 16.59014 16.60143 16.61578 16.62635 16.63828 16.64033 16.64024 16.63892 16.63646 16.63229 16.62736 16.62256 16.6188 16.62093 16.6264 16.63487 16.64532 16.66022 16.67022 16.6802 16.69313 16.70841 16.7278 16.74805 16.77048 16.79239 16.82295 16.85653 16.88621 16.91511 16.9394 16.96949 16.99279 17.01659 17.03787 17.05441 17.07216 17.0907 17.11112 17.13466 17.15642 17.18407 17.21712 17.23978 17.26592 17.29277 17.31899 17.34023 17.36297 17.38418 17.40034 17.41567 17.42054 17.42471 17.42802 17.42449 17.42125 17.41505 17.40666 17.4007 17.39205 17.37614 17.35725 17.34626 17.32926 17.30958 17.29506 17.28181 17.27235 17.26895 17.26476 17.24715 17.2353 17.21089 17.19377 17.17506 17.14899 17.1226 17.0997 17.07012 17.03544 16.99771 16.95883 16.91323
0 0 0 0 0 20.49521 20.04204 18.69828 17.41923 17.04989 16.42005 16.16718 16.23949 16.30094 16.34707 16.38866 16.4177 16.4485 16.47897 16.51209 16.54116 16.56337 16.5759 16.58671 16.6013 16.61691 16.62588 16.63728 16.64519 16.65664 16.65649 16.65579 16.65561 16.64974 16.64277 16.63472 16.6282 16.62343 16.62484 16.63167 16.64631 16.65495 16.66234 16.66993 16.6791 16.69276 16.70598 16.72277 16.74142 16.76305 16.78553 16.81971 16.85446 16.89008 16.92159 16.9454 16.97492 16.99949 17.0263 17.04816 17.0698 17.09497 17.12009 17.14943 17.17369 17.19872 17.22856 17.2593 17.28441 17.30855 17.33119 17.35666 17.38039 17.40025 17.42149 17.43427 17.44396 17.44843 17.45294 17.45423 17.44857 17.44096 17.43133 17.41902 17.41132 17.39825 17.3822 17.37328 17.35995 17.343 17.32782 17.31451 17.3066 17.29513 17.29808 17.29647 17.28341 17.26856 17.25392 17.23302 17.2174 17.19313 17.16306 17.14651 17.12063 17.08877 17.05395 17.01801 16.97567
0 0 0 0 19.52755 19.14069 17.43128 17.03229 16.6961 16.10257 16.16102 16.22986 16.28437 16.3301 16.37087 16.41076 16.44271 16.47041 16.50376 16.53507 16.56033 16.58167 16.59381 16.60854 16.62027 16.63628 16.64596 16.65269 16.65746 16.66014 16.65899 16.66086 16.65972 16.65765 16.65425 16.64704 16.63951 16.63401 16.6318 16.63606 16.64449 16.65335 16.66271 16.6672 16.67504 16.68533 16.70024 16.72009 16.74165 16.76229 16.78727 16.82231 16.86085 16.89758 16.92829 16.95939 16.98878 17.01591 17.04117 17.06548 17.09233 17.12215 17.1517 17.1812 17.21123 17.2383 17.26094 17.29523 17.32327 17.34838 17.37503 17.39435 17.41546 17.4343 17.45458 17.46729 17.46958 17.47109 17.47116 17.47376 17.47061 17.46438 17.45129 17.4367 17.42342 17.4097 17.3945 17.37949 17.36891 17.35714 17.34286 17.33393 17.32548 17.32255 17.32175 17.31851 17.31042 17.303 17.29403 17.28297 17.26723 17.24906 17.23007 17.21582 17.18929 17.16262 17.13292 17.09399 17.05603
0 0 0 0 20.61376 17.86053 16.0883 16.08099 16.09957 16.15452 16.21839 16.27569 16.32852 16.36573 16.4 16.4397 16.47 16.49706 16.52552 16.55153 16.57566 16.59417 16.60716 16.62062 16.63534 16.64342 16.65474 16.66134 16.66689 16.66912 16.66494 16.6665 16.67007 16.66918 16.66125 16.65383 16.64536 16.6397 16.63502 16.63994 16.6479 16.65693 16.65971 16.66027 16.66474 16.67491 16.69119 16.71138 16.73553 16.76391 16.79099 16.82945 16.86643 16.90357 16.93739 16.97099 17.00225 17.02952 17.0574 17.08476 17.11256 17.14471 17.17785 17.20428 17.23273 17.26175 17.28746 17.32144 17.35196 17.38002 17.40662 17.42549 17.44192 17.45829 17.47442 17.48345 17.48786 17.48844 17.48731 17.49064 17.49448 17.48345 17.47475 17.45867 17.44277 17.42655 17.41008 17.39502 17.38322 17.376 17.36776 17.36267 17.35363 17.34593 17.34951 17.34333 17.33626 17.32737 17.32464 17.31976 17.31204 17.29978 17.28386 17.27383 17.25982 17.23567 17.20888 17.176 17.14232
0 0 0 19.68724 19.23753 17.46532 16.07834 16.08985 16.1392 16.20033 16.26471 16.3232 16.36313 16.39859 16.43803 16.46667 16.4942 16.52504 16.55148 16.5724 16.59181 16.60843 16.62162 16.62832 16.63629 16.64488 16.65886 16.66215 16.66427 16.66274 16.66417 16.66751 16.67338 16.67022 16.66232 16.65703 16.64999 16.64404 16.64146 16.64369 16.64695 16.64587 16.64794 16.65074 16.65403 16.66914 16.68797 16.70837 16.73205 16.76194 16.79476 16.83405 16.87104 16.9078 16.94423 16.97769 17.01325 17.04269 17.07243 17.10378 17.13276 17.16361 17.19755 17.22505 17.25215 17.27915 17.31013 17.3357 17.37052 17.40035 17.43006 17.44856 17.45895 17.47588 17.48706 17.49634 17.49995 17.49795 17.49442 17.49778 17.49506 17.49432 17.48093 17.46644 17.45185 17.44352 17.42435 17.4094 17.40989 17.40146 17.39784 17.39925 17.39215 17.38878 17.38212 17.3733 17.36568 17.36315 17.35855 17.35392 17.35075 17.33928 17.32765 17.31812 17.31121 17.29406 17.27214 17.24554 17.21431
0 0 0 19.66699 19.23068 17.46782 16.71011 16.10787 16.1702 16.24334 16.30806 16.35704 16.38757 16.4234 16.45399 16.48419 16.51247 16.53926 16.56225 16.58181 16.60021 16.61265 16.6241 16.62945 16.62532 16.63173 16.6403 16.64564 16.64675 16.64867 16.65598 16.66092 16.66782 16.66946 16.66382 16.65525 16.64848 16.64404 16.64202 16.6368 16.63672 16.6352 16.63719 16.64159 16.64811 16.66647 16.68529 16.70989 16.73693 16.76657 16.79749 16.83798 16.87703 16.91379 16.9506 16.98995 17.026 17.05877 17.08904 17.11934 17.15135 17.18129 17.21285 17.24503 17.2703 17.29729 17.3266 17.35834 17.38121 17.41293 17.44078 17.46397 17.48034 17.49339 17.49943 17.50484 17.50587 17.50798 17.50494 17.50349 17.50038 17.4974 17.48802 17.47675 17.46932 17.45643 17.44775 17.4404 17.43295 17.42772 17.4334 17.43448 17.428 17.42278 17.4158 17.4084 17.4 17.40347 17.40135 17.39285 17.38981 17.38311 17.37817 17.37423 17.36854 17.35839 17.34154 17.31754 17.28983
0 0 0 20.54035 19.49716 17.45055 16.38975 16.12944 16.20227 16.27697 16.34046 16.37802 16.40661 16.44341 16.47388 16.50249 16.52285 16.54377 16.56442 16.5811 16.59602 16.60772 16.61404 16.61908 16.61794 16.61983 16.63037 16.633 16.63793 16.64429 16.64785 16.65978 16.66441 16.67061 16.66163 16.65459 16.64957 16.64385 16.63719 16.63428 16.62994 16.6282 16.63038 16.63524 16.64333 16.66151 16.68607 16.71378 16.74047 16.77197 16.80797 16.85345 16.8882 16.92315 16.96051 16.99979 17.03777 17.07418 17.10403 17.1372 17.17078 17.203 17.22904 17.26146 17.28389 17.31564 17.33921 17.3666 17.38584 17.41427 17.44501 17.47046 17.48755 17.49351 17.49763 17.50464 17.50405 17.50124 17.50103 17.50412 17.49876 17.49653 17.49371 17.49003 17.48394 17.47645 17.47046 17.46544 17.45845 17.45096 17.45958 17.46347 17.45678 17.45451 17.44882 17.44004 17.43383 17.43729 17.44116 17.4362 17.43005 17.42497 17.41995 17.42237 17.41542 17.4059 17.39249 17.37711 17.36049
0 0 0 20.53672 18.19644 16.67709 16.09553 16.15875 16.2344 16.302 16.35246 16.39329 16.42569 16.46283 16.49135 16.51649 16.53448 16.55099 16.56699 16.57386 16.58264 16.59265 16.59983 16.59716 16.59873 16.60439 16.6132 16.62157 16.62485 16.63437 16.64135 16.6527 16.66213 16.66908 16.66426 16.65791 16.65569 16.65072 16.64495 16.64237 16.63893 16.64149 16.64746 16.65414 16.6649 16.68081 16.70443 16.73209 16.76523 16.7983 16.83362 16.87052 16.90377 16.93956 16.97575 17.01005 17.0542 17.09018 17.1228 17.15304 17.18546 17.21909 17.24806 17.27455 17.30567 17.32126 17.3423 17.36672 17.38926 17.4154 17.43837 17.46245 17.47709 17.48419 17.49004 17.49236 17.49841 17.4939 17.49157 17.49708 17.49442 17.49438 17.48893 17.49077 17.4941 17.49474 17.49316 17.48803 17.4759 17.47435 17.48141 17.48505 17.48705 17.48144 17.48142 17.47445 17.46892 17.47251 17.47563 17.47425 17.46791 17.46358 17.45723 17.45689 17.45034 17.44253 17.43032 17.41592 17.39528
16.04171 16.0431 17.36679 18.14953 16.31332 16.04559 16.11795 16.19791 16.26831 16.32983 16.37404 16.41165 16.44378 16.47316 16.4993 16.51584 16.53617 16.5513 16.55897 16.55756 16.56087 16.56786 16.57062 16.56804 16.57514 16.5858 16.59586 16.60638 16.62036 16.63295 16.64342 16.6539 16.66149 16.66813 16.66776 16.6643 16.663 16.65927 16.65369 16.65409 16.65838 16.66565 16.67334 16.68108 16.69061 16.71144 16.73603 16.76065 16.79687 16.82969 16.8616 16.89662 16.93578 16.96779 16.9959 17.03334 17.07417 17.10865 17.13868 17.17004 17.19796 17.22819 17.2598 17.28837 17.31543 17.3286 17.35078 17.37305 17.392 17.41077 17.43066 17.44863 17.4602 17.47176 17.48303 17.4909 17.49406 17.49364 17.49071 17.49176 17.49354 17.49086 17.4898 17.49258 17.49674 17.49482 17.5003 17.49814 17.49374 17.49735 17.50007 17.50673 17.50845 17.5084 17.50923 17.50791 17.50977 17.5097 17.51534 17.5152 17.51311 17.50988 17.50667 17.49907 17.49264 17.48627 17.4695 17.45588 17.43917
16.0456 16.03782 16.04588 16.06401 16.09228 16.13675 16.199 16.26419 16.3227 16.37175 16.40639 16.43571 16.46186 16.4836 16.50238 16.51751 16.53228 16.54121 16.53929 16.53482 16.53064 16.53671 16.5427 16.54459 16.55103 16.56575 16.57896 16.59535 16.61113 16.62632 16.64097 16.65363 16.66284 16.66608 16.6691 16.67291 16.67196 16.6715 16.67461 16.67966 16.68728 16.69847 16.71108 16.71853 16.73413 16.75004 16.77438 16.79603 16.82703 16.86149 16.89623 16.93533 16.96837 17.00127 17.03084 17.06361 17.10297 17.13054 17.15453 17.1815 17.21329 17.24275 17.27081 17.29417 17.31418 17.33792 17.36109 17.37313 17.38823 17.40818 17.42748 17.44167 17.44824 17.46653 17.47749 17.48025 17.48199 17.48039 17.4835 17.48296 17.48578 17.48832 17.49613 17.50143 17.50325 17.50727 17.51223 17.50545 17.51153 17.5168 17.52142 17.52649 17.53288 17.53694 17.53608 17.5387 17.53832 17.53572 17.53916 17.53946 17.5429 17.5464 17.54069 17.53631 17.53649 17.52797 17.51298 17.49985 17.48993
16.13006 16.14543 16.16405 16.18504 16.2171 16.24838 16.29411 16.33572 16.37243 16.4088 16.43552 16.45282 16.46979 16.48776 16.50126 16.51117 16.52317 16.52484 16.51853 16.5112 16.50286 16.50044 16.5121 16.52121 16.53636 16.55604 16.57821 16.60009 16.61949 16.6327 16.64404 16.65501 16.66736 16.67406 16.67774 16.67893 16.68452 16.68847 16.69812 16.71066 16.7224 16.73296 16.74571 16.76035 16.77681 16.79568 16.81407 16.83925 16.87104 16.90199 16.93407 16.97115 17.00433 17.03227 17.07083 17.10618 17.14108 17.17075 17.19696 17.22083 17.24219 17.2677 17.29057 17.30956 17.3242 17.34663 17.36422 17.38183 17.38611 17.40336 17.4212 17.43511 17.44484 17.46071 17.46783 17.4718 17.47172 17.47318 17.47985 17.47864 17.47979 17.48137 17.49919 17.50532 17.50513 17.515 17.52542 17.538 17.5494 17.55306 17.56089 17.5693 17.57299 17.5713 17.57514 17.57412 17.5743 17.57825 17.58099 17.58678 17.59012 17.58738 17.58082 17.57836 17.57418 17.56428 17.54985 17.53824 17.53051
16.20961 16.22957 16.25328 16.28027 16.30357 16.32739 16.3516 16.37423 16.39961 16.4165 16.43182 16.44627 16.46144 16.47231 16.48529 16.49795 16.5034 16.50758 16.50133 16.49442 16.47984 16.47685 16.49192 16.50715 16.52503 16.55126 16.57432 16.60246 16.61434 16.6357 16.64804 16.66393 16.67717 16.69229 16.69417 16.7001 16.71021 16.71931 16.72977 16.73996 16.75376 16.76522 16.78535 16.8047 16.82284 16.84068 16.85574 16.87832 16.91001 16.943 16.97329 17.00762 17.04639 17.07774 17.10743 17.13767 17.16883 17.19902 17.22585 17.25605 17.27838 17.30042 17.32389 17.33225 17.34382 17.35845 17.37242 17.38295 17.39693 17.41326 17.42477 17.4373 17.44883 17.46107 17.46624 17.47528 17.47509 17.47613 17.47264 17.47275 17.47608 17.47749 17.48373 17.49704 17.51312 17.53292 17.54953 17.56915 17.58032 17.59115 17.60529 17.61122 17.61954 17.62164 17.62399 17.62524 17.63151 17.64046 17.64781 17.66214 17.66844 17.6607 17.64765 17.63805 17.62966 17.62169 17.61154 17.60322 17.59405
16.28929 16.30905 16.32582 16.33788 16.34757 16.36063 16.3717 16.38136 16.40046 16.41059 16.42084 16.42977 16.44277 16.45754 16.46947 16.48567 16.49448 16.5028 16.49695 16.4905 16.47739 16.47739 16.49287 16.51177 16.53386 16.56009 16.58716 16.61231 16.62536 16.64418 16.65951 16.68015 16.69387 16.71064 16.72587 16.73957 16.75095 16.75938 16.76325 16.77047 16.78472 16.80179 16.82311 16.84104 16.86025 16.87852 16.89609 16.91803 16.9481 16.9753 17.00561 17.03967 17.0706 17.1074 17.14031 17.17302 17.19971 17.22219 17.24639 17.27415 17.30097 17.33124 17.35287 17.36503 17.37148 17.39004 17.39801 17.40518 17.4165 17.43044 17.4443 17.45746 17.46347 17.47184 17.47548 17.48063 17.48125 17.48059 17.48271 17.4854 17.49798 17.51103 17.52166 17.52995 17.5456 17.57198 17.60702 17.63009 17.65126 17.66391 17.66707 17.67912 17.68612 17.69039 17.68789 17.68489 17.68524 17.69861 17.72142 17.7444 17.75817 17.7508 17.73761 17.72586 17.72477 17.72017 17.71002 17.6967 17.68656
16.33344 16.34217 16.34584 16.34904 16.3549 16.35228 16.35539 16.36639 16.38038 16.39537 16.40612 16.41553 16.42682 16.44053 16.4574 16.47391 16.48814 16.49487 16.49696 16.49156 16.48475 16.48628 16.50131 16.52459 16.54769 16.57145 16.59931 16.62747 16.64696 16.66659 16.68613 16.70878 16.72634 16.74791 16.7679 16.78142 16.79035 16.79808 16.8052 16.81558 16.83285 16.85085 16.87293 16.89185 16.91025 16.9325 16.95619 16.98175 17.00769 17.03171 17.0661 17.09839 17.13614 17.17 17.20494 17.2394 17.26098 17.28882 17.31183 17.33205 17.36122 17.38134 17.39586 17.40625 17.41432 17.4256 17.43167 17.43866 17.44723 17.45679 17.47159 17.48029 17.48851 17.49265 17.48782 17.49122 17.49135 17.49336 17.50053 17.51028 17.53097 17.54678 17.56853 17.58889 17.6126 17.64886 17.68175 17.71256 17.73699 17.75513 17.76484 17.77276 17.77649 17.77308 17.76438 17.7562 17.75764 17.76559 17.78861 17.81054 17.82362 17.82221 17.81619 17.81012 17.80548 17.80058 17.79349 17.78177 17.77154
16.3329 16.3362 16.33571 16.33108 16.33316 16.33693 16.33963 16.34673 16.35718 16.37233 16.38569 16.3967 16.41241 16.43157 16.45032 16.47276 16.48441 16.49687 16.49828 16.49842 16.49998 16.50376 16.52396 16.54616 16.57314 16.5996 16.62813 16.65511 16.68484 16.70785 16.72971 16.75329 16.77721 16.79826 16.81711 16.83072 16.8431 16.85083 16.85777 16.86915 16.88943 16.91024 16.93318 16.95418 16.97433 16.9977 17.02685 17.05726 17.08225 17.10812 17.14442 17.18036 17.215 17.24826 17.2818 17.3108 17.32386 17.34961 17.37702 17.40066 17.43523 17.44951 17.46853 17.47807 17.48712 17.49099 17.49501 17.5005 17.50749 17.51984 17.53016 17.53521 17.54072 17.53763 17.53149 17.52858 17.52825 17.53022 17.54285 17.55641 17.57623 17.59723 17.62202 17.6454 17.67832 17.7106 17.74824 17.77517 0 0 17.82835 17.85375 17.8461 17.84139 17.83248 17.82487 17.8269 17.83618 17.83601 0 0 17.83713 17.88649 17.88471 17.88166 17.88076 17.88855 17.88744 17.87426
